sanky1234/BimanualDexCatch/isaacgymenvs/cem_results/football_pose_0.0_-0.1_1.2999999999999998_0.0_0.0_0_2025-05-26.csv
x,y,z,roll,pitch,yaw,robot1/joint1,robot1/joint2,robot1/joint3,robot1/joint4,robot1/joint5,robot1/joint6,robot1/joint7,robot2/joint1,robot2/joint2,robot2/joint3,robot2/joint4,robot2/joint5,robot2/joint6,robot2/joint7
0.0,-0.1,1.2999999999999998,0.0,0.0,0,0.11930881,-1.522894,0.15387714,-0.27928272,-0.11184762,1.2321459,0.903524,-0.19009468,-0.64874214,0.12337742,0.1441761,-0.17542486,1.0240246,-0.63106745
0.0,-0.1,1.2999999999999998,0.0,0.0,0,0.119793504,-1.522949,0.15964916,-0.278354,0.34632453,1.191152,0.19970304,-0.191166,-0.6485774,0.1261743,0.15032214,-0.05426768,1.0992231,-0.59384036
0.0,-0.1,1.2999999999999998,0.0,0.0,0,0.11827018,-1.5228109,0.15432817,-0.2815813,-0.20895721,1.2310617,0.8231348,-0.18940458,-0.64832634,0.121023506,0.15504476,-0.093241796,0.8838753,-0.43922856
0.0,-0.1,1.2999999999999998,0.0,0.0,0,0.12743826,-1.522205,0.16128252,-0.2757542,-0.05497201,1.2428986,-0.4286987,-0.1910839,-0.6486192,0.121311985,0.14899173,-0.002556935,1.0500189,0.17186333
0.0,-0.1,1.2999999999999998,0.0,0.0,0,0.10880847,-1.5232388,0.15897784,-0.27874804,-0.06406759,1.226712,0.53600866,-0.19276683,-0.6483965,0.12079637,0.1375036,-0.16340101,1.0045929,0.6007772
0.0,-0.1,1.2999999999999998,0.0,0.0,0,0.11122491,-1.5221571,0.15931049,-0.2799167,-0.18965042,1.2800009,0.11586327,-0.19200185,-0.648226,0.117764406,0.16406803,-0.02336122,1.1017108,-0.4170833
0.0,-0.1,1.2999999999999998,0.0,0.0,0,0.11926735,-1.5224558,0.16022675,-0.2790712,-0.0979989,1.2690939,-0.7309522,-0.18753965,-0.6486952,0.12543449,0.15398146,-0.01574916,1.1089398,-0.30547178
0.0,-0.1,1.2999999999999998,0.0,0.0,0,0.11813088,-1.5230803,0.15821671,-0.27821082,0.17332521,1.1450115,-0.5944453,-0.19402446,-0.6480345,0.121555425,0.13679466,0.14456022,1.0917227,-0.5500846
0.0,-0.1,1.2999999999999998,0.0,0.0,0,0.1113954,-1.5225402,0.16011755,-0.2794742,0.4470574,1.1167116,-1.3867133,-0.19487488,-0.6485712,0.118543446,0.15566827,-0.024826135,0.9071089,-0.5930927
0.0,-0.1,1.2999999999999998,0.0,0.0,0,0.10668132,-1.5235063,0.16072161,-0.27911803,0.22222498,1.2179513,-1.1263661,-0.19409506,-0.64870745,0.123575434,0.15443349,0.27883556,0.9357154,-1.2073578
0.0,-0.1,1.2999999999999998,0.0,0.0,0,0.10994047,-1.5230712,0.16334082,-0.27995923,0.103804335,1.2149112,-0.6096473,-0.19117863,-0.64847,0.12147275,0.1620165,0.04457564,0.8204088,1.3864713
0.0,-0.1,1.2999999999999998,0.0,0.0,0,0.11057561,-1.5228193,0.16035137,-0.27860528,0.06760819,1.1744281,0.5637559,-0.19265226,-0.64846957,0.121614814,0.14411871,-0.13615923,1.0935562,1.0887371
0.0,-0.1,1.2999999999999998,0.0,0.0,0,0.110019244,-1.5226272,0.15858416,-0.27961528,-0.19400758,1.2974733,-0.3817649,-0.19333225,-0.6486691,0.1180174,0.15362658,-0.05868148,0.8473147,-0.8929134
0.0,-0.1,1.2999999999999998,0.0,0.0,0,0.11270092,-1.5228568,0.16097662,-0.27908126,-0.11072694,1.2204742,-0.22559991,-0.1904505,-0.64879733,0.12460348,0.13764502,-0.018848386,0.9635987,0.30933127
0.0,-0.1,1.2999999999999998,0.0,0.0,0,0.11151545,-1.5227053,0.16075931,-0.28224835,0.22364232,1.168282,0.96631336,-0.19337906,-0.64854467,0.12728016,0.13744055,-0.15296109,1.0275508,-0.35737944
0.0,-0.1,1.2999999999999998,0.0,0.0,0,0.114101976,-1.522826,0.15685987,-0.27918968,0.21274218,1.2505971,0.5466494,-0.1906482,-0.6486636,0.12150168,0.14818434,0.04016774,1.0239652,0.35131955
0.0,-0.1,1.2999999999999998,0.0,0.0,0,0.12180336,-1.5231187,0.16178122,-0.28034964,0.032345712,1.1354738,0.35281932,-0.19235018,-0.64771616,0.12452527,0.15521179,0.079766,1.102929,-1.1378181
0.0,-0.1,1.2999999999999998,0.0,0.0,0,0.11722441,-1.5227623,0.16324432,-0.2798539,-0.24242833,1.2394689,-1.2107881,-0.19304374,-0.64866453,0.12772144,0.14878745,0.15907826,0.9652584,-0.5589953
0.0,-0.1,1.2999999999999998,0.0,0.0,0,0.12380729,-1.5227658,0.15733393,-0.2797627,0.03687417,1.1545193,0.071420565,-0.19489218,-0.6486566,0.12408455,0.16443557,-0.013395227,0.8155179,-0.18774988
0.0,-0.1,1.2999999999999998,0.0,0.0,0,0.111859664,-1.523173,0.15627939,-0.28017575,0.35593423,1.3628387,-0.50683993,-0.1912617,-0.64806163,0.11860361,0.16412714,-0.13333735,1.067839,-0.22616471
0.0,-0.1,1.2999999999999998,0.0,0.0,0,0.10629976,-1.5227321,0.16331762,-0.27901608,0.09638509,1.2746521,0.14623676,-0.19048645,-0.6483938,0.11739221,0.14752549,-0.036231402,0.9422032,0.33737922
0.0,-0.1,1.2999999999999998,0.0,0.0,0,0.10730873,-1.5221678,0.16167213,-0.2800646,-0.041565116,1.2426428,-0.71682817,-0.19246386,-0.64855283,0.119665585,0.13858865,-0.028322786,1.0732713,0.79816145
0.0,-0.1,1.2999999999999998,0.0,0.0,0,0.11612986,-1.5227355,0.16160373,-0.2794992,-0.02516784,1.2305806,0.07261099,-0.19271557,-0.64847726,0.12229364,0.16580531,-0.114396155,0.86689824,0.4996744
0.0,-0.1,1.2999999999999998,0.0,0.0,0,0.10948356,-1.5238755,0.16059564,-0.2799963,0.41010302,1.2946558,1.0580878,-0.18909281,-0.64868546,0.12878415,0.14770263,-0.055592444,0.97355616,-0.35857242
0.0,-0.1,1.2999999999999998,0.0,0.0,0,0.107456855,-1.5239098,0.15819156,-0.28132105,-0.47006312,1.1435804,0.78926337,-0.19355416,-0.6486711,0.12646222,0.1842029,-0.036500826,1.1103461,-0.3190707
0.0,-0.1,1.2999999999999998,0.0,0.0,0,0.10308161,-1.5229261,0.15936632,-0.27908432,0.28254208,1.1934725,0.40043846,-0.19206336,-0.6487292,0.115995936,0.1196833,-0.08095544,0.9699784,-0.8017668
0.0,-0.1,1.2999999999999998,0.0,0.0,0,0.11647905,-1.5226991,0.15650222,-0.27774385,0.03817853,1.2801107,-0.26968443,-0.19181274,-0.64876604,0.11543857,0.15556349,-0.09884014,0.8453319,0.16140069
0.0,-0.1,1.2999999999999998,0.0,0.0,0,0.11804704,-1.5216433,0.16086665,-0.27691197,0.20572951,1.2466875,0.43362722,-0.19465666,-0.6487315,0.11585236,0.16278121,0.065336294,0.9966405,0.69402635
0.0,-0.1,1.2999999999999998,0.0,0.0,0,0.10916743,-1.5239882,0.15772556,-0.28054056,-0.11016863,1.2000562,1.415028,-0.19228728,-0.64818716,0.12041304,0.14535673,-0.19678359,0.8804987,-1.2343576
0.0,-0.1,1.2999999999999998,0.0,0.0,0,0.11876393,-1.5236104,0.15603717,-0.27840927,0.18178043,1.2339363,1.0484798,-0.18944173,-0.6482875,0.11785306,0.14562249,-0.058883667,0.83552814,2.3274572
0.0,-0.1,1.2999999999999998,0.0,0.0,0,0.11899025,-1.5233191,0.16132262,-0.27821967,-0.2349781,1.2492915,0.3595559,-0.19254479,-0.6483571,0.12176408,0.16193016,-0.14293733,0.89101267,-0.044827677
0.0,-0.1,1.2999999999999998,0.0,0.0,0,0.114666685,-1.5234461,0.16013943,-0.2789464,0.15516168,1.0921941,0.4674357,-0.19171357,-0.6487082,0.12504084,0.15147595,0.27445558,1.0834855,-0.20400384
0.0,-0.1,1.2999999999999998,0.0,0.0,0,0.106474385,-1.5235813,0.15815526,-0.27959564,-0.15781544,1.2170178,0.968228,-0.1902078,-0.6489452,0.12090781,0.1553618,0.0033150727,0.8802921,-0.15082179
0.0,-0.1,1.2999999999999998,0.0,0.0,0,0.10677833,-1.5223291,0.16034496,-0.28091902,-0.09948238,1.1819047,0.23315808,-0.19061355,-0.6481683,0.11514574,0.15964474,0.12457274,1.0740082,0.6500958
0.0,-0.1,1.2999999999999998,0.0,0.0,0,0.119886436,-1.522049,0.15677115,-0.2813052,-0.18884803,1.1936715,0.7904858,-0.19190243,-0.6486164,0.1229412,0.1415263,-0.015997417,1.0326569,-0.10443894
0.0,-0.1,1.2999999999999998,0.0,0.0,0,0.110759355,-1.523795,0.15676439,-0.27657646,0.25783044,1.201211,0.2980137,-0.19390914,-0.6487552,0.117292725,0.13521531,-0.09368929,0.88854074,-0.9462836
0.0,-0.1,1.2999999999999998,0.0,0.0,0,0.12047179,-1.5229431,0.16659012,-0.27686113,-0.22773622,1.3285624,0.89145976,-0.1880685,-0.64874786,0.12474745,0.14474475,-0.069349155,0.9958772,-0.49201247
0.0,-0.1,1.2999999999999998,0.0,0.0,0,0.11283515,-1.5221622,0.16610189,-0.27811664,0.07457401,1.1268364,0.08655646,-0.1930662,-0.64864326,0.12162999,0.15058246,-0.07279835,1.1025707,-1.2084697
0.0,-0.1,1.2999999999999998,0.0,0.0,0,0.11658663,-1.5235586,0.1605351,-0.2744731,-0.24102388,1.1781867,-0.19267477,-0.19030344,-0.6486472,0.118101954,0.16488495,-0.14708021,1.1187775,1.2081263
0.0,-0.1,1.2999999999999998,0.0,0.0,0,0.10592804,-1.5236404,0.15819617,-0.27984127,0.12258829,1.269078,0.70206803,-0.19040205,-0.64829123,0.11790626,0.15818194,0.02560121,1.0133468,0.20978105
0.0,-0.1,1.2999999999999998,0.0,0.0,0,0.115532674,-1.5229541,0.16007452,-0.28193104,-0.105259456,1.219399,-0.10500302,-0.19498788,-0.6487363,0.12690301,0.14641656,-0.108170405,0.86065805,0.24198066
0.0,-0.1,1.2999999999999998,0.0,0.0,0,0.11705963,-1.5237637,0.1521964,-0.27844632,-0.073006235,1.3098663,0.78215164,-0.18992883,-0.6483729,0.11702491,0.16474807,-0.21318448,0.9887868,0.42450264
0.0,-0.1,1.2999999999999998,0.0,0.0,0,0.11058279,-1.523814,0.15990162,-0.2800465,0.03651012,1.0778316,1.9253595,-0.1878981,-0.64830166,0.12130159,0.15498795,-0.09355762,1.1430619,0.8914657
0.0,-0.1,1.2999999999999998,0.0,0.0,0,0.11293996,-1.5229056,0.15679,-0.2800822,-0.019858005,1.1772033,0.46242902,-0.18644412,-0.64911026,0.12085006,0.16630113,-0.03421447,0.957165,-0.19491497
0.0,-0.1,1.2999999999999998,0.0,0.0,0,0.12547837,-1.5236652,0.16031204,-0.2802266,-0.032435782,1.1876204,0.3506805,-0.19089542,-0.6484254,0.13213839,0.14409102,-0.10689484,0.89326686,1.4010755
0.0,-0.1,1.2999999999999998,0.0,0.0,0,0.12305609,-1.5227611,0.15962987,-0.27898806,0.13505954,1.2323958,0.015877584,-0.19152303,-0.6486162,0.12373486,0.14877121,-0.1402409,0.9981963,0.31558782
0.0,-0.1,1.2999999999999998,0.0,0.0,0,0.11444663,-1.5224801,0.16188227,-0.28105918,-0.00948615,1.0845683,0.20960306,-0.1938036,-0.648523,0.122079186,0.1331213,0.14834714,0.979202,0.27345
0.0,-0.1,1.2999999999999998,0.0,0.0,0,0.10713449,-1.5238137,0.16290696,-0.27949634,-0.29636362,1.2655916,0.4256212,-0.19336662,-0.64880455,0.12481312,0.13000166,-0.07749531,0.94613016,0.18382065
0.0,-0.1,1.2999999999999998,0.0,0.0,0,0.119729586,-1.5227404,0.16053222,-0.28019992,-0.028292358,1.1469448,-1.2620561,-0.19274335,-0.648412,0.123841286,0.16306403,0.078836195,1.064271,-0.7582566
0.0,-0.1,1.2999999999999998,0.0,0.0,0,0.112817675,-1.521789,0.15710029,-0.28027114,-0.08715323,1.2483364,0.32580748,-0.19241033,-0.64893264,0.11719226,0.14018273,0.057457894,1.0899224,0.37347776
0.0,-0.1,1.2999999999999998,0.0,0.0,0,0.11471634,-1.5233299,0.15611333,-0.27942502,0.104283325,1.1981933,0.17395437,-0.1902821,-0.64801675,0.11692358,0.13301061,-0.081440166,1.0923831,-0.12623443
0.0,-0.1,1.2999999999999998,0.0,0.0,0,0.11855024,-1.522889,0.158407,-0.27854067,0.16672386,1.2053658,0.9902653,-0.19471563,-0.6486441,0.11895606,0.16455846,0.090447254,0.8379348,-1.15635
0.0,-0.1,1.2999999999999998,0.0,0.0,0,0.1098295,-1.5241879,0.16233553,-0.27897748,0.0504383,1.1219124,-1.373197,-0.19042213,-0.6485741,0.12045171,0.17035498,0.045028117,0.83970743,1.0049971
0.0,-0.1,1.2999999999999998,0.0,0.0,0,0.10741359,-1.5227643,0.15555559,-0.27802682,0.05966321,1.2452708,0.92338806,-0.19357823,-0.6488322,0.110237665,0.16475432,-0.05241157,0.9138493,-0.94722515
0.0,-0.1,1.2999999999999998,0.0,0.0,0,0.12188861,-1.523193,0.16123106,-0.27651986,0.48115575,1.237226,-1.1944542,-0.19373584,-0.64830095,0.1179327,0.155452,-0.098155215,0.9743076,0.031433538
0.0,-0.1,1.2999999999999998,0.0,0.0,0,0.121685244,-1.5223136,0.16275735,-0.27911988,-0.033994414,1.2611504,-0.08650517,-0.18945962,-0.6480056,0.1169278,0.15388666,-0.13928236,1.001286,-0.5821588
0.0,-0.1,1.2999999999999998,0.0,0.0,0,0.13049532,-1.5222852,0.15844133,-0.28095174,-0.013494737,1.2205353,0.040260345,-0.19097455,-0.6484329,0.1249759,0.16804641,-0.0479109,0.93007356,-0.44422302
0.0,-0.1,1.2999999999999998,0.0,0.0,0,0.113410026,-1.5225996,0.16231833,-0.27959728,-0.20304462,1.2105877,-0.79804444,-0.19184104,-0.64875245,0.11973422,0.15875895,-0.14836515,0.897661,-0.7535496
0.0,-0.1,1.2999999999999998,0.0,0.0,0,0.11836827,-1.5231792,0.15829127,-0.27892238,-0.12513246,1.2624283,0.35270962,-0.18992099,-0.6484789,0.121748365,0.12683155,-0.030643012,1.0800015,-0.6596979
0.0,-0.1,1.2999999999999998,0.0,0.0,0,0.109531574,-1.523606,0.15775608,-0.27916366,-0.018665275,1.2105979,-0.33678588,-0.19376315,-0.6485692,0.11734806,0.16761932,-0.013549044,0.8348948,0.31112492
0.0,-0.1,1.2999999999999998,0.0,0.0,0,0.12418344,-1.5236211,0.15343796,-0.27929443,0.21659058,1.2669833,0.001829673,-0.19116534,-0.6486379,0.12203824,0.14742364,-0.251393,0.95441955,-0.42047697
0.0,-0.1,1.2999999999999998,0.0,0.0,0,0.1250432,-1.5223116,0.16270865,-0.2795982,-0.044167906,1.1940768,-0.43911296,-0.19082421,-0.64842814,0.12178682,0.1459194,-0.05106377,0.9458267,0.040526222
0.0,-0.1,1.2999999999999998,0.0,0.0,0,0.101183586,-1.524123,0.15832898,-0.28076607,0.20602025,1.2394683,0.085227415,-0.19405393,-0.6484824,0.118666396,0.14642844,-0.14035083,0.9424305,1.3823351
0.0,-0.1,1.2999999999999998,0.0,0.0,0,0.118197516,-1.5233061,0.15964513,-0.28009808,-0.024887651,1.0845942,-0.6863201,-0.18922661,-0.64853144,0.121137306,0.15377001,0.021267468,0.9408156,-0.30731025
0.0,-0.1,1.2999999999999998,0.0,0.0,0,0.12515672,-1.5224214,0.16190737,-0.27851793,-0.18291979,1.1506037,0.29677778,-0.19029067,-0.64846236,0.12027834,0.13635185,-0.022284688,0.99593943,0.25627273
0.0,-0.1,1.2999999999999998,0.0,0.0,0,0.12050147,-1.5233632,0.16585669,-0.27843648,0.012100554,1.2640516,-0.2616271,-0.1950514,-0.6483749,0.124072574,0.15589802,0.042429406,0.88106453,-0.74027616
0.0,-0.1,1.2999999999999998,0.0,0.0,0,0.09900387,-1.524092,0.15801492,-0.27790496,-0.28497934,1.1935122,0.73260933,-0.19024862,-0.64880997,0.11224732,0.1608116,-0.13573809,1.0183296,0.01962248
0.0,-0.1,1.2999999999999998,0.0,0.0,0,0.10299638,-1.5236517,0.15703616,-0.28108487,0.089749664,1.2735852,1.5075378,-0.19294225,-0.6486499,0.11737419,0.14019884,0.10573458,0.903564,0.26557994
0.0,-0.1,1.2999999999999998,0.0,0.0,0,0.12037319,-1.5233191,0.15813382,-0.27787945,-0.048169054,1.1692326,-0.056973316,-0.19104186,-0.64895576,0.12427291,0.1440006,0.104235485,1.0524943,0.3193619
0.0,-0.1,1.2999999999999998,0.0,0.0,0,0.11719775,-1.5229008,0.1670072,-0.28059438,0.2360158,1.1770232,-0.7513281,-0.19353382,-0.648187,0.12177602,0.1311091,0.034443557,0.8740252,0.0035815467
0.0,-0.1,1.2999999999999998,0.0,0.0,0,0.10635124,-1.5232999,0.16134992,-0.27903333,-0.12933742,1.2161676,0.40617102,-0.19043423,-0.64871234,0.118252106,0.13362832,0.00570882,0.9925547,0.5419018
0.0,-0.1,1.2999999999999998,0.0,0.0,0,0.11523114,-1.5232245,0.15549167,-0.27887094,-0.015151458,1.1996851,0.8454962,-0.19244431,-0.6485511,0.116367556,0.16340357,-0.05820892,0.9228434,0.17114821
0.0,-0.1,1.2999999999999998,0.0,0.0,0,0.11376542,-1.522435,0.16111322,-0.2793553,-0.12092104,1.2361084,0.15581083,-0.1946729,-0.6486497,0.119874775,0.16974612,-0.24183871,1.0872929,0.7415072
0.0,-0.1,1.2999999999999998,0.0,0.0,0,0.11134972,-1.523891,0.15974873,-0.2818771,-0.07918199,1.2980874,0.8946602,-0.1910567,-0.6488043,0.12628113,0.13206384,-0.068959735,0.93075955,-1.5704768
0.0,-0.1,1.2999999999999998,0.0,0.0,0,0.12565063,-1.5229357,0.16123357,-0.28039616,0.50668734,1.2229756,-0.45422116,-0.1916007,-0.6485692,0.124973305,0.15709282,0.11715896,0.9373655,1.027869
0.0,-0.1,1.2999999999999998,0.0,0.0,0,0.12269191,-1.5236214,0.15504692,-0.27758396,-0.1448839,1.2706934,0.60698783,-0.19087288,-0.64889365,0.121675566,0.13000242,-0.18049873,0.96621,0.96986437
0.0,-0.1,1.2999999999999998,0.0,0.0,0,0.12270729,-1.5228217,0.15834256,-0.28093064,-0.21436352,1.2174977,-0.010547694,-0.1918754,-0.6482115,0.1196085,0.14397243,-0.1690015,0.96438533,0.47521818
0.0,-0.1,1.2999999999999998,0.0,0.0,0,0.11756619,-1.5223655,0.16453747,-0.279457,0.10165245,1.2117141,-0.66711,-0.19480503,-0.64885676,0.12364741,0.12915799,0.16161074,0.9422173,0.15502322
0.0,-0.1,1.2999999999999998,0.0,0.0,0,0.12846754,-1.5223914,0.15833974,-0.28001907,-0.0394781,1.2308556,0.8320134,-0.19446255,-0.64864314,0.12439536,0.14534283,-0.078882135,0.8973926,-0.1883233
0.0,-0.1,1.2999999999999998,0.0,0.0,0,0.11628597,-1.5229973,0.15977356,-0.2815925,-0.1442634,1.0838569,0.37995368,-0.1911687,-0.6490218,0.12475455,0.15235482,-0.16567472,0.9866748,1.0939889
0.0,-0.1,1.2999999999999998,0.0,0.0,0,0.12027068,-1.5216205,0.16623268,-0.2797031,0.55326086,1.2524285,0.6459657,-0.19244789,-0.6483839,0.116248414,0.14181022,-0.35754517,0.98374814,0.9136578
0.0,-0.1,1.2999999999999998,0.0,0.0,0,0.11484265,-1.5228703,0.15541795,-0.2807179,0.22888193,1.2436613,0.27361348,-0.1914259,-0.6488798,0.11906986,0.14602965,0.022820737,0.9503951,0.7960475
0.0,-0.1,1.2999999999999998,0.0,0.0,0,0.11757458,-1.5232049,0.16284302,-0.27956715,0.10225582,1.3353463,1.0643111,-0.19050743,-0.64866877,0.12201088,0.14746356,-0.023385162,0.9491825,-0.44897977
0.0,-0.1,1.2999999999999998,0.0,0.0,0,0.119652964,-1.5227143,0.16080756,-0.2798769,0.050178796,1.255505,0.019560639,-0.19475397,-0.64875835,0.123694,0.14881167,-0.028154554,0.9981335,1.64924
0.0,-0.1,1.2999999999999998,0.0,0.0,0,0.110144444,-1.5234461,0.16166183,-0.2788142,-0.004920427,1.2070825,-0.3080616,-0.19380282,-0.64851594,0.117539324,0.15795146,0.03106206,0.9064506,-0.9935015
0.0,-0.1,1.2999999999999998,0.0,0.0,0,0.10789375,-1.5229139,0.16087587,-0.2804432,-0.14736332,1.2664734,0.82471144,-0.19002165,-0.6486756,0.113999784,0.17372344,-0.14193994,0.874531,-0.054530628
0.0,-0.1,1.2999999999999998,0.0,0.0,0,0.12134403,-1.5227135,0.1608502,-0.2781441,0.10840299,1.2581911,0.21033433,-0.19514048,-0.64871234,0.12132134,0.16160844,-0.2388189,1.0414895,1.4810058
0.0,-0.1,1.2999999999999998,0.0,0.0,0,0.12945628,-1.5225892,0.16327804,-0.27959353,0.06837648,1.1431826,0.19433069,-0.19228879,-0.6483358,0.124893755,0.13675126,-0.07027301,1.0104096,-0.22273597
0.0,-0.1,1.2999999999999998,0.0,0.0,0,0.115002945,-1.5218251,0.1660282,-0.27879995,-0.097729445,1.2359688,0.120390356,-0.19311759,-0.64871675,0.11682596,0.15163684,0.15416038,0.9672009,0.5899888
0.0,-0.1,1.2999999999999998,0.0,0.0,0,0.116484225,-1.5230823,0.15776418,-0.2782938,-0.43068612,1.2673799,0.6123638,-0.19267952,-0.64840096,0.11562295,0.15847455,-0.1254944,1.1323928,0.5008687
0.0,-0.1,1.2999999999999998,0.0,0.0,0,0.109262064,-1.5235136,0.16093248,-0.2810179,0.028651133,1.2065073,-0.3770119,-0.1913898,-0.64874864,0.12224119,0.15467179,0.084019676,1.0258086,0.1707389
0.0,-0.1,1.2999999999999998,0.0,0.0,0,0.11342209,-1.5233849,0.15479858,-0.27974594,0.12409814,1.0422388,0.021909133,-0.19515668,-0.64843166,0.116755605,0.12775514,-0.08045943,1.0957407,0.20492408
0.0,-0.1,1.2999999999999998,0.0,0.0,0,0.13091141,-1.5224153,0.1603248,-0.27801734,0.32011706,1.2901475,-1.6595293,-0.19136822,-0.6484364,0.12014551,0.15102349,-0.14702913,1.024393,0.9687499
0.0,-0.1,1.2999999999999998,0.0,0.0,0,0.12958655,-1.5231811,0.14444378,-0.28050944,-0.013955922,1.0635997,-1.1664869,-0.19158322,-0.64908457,0.119127505,0.13522123,-0.068547726,0.97649455,0.8136678
0.0,-0.1,1.2999999999999998,0.0,0.0,0,0.116476074,-1.5237528,0.15670611,-0.2804288,-0.2129651,1.2105112,0.23345792,-0.19304723,-0.649037,0.121753134,0.16053292,0.039822455,0.81062627,0.48114467
0.0,-0.1,1.2999999999999998,0.0,0.0,0,0.121566154,-1.5227326,0.15964861,-0.2811277,-0.082926065,1.1433702,0.47223154,-0.19034041,-0.6481943,0.1208341,0.17021671,0.09284362,1.0919814,1.1228546
0.0,-0.1,1.2999999999999998,0.0,0.0,0,0.11983794,-1.5228343,0.15836997,-0.27921554,0.051157903,1.2425689,-0.48194942,-0.18761474,-0.64877814,0.11301717,0.15458077,-0.11312188,0.7785761,0.46393842
0.0,-0.1,1.2999999999999998,0.0,0.0,0,0.11556659,-1.5229337,0.15349868,-0.28089428,0.05753088,1.2497877,1.0880784,-0.19215152,-0.6481048,0.11270141,0.16690317,-0.14091906,1.0573524,0.32305935
0.0,-0.1,1.2999999999999998,0.0,0.0,0,0.120898455,-1.5234938,0.16121133,-0.28055835,-0.26043987,1.32826,0.34967098,-0.19045281,-0.64843494,0.12320578,0.15575081,0.14408764,1.1136217,0.8476135
0.0,-0.1,1.2999999999999998,0.0,0.0,0,0.12195037,-1.5235064,0.1602279,-0.2769966,-0.115025334,1.1943362,1.8756628,-0.19064078,-0.6484702,0.11861063,0.12410081,-0.04661625,1.0657281,-0.16238005
0.0,-0.1,1.2999999999999998,0.0,0.0,0,0.11813392,-1.523812,0.15682791,-0.27798736,-0.0351774,1.2312715,0.4525001,-0.19354217,-0.6486688,0.1187752,0.14522919,-0.013646644,0.9328074,-0.17373605
0.0,-0.1,1.2999999999999998,0.0,0.0,0,0.1209472,-1.5229201,0.15819149,-0.28052044,0.39966458,1.2539672,-0.93493634,-0.19292484,-0.64864063,0.12010493,0.13360569,-0.08905397,1.0388384,0.65741485
0.0,-0.1,1.2999999999999998,0.0,0.0,0,0.13077354,-1.5224352,0.16300963,-0.27884847,-0.27831137,1.278524,0.38246727,-0.19410783,-0.64840835,0.12385395,0.14193557,0.0052941456,1.0804632,1.5305897
0.0,-0.1,1.2999999999999998,0.0,0.0,0,0.1295728,-1.5228281,0.16238388,-0.28047282,-0.19853026,1.2691869,0.08186484,-0.19250493,-0.64870363,0.12881447,0.14723493,0.08103869,1.0599416,0.8820293
0.0,-0.1,1.2999999999999998,0.0,0.0,0,0.10712831,-1.5240506,0.1569519,-0.27880615,0.23478088,1.2150705,-0.42159915,-0.19279312,-0.64892703,0.11881217,0.17241564,-0.022083025,1.1093062,1.3223481
0.0,-0.1,1.2999999999999998,0.0,0.0,0,0.11684401,-1.5226767,0.15591791,-0.27971053,-0.20006238,1.2307703,-0.15534809,-0.19197334,-0.6486859,0.1158846,0.14761518,0.10344677,1.1432291,1.5798773
0.0,-0.1,1.2999999999999998,0.0,0.0,0,0.121336184,-1.5228472,0.1631803,-0.27922037,-0.09474987,1.2865565,-0.46311155,-0.19238599,-0.64822984,0.114540115,0.17628875,0.052983526,0.8697892,0.9141083
0.0,-0.1,1.2999999999999998,0.0,0.0,0,0.11721628,-1.5235453,0.1604027,-0.28135794,-0.1442609,1.1405966,-0.33110204,-0.18979989,-0.6489914,0.12260007,0.15640652,-0.21930842,0.8964294,1.1519684
0.0,-0.1,1.2999999999999998,0.0,0.0,0,0.12038007,-1.523267,0.16441552,-0.27924845,0.08354058,1.2830538,0.8530479,-0.19129018,-0.6488155,0.124987155,0.14588034,-0.0007977147,1.077964,0.53407353
0.0,-0.1,1.2999999999999998,0.0,0.0,0,0.11687199,-1.522653,0.15882489,-0.28021052,0.14715439,1.2470546,-0.10431401,-0.19188917,-0.64864945,0.115444794,0.13798842,0.011846552,0.91744184,-0.025395785
0.0,-0.1,1.2999999999999998,0.0,0.0,0,0.12358155,-1.522269,0.16818978,-0.2795335,0.17939892,1.1789117,0.012272705,-0.18959898,-0.6484124,0.11691536,0.16238593,0.048110854,0.89987373,0.36181903
0.0,-0.1,1.2999999999999998,0.0,0.0,0,0.114790365,-1.5227934,0.16225135,-0.2807227,0.1349919,1.2203435,0.66391456,-0.18968648,-0.64870614,0.119107015,0.13660112,-0.106155165,1.0738015,0.78630286
0.0,-0.1,1.2999999999999998,0.0,0.0,0,0.11723647,-1.5224957,0.16303156,-0.2805016,0.20440537,1.2104641,0.33197337,-0.18857296,-0.6489577,0.11799921,0.14052293,0.14989613,0.93006575,0.0008322931
0.0,-0.1,1.2999999999999998,0.0,0.0,0,0.11731179,-1.5231237,0.15617986,-0.2791961,-0.30929267,1.1532465,-0.41730148,-0.19429906,-0.64857054,0.11574515,0.1453102,-0.1136043,1.1187599,-0.30156285
0.0,-0.1,1.2999999999999998,0.0,0.0,0,0.1221253,-1.5226383,0.16285351,-0.2774584,-0.25359285,1.2718223,0.109702244,-0.19807415,-0.6484247,0.11748326,0.1582432,-0.1715618,1.0544806,0.0005940362
0.0,-0.1,1.2999999999999998,0.0,0.0,0,0.12467102,-1.5217983,0.16151223,-0.27833897,-0.063633494,1.2343999,0.17615238,-0.1912039,-0.6489428,0.11862812,0.15034321,-0.15150607,1.1154296,-0.17235564
0.0,-0.1,1.2999999999999998,0.0,0.0,0,0.1143665,-1.5231009,0.15731736,-0.28101662,-0.29634905,1.2120428,1.4150869,-0.19010027,-0.64887553,0.116444044,0.15104559,0.08547786,0.9785279,-1.6068344
0.0,-0.1,1.2999999999999998,0.0,0.0,0,0.12225624,-1.5225325,0.15958299,-0.27926683,0.062416334,1.272613,0.5135524,-0.19242798,-0.64904475,0.12294978,0.15127404,0.06861565,1.0905769,0.11432148
0.0,-0.1,1.2999999999999998,0.0,0.0,0,0.12274666,-1.5226822,0.1566946,-0.28178498,-0.04427368,1.1503837,0.17850468,-0.19119626,-0.64909565,0.1252118,0.15172224,-0.10516515,1.0994849,-0.25296897
0.0,-0.1,1.2999999999999998,0.0,0.0,0,0.13601843,-1.5232786,0.15439883,-0.27787116,0.023210406,1.1733316,0.14780217,-0.19214317,-0.6488759,0.120380655,0.15723148,-0.13103382,0.9547133,-1.0551612
0.0,-0.1,1.2999999999999998,0.0,0.0,0,0.13065141,-1.5237064,0.15672249,-0.2796533,0.17061263,1.3769758,0.32021672,-0.19063497,-0.648239,0.120834336,0.17542806,-0.08542788,1.20703,-0.06872458
0.0,-0.1,1.2999999999999998,0.0,0.0,0,0.12432851,-1.523798,0.15417436,-0.27890256,0.2853318,1.2092613,0.88672036,-0.19544397,-0.6483749,0.117065586,0.15305118,-0.15472303,0.93415165,1.1274328
0.0,-0.1,1.2999999999999998,0.0,0.0,0,0.12593032,-1.522839,0.15157747,-0.28147608,-0.012992984,1.1262027,1.0077702,-0.19676253,-0.64863825,0.1204757,0.14950441,-0.07482361,1.0386534,0.68808746
0.0,-0.1,1.2999999999999998,0.0,0.0,0,0.12297238,-1.5238662,0.16054362,-0.2790955,0.048814934,1.0611652,0.3052817,-0.19060795,-0.6488278,0.11958217,0.15117526,-0.21135406,0.9691415,0.08643567
0.0,-0.1,1.2999999999999998,0.0,0.0,0,0.11871736,-1.5222005,0.16439256,-0.28036085,0.094428435,1.222359,-0.13384934,-0.19182415,-0.6483342,0.114331804,0.1410794,0.06637239,1.0733888,0.77214426
0.0,-0.1,1.2999999999999998,0.0,0.0,0,0.13174424,-1.5234083,0.15596849,-0.27771738,-0.025597768,1.2689573,0.86178553,-0.19392945,-0.64875126,0.12185754,0.15177582,-0.024186514,1.1178843,0.27075025
0.0,-0.1,1.2999999999999998,0.0,0.0,0,0.1129015,-1.5236257,0.15765019,-0.28072503,0.0356947,1.0971411,1.1560048,-0.1898565,-0.6486217,0.11222377,0.14524263,0.25637457,0.9500356,0.9633428
0.0,-0.1,1.2999999999999998,0.0,0.0,0,0.12840173,-1.5231197,0.15371625,-0.27962092,0.032499254,1.1601166,0.43848017,-0.19469102,-0.6484458,0.11798411,0.15057702,-0.22587894,1.1027681,-0.57321477
0.0,-0.1,1.2999999999999998,0.0,0.0,0,0.1346608,-1.5227257,0.15688382,-0.27854812,0.48366845,1.1815106,-0.28582877,-0.19248211,-0.6486518,0.116791,0.15995169,-0.2439432,1.0574925,0.25612196
0.0,-0.1,1.2999999999999998,0.0,0.0,0,0.117954105,-1.5226673,0.15954058,-0.2806606,-0.06293364,1.2679968,-0.045203105,-0.19331901,-0.64885926,0.11722243,0.1551347,-0.13590904,1.0314037,0.1937033
0.0,-0.1,1.2999999999999998,0.0,0.0,0,0.11979756,-1.5234323,0.16725303,-0.27855662,-0.04773761,1.303024,-0.4578478,-0.18933935,-0.64887524,0.12187306,0.14752871,0.025476916,1.0846202,-0.067344785
0.0,-0.1,1.2999999999999998,0.0,0.0,0,0.1141588,-1.5225213,0.15784675,-0.27951455,0.21299882,1.166183,-0.018456625,-0.19423693,-0.6490048,0.11231673,0.14306049,0.101082966,1.0194111,0.80247825
0.0,-0.1,1.2999999999999998,0.0,0.0,0,0.11486702,-1.5233537,0.16031416,-0.2781488,0.33125514,1.0633396,0.40061828,-0.19370477,-0.6485246,0.11079611,0.14322077,-0.018565418,1.0684997,-0.4371149
0.0,-0.1,1.2999999999999998,0.0,0.0,0,0.121838294,-1.523557,0.16331415,-0.28000754,0.3073507,1.1946301,-0.8036268,-0.1898021,-0.6484035,0.117098875,0.15207976,-0.04738435,0.98218393,0.47582835
0.0,-0.1,1.2999999999999998,0.0,0.0,0,0.13265133,-1.5224522,0.15918663,-0.27962798,-0.19301483,1.0839125,-0.095817864,-0.19175941,-0.6491307,0.12186592,0.17062518,-0.07812022,1.1025137,-0.28209707
0.0,-0.1,1.2999999999999998,0.0,0.0,0,0.117448226,-1.5239515,0.1631126,-0.28035513,-0.003341066,1.1665624,-0.16002733,-0.19188385,-0.6486703,0.11979293,0.13532619,-0.04958041,0.9447718,0.27078256
0.0,-0.1,1.2999999999999998,0.0,0.0,0,0.10945331,-1.5238903,0.16692674,-0.2786382,-0.062306404,1.148531,0.8830485,-0.19266488,-0.64901835,0.120047726,0.16457672,-0.107799746,1.1143976,0.22724278
0.0,-0.1,1.2999999999999998,0.0,0.0,0,0.12795813,-1.5235084,0.15966187,-0.27706435,0.06829762,1.234386,0.516829,-0.19171584,-0.64896137,0.11893535,0.17226182,0.014723113,0.94826996,0.42955276
0.0,-0.1,1.2999999999999998,0.0,0.0,0,0.124477506,-1.524081,0.1579466,-0.27970406,0.16544674,1.2675403,-0.6066137,-0.19648437,-0.6486162,0.12534276,0.13096371,-0.034920294,1.215575,0.80639124
0.0,-0.1,1.2999999999999998,0.0,0.0,0,0.11218925,-1.5216525,0.1643977,-0.28151828,0.20003077,1.3512119,0.36830992,-0.1924087,-0.6488063,0.11222413,0.149651,0.07925267,1.1179267,-1.0327299
0.0,-0.1,1.2999999999999998,0.0,0.0,0,0.10238864,-1.5231639,0.16186683,-0.28102407,-0.14505358,1.2269506,0.73480564,-0.1954085,-0.6489455,0.111880414,0.16211914,-0.056649417,0.9803909,-1.4338102
0.0,-0.1,1.2999999999999998,0.0,0.0,0,0.12854896,-1.5253175,0.15959516,-0.27896038,-0.12467837,1.1596786,0.5874502,-0.19330636,-0.6487283,0.12819065,0.14908843,-0.019685352,1.0158602,1.0689802
0.0,-0.1,1.2999999999999998,0.0,0.0,0,0.123423286,-1.5228163,0.1579394,-0.27844596,-0.19789746,1.2550874,0.075387254,-0.19410072,-0.6487128,0.114462554,0.16100271,-0.12746637,1.0547868,0.8610331
0.0,-0.1,1.2999999999999998,0.0,0.0,0,0.13187346,-1.5226325,0.16006738,-0.280588,-0.33971706,1.1895707,0.79457945,-0.19279158,-0.64879245,0.12033235,0.14785363,0.01339066,1.0911783,0.00836719
0.0,-0.1,1.2999999999999998,0.0,0.0,0,0.1255746,-1.5239218,0.1610319,-0.2820842,-0.16447072,1.3321828,-0.21062122,-0.18581617,-0.6488042,0.12052657,0.15245663,0.086544245,0.8924978,-1.5285469
0.0,-0.1,1.2999999999999998,0.0,0.0,0,0.113333024,-1.5230602,0.16412312,-0.28249186,0.06078834,1.1663588,-0.24081503,-0.19202912,-0.64921683,0.119724125,0.1783958,-0.07787935,1.0098928,1.064953
0.0,-0.1,1.2999999999999998,0.0,0.0,0,0.13603118,-1.5231926,0.1622587,-0.27656934,0.14913766,1.2227626,-0.8687961,-0.19193438,-0.64865196,0.117267735,0.16333655,-0.064923346,1.1131246,0.059107512
0.0,-0.1,1.2999999999999998,0.0,0.0,0,0.13623613,-1.5238582,0.16042256,-0.28028306,-0.12718026,1.1918468,0.21143548,-0.18759012,-0.6484626,0.11892882,0.14437583,-0.018268285,0.96150684,0.50671834
0.0,-0.1,1.2999999999999998,0.0,0.0,0,0.1202121,-1.5238069,0.15662257,-0.2799673,0.030648706,1.1177638,-0.4219202,-0.19213998,-0.64843065,0.11429653,0.1548443,-0.07298337,1.1584543,0.007852263
0.0,-0.1,1.2999999999999998,0.0,0.0,0,0.12081228,-1.5230789,0.15992668,-0.28064844,-0.09451781,1.33319,0.7768286,-0.18834803,-0.648618,0.113376506,0.15392233,0.14016818,1.1102382,-0.082249045
0.0,-0.1,1.2999999999999998,0.0,0.0,0,0.12637474,-1.5234476,0.16158828,-0.28069645,-0.032362085,1.2224686,0.34268746,-0.19037627,-0.6485568,0.11810972,0.15479201,-0.10962047,1.0597738,0.7498226
0.0,-0.1,1.2999999999999998,0.0,0.0,0,0.12570503,-1.5229733,0.1619144,-0.27981827,-0.1611261,1.0583832,-0.3957119,-0.19186585,-0.648716,0.11469939,0.1561103,-0.12099027,1.0456026,0.82997316
0.0,-0.1,1.2999999999999998,0.0,0.0,0,0.1206793,-1.5236213,0.16490634,-0.27926752,-0.32330742,1.1905682,1.1903077,-0.19317566,-0.6487444,0.116213545,0.17193441,-0.010093641,0.9817804,-0.020806648
0.0,-0.1,1.2999999999999998,0.0,0.0,0,0.13548541,-1.5229408,0.16044411,-0.2797848,0.05315402,1.2025559,0.47746176,-0.19488192,-0.6486106,0.11755728,0.14325969,-0.14818929,1.0349598,0.86028755
0.0,-0.1,1.2999999999999998,0.0,0.0,0,0.13027659,-1.5240535,0.16687837,-0.27760115,0.110050306,1.1746547,0.45022207,-0.18839075,-0.6490078,0.12017495,0.15727416,-0.052511867,0.94578993,-0.78632545
0.0,-0.1,1.2999999999999998,0.0,0.0,0,0.12133895,-1.5238084,0.16225816,-0.27932987,0.11602615,1.1378219,0.090415105,-0.19559321,-0.6487738,0.11713868,0.15952915,-0.13074638,1.1136903,-0.23723924
0.0,-0.1,1.2999999999999998,0.0,0.0,0,0.13053976,-1.5235267,0.15879187,-0.28151417,-0.27389246,1.2098968,0.8239422,-0.18988834,-0.6483778,0.11382599,0.15593176,-0.096914046,1.1140777,0.26831436
0.0,-0.1,1.2999999999999998,0.0,0.0,0,0.118306644,-1.5242429,0.15897335,-0.2791745,-0.2383089,1.2096694,-0.102398515,-0.19117723,-0.64918935,0.11436237,0.15127146,-0.18498604,1.091376,-0.30247107
0.0,-0.1,1.2999999999999998,0.0,0.0,0,0.1120072,-1.522422,0.15840751,-0.27696607,0.112682335,1.2157979,-0.4602783,-0.18976717,-0.6482669,0.12372157,0.13766254,0.13602124,1.0000758,0.94441074
0.0,-0.1,1.2999999999999998,0.0,0.0,0,0.111418545,-1.5232217,0.15422322,-0.2781161,-0.22962436,1.1027174,1.5039443,-0.19029048,-0.64837116,0.11139797,0.15284565,0.0743067,0.90870565,-0.2906237
0.0,-0.1,1.2999999999999998,0.0,0.0,0,0.122092,-1.5237235,0.15988275,-0.27904937,-0.18420595,1.2098666,0.024416877,-0.19543204,-0.6481473,0.120437145,0.12374956,-0.021784615,1.0629977,1.6067294
0.0,-0.1,1.2999999999999998,0.0,0.0,0,0.12636432,-1.523653,0.15959282,-0.2797965,-0.23402555,1.2977809,0.78128374,-0.19311513,-0.6482959,0.116615415,0.14209259,-0.27974296,0.99653727,0.39471304
0.0,-0.1,1.2999999999999998,0.0,0.0,0,0.11241903,-1.5217586,0.16089776,-0.27792373,0.2224531,1.1520854,0.32279417,-0.19307509,-0.64834267,0.12285602,0.15986742,0.033854973,1.0477672,-0.5828375
0.0,-0.1,1.2999999999999998,0.0,0.0,0,0.11180521,-1.5222322,0.15967415,-0.27953142,-0.37379768,1.1557132,0.061163977,-0.19019125,-0.6486162,0.13092668,0.15973653,-0.060720302,1.0011088,0.99197346
0.0,-0.1,1.2999999999999998,0.0,0.0,0,0.112076744,-1.522936,0.16082901,-0.27809563,-0.15759936,1.2278279,0.15938018,-0.18935892,-0.6478763,0.119123675,0.16190402,-0.06575394,0.84578794,0.23914053
0.0,-0.1,1.2999999999999998,0.0,0.0,0,0.11468403,-1.5224761,0.15538931,-0.27872542,0.091500685,1.2930157,-0.17321007,-0.1944219,-0.64897156,0.12570642,0.14091758,-0.046174336,0.90099126,0.7414875
0.0,-0.1,1.2999999999999998,0.0,0.0,0,0.110218085,-1.5220567,0.1657737,-0.2820294,-0.028236885,1.2118493,-0.32195038,-0.1927194,-0.64861757,0.13121645,0.12380447,0.15178026,0.85841316,-0.7848347
0.0,-0.1,1.2999999999999998,0.0,0.0,0,0.116057344,-1.5231481,0.16410084,-0.27924445,-0.36498466,1.2663645,0.6618947,-0.19303103,-0.6484081,0.13155729,0.15314399,-0.16279879,0.93291646,-0.11841292
0.0,-0.1,1.2999999999999998,0.0,0.0,0,0.115310706,-1.5205133,0.15936933,-0.27904767,0.010838769,1.2819937,-0.14854728,-0.18772328,-0.64896744,0.11695616,0.1499054,-0.24361452,1.0580424,-0.673443
0.0,-0.1,1.2999999999999998,0.0,0.0,0,0.109691,-1.5239463,0.15509193,-0.2791974,-0.039083876,1.2144737,-0.1005068,-0.18959975,-0.64861506,0.12556185,0.15621185,0.064946145,0.84421605,0.17450806
0.0,-0.1,1.2999999999999998,0.0,0.0,0,0.11390909,-1.5221444,0.15369104,-0.27857542,0.23957303,1.1246827,0.57248473,-0.19560593,-0.6481087,0.11446684,0.14629646,0.05415071,0.9856842,0.1419752
0.0,-0.1,1.2999999999999998,0.0,0.0,0,0.111580566,-1.5224543,0.16252674,-0.27812994,-0.25378796,1.2444694,0.47751597,-0.19010586,-0.64884484,0.12104184,0.18077263,0.15107232,0.80453575,-0.4454838
0.0,-0.1,1.2999999999999998,0.0,0.0,0,0.12269112,-1.5234885,0.15578854,-0.2776145,0.11829337,1.2557575,0.11978348,-0.19130611,-0.6486299,0.13200091,0.1349287,0.032939307,0.9276498,1.2589518
0.0,-0.1,1.2999999999999998,0.0,0.0,0,0.115007795,-1.5229735,0.15944205,-0.2777074,-0.3315131,1.2133536,0.51744306,-0.19146982,-0.64859825,0.123256035,0.1526027,0.072266124,0.89557844,-0.10860299
0.0,-0.1,1.2999999999999998,0.0,0.0,0,0.11237222,-1.5233489,0.16140746,-0.2807694,-0.06423487,1.3286258,-0.07013965,-0.19152997,-0.6480688,0.1282277,0.13821784,0.009584609,1.0135704,1.6444149
0.0,-0.1,1.2999999999999998,0.0,0.0,0,0.11236468,-1.5223228,0.16442612,-0.27887034,0.16496825,1.1023571,-0.259958,-0.19241798,-0.6485214,0.12636656,0.15161216,-0.19222127,1.1037053,0.57604086
0.0,-0.1,1.2999999999999998,0.0,0.0,0,0.1168234,-1.523616,0.1604119,-0.27637592,0.082462125,1.2334694,-0.83985907,-0.19221134,-0.64862835,0.1288396,0.14716159,-0.024114845,1.0175428,0.7230875
0.0,-0.1,1.2999999999999998,0.0,0.0,0,0.1055052,-1.5232788,0.16561654,-0.27980906,-0.010389476,1.1782094,-0.45285857,-0.19126156,-0.6485799,0.13401599,0.15210421,-0.036430646,1.0638635,1.3387493
0.0,-0.1,1.2999999999999998,0.0,0.0,0,0.10807977,-1.5238248,0.15906188,-0.279973,-0.28734383,1.2280042,0.06535701,-0.19263253,-0.648602,0.12754597,0.14980169,0.0018181305,0.90994906,1.337457
0.0,-0.1,1.2999999999999998,0.0,0.0,0,0.11232949,-1.5232352,0.15662524,-0.28066775,0.024889827,1.1650611,-0.8604153,-0.19093715,-0.6486836,0.12720291,0.15666334,-0.014571691,0.9474103,-0.03634619
0.0,-0.1,1.2999999999999998,0.0,0.0,0,0.11291837,-1.523246,0.15666182,-0.28071627,-0.24990842,1.2084342,-0.33921668,-0.18725851,-0.6486499,0.12502706,0.16197196,0.1542332,0.94767356,0.381925
0.0,-0.1,1.2999999999999998,0.0,0.0,0,0.11977595,-1.5233511,0.15411812,-0.2794594,0.07732365,1.1393489,0.5245783,-0.18809482,-0.6486892,0.12190178,0.14230055,0.17623161,0.7811013,0.69471365
0.0,-0.1,1.2999999999999998,0.0,0.0,0,0.12100104,-1.523752,0.15332714,-0.2781946,0.067267716,1.2313788,1.401703,-0.19181916,-0.6486821,0.12906212,0.14976124,0.01109643,1.0326372,1.3903798
0.0,-0.1,1.2999999999999998,0.0,0.0,0,0.11087759,-1.5239851,0.15448421,-0.27886817,0.20174353,1.1930242,1.002734,-0.19142693,-0.6481724,0.12159207,0.1497971,-0.085033774,0.98867273,0.30614066
0.0,-0.1,1.2999999999999998,0.0,0.0,0,0.11266081,-1.5227557,0.15711212,-0.2778269,0.24828014,1.3331281,0.9379531,-0.19069138,-0.648922,0.120601445,0.15576094,-0.067285776,1.0275705,-0.052601207
0.0,-0.1,1.2999999999999998,0.0,0.0,0,0.11100517,-1.522824,0.16150366,-0.28006884,-0.0507497,1.2190313,-0.12649478,-0.19248968,-0.64858556,0.12653264,0.15690954,-0.12687695,0.9867007,0.24180774
0.0,-0.1,1.2999999999999998,0.0,0.0,0,0.118339136,-1.5228615,0.16307496,-0.27916253,-0.60712534,1.1770047,-0.4409662,-0.1901145,-0.64802855,0.12079609,0.15145838,0.21105397,1.0002576,0.07881667
0.0,-0.1,1.2999999999999998,0.0,0.0,0,0.12023489,-1.5226994,0.15177697,-0.27915853,0.29150653,1.2865398,0.76336306,-0.19100367,-0.64851654,0.118089154,0.15990117,-0.108110435,1.0251837,1.0332657
0.0,-0.1,1.2999999999999998,0.0,0.0,0,0.117259204,-1.5228542,0.15991518,-0.27828124,-0.0062408256,1.2077457,0.6025033,-0.18971913,-0.6489439,0.124912746,0.15831392,-0.15010661,0.9230731,-0.021239506
0.0,-0.1,1.2999999999999998,0.0,0.0,0,0.11547275,-1.5226223,0.15770046,-0.28082,-0.031769916,1.2466577,1.1416497,-0.19301137,-0.64863974,0.12418107,0.15287489,0.18342528,0.8950887,1.3868879
0.0,-0.1,1.2999999999999998,0.0,0.0,0,0.111805156,-1.5234834,0.15982476,-0.27920416,-0.16265619,1.1546779,-0.08268885,-0.19161604,-0.6486667,0.124517344,0.14511248,-0.021504018,0.9098838,-1.106455
0.0,-0.1,1.2999999999999998,0.0,0.0,0,0.11723959,-1.5225879,0.15752225,-0.27984488,0.08840185,1.233465,0.25454906,-0.19394171,-0.64865357,0.12643835,0.13727991,-0.13482524,1.1047722,0.24997184
0.0,-0.1,1.2999999999999998,0.0,0.0,0,0.105345726,-1.5229238,0.16070227,-0.2793386,0.07573097,1.2001961,-0.4457359,-0.19307661,-0.6491795,0.1253702,0.14448556,0.33188793,1.1081904,1.4905909
0.0,-0.1,1.2999999999999998,0.0,0.0,0,0.11280076,-1.5230249,0.15403235,-0.27997938,-0.19099413,1.1612406,0.17241068,-0.19103613,-0.64847684,0.118749924,0.1653284,-0.26877922,1.039185,1.0470818
0.0,-0.1,1.2999999999999998,0.0,0.0,0,0.11271083,-1.5240163,0.1548601,-0.27873626,0.06852576,1.247383,0.7946238,-0.18985923,-0.6482051,0.11747793,0.14976557,0.044688903,0.8522231,0.3754841
0.0,-0.1,1.2999999999999998,0.0,0.0,0,0.11803033,-1.5231314,0.15620919,-0.2788203,0.2070341,1.1983384,-0.29245922,-0.1917377,-0.64865464,0.12314833,0.16381109,0.03972103,0.9793674,-0.04652
0.0,-0.1,1.2999999999999998,0.0,0.0,0,0.11337208,-1.5231313,0.161792,-0.27756023,0.019781746,1.1692728,0.061745387,-0.19228247,-0.64905393,0.12728105,0.12395199,-0.112912394,1.0770632,-0.1778216
0.0,-0.1,1.2999999999999998,0.0,0.0,0,0.112066634,-1.5227599,0.16353424,-0.27974862,-0.16566348,1.2722559,0.57122463,-0.19105557,-0.6482796,0.12163478,0.16485314,0.018377963,1.072319,0.8786438
0.0,-0.1,1.2999999999999998,0.0,0.0,0,0.10822643,-1.522333,0.1624327,-0.28089595,-0.2355717,1.2205632,-0.44520536,-0.19292024,-0.6484693,0.11932196,0.15737355,0.0589385,0.95899093,0.99911284
0.0,-0.1,1.2999999999999998,0.0,0.0,0,0.120138034,-1.5226569,0.15709782,-0.28111833,-0.14602785,1.1359376,0.0894313,-0.19125383,-0.6484701,0.124598704,0.15396145,0.009504885,1.1589018,-0.6582155
0.0,-0.1,1.2999999999999998,0.0,0.0,0,0.1283075,-1.5228573,0.15541433,-0.2799598,0.06307826,1.1456379,0.47229877,-0.19185598,-0.6491126,0.12899823,0.16586141,-0.14157052,0.897227,-0.3526429
0.0,-0.1,1.2999999999999998,0.0,0.0,0,0.109288186,-1.5230112,0.15837178,-0.2815661,-0.10592126,1.1720566,0.43987548,-0.1892169,-0.648656,0.11878109,0.14828426,-0.10087094,0.8778698,-0.56624985
0.0,-0.1,1.2999999999999998,0.0,0.0,0,0.11181992,-1.523215,0.15386762,-0.28035435,-0.02562765,1.2706596,0.3278775,-0.19731812,-0.6486267,0.12069092,0.15403831,-0.12884179,0.94772965,0.13072835
0.0,-0.1,1.2999999999999998,0.0,0.0,0,0.11853688,-1.523055,0.15811557,-0.2779502,0.16735022,1.2672495,0.1436249,-0.19129103,-0.6486799,0.1162967,0.14640218,0.006255443,0.81614476,-0.53109765
0.0,-0.1,1.2999999999999998,0.0,0.0,0,0.1281945,-1.5231569,0.16163169,-0.27878416,0.081798084,1.1992347,-0.19181737,-0.18902366,-0.6485112,0.12964393,0.15417854,-0.15531403,1.0836987,0.32414207
0.0,-0.1,1.2999999999999998,0.0,0.0,0,0.11000195,-1.5221909,0.15866086,-0.27995482,0.024317827,1.1511619,-0.039201897,-0.19503851,-0.64875203,0.11729913,0.16362083,-0.0964836,1.1707197,0.6136622
0.0,-0.1,1.2999999999999998,0.0,0.0,0,0.117168784,-1.5224638,0.15576093,-0.27941656,-0.0004250386,1.1715755,0.16043666,-0.19237892,-0.6486907,0.11711485,0.14781858,0.09640888,1.0578985,-0.1651141
0.0,-0.1,1.2999999999999998,0.0,0.0,0,0.13203181,-1.5223619,0.1575885,-0.2807979,0.24859656,1.1789588,0.90236646,-0.18951961,-0.6486826,0.12694004,0.1443262,-0.042368654,1.0908847,-0.352141
0.0,-0.1,1.2999999999999998,0.0,0.0,0,0.1148472,-1.523324,0.15503146,-0.2806882,-0.20543504,1.1157852,-0.4849372,-0.1943314,-0.648794,0.12356182,0.16021097,-0.04321439,1.1061953,0.7138439
0.0,-0.1,1.2999999999999998,0.0,0.0,0,0.1213307,-1.523555,0.16105781,-0.2759923,-0.056091942,1.0845295,-0.12928808,-0.19332011,-0.64865935,0.118739955,0.16507517,-0.119949386,0.8954522,0.8271688
0.0,-0.1,1.2999999999999998,0.0,0.0,0,0.11475214,-1.5226218,0.15466027,-0.28154007,0.1620496,1.1297567,-0.39829117,-0.1938065,-0.64896536,0.12153318,0.15198092,0.061104722,1.013331,0.17304999
0.0,-0.1,1.2999999999999998,0.0,0.0,0,0.11561935,-1.5222696,0.1661394,-0.27877808,-0.048940234,1.2137642,0.47369853,-0.19105124,-0.64826816,0.117190294,0.15610889,0.06869357,1.03664,-0.2707605
0.0,-0.1,1.2999999999999998,0.0,0.0,0,0.12238039,-1.523631,0.16168034,-0.27970022,-0.020023424,1.2877929,0.51518625,-0.18816505,-0.64812475,0.12008712,0.17360339,-0.06925593,0.9630466,-0.30926588
0.0,-0.1,1.2999999999999998,0.0,0.0,0,0.113293365,-1.5236143,0.16351588,-0.27904007,0.13758703,1.2310743,-0.16751027,-0.19280031,-0.6483383,0.12176366,0.13678981,-0.013355875,1.0119114,1.4323766
0.0,-0.1,1.2999999999999998,0.0,0.0,0,0.11797729,-1.5228864,0.1601086,-0.28077465,-0.18265104,1.2553482,0.21648952,-0.19240412,-0.64834154,0.120941676,0.15750802,-0.064168476,1.0555145,-0.69534266
0.0,-0.1,1.2999999999999998,0.0,0.0,0,0.12200606,-1.5232469,0.16066566,-0.27796534,0.32005283,1.2464951,0.2022005,-0.1912844,-0.6483079,0.11934864,0.13767676,0.04243519,1.1394111,1.0590538
0.0,-0.1,1.2999999999999998,0.0,0.0,0,0.11824082,-1.5237663,0.15468441,-0.27958727,-0.055398535,1.2477441,-0.8887294,-0.19153975,-0.6482928,0.11820926,0.12154362,0.01053571,0.9715792,0.52592593
0.0,-0.1,1.2999999999999998,0.0,0.0,0,0.12001307,-1.5232023,0.16120188,-0.27967545,-0.2046729,1.1589744,-0.08732036,-0.18773323,-0.6485415,0.12040673,0.14629766,0.021460596,1.0385194,-0.002236238
0.0,-0.1,1.2999999999999998,0.0,0.0,0,0.12193487,-1.5228527,0.15884621,-0.2809963,-0.061177272,1.2226621,0.7073823,-0.19161822,-0.6486961,0.12204184,0.16843753,0.00083820114,0.9559588,0.031165222
0.0,-0.1,1.2999999999999998,0.0,0.0,0,0.111775234,-1.5235265,0.16889057,-0.27963975,-0.2510521,1.1500968,0.6639524,-0.1928397,-0.64840484,0.12369825,0.14804317,-0.03958931,1.1062413,0.16311568
0.0,-0.1,1.2999999999999998,0.0,0.0,0,0.13059907,-1.5241781,0.15829547,-0.27805483,0.13039587,1.2110493,0.06944224,-0.19278675,-0.6485661,0.12877245,0.14297193,-0.22529198,1.093071,-0.6412953
0.0,-0.1,1.2999999999999998,0.0,0.0,0,0.108702436,-1.5233787,0.1624413,-0.27988985,-0.02929549,1.26856,-0.7959056,-0.19338372,-0.6482573,0.11502946,0.13609663,0.0087073045,0.9445479,0.5301827
0.0,-0.1,1.2999999999999998,0.0,0.0,0,0.11523154,-1.523041,0.15527526,-0.2776009,-0.14278178,1.2174157,0.2861153,-0.19151227,-0.6489575,0.113437325,0.14601992,-0.0249966,1.0634825,-1.1152973
0.0,-0.1,1.2999999999999998,0.0,0.0,0,0.12246731,-1.5233301,0.16149011,-0.27983716,-0.15423933,1.2112272,0.70493186,-0.19116612,-0.6488499,0.123348415,0.14951597,0.02427944,0.9223507,-0.039551597
0.0,-0.1,1.2999999999999998,0.0,0.0,0,0.12026209,-1.5225638,0.16675974,-0.2782807,0.06243773,1.2985134,-0.8910653,-0.18838724,-0.64833987,0.11521827,0.16811505,-0.012784177,1.0089228,0.27181494
0.0,-0.1,1.2999999999999998,0.0,0.0,0,0.13292943,-1.5228742,0.16292626,-0.27921522,-0.042851616,1.1177688,0.20938289,-0.18915053,-0.6482832,0.12293511,0.17712139,0.043230355,1.1220131,0.45368445
0.0,-0.1,1.2999999999999998,0.0,0.0,0,0.1182782,-1.5241071,0.15959738,-0.27779216,-0.31580704,1.1925421,-0.5491107,-0.19327106,-0.6481283,0.112331465,0.17334451,-0.078748435,0.8354472,0.7635635
0.0,-0.1,1.2999999999999998,0.0,0.0,0,0.116357155,-1.5229895,0.16700573,-0.28158686,-0.17027602,1.2147589,-0.6728279,-0.19334377,-0.6485637,0.12479979,0.14174615,-0.034699723,0.99867946,0.34038767
0.0,-0.1,1.2999999999999998,0.0,0.0,0,0.11719863,-1.5229971,0.16151574,-0.28109643,0.031425506,1.1221417,1.0515809,-0.19223417,-0.64845306,0.11850145,0.16764931,-0.20523646,1.0296009,0.3705126
0.0,-0.1,1.2999999999999998,0.0,0.0,0,0.12653743,-1.5225582,0.15743786,-0.28135666,0.33623758,1.1534221,0.49002287,-0.19079219,-0.6485875,0.12000151,0.14141417,-0.04577541,1.0173295,0.2628657
0.0,-0.1,1.2999999999999998,0.0,0.0,0,0.123433,-1.5240853,0.16546077,-0.27652293,0.023145214,1.1276515,0.77338284,-0.19092269,-0.6487165,0.122111596,0.1614712,0.051286716,1.0242817,0.5473979
0.0,-0.1,1.2999999999999998,0.0,0.0,0,0.13178837,-1.5231076,0.1567104,-0.28063315,-0.22733591,1.1173013,-0.6568703,-0.19520718,-0.6486413,0.124952786,0.14712912,-0.045976724,1.1065372,-1.0364715
0.0,-0.1,1.2999999999999998,0.0,0.0,0,0.1191754,-1.5233393,0.16045749,-0.28137657,-0.11938403,1.0765251,0.28750324,-0.18983363,-0.6483353,0.11500827,0.16045383,-0.010861731,0.94537854,0.48316208
0.0,-0.1,1.2999999999999998,0.0,0.0,0,0.11581232,-1.5231862,0.15796657,-0.28116968,-0.27676582,1.2906421,-0.08096781,-0.19341838,-0.648755,0.12002399,0.14558838,-0.050650194,1.1686251,0.31853676
0.0,-0.1,1.2999999999999998,0.0,0.0,0,0.123136625,-1.5231997,0.16012707,-0.2796605,0.1834387,1.2519655,0.9036854,-0.1927247,-0.64862514,0.117020555,0.13966984,0.042661138,0.9338391,0.6583441
0.0,-0.1,1.2999999999999998,0.0,0.0,0,0.11546118,-1.5247868,0.16342749,-0.27852374,-0.34443688,1.3492259,-0.19600011,-0.19327986,-0.64858556,0.120671496,0.1518987,0.07188264,1.032206,0.7247546
0.0,-0.1,1.2999999999999998,0.0,0.0,0,0.12971935,-1.5225319,0.1580849,-0.27923375,0.16396254,1.1765057,0.46804258,-0.18959394,-0.6486937,0.11392241,0.12871186,-0.075757444,0.9380174,1.0088127
0.0,-0.1,1.2999999999999998,0.0,0.0,0,0.1333294,-1.523938,0.1616809,-0.27977225,0.22866602,1.2163384,-0.88115513,-0.19332847,-0.64872766,0.1241832,0.1499038,0.032383353,0.91506726,0.021653887
0.0,-0.1,1.2999999999999998,0.0,0.0,0,0.12780572,-1.5235931,0.16015957,-0.27919644,0.1542198,1.2013597,0.18917786,-0.19027624,-0.64850724,0.11594369,0.15955716,0.055098344,0.9214063,0.13136767
0.0,-0.1,1.2999999999999998,0.0,0.0,0,0.12686574,-1.5231416,0.1642534,-0.27686948,0.1575249,1.1285142,-0.27918944,-0.19278406,-0.6483998,0.115605585,0.15871662,-0.00855378,1.1965282,0.36195484
0.0,-0.1,1.2999999999999998,0.0,0.0,0,0.11040529,-1.5229083,0.15956038,-0.2802746,0.24631591,1.2724113,0.42034218,-0.18934907,-0.6481651,0.12823604,0.15441088,-0.00568673,0.8098021,0.031812664
0.0,-0.1,1.2999999999999998,0.0,0.0,0,0.10686195,-1.5213869,0.1663713,-0.27641946,0.09783964,1.2341714,0.20509021,-0.19366376,-0.6482224,0.1197155,0.15160301,0.05143801,1.0576499,0.66615856
0.0,-0.1,1.2999999999999998,0.0,0.0,0,0.12146341,-1.5223475,0.15752907,-0.2802504,0.03479805,1.2494162,-0.5338117,-0.19039167,-0.64827436,0.12854517,0.14931369,0.1293739,1.001885,-0.12388476
0.0,-0.1,1.2999999999999998,0.0,0.0,0,0.113979414,-1.523172,0.15285996,-0.27899972,-0.644196,1.2147161,0.8965918,-0.18853357,-0.6481303,0.11958422,0.14974755,-0.16613507,1.0502278,1.5264544
0.0,-0.1,1.2999999999999998,0.0,0.0,0,0.1049963,-1.5224456,0.16037689,-0.28012756,-0.1339296,1.2292732,-0.17026313,-0.18991956,-0.6487942,0.1231484,0.14926757,-0.089261405,1.0307927,0.20155828
0.0,-0.1,1.2999999999999998,0.0,0.0,0,0.11576188,-1.5225306,0.15329261,-0.28022668,0.02271328,1.1073788,-0.25194284,-0.19145341,-0.64887005,0.12148895,0.16328269,0.14561754,0.9453936,0.33724296
0.0,-0.1,1.2999999999999998,0.0,0.0,0,0.102336325,-1.5230798,0.16380405,-0.2810046,0.07380586,1.2400045,-0.006574797,-0.19070199,-0.6485276,0.117672496,0.1629597,-0.044645835,0.8324542,0.36774755
0.0,-0.1,1.2999999999999998,0.0,0.0,0,0.11859522,-1.5229142,0.15333593,-0.2813799,-0.20910443,1.1626422,0.03481252,-0.19039209,-0.64881915,0.12209283,0.16879182,-0.28832376,0.92297757,-0.1236613
0.0,-0.1,1.2999999999999998,0.0,0.0,0,0.11210592,-1.5227814,0.1548612,-0.27776176,-0.3075393,1.211892,-0.6303992,-0.19002339,-0.6486748,0.10902252,0.14682917,-0.041899215,0.9271333,0.8399226
0.0,-0.1,1.2999999999999998,0.0,0.0,0,0.119699545,-1.5233942,0.15527567,-0.2785411,-0.16577686,1.1512054,-0.8200084,-0.18866503,-0.6489586,0.12185285,0.13678025,-0.16822118,1.006057,1.2408236
0.0,-0.1,1.2999999999999998,0.0,0.0,0,0.12148708,-1.5229292,0.16273259,-0.2794339,0.00626345,1.2410352,1.1747017,-0.19309881,-0.6487434,0.12504606,0.16715388,0.1525475,0.9021938,-0.30485433
0.0,-0.1,1.2999999999999998,0.0,0.0,0,0.12814562,-1.5220196,0.15923569,-0.27881834,0.1687446,1.1968029,0.19713323,-0.18985504,-0.6483249,0.1171376,0.1413073,-0.043288473,0.9872125,0.81326556
0.0,-0.1,1.2999999999999998,0.0,0.0,0,0.1325761,-1.5221618,0.16281286,-0.27943146,-0.094198786,1.1147819,-0.1454269,-0.1951473,-0.64863443,0.12626633,0.13154559,0.029561456,1.0447309,0.026043283
0.0,-0.1,1.2999999999999998,0.0,0.0,0,0.11303776,-1.5227097,0.164205,-0.2796945,-0.13634461,1.2248242,0.20284091,-0.19233237,-0.6487367,0.115663774,0.13657063,-0.10341328,1.0534871,-1.3280396
0.0,-0.1,1.2999999999999998,0.0,0.0,0,0.13100712,-1.5231407,0.15810558,-0.27903152,0.1525372,1.2828952,0.33309343,-0.19273184,-0.6488129,0.1161939,0.14679362,-0.08041814,0.90010154,0.6897639
0.0,-0.1,1.2999999999999998,0.0,0.0,0,0.12389685,-1.523303,0.15847695,-0.27966145,-0.08301397,1.0687293,0.3537321,-0.19104071,-0.64874464,0.1203679,0.16405416,-0.12492182,1.0633487,0.17359672
