sanky1234/BimanualDexCatch/isaacgymenvs/cem_results/football_pose_0.0_-0.1_0.7999999999999999_0.0_-0.5235987755982988_0_2025-05-26.csv
x,y,z,roll,pitch,yaw,robot1/joint1,robot1/joint2,robot1/joint3,robot1/joint4,robot1/joint5,robot1/joint6,robot1/joint7,robot2/joint1,robot2/joint2,robot2/joint3,robot2/joint4,robot2/joint5,robot2/joint6,robot2/joint7
0.0,-0.1,0.7999999999999999,0.0,-0.5235987755982988,0,-0.19450718,-0.83877784,1.7720572,-0.48117834,-0.5855771,0.2599864,-0.462206,0.55457455,-0.8114777,-2.5714965,-0.029037645,-0.49733242,0.5045223,-0.85700446
0.0,-0.1,0.7999999999999999,0.0,-0.5235987755982988,0,-0.35433647,-0.779509,1.5689675,0.36944684,-0.2498576,0.26316026,-0.69310623,0.5223025,-0.8804608,-2.7894988,-0.21969427,0.65092224,-0.28047478,0.16236766
0.0,-0.1,0.7999999999999999,0.0,-0.5235987755982988,0,-0.43764713,-0.9605299,1.7355942,-0.21475711,-1.1719887,-0.15839818,0.1361793,0.5402357,-0.93419755,-2.5557628,0.020086769,0.8556348,-0.05367278,0.994227
0.0,-0.1,0.7999999999999999,0.0,-0.5235987755982988,0,-0.21991041,-0.75667554,1.3612864,0.2715342,-0.59902275,0.5267436,0.12040057,0.35583106,-0.9999799,-2.7011914,-0.2549515,-1.0265372,-0.16121373,1.2933315
0.0,-0.1,0.7999999999999999,0.0,-0.5235987755982988,0,-0.3684663,-0.7184979,1.600694,-0.111498535,-0.22161977,0.40406072,-0.42206526,0.3592574,-0.8239798,-2.598145,-0.13786395,-0.3724362,0.69444215,0.8445556
0.0,-0.1,0.7999999999999999,0.0,-0.5235987755982988,0,-0.36268875,-0.780829,1.5120898,0.17408176,0.028107727,0.44935086,-0.27233773,0.53183085,-1.0592728,-2.1090126,-0.40489596,0.15653284,0.21216069,1.6681939
0.0,-0.1,0.7999999999999999,0.0,-0.5235987755982988,0,-0.28197175,-0.6927854,1.46183,0.16462494,-0.78795964,-0.16671549,-0.30914786,0.5821874,-0.98540163,-2.5506258,-0.42790267,0.4459476,0.42461112,0.76973426
0.0,-0.1,0.7999999999999999,0.0,-0.5235987755982988,0,-0.4344957,-0.7907477,1.9694514,0.25000644,-0.5965645,0.51057863,-0.79717505,0.5203944,-0.95356506,-2.6643033,-0.5243066,-0.4249591,0.092572846,0.58680433
0.0,-0.1,0.7999999999999999,0.0,-0.5235987755982988,0,-0.19981845,-0.6810518,2.4583156,0.06013281,-0.58030605,1.1704023,0.012976749,0.35464227,-0.9182921,-2.52812,0.1905086,1.6760671,-0.35850152,-0.3835011
0.0,-0.1,0.7999999999999999,0.0,-0.5235987755982988,0,-0.15271135,-0.6990698,2.1774302,-0.6796869,-0.5632156,0.35097545,0.3390335,0.5625459,-1.0334257,-2.7423687,-0.06933763,-1.1126841,0.96981937,-0.3821232
0.0,-0.1,0.7999999999999999,0.0,-0.5235987755982988,0,-0.3163143,-0.9565384,2.0921526,-0.2735515,-0.72262967,0.7387,-0.21045804,0.53274727,-0.9317133,-2.4605646,-0.08429321,1.164676,0.67868745,0.32416737
0.0,-0.1,0.7999999999999999,0.0,-0.5235987755982988,0,-0.3935914,-1.0717463,1.4596659,-0.46746728,0.43939596,0.8775647,-0.20347464,0.50750226,-0.98922133,-2.7436771,-0.12235903,-0.3309178,0.48589,0.5398482
0.0,-0.1,0.7999999999999999,0.0,-0.5235987755982988,0,0.27458933,-0.7675779,2.127532,-0.13242704,-1.0663384,0.71826965,-0.16866456,0.63308936,-1.1254991,-2.7034438,-0.38754874,-2.0246432,-0.10496287,1.6828942
0.0,-0.1,0.7999999999999999,0.0,-0.5235987755982988,0,-0.3136376,-0.8910472,1.0152391,0.30584747,-0.4284839,0.12667349,-0.23622301,0.5337327,-0.9884815,-2.6002808,-0.06824139,0.70445645,0.06410614,0.9200269
0.0,-0.1,0.7999999999999999,0.0,-0.5235987755982988,0,-0.27852818,-0.9318053,1.7269666,0.16956283,-0.87542707,0.5765634,-0.22592765,0.5168855,-1.035304,-2.4416692,0.20034193,0.71325415,0.28008938,1.5443137
0.0,-0.1,0.7999999999999999,0.0,-0.5235987755982988,0,-0.3359593,-0.7874698,1.9700192,0.10494115,0.45921928,0.48765224,-0.34097627,0.59832895,-1.0012307,-2.5934694,-0.13892747,0.49064037,0.21001779,0.9336937
0.0,-0.1,0.7999999999999999,0.0,-0.5235987755982988,0,-0.6458094,-0.7812921,1.4962947,-0.017990118,0.05880136,0.38050607,-0.4620985,0.60033727,-0.9920763,-2.7368865,0.07970042,0.4550071,0.08345977,0.6367999
0.0,-0.1,0.7999999999999999,0.0,-0.5235987755982988,0,-0.09991694,-0.90472937,1.4439534,-0.014813735,-0.74461466,1.1118506,0.22645852,0.61561227,-0.94217116,-2.710976,-0.23314473,-0.270132,0.68017375,1.3644779
0.0,-0.1,0.7999999999999999,0.0,-0.5235987755982988,0,-0.07129481,-0.7756535,2.0134811,0.036715306,0.6668962,0.08022911,0.07733189,0.5906755,-0.9796828,-2.7471774,-0.5311113,-0.40449208,0.10932169,0.8052355
0.0,-0.1,0.7999999999999999,0.0,-0.5235987755982988,0,-0.2753931,-0.7308463,1.8792602,0.2341907,0.26185173,0.6165981,-0.06254241,0.7277542,-1.0102978,-2.681595,-0.47088936,0.87569416,0.7216601,1.3750602
0.0,-0.1,0.7999999999999999,0.0,-0.5235987755982988,0,-0.006418448,-0.7677161,2.531405,-0.19122238,0.08536935,0.53333104,-0.23094289,0.4575414,-1.0115862,-2.0864563,-0.41764447,-0.37365267,-0.16022006,1.5215845
0.0,-0.1,0.7999999999999999,0.0,-0.5235987755982988,0,0.015830675,-0.79137933,1.4226143,-0.42850795,-0.6619382,-0.101707526,-0.62261873,0.4624366,-1.041077,-2.5968597,-0.22710055,-0.10787573,0.23043935,1.4999762
0.0,-0.1,0.7999999999999999,0.0,-0.5235987755982988,0,-0.42989022,-0.8659444,1.088772,-0.30177343,-0.9099286,0.133837,-0.32634908,0.4571032,-0.8572135,-2.2696955,-0.046589825,0.7014787,-0.035787575,-0.42112684
0.0,-0.1,0.7999999999999999,0.0,-0.5235987755982988,0,-0.2732298,-0.9137084,2.849907,0.01755712,-0.5272391,-0.13664237,-0.1049821,0.45989436,-0.9343607,-2.328103,-0.16545798,1.0143152,0.11266879,0.36294755
0.0,-0.1,0.7999999999999999,0.0,-0.5235987755982988,0,-0.14106941,-0.7416589,1.5847484,-0.12459526,-1.1540909,0.7170161,-0.5814891,0.4626688,-0.8867215,-2.831557,-0.15241455,-0.33660588,0.007771694,0.9477117
0.0,-0.1,0.7999999999999999,0.0,-0.5235987755982988,0,-0.37781653,-0.7772526,1.5116858,-0.09484712,-0.2738422,0.5386012,-0.55095476,0.60706127,-0.85305053,-2.6365964,-0.22630204,-0.5509014,0.024339486,1.037674
0.0,-0.1,0.7999999999999999,0.0,-0.5235987755982988,0,-0.050732303,-0.77977854,2.9988532,-0.25490004,-0.2097793,0.48543268,-0.6765476,0.59078664,-0.749874,-2.6558173,-0.15828513,-1.0132502,-0.2865784,0.9067345
0.0,-0.1,0.7999999999999999,0.0,-0.5235987755982988,0,-0.50551707,-0.8992424,1.366901,0.06755205,-0.1101725,0.82919264,-0.1348546,0.5099981,-1.0193528,-2.4807243,-0.045022774,0.18302245,0.38103294,1.0535369
0.0,-0.1,0.7999999999999999,0.0,-0.5235987755982988,0,-0.34610328,-0.9956287,1.6318265,0.16386266,-0.8764944,0.59534776,-0.9707607,0.41463524,-0.928269,-2.2747476,-0.19440791,1.2360824,0.5531133,1.0365828
0.0,-0.1,0.7999999999999999,0.0,-0.5235987755982988,0,-0.16500968,-0.8383651,2.7758095,0.5155253,-0.51819605,0.6939017,-0.2758805,0.43088126,-0.93097806,-2.4852524,-0.22077647,-1.4176446,-0.13298313,0.33988723
0.0,-0.1,0.7999999999999999,0.0,-0.5235987755982988,0,-0.1425579,-0.6396145,2.1106095,-0.4676649,-0.12256686,0.8121308,-0.1908062,0.3169498,-0.8417757,-2.3020418,-0.28803644,0.71067125,-0.2619022,1.1732161
0.0,-0.1,0.7999999999999999,0.0,-0.5235987755982988,0,-0.34365118,-0.8961301,1.8411558,-0.21011034,-0.5138705,0.32563895,-0.20510155,0.45042858,-0.9220285,-2.54498,-0.4329159,0.23932493,0.14121793,0.5820467
0.0,-0.1,0.7999999999999999,0.0,-0.5235987755982988,0,-0.49076128,-0.6382091,1.4568248,-0.39880577,-0.6533759,0.08871564,-0.60998553,0.57927567,-0.95440465,-2.414339,-0.22625606,-0.5561006,0.32986718,0.4652463
0.0,-0.1,0.7999999999999999,0.0,-0.5235987755982988,0,-0.43120062,-0.8086019,1.2825617,0.1704495,-0.4085,0.66190624,-0.29749534,0.43480796,-0.9875899,-2.743943,-0.20661925,0.63858235,0.21678999,2.6832235
0.0,-0.1,0.7999999999999999,0.0,-0.5235987755982988,0,-0.40966707,-0.79788864,2.456496,0.65253556,0.12569056,0.6154262,-0.8640173,0.7788007,-0.96573555,-2.8737109,-0.10255507,0.38439977,0.8116366,1.5407333
0.0,-0.1,0.7999999999999999,0.0,-0.5235987755982988,0,-0.27218872,-0.8107728,2.0267668,-0.04382821,-1.2432426,0.5292078,0.09263113,0.52899253,-0.8424512,-2.7319727,-0.35287264,-0.27704668,0.48555607,0.5607909
0.0,-0.1,0.7999999999999999,0.0,-0.5235987755982988,0,-0.43959665,-0.90340114,2.1151934,-0.25992677,-0.11852053,0.9476323,-0.6864555,0.36506128,-0.98018366,-2.1659584,-0.07722722,0.88574785,0.5761997,1.0696691
0.0,-0.1,0.7999999999999999,0.0,-0.5235987755982988,0,-0.35291594,-0.8101381,1.728945,0.10008333,-0.24633558,0.23278747,0.0021036589,0.5742244,-1.0445364,-2.7082286,-0.07432707,0.5153828,-0.48605686,0.76281214
0.0,-0.1,0.7999999999999999,0.0,-0.5235987755982988,0,-0.29702994,-0.76100945,1.9189513,-0.4621092,-0.19673331,0.41647455,-0.18748781,0.47903487,-0.8310194,-2.4910338,-0.1260613,0.8508538,0.121180676,1.5949378
0.0,-0.1,0.7999999999999999,0.0,-0.5235987755982988,0,-0.28774732,-1.0040526,2.040596,-0.6314283,-0.3698916,0.42063236,-0.72334164,0.61426073,-0.86724323,-2.6145458,-0.24034609,0.36087582,0.44390738,0.2559672
0.0,-0.1,0.7999999999999999,0.0,-0.5235987755982988,0,-0.43296814,-0.9325562,2.1521297,-0.33057815,-0.20354846,0.2751811,-0.18020058,0.5523792,-0.84613025,-2.7557194,-0.122150384,-0.13342163,-0.05676847,1.4497093
0.0,-0.1,0.7999999999999999,0.0,-0.5235987755982988,0,-0.4872881,-0.70453894,1.5164547,-0.4756902,-0.26985604,0.65296537,-0.21123973,0.4200395,-0.8200209,-2.3576307,-0.20218584,-0.42463914,0.55050397,0.49944103
0.0,-0.1,0.7999999999999999,0.0,-0.5235987755982988,0,-0.26991042,-0.8481582,1.9280564,0.5086631,-0.19668151,0.64032584,-0.8667983,0.5584946,-1.016207,-2.0935237,-0.2659131,0.5055419,-0.17679296,0.72952586
0.0,-0.1,0.7999999999999999,0.0,-0.5235987755982988,0,-0.11241453,-0.88053787,2.3759203,-0.26493865,-0.42938018,0.70818985,-0.14298783,0.4887311,-0.9253667,-2.675391,-0.23554738,-0.026502043,-0.05993169,0.68452007
0.0,-0.1,0.7999999999999999,0.0,-0.5235987755982988,0,-0.10435977,-0.71947414,0.30266556,0.5487013,-0.6641162,0.57634234,0.095297806,0.52654237,-0.93307686,-1.9980967,-0.27389598,-0.3107716,0.078495234,1.5883267
0.0,-0.1,0.7999999999999999,0.0,-0.5235987755982988,0,-0.17712517,-0.7499448,1.8820632,0.2705687,-1.0359341,-0.07379961,-0.63009924,0.49607897,-0.95421916,-2.3633413,0.043211717,-0.057945132,-0.06007225,0.25447866
0.0,-0.1,0.7999999999999999,0.0,-0.5235987755982988,0,-0.29409835,-0.7560693,1.7654723,-0.27377743,-1.015856,0.34401333,-0.53828734,0.48707458,-1.0212493,-2.4678826,-0.44624564,0.99571836,0.24681893,0.6578828
0.0,-0.1,0.7999999999999999,0.0,-0.5235987755982988,0,-0.11484828,-0.75668377,1.9211923,-0.23854817,-0.27596378,0.82902884,-0.3757753,0.6324099,-0.80581623,-2.6754153,-0.32651505,1.3161385,-0.01867926,2.1839526
0.0,-0.1,0.7999999999999999,0.0,-0.5235987755982988,0,-0.4409816,-0.8641512,2.4740963,-0.42006585,-1.2471831,0.31480607,-0.41842544,0.4422108,-0.88612586,-1.8468953,-0.19851029,0.21427271,0.19955085,1.6509107
0.0,-0.1,0.7999999999999999,0.0,-0.5235987755982988,0,-0.34675363,-0.837042,0.89613336,-0.10003338,-0.40696165,0.8827158,0.33424613,0.3915867,-0.952245,-2.2019086,-0.29578352,-0.31320915,0.17901908,0.044384934
0.0,-0.1,0.7999999999999999,0.0,-0.5235987755982988,0,0.035169277,-0.7489783,1.7847084,-0.12946823,-1.4425569,0.104686454,-0.2416875,0.6875331,-0.98447907,-2.5562725,-0.4474081,0.018148227,-0.29588643,0.8898378
0.0,-0.1,0.7999999999999999,0.0,-0.5235987755982988,0,-0.31279278,-0.8317437,1.5346956,-0.4398536,-0.86042994,0.27249825,0.09959017,0.5074578,-0.82938886,-2.5181684,-0.5265523,1.1565461,0.029937001,1.0478672
0.0,-0.1,0.7999999999999999,0.0,-0.5235987755982988,0,-0.13846225,-0.9307155,0.91699636,0.23967555,-0.6071379,0.5765992,-0.49308413,0.4207549,-0.8437777,-2.757652,-0.22906263,0.3437471,-0.13329096,2.2127838
0.0,-0.1,0.7999999999999999,0.0,-0.5235987755982988,0,-0.3564326,-0.8445095,1.8093886,0.26905116,-0.48040327,0.8449606,-0.66338545,0.6030078,-0.8872808,-2.373341,-0.45555824,-0.3875662,0.51587355,1.1407099
0.0,-0.1,0.7999999999999999,0.0,-0.5235987755982988,0,-0.08542889,-0.8565695,1.7968602,-0.17187075,-0.91651976,0.21588859,-0.74313706,0.6354718,-0.91277707,-2.7352345,-0.2779892,-0.117500104,-0.5437599,1.1837275
0.0,-0.1,0.7999999999999999,0.0,-0.5235987755982988,0,-0.37773377,-0.9495585,2.202756,-0.2784282,-0.12997825,0.63106865,0.121581264,0.22218575,-1.0357687,-2.5132146,-0.51057976,0.9101967,0.52761334,0.3918249
0.0,-0.1,0.7999999999999999,0.0,-0.5235987755982988,0,-0.14766912,-0.89692163,1.3721502,0.09126427,-0.24555342,0.38137186,-0.3482537,0.5091015,-1.0036274,-2.7397592,-0.39637187,0.30024433,0.14900416,-0.3709618
0.0,-0.1,0.7999999999999999,0.0,-0.5235987755982988,0,-0.27213514,-0.807583,1.4919304,0.3808371,-0.28295168,0.7697654,0.40257347,0.4185777,-0.9206188,-2.3371131,-0.2297274,0.64317423,-0.20068297,0.67705244
0.0,-0.1,0.7999999999999999,0.0,-0.5235987755982988,0,-0.006596379,-0.8389237,1.8953352,-0.31694558,-1.4463482,0.5145718,-0.557347,0.429888,-0.94503266,-2.6957827,-0.09575171,0.89744395,0.34415492,0.865283
0.0,-0.1,0.7999999999999999,0.0,-0.5235987755982988,0,-0.029397223,-0.7091475,1.4533018,0.33160776,-0.10403127,0.31398693,-0.29591885,0.5962211,-0.91442597,-2.6674821,-0.38632193,0.77569157,-0.49564394,1.2031252
0.0,-0.1,0.7999999999999999,0.0,-0.5235987755982988,0,-0.5425943,-0.8470297,1.7267298,-0.6977779,-0.92601806,0.21097101,-0.7498636,0.5620457,-1.0069568,-2.4029377,-0.4027266,1.1358218,-0.20758894,1.4679105
0.0,-0.1,0.7999999999999999,0.0,-0.5235987755982988,0,-0.1564339,-0.68725777,1.9556459,0.25195342,-4.9895698e-05,0.0030128653,-0.4069738,0.55394256,-0.8739235,-2.2782815,-0.12884112,-0.5213529,0.19951549,1.3593122
0.0,-0.1,0.7999999999999999,0.0,-0.5235987755982988,0,-0.48175782,-0.704178,1.82812,-0.4234395,-0.95041275,0.65449417,-0.39574388,0.5279997,-1.0162075,-2.2164092,-0.22514941,-0.44073802,0.17023271,0.9747131
0.0,-0.1,0.7999999999999999,0.0,-0.5235987755982988,0,-0.19783974,-0.76016396,2.1830046,0.2932738,0.371782,0.0713981,-0.30174214,0.51065034,-0.941993,-2.5814776,-0.13234375,0.5450746,-0.037766434,0.9812551
0.0,-0.1,0.7999999999999999,0.0,-0.5235987755982988,0,-0.48282242,-0.8338547,1.9037882,-0.7191673,-0.7126993,0.15297264,-0.29522774,0.7507452,-0.8730377,-2.558483,-0.14787954,1.2920352,0.11073564,1.9467121
0.0,-0.1,0.7999999999999999,0.0,-0.5235987755982988,0,-0.44022492,-0.8289118,1.2785324,-0.002275631,-0.34093654,-0.08798154,0.03759301,0.29850137,-0.87782955,-2.5812902,-0.19736308,-0.22087109,-0.2689068,0.28778455
0.0,-0.1,0.7999999999999999,0.0,-0.5235987755982988,0,-0.41206476,-0.6945687,1.4296271,-0.019559428,-1.0780019,0.7295295,-0.3930721,0.6239526,-0.9424305,-2.847472,-0.33743063,-0.436863,-0.39343235,1.6700993
0.0,-0.1,0.7999999999999999,0.0,-0.5235987755982988,0,-0.1055757,-0.84552157,2.0250988,-0.36590058,-0.74730885,0.43187624,-0.7199062,0.31912586,-0.9366976,-2.5385494,-0.3238432,-1.221825,0.057960402,1.81148
0.0,-0.1,0.7999999999999999,0.0,-0.5235987755982988,0,-0.20350982,-0.896139,2.3518217,0.10121579,-0.74276507,0.75389916,-0.1234251,0.46273208,-0.9046854,-2.7298026,-0.2454159,2.2957687,-0.13100591,0.9145598
0.0,-0.1,0.7999999999999999,0.0,-0.5235987755982988,0,-0.29671088,-0.7482839,1.6943437,-0.6297284,-0.47884515,0.542473,-0.29627055,0.5326527,-0.8698181,-2.3645043,-0.062435035,2.3036008,-0.21923561,1.1839833
0.0,-0.1,0.7999999999999999,0.0,-0.5235987755982988,0,-0.3962431,-0.7852841,1.4906733,-0.43251154,-0.44691128,0.8021251,-0.41895157,0.62550944,-0.9178155,-2.8908312,-0.2528388,0.3779306,-0.58606726,1.3619752
0.0,-0.1,0.7999999999999999,0.0,-0.5235987755982988,0,-0.2349973,-0.765429,2.0743864,0.08063147,-0.6814521,1.0397124,-1.0342479,0.5258943,-0.9489456,-2.6922283,-0.4343756,1.1133084,0.31708676,1.4615977
0.0,-0.1,0.7999999999999999,0.0,-0.5235987755982988,0,-0.08636264,-0.91644084,1.4969274,-0.09229362,0.038254976,0.31384003,-0.22061831,0.62958664,-0.94942415,-2.4665604,-0.18392833,0.6181889,0.37039065,0.8636337
0.0,-0.1,0.7999999999999999,0.0,-0.5235987755982988,0,-0.028620724,-0.80061984,2.8360534,-0.53692824,-0.3919756,0.6278005,-0.28001678,0.30648074,-0.98506296,-2.6619775,-0.08358442,-0.40001056,0.18490303,1.4886286
0.0,-0.1,0.7999999999999999,0.0,-0.5235987755982988,0,-0.3227768,-0.8381835,1.6266702,-0.43295783,-0.33777466,0.51512885,-0.6789508,0.5080496,-0.9557708,-2.6748438,-0.1697533,-0.56740487,0.41479108,0.50260335
0.0,-0.1,0.7999999999999999,0.0,-0.5235987755982988,0,-0.19208826,-0.7753755,1.3014235,-0.5295027,-1.0372931,0.59083766,-0.04886204,0.6611405,-1.0630772,-2.2667587,-0.00811569,0.10961473,-0.09712206,0.16639955
0.0,-0.1,0.7999999999999999,0.0,-0.5235987755982988,0,-0.09980578,-0.69513655,1.9074988,0.03479067,0.1997412,0.6954607,-0.4641672,0.3942872,-0.8661245,-2.878558,-0.42207003,-0.50408095,0.6767493,0.59170187
0.0,-0.1,0.7999999999999999,0.0,-0.5235987755982988,0,-0.43931794,-0.7100171,1.433603,-0.5155088,-0.10020082,0.49848402,-0.5842055,0.46246147,-0.96075946,-2.503943,-0.23938975,0.22973624,0.2134919,-0.6739176
0.0,-0.1,0.7999999999999999,0.0,-0.5235987755982988,0,-0.09257201,-0.8697409,1.3118414,-0.15980087,0.14059752,0.7893377,-0.05216328,0.42847052,-0.92082924,-2.7696915,-0.15787031,0.5319607,0.043642357,0.4806692
0.0,-0.1,0.7999999999999999,0.0,-0.5235987755982988,0,-0.42662916,-1.0086477,1.7079799,-0.87154233,0.013181671,0.44863287,-0.12381181,0.5752522,-0.8925658,-2.5260851,-0.49921572,-0.39834705,0.03206597,1.4881283
0.0,-0.1,0.7999999999999999,0.0,-0.5235987755982988,0,-0.25217447,-0.95771074,1.5794294,-0.51703775,-0.7324606,0.88750726,-0.32870537,0.46714935,-0.8671,-2.296585,-0.4431299,0.83501554,-0.09633751,1.3732188
0.0,-0.1,0.7999999999999999,0.0,-0.5235987755982988,0,-0.39403898,-0.73164254,1.7314329,0.5450944,-0.22016709,0.6846589,-0.25070128,0.5210208,-0.94396275,-2.2152264,0.1500925,1.000974,0.2525153,1.7399577
0.0,-0.1,0.7999999999999999,0.0,-0.5235987755982988,0,0.18017411,-0.82735115,1.7503982,0.15739349,-0.49535444,-0.14070924,-0.34409848,0.35832202,-0.8719568,-2.4694355,-0.32239988,0.43318886,-0.093238786,0.18824738
0.0,-0.1,0.7999999999999999,0.0,-0.5235987755982988,0,-0.28231803,-0.84562045,1.0446651,-0.38920635,-0.25819433,1.0198165,-0.4562107,0.48243138,-0.93478984,-2.6539912,-0.51362985,-0.5672357,0.5123814,1.9285368
0.0,-0.1,0.7999999999999999,0.0,-0.5235987755982988,0,-0.32451162,-0.7608454,1.8746953,0.2966916,-1.319965,0.7292162,-0.70883465,0.41506466,-0.95810336,-2.4754872,-0.6325824,-0.75906485,0.62269175,0.6279513
0.0,-0.1,0.7999999999999999,0.0,-0.5235987755982988,0,-0.240425,-0.7127011,1.8427606,0.08400312,0.10607091,-0.17749259,-0.80437416,0.53048307,-0.88081163,-2.8928735,-0.44885617,0.3784913,-0.20344771,0.6513913
0.0,-0.1,0.7999999999999999,0.0,-0.5235987755982988,0,-0.29288685,-0.67968565,1.696567,-0.35911262,-0.9301078,0.4553281,-0.6012185,0.570131,-0.97277236,-2.9402986,0.03165247,-0.10927734,0.5083859,0.20498106
0.0,-0.1,0.7999999999999999,0.0,-0.5235987755982988,0,-0.42315024,-0.827893,2.3673317,-0.4730286,-1.0977052,0.11129037,0.23109108,0.6044481,-0.9162931,-2.7412176,-0.047246423,1.4950835,0.02736464,0.61349744
0.0,-0.1,0.7999999999999999,0.0,-0.5235987755982988,0,-0.24632613,-0.8026905,1.1549555,-0.015439651,-0.73256654,0.51164806,-0.6253229,0.5626018,-0.8698688,-2.8294091,0.003771789,-0.10219258,-1.1094934,1.7576904
0.0,-0.1,0.7999999999999999,0.0,-0.5235987755982988,0,-0.3695015,-0.76648587,1.8244567,-0.26486933,-0.56960994,0.9216237,0.034651715,0.54121363,-1.0094979,-2.330406,-0.053480804,-0.39010146,0.15029806,0.026703954
0.0,-0.1,0.7999999999999999,0.0,-0.5235987755982988,0,-0.27518153,-0.85114634,1.2653081,-0.27805278,-0.5047762,0.13013898,-0.32876858,0.4665743,-0.7978689,-2.9398675,-0.17508118,0.8585477,0.68282205,0.56484085
0.0,-0.1,0.7999999999999999,0.0,-0.5235987755982988,0,-0.1021949,-0.9365077,2.1249404,-0.24940653,-0.5816197,0.8604706,-0.26429617,0.52425414,-0.9211823,-2.7420177,-0.52611977,0.83450633,0.42250046,0.72727305
0.0,-0.1,0.7999999999999999,0.0,-0.5235987755982988,0,-0.48915714,-0.6502072,2.4180794,-0.0003042682,-0.5456955,0.48223037,-0.46784493,0.39639094,-1.0204833,-2.2939012,-0.32129923,-0.5367883,-0.025631981,0.2571942
0.0,-0.1,0.7999999999999999,0.0,-0.5235987755982988,0,-0.26424974,-0.8881468,2.4665115,-0.56888777,-0.73538345,0.12809654,-0.52697057,0.55027026,-0.9682131,-2.5124922,-0.08152835,1.3041736,0.87042314,0.26758325
0.0,-0.1,0.7999999999999999,0.0,-0.5235987755982988,0,-0.23868929,-0.93385214,1.7050028,-0.0106292255,-0.5542283,0.36529064,-0.62518483,0.5925043,-0.96797353,-2.3642983,-0.21882603,-0.35740796,-0.2880616,1.3989019
0.0,-0.1,0.7999999999999999,0.0,-0.5235987755982988,0,-0.1695665,-0.6772879,2.048015,0.18433219,-0.8514479,0.47999227,-0.23946126,0.512883,-0.8756618,-2.1764767,-0.38261607,-0.51583743,0.5080573,1.3221928
0.0,-0.1,0.7999999999999999,0.0,-0.5235987755982988,0,-0.11557429,-0.70194733,1.8813518,0.19347219,-0.82439595,0.6761786,-0.9025569,0.35387817,-0.9191912,-2.5409298,-0.17985648,0.49526027,0.2758842,1.2678114
0.0,-0.1,0.7999999999999999,0.0,-0.5235987755982988,0,-0.511509,-0.81690264,2.1627896,0.048952755,-0.2383233,0.017649097,-0.5808753,0.29522303,-0.88448143,-2.5649228,-0.45714343,0.5129539,0.630531,0.9568837
0.0,-0.1,0.7999999999999999,0.0,-0.5235987755982988,0,-0.08881699,-0.9420826,1.1504563,-0.24231924,-0.68916136,0.2781548,0.28370756,0.42003518,-0.9085879,-2.7262087,-0.24523494,-0.47998756,1.1761966,0.7880092
0.0,-0.1,0.7999999999999999,0.0,-0.5235987755982988,0,-0.16418305,-0.868787,1.5451298,0.4719494,-0.8400762,0.4710224,-0.77046853,0.50925064,-0.9438611,-2.2248685,-0.14614065,1.0553167,-0.41581404,0.6371387
0.0,-0.1,0.7999999999999999,0.0,-0.5235987755982988,0,-0.22110336,-0.9651484,2.673491,0.21147484,-0.88242084,0.7298221,-0.42389312,0.45209572,-1.0029584,-2.4963753,-0.1260223,0.16985524,0.03950388,-0.018203797
0.0,-0.1,0.7999999999999999,0.0,-0.5235987755982988,0,-0.13048841,-0.8738622,2.5328736,0.2647068,-0.10492239,0.64374644,0.07156323,0.16453764,-1.1036471,-2.6618478,-0.095893934,-0.90706074,0.14987713,0.8748487
0.0,-0.1,0.7999999999999999,0.0,-0.5235987755982988,0,-0.281986,-0.78887063,0.96096665,0.39067245,0.15263537,0.2499085,-0.2679885,0.4490054,-1.0407729,-2.5583062,-0.24121314,1.454516,-0.087409124,1.5618284
0.0,-0.1,0.7999999999999999,0.0,-0.5235987755982988,0,-0.43542057,-0.83919215,1.8595704,0.09031407,-0.03725406,0.088258795,-0.8985447,0.5863581,-0.9335902,-2.6767006,-0.041230284,-1.5184926,0.15299754,0.16153571
0.0,-0.1,0.7999999999999999,0.0,-0.5235987755982988,0,-0.26756406,-0.75771195,1.3719848,-0.2057007,-0.37676403,0.3551373,-0.08934606,0.33122852,-0.9033122,-2.4863348,-0.4307893,-0.11734189,0.11299133,0.78411055
0.0,-0.1,0.7999999999999999,0.0,-0.5235987755982988,0,-0.30568647,-0.73552334,1.877353,-0.024840392,-0.17731252,0.84287244,-0.06298013,0.6530934,-0.95292956,-2.3855982,-0.33682626,1.0923628,0.34979516,0.80620927
0.0,-0.1,0.7999999999999999,0.0,-0.5235987755982988,0,-0.22237295,-0.83534986,1.1978605,0.42118955,-0.8537116,0.20766276,-0.27905166,0.4347196,-0.95238674,-2.286611,0.01832486,1.7581,0.19483007,0.3415898
0.0,-0.1,0.7999999999999999,0.0,-0.5235987755982988,0,-0.34821904,-0.8110579,1.8747247,0.064065054,-0.40364984,0.9924417,-0.6835361,0.6385114,-0.9900341,-2.7308364,-0.5997042,0.40181547,-0.09986421,0.99319977
0.0,-0.1,0.7999999999999999,0.0,-0.5235987755982988,0,-0.1326179,-0.8108519,1.6505619,-0.18571475,-0.38124537,0.42392242,-0.016216373,0.4740285,-1.0325558,-2.5548067,-0.18243115,1.6862476,0.13455303,0.63992834
0.0,-0.1,0.7999999999999999,0.0,-0.5235987755982988,0,-0.21274279,-0.8048325,2.2025049,0.24925274,-0.77466935,0.71504277,0.57385164,0.48225877,-1.0183647,-2.2025702,-0.32106456,0.37403563,-0.24222454,-0.09595032
0.0,-0.1,0.7999999999999999,0.0,-0.5235987755982988,0,-0.04181099,-0.7577013,1.5059658,0.10753553,-0.63598883,0.55610716,-0.45231596,0.31985646,-0.80122083,-2.39993,-0.17324996,0.67395973,0.16153589,-0.06302422
0.0,-0.1,0.7999999999999999,0.0,-0.5235987755982988,0,-0.31568962,-0.6946251,1.7442932,0.2135061,-0.6085237,0.11733919,-0.5887309,0.53642434,-0.84328574,-2.9548357,-0.30864847,0.7111232,-0.0806179,-0.59440935
0.0,-0.1,0.7999999999999999,0.0,-0.5235987755982988,0,-0.14947729,-0.8787031,1.2347866,-0.29538444,-0.47280642,0.34533262,-0.074830905,0.32882732,-0.9896652,-2.4191024,0.029039849,0.2744681,0.5019528,0.33497986
0.0,-0.1,0.7999999999999999,0.0,-0.5235987755982988,0,-0.43826523,-0.87919956,0.83346236,-0.30241197,-0.3436815,0.708506,-0.64209646,0.56354433,-0.86738133,-2.8424716,-0.08150043,1.2577971,-0.0078587355,0.4660862
0.0,-0.1,0.7999999999999999,0.0,-0.5235987755982988,0,-0.740206,-0.92526835,1.754342,-0.32886547,-0.91677433,0.50323254,-0.11131733,0.35749492,-0.9685024,-2.7041512,-0.30694264,-1.1943239,0.19792674,1.7116245
0.0,-0.1,0.7999999999999999,0.0,-0.5235987755982988,0,-0.13510887,-0.90931135,1.5402014,0.3500839,0.2239611,0.9654302,-0.39225334,0.6948783,-0.79238,-2.6803634,0.04558435,0.467008,0.18284193,1.0956147
0.0,-0.1,0.7999999999999999,0.0,-0.5235987755982988,0,-0.4297098,-0.8220674,2.3016589,0.26177976,-0.8563185,-0.38467616,0.2688116,0.56341696,-1.0257723,-2.4783096,-0.46622145,-0.51825446,-0.29875344,0.7781514
0.0,-0.1,0.7999999999999999,0.0,-0.5235987755982988,0,-0.22009996,-0.82042605,1.5718234,-0.23015308,-0.36098534,0.6874047,-0.5749604,0.5530269,-1.0065602,-2.4129767,-0.5160301,1.1338338,0.019431883,1.5033479
0.0,-0.1,0.7999999999999999,0.0,-0.5235987755982988,0,-0.051663518,-0.9866708,2.8956254,-0.26939297,-1.0494797,-0.43359134,-0.23666412,0.57567966,-1.053148,-2.4475696,-0.16675965,1.1247354,-0.14349914,1.3944201
0.0,-0.1,0.7999999999999999,0.0,-0.5235987755982988,0,-0.34110498,-0.84365034,2.7706723,0.13195083,-0.37849775,0.66785675,-0.53430295,0.40944108,-0.9834578,-2.6498785,-0.285863,-0.11173123,0.5517419,1.1122096
0.0,-0.1,0.7999999999999999,0.0,-0.5235987755982988,0,-0.16952232,-0.80987597,2.134045,0.28853834,-0.20107378,0.36976734,-0.78037465,0.31399995,-0.94231635,-2.707229,-0.3011059,1.3457478,0.20883758,0.5537795
0.0,-0.1,0.7999999999999999,0.0,-0.5235987755982988,0,-0.14057122,-0.81434053,1.2555875,-0.2952315,-0.21232325,0.8922953,0.21315196,0.45987135,-1.0211211,-2.7420006,-0.2537089,0.006400787,0.061490692,0.9763696
0.0,-0.1,0.7999999999999999,0.0,-0.5235987755982988,0,-0.3341247,-0.68497956,1.6459993,-0.43986416,-1.0650632,0.12549987,-0.10748374,0.5129913,-0.96045136,-2.4471014,0.054018706,0.99619186,0.24437174,0.21057871
0.0,-0.1,0.7999999999999999,0.0,-0.5235987755982988,0,-0.22926997,-0.7215246,2.1792254,0.26082593,-0.40795,0.3673824,-0.4188811,0.64269656,-0.92387885,-2.2957137,-0.18424958,0.32893792,0.5014394,0.7462526
0.0,-0.1,0.7999999999999999,0.0,-0.5235987755982988,0,-0.48295757,-0.83091575,0.9985123,-0.25873387,0.17238331,0.71015173,-0.3986888,0.28249237,-0.9173894,-2.5201116,-0.007967626,-0.1316082,0.29594335,0.95328873
0.0,-0.1,0.7999999999999999,0.0,-0.5235987755982988,0,-0.37994236,-0.73330575,1.3812923,0.1293044,-0.18955603,0.48946324,-0.64737475,0.4979886,-0.852355,-2.433068,-0.11748666,-0.26942253,0.053935315,-0.14776172
0.0,-0.1,0.7999999999999999,0.0,-0.5235987755982988,0,-0.08855656,-0.5761011,1.0577936,0.18857731,-0.40083733,0.27240455,-0.35628054,0.49968314,-0.9076067,-3.045406,-0.046217542,-0.11469049,-0.047516607,2.0180027
0.0,-0.1,0.7999999999999999,0.0,-0.5235987755982988,0,-0.6492987,-0.89654106,2.1278303,0.030632958,-0.44498706,-0.023365641,-0.43427756,0.5999047,-0.8695704,-2.5329938,-0.27101615,0.6794503,0.69947255,-0.014684239
0.0,-0.1,0.7999999999999999,0.0,-0.5235987755982988,0,-0.5407652,-0.81481206,1.1350552,-0.018725483,-0.44814628,0.70749307,-0.34013417,0.49228004,-0.90198284,-2.5975482,-0.15069388,-0.3236161,0.27304864,1.2104459
0.0,-0.1,0.7999999999999999,0.0,-0.5235987755982988,0,-0.43782622,-0.8715856,2.8631172,0.02423052,-0.6426407,0.4864883,0.15275154,0.6352171,-0.99591494,-2.326399,-0.47381726,0.39148328,-0.030915039,2.3182013
0.0,-0.1,0.7999999999999999,0.0,-0.5235987755982988,0,-0.42632303,-0.9455486,1.1880308,0.063372396,-0.3611526,0.8651022,-0.40649894,0.40985438,-0.9248385,-2.5907376,0.03810988,-0.5130387,-0.20077245,0.48783013
0.0,-0.1,0.7999999999999999,0.0,-0.5235987755982988,0,-0.32804465,-0.78292286,2.674384,0.0062263566,-0.5796751,0.8064938,0.15776134,0.49592757,-1.0383406,-2.876401,-0.17365475,0.3345671,0.2853655,1.835107
0.0,-0.1,0.7999999999999999,0.0,-0.5235987755982988,0,-0.47532997,-0.81905496,2.5393944,0.18193173,-0.8649331,0.42232236,-0.25181273,0.53912723,-0.9824744,-2.3229358,-0.02613602,1.0826749,0.18719882,0.7156415
0.0,-0.1,0.7999999999999999,0.0,-0.5235987755982988,0,-0.22839394,-0.81308645,0.9451681,-0.10881514,-0.06142699,0.7653601,-0.33909512,0.35333422,-0.8872022,-2.4191303,-0.023723345,0.53285456,0.22926618,-0.21292731
0.0,-0.1,0.7999999999999999,0.0,-0.5235987755982988,0,-0.07601404,-0.87137806,1.810325,0.21427234,-1.109816,0.2199947,-0.014649056,0.38575438,-0.96021366,-2.4162512,-0.7201744,0.4150091,-0.21589461,0.70183396
0.0,-0.1,0.7999999999999999,0.0,-0.5235987755982988,0,-0.38052782,-0.9038899,1.5423961,-0.23788704,-0.5540558,0.4715608,-0.051742405,0.30944037,-0.9742023,-2.336869,-0.13667229,-0.04508711,-0.051632088,-0.3908713
0.0,-0.1,0.7999999999999999,0.0,-0.5235987755982988,0,0.02715661,-0.849781,1.0395299,0.33121598,-0.46859753,0.49168178,-0.5778506,0.50465,-0.9830859,-2.546371,-0.4598734,0.5743125,-0.32749477,1.5758694
0.0,-0.1,0.7999999999999999,0.0,-0.5235987755982988,0,-0.16235653,-0.8141765,2.2609205,-0.13469627,-0.18963188,0.8131322,-0.20021172,0.40218696,-0.87217766,-2.68611,-0.3211803,-1.6737685,0.34538248,1.5314652
0.0,-0.1,0.7999999999999999,0.0,-0.5235987755982988,0,-0.3525629,-0.8233614,1.5378383,0.26871473,-0.7544271,0.5083344,-0.11135864,0.6323066,-0.9025706,-2.706401,-0.29392105,0.9900903,0.51448417,1.0033755
0.0,-0.1,0.7999999999999999,0.0,-0.5235987755982988,0,-0.50472766,-0.61662,1.6806592,-0.24052243,-0.117900506,0.41130152,-0.8350465,0.5373744,-0.9347215,-2.398967,0.0689395,-0.8810732,0.87877744,0.8399018
0.0,-0.1,0.7999999999999999,0.0,-0.5235987755982988,0,-0.38275054,-0.7982705,1.2994325,0.027979378,-1.0634899,0.31292075,-0.32871258,0.5540183,-0.94007695,-2.2721622,-0.22410081,-0.101008914,0.197896,1.6603315
0.0,-0.1,0.7999999999999999,0.0,-0.5235987755982988,0,-0.36016437,-0.57172364,2.2808793,0.033984642,-0.3192999,0.7792103,-0.5202319,0.5709203,-0.97396,-2.3884096,-0.12664308,-1.0474087,-0.6357751,1.2315688
0.0,-0.1,0.7999999999999999,0.0,-0.5235987755982988,0,-0.28324884,-0.84839606,1.8160346,-0.19331819,-0.69625676,0.43831134,-0.8731031,0.69018567,-0.8538319,-2.684973,-0.43117428,1.1677256,-0.129269,1.236441
0.0,-0.1,0.7999999999999999,0.0,-0.5235987755982988,0,-0.2226226,-0.6871131,1.9192182,0.5587769,-0.6697182,0.50714535,-0.07020974,0.52845305,-0.8219193,-2.1135166,-0.001269969,-0.7549512,-0.8207145,0.28960213
0.0,-0.1,0.7999999999999999,0.0,-0.5235987755982988,0,-0.41795877,-0.8306708,1.9431033,0.19227912,-0.11421015,0.6027531,-0.6585943,0.68173397,-0.8320401,-2.854145,-0.2818315,0.17805465,0.3725536,0.2529497
0.0,-0.1,0.7999999999999999,0.0,-0.5235987755982988,0,-0.38360703,-0.8299863,2.546682,-0.04251806,-0.8066835,0.024768574,0.022191664,0.46879598,-1.0725291,-2.214912,-0.112174936,-0.12165276,-0.09822719,2.1046145
0.0,-0.1,0.7999999999999999,0.0,-0.5235987755982988,0,-0.035441365,-0.710807,1.7470018,-0.33889973,-0.28418207,0.17251915,-0.531533,0.73011726,-0.8774088,-2.777991,-0.3030138,0.6802504,0.9149371,1.1519654
0.0,-0.1,0.7999999999999999,0.0,-0.5235987755982988,0,-0.43565002,-0.7476816,2.3382354,0.061031647,-1.0725203,0.16365516,-0.8775573,0.29406026,-0.9900327,-2.9438083,-0.16544022,0.4087953,0.6105107,1.5645901
0.0,-0.1,0.7999999999999999,0.0,-0.5235987755982988,0,-0.27226785,-0.8720499,2.0439632,0.35407907,-0.55719274,0.08871309,-0.09362585,0.44747853,-1.0353644,-2.544342,-0.1367361,0.880175,0.17977686,0.87461793
0.0,-0.1,0.7999999999999999,0.0,-0.5235987755982988,0,-0.3464589,-0.82406855,2.4020374,-0.06133972,-0.8313396,0.2649862,-0.5902736,0.5007169,-0.83979464,-2.5036337,-0.2825726,1.6254823,0.14471476,0.59066045
0.0,-0.1,0.7999999999999999,0.0,-0.5235987755982988,0,-0.30862948,-0.941562,1.8058742,0.24069577,-0.8743514,-0.05578787,0.015536023,0.4072896,-0.840696,-2.2562208,-0.08648591,0.6280172,0.17468776,2.18552
0.0,-0.1,0.7999999999999999,0.0,-0.5235987755982988,0,-0.4141806,-0.8227843,2.2585115,0.184981,-0.1459318,0.6867846,-0.22602583,0.7454203,-1.0554713,-2.3948112,-0.06308126,0.7203511,-0.51265293,-0.10922388
0.0,-0.1,0.7999999999999999,0.0,-0.5235987755982988,0,-0.07318278,-0.7719319,1.3838538,-0.29591602,0.099706255,0.43646452,-0.9852713,0.6179921,-1.0280296,-2.4432797,-0.09391786,0.52688277,0.3953512,1.903107
0.0,-0.1,0.7999999999999999,0.0,-0.5235987755982988,0,-0.30995616,-0.84258896,1.8369973,0.14489059,-1.1006248,0.47842407,0.109682254,0.47270852,-0.79784787,-2.7355974,-0.042187903,0.61393267,0.4092384,0.0010268979
0.0,-0.1,0.7999999999999999,0.0,-0.5235987755982988,0,-0.40435934,-0.7456313,1.6730851,-0.11349407,-0.43320775,-0.0010995503,-0.17252557,0.54355,-0.91502786,-2.4847794,-0.11456776,1.2197723,-0.11414861,0.44494057
0.0,-0.1,0.7999999999999999,0.0,-0.5235987755982988,0,-0.46087858,-0.8801331,1.8419367,-0.43172726,-0.8143354,0.23911518,-0.2950243,0.5355038,-0.9158665,-2.5945094,-0.28933278,-0.0046649477,0.07155329,1.1752782
0.0,-0.1,0.7999999999999999,0.0,-0.5235987755982988,0,-0.25074464,-0.8575454,2.1118903,0.061999638,-0.40875638,0.40138236,-0.5818679,0.6026059,-1.0305687,-2.6623652,-0.36851928,0.26069903,0.32846695,0.7349078
0.0,-0.1,0.7999999999999999,0.0,-0.5235987755982988,0,-0.2692744,-0.82847244,1.710523,-0.8052022,-0.41758484,-0.06285672,-0.24579331,0.5844349,-0.8202982,-2.5309048,-0.3559958,0.2992045,0.5040144,0.23247012
0.0,-0.1,0.7999999999999999,0.0,-0.5235987755982988,0,-0.36144453,-0.77962875,1.8387712,0.91342455,-0.3220758,0.30503222,-0.8305892,0.52676696,-0.9829986,-2.7002664,-0.23068425,-0.46147686,0.2485465,0.9884093
0.0,-0.1,0.7999999999999999,0.0,-0.5235987755982988,0,-0.2831148,-0.76012254,2.4343805,0.4117953,-0.16574374,0.67541987,-0.6072426,0.5845568,-0.9657228,-2.3031874,-0.38884655,0.112457216,0.4874295,2.0215986
0.0,-0.1,0.7999999999999999,0.0,-0.5235987755982988,0,-0.24720265,-0.75132704,1.0574042,0.1598527,-0.7178118,0.014570504,-0.39340982,0.6134154,-0.94055986,-3.062975,-0.045991797,0.47019127,0.45231137,1.8440874
0.0,-0.1,0.7999999999999999,0.0,-0.5235987755982988,0,-0.17190072,-0.7012721,1.1779522,0.034552034,-0.07732971,0.86941475,-0.19853707,0.3433982,-0.8371575,-2.0575826,0.031181399,1.0955408,-0.093124025,-0.14214042
0.0,-0.1,0.7999999999999999,0.0,-0.5235987755982988,0,-0.4258572,-0.91359186,1.6367115,-0.1653705,-1.1103172,0.872853,-0.47471526,0.360621,-0.99275005,-2.7239728,-0.4265446,1.2779226,0.676946,0.07362336
0.0,-0.1,0.7999999999999999,0.0,-0.5235987755982988,0,-0.2666311,-0.7596348,1.5043621,-0.40716043,-0.6050635,0.20505616,-0.85999954,0.52413154,-0.91729164,-2.8713949,-0.10604873,-0.50459284,0.6446187,0.7114663
0.0,-0.1,0.7999999999999999,0.0,-0.5235987755982988,0,-0.3169796,-0.72431827,1.2262892,-0.08416524,-1.0284299,0.37092167,-0.6540455,0.44440144,-0.8831542,-2.4913275,-0.31483296,1.2751931,-0.19017655,1.1224923
0.0,-0.1,0.7999999999999999,0.0,-0.5235987755982988,0,-0.48302746,-0.8477033,2.455996,0.023271125,-0.33437908,0.2275478,-0.30617702,0.3965372,-0.9402284,-2.7684386,-0.34840825,-0.92784214,0.28285033,-0.29198715
0.0,-0.1,0.7999999999999999,0.0,-0.5235987755982988,0,-0.15200603,-0.76037264,1.528816,-0.03678387,-0.8941082,0.68483055,-0.17737523,0.46477535,-0.98062,-2.6693437,-0.5677099,-0.563183,-0.14516188,1.2347231
0.0,-0.1,0.7999999999999999,0.0,-0.5235987755982988,0,-0.2968667,-0.766523,2.8972526,-0.107132256,-0.5338798,0.65250796,-0.9655461,0.50453067,-0.8574483,-2.9089925,-0.31298307,-0.21026216,0.1917421,0.88017935
0.0,-0.1,0.7999999999999999,0.0,-0.5235987755982988,0,-0.1259234,-0.8693009,2.411244,0.09486289,-0.553486,0.78805685,-0.4700607,0.32454145,-1.030505,-2.255156,-0.26930675,-0.83106774,0.35110706,0.46998563
0.0,-0.1,0.7999999999999999,0.0,-0.5235987755982988,0,-0.49952877,-0.9120146,1.4611055,-0.5152826,-0.9099791,0.32640705,-0.0996722,0.4934744,-0.87214035,-2.6028152,0.18479122,-0.82058877,0.36298573,0.36996087
0.0,-0.1,0.7999999999999999,0.0,-0.5235987755982988,0,-0.3185834,-0.9502254,1.823628,0.04627682,-0.3463439,0.652691,-0.7385561,0.4067652,-0.9985557,-2.4330094,0.15244034,-0.50201774,0.51195824,0.7305595
0.0,-0.1,0.7999999999999999,0.0,-0.5235987755982988,0,-0.5049579,-0.7411327,1.3930266,0.20088331,-0.67776954,0.037449673,-0.57060593,0.41945466,-1.0234237,-2.5897071,-0.0031235598,-0.06428156,-0.23274931,-0.32520068
0.0,-0.1,0.7999999999999999,0.0,-0.5235987755982988,0,-0.27043745,-0.75847435,1.7265568,-0.10172281,-0.31817722,0.115027785,-0.16153945,0.45569262,-1.0488045,-2.7765856,-0.18473119,-0.9638994,0.6338232,1.3822216
0.0,-0.1,0.7999999999999999,0.0,-0.5235987755982988,0,-0.19729562,-0.89511395,1.6216067,0.25188646,-0.016216815,-0.060618415,0.43293875,0.7531679,-0.96027476,-2.5810912,0.21832001,0.91396177,-0.022753255,0.7441233
0.0,-0.1,0.7999999999999999,0.0,-0.5235987755982988,0,-0.5473969,-0.8452504,1.2745676,0.08356076,-0.15901929,0.37096003,-0.20769285,0.6477372,-1.0230561,-2.458904,0.07555975,-1.2182587,-0.00020120371,1.3335458
0.0,-0.1,0.7999999999999999,0.0,-0.5235987755982988,0,-0.17125198,-0.8513356,1.5726538,-0.030624127,-0.579729,1.0195578,0.31067985,0.63834697,-1.0539788,-2.2655678,0.013609089,0.48362884,0.49112785,1.0700284
0.0,-0.1,0.7999999999999999,0.0,-0.5235987755982988,0,-0.6787647,-0.8408188,1.0994227,0.024717346,-0.09233363,0.7307542,-0.7477248,0.46065098,-0.89500755,-2.4546714,-0.20776494,-0.8234657,-0.08672147,1.1382296
0.0,-0.1,0.7999999999999999,0.0,-0.5235987755982988,0,-0.50920683,-0.92082506,1.3760382,0.040628187,-0.21347426,0.6810143,-0.5618686,0.52495784,-0.89235973,-2.5412009,-0.19224201,0.98733324,0.066240646,1.14515
0.0,-0.1,0.7999999999999999,0.0,-0.5235987755982988,0,-0.15412623,-0.65009433,1.0703173,-0.12867333,-0.7279785,0.32217917,-0.29887712,0.43462533,-1.0097165,-2.2414913,-0.11203038,1.889681,-0.6367381,0.66404295
0.0,-0.1,0.7999999999999999,0.0,-0.5235987755982988,0,-0.4016884,-0.75297385,1.2172973,0.34111735,-0.7490406,0.3847706,-0.5867982,0.39594853,-0.95821315,-2.6771262,-0.21011578,-0.2326714,0.27284363,-0.18789558
0.0,-0.1,0.7999999999999999,0.0,-0.5235987755982988,0,-0.26057246,-0.80183923,1.7481798,-0.6641951,-0.45335916,0.453378,-0.21103741,0.46168855,-0.99972284,-2.2890265,-0.12970823,0.77513325,-0.22763106,1.7123704
0.0,-0.1,0.7999999999999999,0.0,-0.5235987755982988,0,-0.14017373,-0.86428773,1.9772388,-0.09609866,-0.39682227,0.82772976,-0.14858745,0.3072121,-0.95556074,-2.9325376,-0.15665245,0.26752415,-0.27368206,0.32924822
0.0,-0.1,0.7999999999999999,0.0,-0.5235987755982988,0,-0.38798276,-0.9797899,2.446873,-0.14232467,-0.26566392,0.64484626,-0.8384836,0.40407005,-0.88788164,-2.2621632,-0.098343395,0.37139207,0.36989424,0.82268673
0.0,-0.1,0.7999999999999999,0.0,-0.5235987755982988,0,-0.7343681,-0.884118,1.485897,0.08173347,-0.63477206,0.51115036,-0.72446835,0.50765604,-1.0955282,-2.5021234,-0.16062638,1.0189291,-0.4678938,-0.6121686
0.0,-0.1,0.7999999999999999,0.0,-0.5235987755982988,0,-0.2536878,-0.9403374,1.0518112,0.18267675,0.87731194,0.23966232,-0.33637288,0.46843675,-0.9836465,-2.4486368,-0.27704787,-0.30774704,0.025696006,1.2382756
0.0,-0.1,0.7999999999999999,0.0,-0.5235987755982988,0,-0.24451403,-0.890159,1.9400808,-0.20036238,-0.5502643,0.5697347,-0.5904188,0.505337,-0.99967784,-2.429633,-0.5215159,1.6891588,0.64583385,1.0815417
0.0,-0.1,0.7999999999999999,0.0,-0.5235987755982988,0,-0.31737003,-0.93549514,1.9200605,-0.04031402,-1.1307768,1.041378,-0.9564369,0.55070007,-0.8964623,-2.3472414,-0.08187098,0.6064154,0.10870862,-0.13638863
0.0,-0.1,0.7999999999999999,0.0,-0.5235987755982988,0,-0.13320959,-0.8021775,2.312418,-0.5037316,-1.3621131,0.6946072,-1.0113652,0.6194077,-1.1162494,-2.6217663,-0.41377485,0.39218462,0.26592007,0.55951375
0.0,-0.1,0.7999999999999999,0.0,-0.5235987755982988,0,-0.2665636,-0.7848074,1.886041,0.14822187,-1.0405198,0.77147084,-1.0284256,0.5272566,-0.91561806,-2.71311,-0.2834213,-0.11483953,-0.3916223,0.93994373
0.0,-0.1,0.7999999999999999,0.0,-0.5235987755982988,0,-0.34243304,-0.8138587,2.5676916,-0.7653959,-0.35454988,0.26251134,-0.29679045,0.5509383,-0.82729936,-2.4518666,-0.15972956,1.4396545,-0.3208376,-1.1531037
0.0,-0.1,0.7999999999999999,0.0,-0.5235987755982988,0,-0.3079775,-0.5915111,1.7324773,0.16847858,-0.60662854,0.63905,-0.9338837,0.3912765,-0.90325284,-2.5753148,0.11410963,0.9008315,-0.6981851,0.7865254
0.0,-0.1,0.7999999999999999,0.0,-0.5235987755982988,0,-0.23932049,-0.69655013,1.220583,-0.34312317,-0.5107993,0.60730803,-0.18161489,0.5283848,-0.91915995,-2.6802235,0.096168585,-0.65963346,-0.24359512,2.9761634
0.0,-0.1,0.7999999999999999,0.0,-0.5235987755982988,0,-0.35306093,-0.7115407,1.780102,-0.041280374,-1.1221666,0.2872885,-0.6859718,0.38568088,-0.895509,-2.1367369,-0.4015107,-0.2798765,-0.28730932,0.92692184
0.0,-0.1,0.7999999999999999,0.0,-0.5235987755982988,0,-0.10662909,-0.840527,0.9552201,-0.055269282,-0.4814644,0.4410228,-0.7027254,0.44566852,-0.97559637,-2.4608462,-0.08364713,0.30805779,-0.2806967,1.1169776
0.0,-0.1,0.7999999999999999,0.0,-0.5235987755982988,0,-0.51979864,-0.8776342,1.8295236,-0.07322277,-0.28422943,0.7896816,-0.8145714,0.5912101,-0.8590554,-2.5954602,-0.34542385,-0.107439786,-0.10845797,-0.30721292
0.0,-0.1,0.7999999999999999,0.0,-0.5235987755982988,0,-0.42272264,-0.89311045,1.3615282,-0.0661106,-0.6656891,0.059338957,-0.21110477,0.6281643,-1.0280998,-2.305988,-0.07941292,0.76060337,-1.0284384,-0.1973981
0.0,-0.1,0.7999999999999999,0.0,-0.5235987755982988,0,-0.21629743,-0.8234497,2.4187832,-0.2132689,-0.8794417,0.4690465,-0.59554595,0.47024664,-0.8934232,-2.6951952,-0.680594,-0.8604431,0.2409428,0.024318667
0.0,-0.1,0.7999999999999999,0.0,-0.5235987755982988,0,-0.28609663,-0.7995199,1.4143058,-0.38169375,-0.6952065,-0.020070093,-0.71237004,0.54752827,-0.90144646,-2.8826563,-0.18893588,0.71636623,-0.18104827,0.7742367
0.0,-0.1,0.7999999999999999,0.0,-0.5235987755982988,0,-0.39750594,-0.6642225,2.6251252,-0.09440644,-1.0934473,0.26857576,-0.68210053,0.6429833,-1.0380756,-2.485589,0.55129266,0.7723398,-0.61384493,1.7146811
0.0,-0.1,0.7999999999999999,0.0,-0.5235987755982988,0,-0.1937305,-0.8578893,2.2108982,0.31542122,-0.2885302,1.0923728,-0.33010638,0.42782187,-1.0837567,-2.444699,0.009375346,0.9891711,0.45597816,1.782752
0.0,-0.1,0.7999999999999999,0.0,-0.5235987755982988,0,-0.48843452,-0.78341156,2.3075252,0.31894365,-0.4008745,1.0346011,-0.08516864,0.3475801,-0.928633,-2.3322568,-0.25480494,0.17009649,-0.12371098,-0.27496207
0.0,-0.1,0.7999999999999999,0.0,-0.5235987755982988,0,-0.54489696,-0.8600074,1.3379922,-0.47040194,-0.51128185,0.28641164,-0.31026068,0.34309176,-1.006138,-2.5464127,0.057147197,1.0244253,0.21235341,1.2411046
0.0,-0.1,0.7999999999999999,0.0,-0.5235987755982988,0,-0.38056785,-0.78751904,1.7881163,-0.0124393,-0.96369874,0.5400428,-0.21840367,0.50505245,-0.897984,-2.7987006,0.16714801,-0.42267257,0.13827139,0.7947591
0.0,-0.1,0.7999999999999999,0.0,-0.5235987755982988,0,-0.38597402,-0.84825164,3.075093,0.07240363,-0.7064848,0.04220924,-0.22236498,0.47599232,-0.8956725,-2.4782443,-0.3554979,1.0348477,0.2838018,0.92879915
0.0,-0.1,0.7999999999999999,0.0,-0.5235987755982988,0,-0.09196407,-0.80527174,1.8929076,-0.04177938,-0.6914437,0.17544995,-0.49223694,0.57407874,-0.9308405,-2.5246034,-0.0546746,-0.96878606,0.09403911,0.25218406
0.0,-0.1,0.7999999999999999,0.0,-0.5235987755982988,0,-0.3867512,-0.7791237,1.3178899,-0.25341597,-0.68636316,0.38491306,-0.38585055,0.4936144,-1.0569113,-2.6737354,-0.080042966,0.5851389,-0.28799626,1.3551439
0.0,-0.1,0.7999999999999999,0.0,-0.5235987755982988,0,-0.17332685,-0.8841788,2.463663,0.32701907,-0.5420063,0.65113294,-0.075319506,0.5588994,-0.8984437,-2.164691,-0.054185003,1.8594422,0.023295728,0.8956976
0.0,-0.1,0.7999999999999999,0.0,-0.5235987755982988,0,-0.0631401,-0.81750983,2.1593895,-0.17042015,-0.8030954,0.49276564,-0.68186855,0.46775508,-0.8945419,-2.4700863,-0.1301761,0.36922136,-0.47189066,1.4126842
0.0,-0.1,0.7999999999999999,0.0,-0.5235987755982988,0,-0.06158146,-0.8024372,1.5333021,-0.4696059,-0.95193136,0.08409856,-0.4379989,0.58282715,-1.0311474,-2.6150112,-0.24330443,1.0603034,0.17347631,1.2506176
0.0,-0.1,0.7999999999999999,0.0,-0.5235987755982988,0,-0.100594684,-0.8665447,1.9789468,0.3139322,-0.02271981,0.915314,0.36214626,0.45278594,-0.9307256,-2.1915653,-0.14591448,-1.3579165,-0.21088806,1.0392015
0.0,-0.1,0.7999999999999999,0.0,-0.5235987755982988,0,-0.08976221,-0.85868925,1.6603115,0.0036710112,-0.4726958,0.6085603,-0.6905786,0.56477135,-0.8940738,-2.6457496,-0.117809944,0.27735543,0.7946823,0.50163895
0.0,-0.1,0.7999999999999999,0.0,-0.5235987755982988,0,-0.5476062,-0.85896266,1.7177542,0.20947763,-0.42543238,0.49687323,-0.4494765,0.3312119,-0.9875516,-2.5356688,-0.48204872,0.47014442,-0.4389343,0.86972797
0.0,-0.1,0.7999999999999999,0.0,-0.5235987755982988,0,-0.36224055,-0.8749045,1.3368936,-0.29805222,-0.7717114,1.2471043,-0.31243017,0.29894146,-1.1968955,-2.2271776,-0.2788411,-0.4592798,0.09433483,0.94184715
0.0,-0.1,0.7999999999999999,0.0,-0.5235987755982988,0,-0.20081262,-0.9044472,1.5042858,0.22914846,-0.20592272,0.54111445,-0.30957562,0.405134,-0.9229034,-2.5559306,0.18800479,0.67217404,0.14451677,1.4331251
0.0,-0.1,0.7999999999999999,0.0,-0.5235987755982988,0,-0.4926889,-0.84861434,1.8168995,-0.029825889,-0.14128022,0.36114407,-0.16573,0.4940379,-0.7352514,-2.9216046,-0.60832804,0.92894673,0.1724894,0.7948192
0.0,-0.1,0.7999999999999999,0.0,-0.5235987755982988,0,-0.2554257,-0.73383605,2.0309765,-0.08702284,-1.8443992,0.6551161,-0.64524597,0.512183,-0.9178588,-2.6827686,-0.325927,1.0387874,0.68534505,1.4358393
0.0,-0.1,0.7999999999999999,0.0,-0.5235987755982988,0,-0.27009392,-0.85102904,1.9077023,-0.6722807,-0.46325138,0.45814675,-0.08662828,0.52378106,-0.9661313,-2.7951467,-0.2211198,1.4337368,-0.5090422,1.4884856
0.0,-0.1,0.7999999999999999,0.0,-0.5235987755982988,0,-0.034449458,-0.7665092,1.4613553,-0.18987116,-0.39837003,0.78468084,-0.7287744,0.4387757,-0.9646009,-2.6157584,-0.27578098,-0.37866127,0.0731437,1.7424788
0.0,-0.1,0.7999999999999999,0.0,-0.5235987755982988,0,-0.24884707,-0.74857926,1.831266,0.10691188,-0.0890588,0.122879244,-0.058916222,0.6646796,-0.94736993,-2.4257479,-0.39910164,1.3936553,0.50833744,0.38354138
0.0,-0.1,0.7999999999999999,0.0,-0.5235987755982988,0,-0.5318589,-0.7839159,1.781613,-0.10593824,-0.89626557,0.78445184,-0.26985803,0.6067377,-0.90237516,-2.6416264,-0.42388994,1.1374881,-0.34069988,1.4475843
0.0,-0.1,0.7999999999999999,0.0,-0.5235987755982988,0,-0.40754154,-0.6269101,1.758342,-0.20133883,-0.49020964,0.4492993,0.13248326,0.4829177,-0.83575344,-2.498424,0.09067646,-0.97612906,0.6179533,-0.087489694
0.0,-0.1,0.7999999999999999,0.0,-0.5235987755982988,0,-0.70119137,-0.9024537,1.8080192,-0.26398876,-0.53727865,0.16426557,-0.085613735,0.5553362,-0.9169562,-2.5218718,-0.1690463,-0.5380014,0.33154118,1.7322316
0.0,-0.1,0.7999999999999999,0.0,-0.5235987755982988,0,-0.013735727,-0.80624825,1.2834076,-0.3680403,-0.31475064,0.4523429,-0.09147044,0.5555814,-0.87662506,-2.2942202,0.0423146,0.67898065,-0.28330693,0.7865675
0.0,-0.1,0.7999999999999999,0.0,-0.5235987755982988,0,-0.51545966,-0.9697114,1.7933347,-0.056662478,-0.3902227,0.37918094,-1.1536331,0.54987735,-0.9477151,-2.3720124,-0.2539548,-0.28378323,-0.49866554,1.6302493
0.0,-0.1,0.7999999999999999,0.0,-0.5235987755982988,0,-0.13379057,-0.9480389,1.7710675,-0.12870184,-0.7073645,0.076943256,0.11746322,0.5434535,-0.86908376,-2.8268194,-0.05095341,1.2423949,0.06257594,0.35146347
0.0,-0.1,0.7999999999999999,0.0,-0.5235987755982988,0,-0.3500424,-0.77261966,1.8860846,0.24378178,-0.6705302,0.78392124,-0.23131487,0.46787763,-0.8841716,-2.3892813,-0.22702485,-0.60088813,0.16340606,0.82733935
0.0,-0.1,0.7999999999999999,0.0,-0.5235987755982988,0,-0.17804448,-1.0174451,2.0942292,0.45351636,-0.05846196,0.45598808,-0.37417045,0.6147981,-0.92800367,-2.5406172,-0.19611761,0.9749731,0.028055627,0.60605335
0.0,-0.1,0.7999999999999999,0.0,-0.5235987755982988,0,-0.39365464,-0.6450135,1.9268022,0.12018683,-0.7803917,0.49709657,-0.034483716,0.4743663,-0.9751885,-2.6754925,-0.22653389,0.71348333,-0.4888522,2.2197247
0.0,-0.1,0.7999999999999999,0.0,-0.5235987755982988,0,-0.14208074,-0.7304399,1.3266588,0.18715036,-0.48017395,0.25522602,-0.037332404,0.3697142,-0.9618313,-2.7784944,0.029282162,-0.65489703,-0.38636437,0.19210677
0.0,-0.1,0.7999999999999999,0.0,-0.5235987755982988,0,-0.25426424,-0.71962404,1.2223666,-0.048388544,-0.6023063,0.93124956,-0.026940893,0.46920517,-1.0378616,-2.813696,-0.25903842,-0.78021985,0.25205636,1.0639752
0.0,-0.1,0.7999999999999999,0.0,-0.5235987755982988,0,-0.17818835,-0.75980604,1.6767775,-0.45498636,-0.24783862,0.56285423,-0.09007036,0.2614139,-0.84363496,-2.1146855,-0.12091783,-1.4980339,0.4580802,1.402547
0.0,-0.1,0.7999999999999999,0.0,-0.5235987755982988,0,-0.32049945,-0.7900797,1.65001,-0.10745372,-0.89085287,0.19296823,-0.23312062,0.5305971,-0.943251,-2.6377177,-0.56042224,-0.35993794,-0.58994883,0.7975201
0.0,-0.1,0.7999999999999999,0.0,-0.5235987755982988,0,-0.31103966,-0.56163234,2.1076727,0.10860161,-0.78505987,0.6502455,-0.22908942,0.52592635,-0.96832997,-2.9134786,0.156126,0.4162437,0.715439,0.20053951
0.0,-0.1,0.7999999999999999,0.0,-0.5235987755982988,0,-0.021095509,-1.0308136,1.6295711,0.29234183,-1.1211185,0.63237023,-0.61255354,0.6082266,-1.0688818,-2.496889,-0.3573428,1.6629734,0.23158038,0.44182068
0.0,-0.1,0.7999999999999999,0.0,-0.5235987755982988,0,-0.16200058,-0.8456761,1.1268401,-0.06260947,-0.14880754,-0.17365438,-0.410666,0.53436244,-1.0012163,-2.0652337,-0.3669032,-0.2322501,0.32988212,0.8615612
0.0,-0.1,0.7999999999999999,0.0,-0.5235987755982988,0,-0.58162785,-0.84911513,2.2237306,-0.15318002,-0.93241125,0.5231341,-0.36289132,0.52593786,-1.0110402,-2.3222072,-0.1319235,1.7398472,-0.4345249,0.14962217
0.0,-0.1,0.7999999999999999,0.0,-0.5235987755982988,0,-0.1913748,-0.82305044,2.0525417,0.3809898,-0.8541556,0.6758467,-0.62697214,0.44111133,-0.89504635,-2.683347,0.08088651,0.21028198,-0.11133916,-0.1814553
0.0,-0.1,0.7999999999999999,0.0,-0.5235987755982988,0,-0.19160019,-0.8438297,1.9867924,-0.00226046,-0.967608,0.619516,-0.23953058,0.6461114,-0.944896,-2.6064475,-0.24662077,-0.4423056,0.19777447,0.9470984
0.0,-0.1,0.7999999999999999,0.0,-0.5235987755982988,0,-0.181768,-0.8922881,2.6329863,-0.49126747,-1.1428659,0.4049507,-0.58456236,0.53200775,-0.9697037,-2.4932036,-0.1936214,1.2405329,-0.07310857,1.5882126
0.0,-0.1,0.7999999999999999,0.0,-0.5235987755982988,0,-0.35424852,-0.81977665,1.6314323,-0.120137595,-0.8340681,0.43696457,-0.0691742,0.41697246,-0.8951146,-2.4931178,-0.34976733,-0.75647885,0.32267913,0.77668685
0.0,-0.1,0.7999999999999999,0.0,-0.5235987755982988,0,-0.2011881,-0.93418574,0.9498325,0.06766368,-0.44456834,0.4326323,-0.6434017,0.4774764,-0.9695546,-2.650358,-0.45978296,1.1977321,-0.4186539,0.01936768
0.0,-0.1,0.7999999999999999,0.0,-0.5235987755982988,0,-0.4109856,-0.95599777,1.9322677,-0.006722235,-0.72546923,0.2659055,-0.32456312,0.6291027,-1.0173931,-2.6010115,-0.36387146,1.035186,0.34474772,0.27594626
0.0,-0.1,0.7999999999999999,0.0,-0.5235987755982988,0,-0.30035067,-0.92576504,2.278214,-0.3734863,-0.90152633,0.5220581,0.3815731,0.54956925,-1.1272854,-2.7378738,0.022526415,1.044521,0.007763937,0.986083
0.0,-0.1,0.7999999999999999,0.0,-0.5235987755982988,0,-0.45298398,-0.8625075,1.1826189,-0.39142722,-0.82520324,0.69363564,0.112970464,0.39276144,-0.9904634,-2.5406604,-0.39014283,-0.34000927,0.49326882,1.0898743
0.0,-0.1,0.7999999999999999,0.0,-0.5235987755982988,0,-0.3184909,-0.9223198,1.3184699,-0.28760722,-0.47549963,0.38725466,-0.5700333,0.43584442,-1.0398802,-2.422113,-0.13937388,0.07376614,-0.45262778,0.32209155
0.0,-0.1,0.7999999999999999,0.0,-0.5235987755982988,0,-0.46741632,-0.82965636,1.561435,-0.017622987,0.05215299,0.9285759,-0.2282159,0.7530033,-1.0458702,-2.794957,-0.3635925,-0.08235358,0.2781645,1.1193763
0.0,-0.1,0.7999999999999999,0.0,-0.5235987755982988,0,-0.39720696,-0.8931613,2.3074222,-0.3153322,-0.68946904,-0.1933713,-0.6374105,0.49855217,-0.9933484,-2.4692502,-0.20524,0.81346124,-0.15166415,0.9509732
0.0,-0.1,0.7999999999999999,0.0,-0.5235987755982988,0,-0.34978965,-0.8235768,0.7721016,-0.2746457,-0.12229482,0.37339815,-0.74276567,0.42145357,-0.98060983,-2.893382,-0.14222604,-0.2345916,0.11235289,0.9427665
0.0,-0.1,0.7999999999999999,0.0,-0.5235987755982988,0,-0.15786453,-0.98668903,1.6042916,0.24706753,-0.16945626,0.6846127,-0.24300712,0.5747133,-0.815089,-2.3852756,-0.27263692,1.3051873,0.24427497,1.4156003
0.0,-0.1,0.7999999999999999,0.0,-0.5235987755982988,0,-0.17376105,-0.7951047,1.4942585,-0.0034129974,-0.38751084,0.6673768,-0.7647365,0.5173287,-1.0288169,-2.387946,-0.023608191,1.3291711,-0.41503537,0.61286277
0.0,-0.1,0.7999999999999999,0.0,-0.5235987755982988,0,-0.14532629,-0.7933297,1.8296137,-0.03178952,-0.66249734,0.46106195,-0.79913443,0.435859,-1.0151031,-2.198332,-0.38084283,0.18487953,0.86238146,-0.39462167
0.0,-0.1,0.7999999999999999,0.0,-0.5235987755982988,0,-0.35266116,-0.878214,0.6622291,-0.43817297,-0.46059856,0.6631941,-0.79543453,0.48249942,-0.9954953,-3.1363158,-0.53023654,0.7629528,0.27078423,0.9313268
0.0,-0.1,0.7999999999999999,0.0,-0.5235987755982988,0,0.052580677,-0.7696094,0.9942385,0.041981578,-0.5050942,0.3419917,-0.347571,0.52176744,-0.9371296,-2.2266533,-0.25210208,0.749526,-0.029250812,0.12482739
0.0,-0.1,0.7999999999999999,0.0,-0.5235987755982988,0,-0.4473485,-0.928654,2.266993,-0.5131798,-0.58463395,-0.057614394,-0.1532327,0.49789834,-0.86605835,-2.466169,-0.123734295,-0.10531956,0.8383551,1.2473469
0.0,-0.1,0.7999999999999999,0.0,-0.5235987755982988,0,-0.22456194,-0.8534243,2.5236957,0.31772903,-0.98635507,0.66961896,-0.44452032,0.49444652,-0.9617223,-2.5146434,-0.04123165,0.30133808,0.17391632,0.9597703
0.0,-0.1,0.7999999999999999,0.0,-0.5235987755982988,0,-0.14103334,-0.7420728,1.9102007,-0.29565668,-0.24597296,0.12046499,-0.50425303,0.7744698,-0.8349858,-2.773964,-0.21464516,1.016835,0.20674106,1.432379
