sanky1234/BimanualDexCatch/isaacgymenvs/cem_results/football_pose_-0.1_-0.1_0.9999999999999999_0.5235987755982988_0.0_0_2025-05-25.csv
x,y,z,roll,pitch,yaw,robot1/joint1,robot1/joint2,robot1/joint3,robot1/joint4,robot1/joint5,robot1/joint6,robot1/joint7,robot2/joint1,robot2/joint2,robot2/joint3,robot2/joint4,robot2/joint5,robot2/joint6,robot2/joint7
-0.1,-0.1,0.9999999999999999,0.5235987755982988,0.0,0,-1.1715249,-1.6242094,3.1288629,0.51468664,-0.08185885,0.2038546,0.50937563,0.69539785,-0.7127635,-1.8288186,0.9834987,0.7126084,-1.0282212,-0.23304918
-0.1,-0.1,0.9999999999999999,0.5235987755982988,0.0,0,-1.1727726,-1.633237,3.1296911,0.5216986,0.0009813802,0.24031591,0.8407192,0.6913538,-0.7114682,-1.8368571,0.99025697,0.696409,-0.92195576,-1.0615431
-0.1,-0.1,0.9999999999999999,0.5235987755982988,0.0,0,-1.1730319,-1.6233019,3.1291795,0.46239802,0.09744563,0.25024477,0.6761639,0.68713903,-0.71254706,-1.8324693,0.9835496,0.54748815,-0.8501817,0.12672088
-0.1,-0.1,0.9999999999999999,0.5235987755982988,0.0,0,-1.1729077,-1.6373888,3.1317754,0.48968056,-0.0872325,0.15582392,0.02779588,0.6924436,-0.7144633,-1.8264121,0.99232584,0.46385404,-1.2066448,-0.23686941
-0.1,-0.1,0.9999999999999999,0.5235987755982988,0.0,0,-1.1706818,-1.6087079,3.1301808,0.48781112,-0.07342975,-0.014321928,0.21331163,0.6940213,-0.7117409,-1.8233312,0.98017424,0.42095613,-1.1392403,-0.75368977
-0.1,-0.1,0.9999999999999999,0.5235987755982988,0.0,0,-1.1720732,-1.6262598,3.1274803,0.4430258,0.15800963,-0.092633866,0.86153257,0.67720723,-0.70826685,-1.8277191,0.98793393,0.6879653,-1.1923808,-0.25688878
-0.1,-0.1,0.9999999999999999,0.5235987755982988,0.0,0,-1.164881,-1.6259406,3.1297076,0.46514988,-0.11296936,0.5090971,0.018233968,0.6904749,-0.7072412,-1.8247769,0.985456,0.42238003,-0.96052015,-1.1311754
-0.1,-0.1,0.9999999999999999,0.5235987755982988,0.0,0,-1.1720127,-1.6321458,3.1326308,0.5014081,-0.04939741,-0.11745886,-0.18887848,0.68880457,-0.70831525,-1.826912,0.9777113,0.591677,-1.0641581,-0.8291728
-0.1,-0.1,0.9999999999999999,0.5235987755982988,0.0,0,-1.1714317,-1.6415244,3.1302629,0.5205344,-0.18232384,0.30258772,-0.10412301,0.7053206,-0.70538485,-1.8218116,0.98289293,0.51109606,-0.9721947,0.020001573
-0.1,-0.1,0.9999999999999999,0.5235987755982988,0.0,0,-1.169572,-1.6218592,3.1304152,0.49602747,-0.0018751574,-0.02763047,1.0093077,0.6962245,-0.7045996,-1.8245159,0.9763328,0.3261201,-1.0500822,-0.5543572
-0.1,-0.1,0.9999999999999999,0.5235987755982988,0.0,0,-1.1674527,-1.6243727,3.1299481,0.46094427,-0.018924018,0.061278094,0.8297932,0.68197215,-0.70901245,-1.8282224,0.9842499,0.5807611,-1.0757408,0.31548312
-0.1,-0.1,0.9999999999999999,0.5235987755982988,0.0,0,-1.1733593,-1.6332353,3.133522,0.47794423,-0.09261788,0.23882316,0.792637,0.6920976,-0.70796454,-1.8187264,0.9887769,0.51125973,-1.0032222,0.11233045
-0.1,-0.1,0.9999999999999999,0.5235987755982988,0.0,0,-1.1706746,-1.6280572,3.1276343,0.45991272,-0.102082044,0.14682932,-0.08627662,0.68631107,-0.7065407,-1.8175155,0.9955288,0.66675377,-0.9070073,-0.45578486
-0.1,-0.1,0.9999999999999999,0.5235987755982988,0.0,0,-1.1727983,-1.6220734,3.1289005,0.5397561,-0.07628541,0.28615275,0.8298404,0.69098324,-0.71099895,-1.8263417,0.9826525,0.78523546,-1.0232644,-0.626197
-0.1,-0.1,0.9999999999999999,0.5235987755982988,0.0,0,-1.1736178,-1.6403321,3.132085,0.5142175,-0.109033406,0.045708805,0.5529355,0.68772066,-0.70161456,-1.8179016,0.978599,0.490967,-1.1719859,-0.14968812
-0.1,-0.1,0.9999999999999999,0.5235987755982988,0.0,0,-1.1725136,-1.62677,3.1263142,0.5060943,-0.054901037,0.3002723,0.06646789,0.68734837,-0.708985,-1.8322752,0.9888618,0.64006025,-1.2971194,-0.24234736
-0.1,-0.1,0.9999999999999999,0.5235987755982988,0.0,0,-1.1739349,-1.628006,3.1344035,0.49079534,-0.1864947,0.3577177,0.5610954,0.6861403,-0.71425796,-1.8480189,0.9832613,0.33285218,-1.0949717,-1.4748018
-0.1,-0.1,0.9999999999999999,0.5235987755982988,0.0,0,-1.1700407,-1.625919,3.1290243,0.5152436,0.07869503,0.051719777,-0.36029148,0.6879433,-0.7096797,-1.8196326,0.9833293,0.72235733,-1.3372234,0.9852704
-0.1,-0.1,0.9999999999999999,0.5235987755982988,0.0,0,-1.1711206,-1.6305498,3.1265676,0.53553027,-0.11850461,0.22242819,0.4454289,0.6845045,-0.7139598,-1.8326771,0.9815923,0.61513567,-0.99582267,-0.20649041
-0.1,-0.1,0.9999999999999999,0.5235987755982988,0.0,0,-1.1698471,-1.6422443,3.13527,0.52422684,0.027369319,-0.3344101,0.40022922,0.686926,-0.70832056,-1.8224096,0.99350053,0.48330614,-1.365617,0.27136347
-0.1,-0.1,0.9999999999999999,0.5235987755982988,0.0,0,-1.1696888,-1.6143222,3.1310792,0.4924442,0.054605883,0.027863275,0.43721813,0.68487895,-0.70819384,-1.8272824,0.9913541,0.55777377,-1.020432,0.11413202
-0.1,-0.1,0.9999999999999999,0.5235987755982988,0.0,0,-1.171487,-1.6285774,3.1290479,0.4864601,0.09315281,0.091711394,-0.13679238,0.68534756,-0.70609826,-1.8323003,0.98434186,0.6481615,-1.2004814,-1.0919884
-0.1,-0.1,0.9999999999999999,0.5235987755982988,0.0,0,-1.1703417,-1.6201965,3.126457,0.47549638,-0.03878158,-0.04808965,0.7297009,0.6971032,-0.7066591,-1.8251619,0.9768272,0.4713769,-0.7616725,0.058786046
-0.1,-0.1,0.9999999999999999,0.5235987755982988,0.0,0,-1.1714191,-1.6361448,3.1284873,0.45541498,0.032665804,-0.082677245,0.30899057,0.6882999,-0.7052306,-1.8244251,0.9872966,0.52400404,-0.67346436,-0.66864425
-0.1,-0.1,0.9999999999999999,0.5235987755982988,0.0,0,-1.1693159,-1.6205964,3.1325388,0.46717128,-0.14646879,0.30418083,0.29056105,0.69484097,-0.70745885,-1.8282133,0.9896189,0.5393074,-0.9287959,-0.50666654
-0.1,-0.1,0.9999999999999999,0.5235987755982988,0.0,0,-1.1696633,-1.6209853,3.1303713,0.49623758,-0.06256245,0.09861289,0.89029795,0.68745345,-0.701664,-1.8266089,0.979887,0.4853834,-0.7019991,-0.9020543
-0.1,-0.1,0.9999999999999999,0.5235987755982988,0.0,0,-1.1719462,-1.6286368,3.1270902,0.48312172,0.12107264,0.051635254,-0.070364356,0.68600243,-0.71456105,-1.8314129,0.9815596,0.40020123,-1.1824826,-0.037506945
-0.1,-0.1,0.9999999999999999,0.5235987755982988,0.0,0,-1.1700487,-1.6242211,3.130188,0.5076133,0.100240484,0.07200481,-0.109120995,0.6793346,-0.7080999,-1.8347274,0.9888409,0.5631425,-1.1787776,-0.18689188
-0.1,-0.1,0.9999999999999999,0.5235987755982988,0.0,0,-1.1683241,-1.6237984,3.1298347,0.4556506,-0.1655735,0.10758227,0.7208065,0.684728,-0.7100985,-1.8233336,0.9868502,0.54116666,-0.96747977,0.014451916
-0.1,-0.1,0.9999999999999999,0.5235987755982988,0.0,0,-1.1724533,-1.6252067,3.1340315,0.48038512,0.096306756,-0.18817604,1.0882351,0.69257903,-0.7028141,-1.8379143,0.9744986,0.54158676,-1.3739896,-0.97056377
-0.1,-0.1,0.9999999999999999,0.5235987755982988,0.0,0,-1.1691346,-1.6226169,3.1289468,0.44565263,0.005429949,-0.16965918,-0.13560213,0.69032395,-0.70836407,-1.8365031,0.98452514,0.73938745,-0.9776411,-0.54910004
-0.1,-0.1,0.9999999999999999,0.5235987755982988,0.0,0,-1.1735792,-1.6245185,3.1347327,0.4620946,0.0154362265,0.13144237,0.47040507,0.6882621,-0.712135,-1.8245316,0.98194534,0.33727375,-0.9047809,0.039738104
-0.1,-0.1,0.9999999999999999,0.5235987755982988,0.0,0,-1.1703926,-1.6290368,3.1279454,0.51457375,-0.03699905,0.4752233,-0.21878894,0.686462,-0.7042893,-1.8300638,0.99691,0.38382977,-0.9446593,0.22742745
-0.1,-0.1,0.9999999999999999,0.5235987755982988,0.0,0,-1.1691513,-1.6296666,3.1279614,0.48216605,-0.068709314,0.2699976,-0.47629806,0.68941045,-0.7074891,-1.8264384,0.9897288,0.3266501,-1.0407953,-0.12623315
-0.1,-0.1,0.9999999999999999,0.5235987755982988,0.0,0,-1.1725289,-1.6283989,3.1361134,0.48438206,-0.07115922,0.5816774,0.9238358,0.69676536,-0.7103572,-1.8232738,0.98567533,0.55372435,-1.2440027,-0.4035859
-0.1,-0.1,0.9999999999999999,0.5235987755982988,0.0,0,-1.1719935,-1.6253891,3.1288912,0.5260631,-0.018734572,0.45819408,-0.108976364,0.6805115,-0.71251875,-1.8319476,0.981028,0.4901131,-1.2264767,-0.7644385
-0.1,-0.1,0.9999999999999999,0.5235987755982988,0.0,0,-1.1680392,-1.6268207,3.127151,0.48820576,-0.055382058,-0.05143624,0.7772357,0.6749107,-0.7069516,-1.8182259,0.99012136,0.6835267,-1.05788,0.14015843
-0.1,-0.1,0.9999999999999999,0.5235987755982988,0.0,0,-1.1703393,-1.625086,3.1297536,0.5035063,-0.1895198,-0.027470233,0.01988029,0.69016063,-0.7108413,-1.8275868,0.9929586,0.50458264,-1.2315881,0.28370696
-0.1,-0.1,0.9999999999999999,0.5235987755982988,0.0,0,-1.1697166,-1.622759,3.1294787,0.49473774,-0.089056805,0.38202366,0.32818714,0.68222666,-0.7132102,-1.8256336,0.98171425,0.38849232,-0.9305627,-0.006278232
-0.1,-0.1,0.9999999999999999,0.5235987755982988,0.0,0,-1.169221,-1.6264575,3.1303647,0.4899799,-0.019448841,0.6114507,0.79885626,0.69988275,-0.7047432,-1.8252198,0.98419785,0.54727066,-0.9068742,-0.084083155
-0.1,-0.1,0.9999999999999999,0.5235987755982988,0.0,0,-1.1721017,-1.6212552,3.1314447,0.46424416,0.05277532,0.42531425,0.5025656,0.694522,-0.71379286,-1.8308086,0.9861411,0.58146226,-1.0356605,-0.4573539
-0.1,-0.1,0.9999999999999999,0.5235987755982988,0.0,0,-1.1707828,-1.628161,3.127605,0.48981845,-0.008719054,0.06323815,-0.4820665,0.68295807,-0.7063203,-1.8296059,0.9843831,0.44923067,-0.94628996,0.1942433
-0.1,-0.1,0.9999999999999999,0.5235987755982988,0.0,0,-1.1707217,-1.6206301,3.12642,0.4885534,-0.17705628,0.22954775,0.2698581,0.6860748,-0.7093231,-1.8170435,0.98793876,0.66511744,-1.1942582,-1.1165292
-0.1,-0.1,0.9999999999999999,0.5235987755982988,0.0,0,-1.1687882,-1.6299454,3.1281102,0.5294704,-0.1420145,0.47562873,0.51579165,0.6916323,-0.70174974,-1.8165314,0.9833784,0.55791956,-0.94819295,-1.0196761
-0.1,-0.1,0.9999999999999999,0.5235987755982988,0.0,0,-1.1703229,-1.6281444,3.1269035,0.48807094,-0.08494711,0.28128937,0.5455651,0.6953299,-0.7102459,-1.8298504,0.9880173,0.6682234,-1.0159976,-0.49584624
-0.1,-0.1,0.9999999999999999,0.5235987755982988,0.0,0,-1.1682837,-1.6311195,3.1341078,0.4837814,-0.09294973,-0.23032017,0.2743221,0.6907527,-0.71105886,-1.814958,0.98484683,0.5007223,-0.80991495,-0.8621459
-0.1,-0.1,0.9999999999999999,0.5235987755982988,0.0,0,-1.1691259,-1.6362264,3.1328063,0.5329563,-0.09791136,0.34661362,-0.33213675,0.6860011,-0.7038729,-1.8352932,0.9938976,0.48767605,-0.98482263,-0.42172882
-0.1,-0.1,0.9999999999999999,0.5235987755982988,0.0,0,-1.1712164,-1.6176355,3.128641,0.47954017,-0.2134447,0.6462452,0.7455078,0.68108976,-0.7044021,-1.8230169,0.9895889,0.68095124,-1.149438,-0.069723986
-0.1,-0.1,0.9999999999999999,0.5235987755982988,0.0,0,-1.1712487,-1.6321604,3.1338217,0.46369016,0.0071282284,0.34583154,0.24592634,0.705754,-0.7066764,-1.8238893,0.98394793,0.42721704,-1.1651475,-0.51887184
-0.1,-0.1,0.9999999999999999,0.5235987755982988,0.0,0,-1.1690038,-1.6323924,3.131114,0.4870151,0.023197725,0.003188023,0.70481795,0.682459,-0.71371734,-1.8275733,0.9923478,0.72033644,-0.8990853,-0.032640953
-0.1,-0.1,0.9999999999999999,0.5235987755982988,0.0,0,-1.1746253,-1.618997,3.1306558,0.45661762,0.03626813,-0.04014996,0.52707046,0.68922985,-0.71101236,-1.8256636,0.9850734,0.3848778,-0.96883327,0.22232804
-0.1,-0.1,0.9999999999999999,0.5235987755982988,0.0,0,-1.1683999,-1.6221137,3.1338592,0.4671447,-0.05370869,-0.11005694,-0.4399055,0.6869726,-0.7021118,-1.8237156,0.9888842,0.34091604,-1.0034645,0.2990028
-0.1,-0.1,0.9999999999999999,0.5235987755982988,0.0,0,-1.1743248,-1.6219888,3.1311955,0.49364182,-0.03127751,-0.14735508,0.2952936,0.68948585,-0.70254767,-1.8289139,0.9826037,0.63446486,-0.7716738,-0.8963348
-0.1,-0.1,0.9999999999999999,0.5235987755982988,0.0,0,-1.1705087,-1.62824,3.1284096,0.50949115,-0.10082505,0.45350954,-0.25945383,0.69537723,-0.71294427,-1.8266336,0.99456805,0.4818991,-1.1273493,-0.33052823
-0.1,-0.1,0.9999999999999999,0.5235987755982988,0.0,0,-1.1693957,-1.6228669,3.1275826,0.5060149,-0.15651794,0.23256227,0.7423573,0.6830988,-0.7061264,-1.8219059,0.9855034,0.51136243,-0.77634937,0.45843416
-0.1,-0.1,0.9999999999999999,0.5235987755982988,0.0,0,-1.1688935,-1.6218914,3.13373,0.5126944,0.097409695,0.06633349,-0.70043725,0.6931266,-0.71187836,-1.8369033,0.98785686,0.54151016,-1.1007457,-0.25210908
-0.1,-0.1,0.9999999999999999,0.5235987755982988,0.0,0,-1.1714652,-1.6370912,3.131847,0.47899306,-0.3407845,0.33529145,0.21034007,0.69077027,-0.70440793,-1.8275138,0.9918589,0.55902696,-1.2612425,0.19856337
-0.1,-0.1,0.9999999999999999,0.5235987755982988,0.0,0,-1.1703993,-1.6289113,3.1272697,0.47155932,-0.07306636,0.17889982,-0.25552407,0.6902063,-0.70834297,-1.8297071,0.9954052,0.5769893,-1.0859745,0.121308826
-0.1,-0.1,0.9999999999999999,0.5235987755982988,0.0,0,-1.1689987,-1.6211396,3.128721,0.4792465,0.038380317,0.18945892,0.23129262,0.6820994,-0.71645236,-1.8259492,0.98309153,0.50146896,-1.0389118,0.12896806
-0.1,-0.1,0.9999999999999999,0.5235987755982988,0.0,0,-1.1700778,-1.6234945,3.129735,0.49477255,-0.024358682,0.31987798,0.564272,0.68598396,-0.7136251,-1.8160079,0.9898317,0.6203964,-0.98931277,-0.68872535
-0.1,-0.1,0.9999999999999999,0.5235987755982988,0.0,0,-1.1721959,-1.6278907,3.1330342,0.55254847,-0.21395807,0.35399887,0.21143301,0.69377667,-0.7104889,-1.8314643,0.9834226,0.6159268,-1.0617907,-0.47852984
-0.1,-0.1,0.9999999999999999,0.5235987755982988,0.0,0,-1.1697433,-1.6328456,3.1338758,0.50643337,-0.021632414,-0.0038093657,-0.13232857,0.6908648,-0.7042495,-1.8248457,0.988007,0.6996284,-1.2668177,0.1419237
-0.1,-0.1,0.9999999999999999,0.5235987755982988,0.0,0,-1.1703137,-1.6237046,3.1308224,0.48286602,-0.032494426,0.42076513,0.3061137,0.68701375,-0.71191454,-1.8279569,0.9828344,0.8472003,-0.89170164,0.15508692
-0.1,-0.1,0.9999999999999999,0.5235987755982988,0.0,0,-1.169666,-1.6248927,3.1329277,0.48394293,-0.070003875,0.23956288,0.13292019,0.6891915,-0.70635283,-1.8371228,0.9810718,0.6866,-0.89816886,-0.9932389
-0.1,-0.1,0.9999999999999999,0.5235987755982988,0.0,0,-1.1710879,-1.6264232,3.130838,0.50529957,-0.005639505,0.31120235,-0.5471439,0.6839143,-0.71053624,-1.8309714,0.99009335,0.33871403,-1.1115687,-0.95409983
-0.1,-0.1,0.9999999999999999,0.5235987755982988,0.0,0,-1.1746341,-1.6373188,3.1312158,0.5048073,-0.19303799,-0.0092443945,0.34830207,0.7026223,-0.71133524,-1.8380618,0.9823675,0.48455253,-0.8361954,-0.33656558
-0.1,-0.1,0.9999999999999999,0.5235987755982988,0.0,0,-1.169716,-1.6230181,3.1331317,0.49142873,-0.07132709,0.2842366,0.5136503,0.69221807,-0.7082971,-1.8276321,0.99288034,0.5463486,-1.1212573,0.677145
-0.1,-0.1,0.9999999999999999,0.5235987755982988,0.0,0,-1.1731553,-1.6240046,3.132677,0.5374616,-0.054945648,0.34249252,-0.55702966,0.6929785,-0.7046215,-1.8292623,0.987532,0.5703593,-1.113489,-0.85881335
-0.1,-0.1,0.9999999999999999,0.5235987755982988,0.0,0,-1.1701509,-1.6225777,3.1317801,0.49187607,0.030840367,0.33530292,0.41227445,0.69202155,-0.70034343,-1.8131467,0.98148084,0.5969405,-1.2813618,-0.96498334
-0.1,-0.1,0.9999999999999999,0.5235987755982988,0.0,0,-1.1726401,-1.6282583,3.1298342,0.4876459,-0.18122572,-0.013178731,-0.4642651,0.6941659,-0.7112428,-1.8231267,0.97951996,0.6687591,-1.0215392,-0.6282937
-0.1,-0.1,0.9999999999999999,0.5235987755982988,0.0,0,-1.1768894,-1.6180762,3.1321373,0.53141147,-0.2980942,0.1329707,0.36048305,0.68630767,-0.7061707,-1.8227968,0.9908085,0.7886417,-1.0836542,-0.12551397
-0.1,-0.1,0.9999999999999999,0.5235987755982988,0.0,0,-1.1673912,-1.6191953,3.1311018,0.4842796,0.09747894,0.41026556,0.18471189,0.6884649,-0.7127589,-1.8213625,0.9857908,0.54795533,-1.0271304,0.12747295
-0.1,-0.1,0.9999999999999999,0.5235987755982988,0.0,0,-1.1730647,-1.6300471,3.1257162,0.51629883,-0.020360045,-0.041064285,-0.08558523,0.68405825,-0.7117703,-1.8246081,0.9830671,0.7244436,-0.8257728,-0.10156017
-0.1,-0.1,0.9999999999999999,0.5235987755982988,0.0,0,-1.1678876,-1.624499,3.12455,0.5194057,-0.023516353,0.1436379,0.29102284,0.6905617,-0.71034914,-1.8352011,0.97806,0.6834159,-0.90011936,-1.1401925
-0.1,-0.1,0.9999999999999999,0.5235987755982988,0.0,0,-1.165578,-1.6211668,3.135125,0.4976226,0.099565536,0.14178178,-0.2639399,0.6878411,-0.70677114,-1.8218361,0.9923036,0.5101439,-1.104442,-0.5380468
-0.1,-0.1,0.9999999999999999,0.5235987755982988,0.0,0,-1.1741033,-1.6241081,3.134155,0.4714429,0.015696537,0.22985736,0.87177026,0.6949862,-0.70898265,-1.8197815,0.99091065,0.52302104,-1.2573514,-1.5158594
-0.1,-0.1,0.9999999999999999,0.5235987755982988,0.0,0,-1.1759356,-1.6361551,3.1298168,0.48998758,-0.03884631,-0.0030810582,-0.38307416,0.68908036,-0.70742226,-1.8356267,0.98165786,0.42217165,-1.4735324,0.012227336
-0.1,-0.1,0.9999999999999999,0.5235987755982988,0.0,0,-1.1733629,-1.6197644,3.1314712,0.48364866,-0.0018053435,0.62520343,-0.6711738,0.688884,-0.71343386,-1.8244796,0.98555005,0.31563887,-0.54045534,-0.7558701
-0.1,-0.1,0.9999999999999999,0.5235987755982988,0.0,0,-1.175377,-1.6207743,3.1310344,0.50573945,-0.15520075,0.3127831,0.76418823,0.6868934,-0.7124117,-1.8227403,0.9785796,0.36613828,-1.1420165,-0.027807517
-0.1,-0.1,0.9999999999999999,0.5235987755982988,0.0,0,-1.1731164,-1.6246594,3.130138,0.51551175,-0.09593219,0.20465282,0.054746673,0.68908674,-0.70599693,-1.8279599,0.9809863,0.53102046,-1.1012119,-0.08177363
-0.1,-0.1,0.9999999999999999,0.5235987755982988,0.0,0,-1.1713973,-1.6309686,3.1300514,0.49895647,-0.05590382,0.3296452,0.2714178,0.6895776,-0.71510935,-1.8185709,0.9695617,0.52674675,-1.2875586,0.6998783
-0.1,-0.1,0.9999999999999999,0.5235987755982988,0.0,0,-1.1670575,-1.6289464,3.1337798,0.50377744,0.043053463,0.32089314,0.23167002,0.6898292,-0.7150583,-1.8286059,0.98179847,0.4847371,-0.8596065,-0.1434557
-0.1,-0.1,0.9999999999999999,0.5235987755982988,0.0,0,-1.1755697,-1.6322927,3.127747,0.48769224,0.116123065,0.33322948,0.9374002,0.68544614,-0.71303266,-1.8414762,0.97783655,0.67137545,-1.2531134,-0.46847042
-0.1,-0.1,0.9999999999999999,0.5235987755982988,0.0,0,-1.1694555,-1.6375326,3.1313813,0.46090695,-0.035695262,-0.20219526,0.11809072,0.6820726,-0.70748556,-1.8271188,0.9896472,0.5062936,-1.173804,-0.22303353
-0.1,-0.1,0.9999999999999999,0.5235987755982988,0.0,0,-1.1661967,-1.6259921,3.129882,0.48653322,-0.11843807,-0.025056759,0.12812975,0.6835216,-0.7064434,-1.8299738,0.9826476,0.539285,-1.0220547,-1.075866
-0.1,-0.1,0.9999999999999999,0.5235987755982988,0.0,0,-1.1728173,-1.6255823,3.1299064,0.49720806,0.12843435,0.23531008,0.030452868,0.6984132,-0.70919454,-1.8303466,0.9925687,0.72631687,-1.0010831,0.18286431
-0.1,-0.1,0.9999999999999999,0.5235987755982988,0.0,0,-1.172624,-1.6312224,3.1268976,0.49339846,0.131898,0.22367658,-0.41172612,0.6890705,-0.7075039,-1.8197864,0.9867686,0.66517276,-0.8799923,-1.4190099
-0.1,-0.1,0.9999999999999999,0.5235987755982988,0.0,0,-1.1692334,-1.6221946,3.131158,0.49551544,-0.047757868,0.18091233,0.470323,0.68251073,-0.71453905,-1.8230575,0.9920714,0.60224223,-1.1690263,0.5629123
-0.1,-0.1,0.9999999999999999,0.5235987755982988,0.0,0,-1.1712265,-1.6261373,3.126572,0.5236655,-0.057514977,0.32616216,0.25226125,0.68549937,-0.7146252,-1.830816,0.98811984,0.41191468,-1.2918303,-0.2872658
-0.1,-0.1,0.9999999999999999,0.5235987755982988,0.0,0,-1.1716911,-1.6142839,3.1282246,0.49362725,-0.14070418,0.16099519,0.7831796,0.6912432,-0.7119436,-1.8221818,0.98600787,0.54553497,-1.1701857,-1.0775231
-0.1,-0.1,0.9999999999999999,0.5235987755982988,0.0,0,-1.1659297,-1.6299185,3.131587,0.46608162,-0.16644655,0.08862159,0.21990715,0.69109035,-0.7058893,-1.8256955,0.9852846,0.65256476,-1.3365086,-0.05944097
-0.1,-0.1,0.9999999999999999,0.5235987755982988,0.0,0,-1.171216,-1.6325786,3.1322412,0.5369873,-0.07344285,0.020478992,-0.27785933,0.69037706,-0.71633804,-1.8325541,0.97449017,0.43729866,-1.1463025,-0.6559409
-0.1,-0.1,0.9999999999999999,0.5235987755982988,0.0,0,-1.1678004,-1.6209975,3.126592,0.4790655,-0.058890916,0.098921604,0.7805045,0.6891411,-0.710845,-1.8335179,0.985923,0.42967206,-1.1245024,0.27653778
-0.1,-0.1,0.9999999999999999,0.5235987755982988,0.0,0,-1.1693008,-1.623707,3.1316247,0.457543,-0.12353936,0.25207397,0.8874893,0.69527096,-0.7115175,-1.8279738,0.9843857,0.5629043,-0.74548775,-0.783079
-0.1,-0.1,0.9999999999999999,0.5235987755982988,0.0,0,-1.1705232,-1.6286758,3.1268651,0.47081694,-0.051438797,0.29105857,-0.76728565,0.69539714,-0.7175314,-1.8263944,0.9797647,0.44206437,-1.1510775,-1.1689286
-0.1,-0.1,0.9999999999999999,0.5235987755982988,0.0,0,-1.1723924,-1.6189775,3.1308672,0.56149876,0.017099723,0.07322369,-0.9896603,0.69280344,-0.71673334,-1.8192257,0.98035574,0.6779232,-1.025496,-0.44071048
-0.1,-0.1,0.9999999999999999,0.5235987755982988,0.0,0,-1.1689649,-1.6213024,3.129711,0.44445646,0.0808894,0.17255455,0.44566408,0.69615424,-0.7086537,-1.8317122,0.9888873,0.44684175,-1.1389277,-1.3375067
-0.1,-0.1,0.9999999999999999,0.5235987755982988,0.0,0,-1.1687437,-1.6287732,3.1308231,0.489261,-0.058124337,0.030715521,0.31665984,0.7019947,-0.71666133,-1.8290579,0.9950091,0.4818702,-1.1705539,0.76095945
-0.1,-0.1,0.9999999999999999,0.5235987755982988,0.0,0,-1.1748801,-1.623614,3.129245,0.50142694,-0.12821221,-0.07659669,0.17207709,0.68532103,-0.710598,-1.8278816,0.97626,0.55824465,-1.2776084,0.21827023
-0.1,-0.1,0.9999999999999999,0.5235987755982988,0.0,0,-1.1805815,-1.6358497,3.1260915,0.46075338,-0.039124478,0.09109793,-0.07870179,0.68837625,-0.7227647,-1.828868,0.98661894,0.46014634,-1.1091322,-0.6935201
-0.1,-0.1,0.9999999999999999,0.5235987755982988,0.0,0,-1.1704526,-1.6263947,3.1272366,0.5284669,-0.004989926,0.14191574,0.42588675,0.68522996,-0.7054578,-1.8298056,0.98137015,0.54513276,-1.2812606,0.7387606
-0.1,-0.1,0.9999999999999999,0.5235987755982988,0.0,0,-1.1701872,-1.6092099,3.1292033,0.4985736,-0.085999705,-0.24809885,0.5479594,0.6930695,-0.7174147,-1.82869,0.98755205,0.5149828,-1.3788674,0.08891864
-0.1,-0.1,0.9999999999999999,0.5235987755982988,0.0,0,-1.1704389,-1.6355882,3.1321864,0.523472,-0.038291097,-0.043691456,0.8932805,0.6911799,-0.71123034,-1.829146,0.9872155,0.59446055,-0.8129694,-0.6460812
-0.1,-0.1,0.9999999999999999,0.5235987755982988,0.0,0,-1.1763552,-1.6294937,3.1305773,0.5093433,0.03472322,0.019720996,0.42562243,0.6868372,-0.7163853,-1.824907,0.98405975,0.53932744,-0.9330988,-0.660573
-0.1,-0.1,0.9999999999999999,0.5235987755982988,0.0,0,-1.1762468,-1.6155878,3.1300945,0.496495,-0.12956928,0.036196727,-0.056543123,0.6893958,-0.7155549,-1.825433,0.9829102,0.6511809,-1.4407455,-0.94127625
-0.1,-0.1,0.9999999999999999,0.5235987755982988,0.0,0,-1.1673008,-1.6358881,3.127957,0.50615704,-0.137306,0.014993404,0.5896955,0.68636024,-0.711737,-1.8247843,0.98162335,0.5780586,-1.3495053,-0.8714375
-0.1,-0.1,0.9999999999999999,0.5235987755982988,0.0,0,-1.1751745,-1.6260238,3.1313667,0.54244983,0.079916604,0.18915422,0.006726577,0.6945679,-0.70923847,-1.8258748,0.9903131,0.4971265,-0.5449283,-0.2530463
-0.1,-0.1,0.9999999999999999,0.5235987755982988,0.0,0,-1.1728772,-1.6232234,3.128733,0.5139435,0.053710755,-0.0007619008,1.1054735,0.6993229,-0.70523787,-1.8211702,0.99047756,0.42039213,-0.8921605,-0.658143
-0.1,-0.1,0.9999999999999999,0.5235987755982988,0.0,0,-1.1734014,-1.6247101,3.1325328,0.5095581,-0.049120095,0.43100482,0.00045300904,0.68481374,-0.7109674,-1.8251667,0.9904764,0.41798466,-0.7400994,-0.62565047
-0.1,-0.1,0.9999999999999999,0.5235987755982988,0.0,0,-1.1705972,-1.6279564,3.1245105,0.53654844,0.017638242,0.11162144,-0.21928184,0.686685,-0.71029484,-1.8226441,0.9895188,0.51703763,-1.1034999,-0.36863977
-0.1,-0.1,0.9999999999999999,0.5235987755982988,0.0,0,-1.1709737,-1.6228099,3.132766,0.50827676,-0.15013652,-0.10496157,0.59815437,0.688175,-0.70856,-1.8175676,0.99019176,0.46208933,-0.81727153,-0.90441066
-0.1,-0.1,0.9999999999999999,0.5235987755982988,0.0,0,-1.1718497,-1.6299055,3.13039,0.5124711,-0.0018359183,-0.17264594,0.54196614,0.69658715,-0.7053423,-1.8318914,0.98526204,0.33806583,-1.0385104,-0.02828272
-0.1,-0.1,0.9999999999999999,0.5235987755982988,0.0,0,-1.1692907,-1.6227219,3.1332805,0.5186876,-0.008274137,-0.1194208,0.35518092,0.69808835,-0.7095697,-1.8314115,0.98959863,0.48700577,-0.8595261,-0.24106562
-0.1,-0.1,0.9999999999999999,0.5235987755982988,0.0,0,-1.1717681,-1.6220293,3.1304379,0.48748925,-0.117076285,0.36945695,0.3486134,0.6949115,-0.7181666,-1.8236552,0.98937684,0.54225934,-1.2575729,0.6540629
-0.1,-0.1,0.9999999999999999,0.5235987755982988,0.0,0,-1.1692427,-1.6216261,3.1275904,0.5157475,-0.109254315,0.08202535,0.15042995,0.6905576,-0.71115714,-1.8291221,0.98313934,0.71295804,-0.90743715,-0.24828412
-0.1,-0.1,0.9999999999999999,0.5235987755982988,0.0,0,-1.17281,-1.6231521,3.1276193,0.51441073,0.0381028,0.24965942,-0.0061776172,0.69162244,-0.7137666,-1.8230728,0.98690206,0.5628431,-0.96218944,-0.78625727
-0.1,-0.1,0.9999999999999999,0.5235987755982988,0.0,0,-1.1720805,-1.6097002,3.13249,0.5104107,0.051608045,0.1372231,-0.30931744,0.69076955,-0.7183088,-1.8308914,0.9933365,0.6804053,-1.3502755,-0.3104964
-0.1,-0.1,0.9999999999999999,0.5235987755982988,0.0,0,-1.1713443,-1.6218215,3.1304607,0.48806956,0.046979275,-0.020961069,-0.14133048,0.6855533,-0.7145945,-1.8301257,0.9860576,0.44798708,-1.3236768,-0.4094088
-0.1,-0.1,0.9999999999999999,0.5235987755982988,0.0,0,-1.1750243,-1.6319555,3.1344543,0.5003029,0.09783507,0.013977404,0.7980064,0.68678874,-0.70932096,-1.8239274,0.9888496,0.5678203,-0.79641205,0.03418903
-0.1,-0.1,0.9999999999999999,0.5235987755982988,0.0,0,-1.1753538,-1.6322808,3.1322052,0.51787126,-0.13901925,-0.033576924,-0.252601,0.6903946,-0.71720296,-1.8324754,0.9860816,0.61667365,-0.91320765,0.41610092
-0.1,-0.1,0.9999999999999999,0.5235987755982988,0.0,0,-1.173314,-1.6234522,3.1268592,0.4750302,0.15968175,-0.39450562,1.5933666,0.68857074,-0.70910305,-1.8289932,0.98744744,0.51659554,-1.0096195,-0.13928863
-0.1,-0.1,0.9999999999999999,0.5235987755982988,0.0,0,-1.1725155,-1.6162169,3.1312008,0.4913898,-0.12532838,0.1631806,0.29150808,0.6941829,-0.7064425,-1.8323927,0.9825077,0.6156045,-1.1849252,-0.80084395
-0.1,-0.1,0.9999999999999999,0.5235987755982988,0.0,0,-1.1651357,-1.6264428,3.130708,0.5643286,0.015073395,-0.3067216,-0.023561604,0.68727833,-0.70075256,-1.8393501,0.98412335,0.62473977,-0.87489873,-1.1174053
-0.1,-0.1,0.9999999999999999,0.5235987755982988,0.0,0,-1.175209,-1.6259294,3.1335585,0.49519572,-0.1035014,0.18150827,-0.690895,0.6941695,-0.71080303,-1.8292844,0.98445,0.6027174,-0.8190944,-0.78010726
-0.1,-0.1,0.9999999999999999,0.5235987755982988,0.0,0,-1.1696224,-1.6239444,3.1304462,0.48284173,-0.10030168,0.18935712,0.3679585,0.6913004,-0.7144067,-1.8230962,0.982882,0.5464611,-0.7911311,-0.6979481
-0.1,-0.1,0.9999999999999999,0.5235987755982988,0.0,0,-1.1810379,-1.6380726,3.1238546,0.49462488,0.022238802,0.18476231,-0.2017436,0.6841264,-0.7141068,-1.8230797,0.9847326,0.53776205,-0.7967735,-0.22166637
-0.1,-0.1,0.9999999999999999,0.5235987755982988,0.0,0,-1.169969,-1.6230394,3.126831,0.5233582,-0.14402731,0.21858265,0.8608023,0.6932436,-0.71709687,-1.8241208,0.98590505,0.49952117,-0.99703276,-0.23872028
-0.1,-0.1,0.9999999999999999,0.5235987755982988,0.0,0,-1.1674798,-1.6308955,3.1271563,0.5191872,-0.08040361,0.10143963,-0.079948716,0.68640643,-0.7133208,-1.8247786,0.98995256,0.38314262,-1.2417383,-0.34662628
-0.1,-0.1,0.9999999999999999,0.5235987755982988,0.0,0,-1.1716176,-1.6258601,3.1307957,0.51969206,0.013933094,0.54381204,0.66161215,0.69261557,-0.7131565,-1.8342944,0.98280877,0.4504108,-0.9216816,-1.3325332
-0.1,-0.1,0.9999999999999999,0.5235987755982988,0.0,0,-1.1736104,-1.6271323,3.1305807,0.48625407,-0.025318421,0.09609078,-0.29419184,0.6867901,-0.71371436,-1.8238361,0.9901612,0.5925735,-0.7172889,-0.11791124
-0.1,-0.1,0.9999999999999999,0.5235987755982988,0.0,0,-1.1734918,-1.6319728,3.129788,0.50385875,-0.19427148,0.0549921,0.7391044,0.6812341,-0.7093526,-1.8284186,0.9766173,0.405795,-0.85939455,-0.683903
-0.1,-0.1,0.9999999999999999,0.5235987755982988,0.0,0,-1.172119,-1.6228429,3.129984,0.52235913,-0.0019405438,0.3006842,0.3315423,0.6859142,-0.71494305,-1.8257221,0.9894966,0.61954254,-1.2029189,0.07543921
-0.1,-0.1,0.9999999999999999,0.5235987755982988,0.0,0,-1.1695405,-1.6263878,3.1329272,0.51209545,-0.12959689,0.076591186,0.2512729,0.6867148,-0.7082134,-1.8185405,0.98841643,0.5889325,-0.9920327,-0.734994
-0.1,-0.1,0.9999999999999999,0.5235987755982988,0.0,0,-1.1716516,-1.6210274,3.129952,0.5390934,-0.1749416,0.35760948,-0.6724762,0.695893,-0.7104572,-1.8321832,0.9869985,0.5176081,-1.1457214,-0.39840478
-0.1,-0.1,0.9999999999999999,0.5235987755982988,0.0,0,-1.1703137,-1.6324071,3.1286542,0.52321464,-0.1313828,0.5666485,-0.45143762,0.6787148,-0.71367306,-1.8261784,0.99064857,0.42805243,-1.0600083,-0.6553582
-0.1,-0.1,0.9999999999999999,0.5235987755982988,0.0,0,-1.1706271,-1.6298618,3.135015,0.4874292,-0.14712465,0.369813,0.69895065,0.68822783,-0.7092255,-1.8262479,0.9834058,0.60230666,-0.7375367,-1.0066311
-0.1,-0.1,0.9999999999999999,0.5235987755982988,0.0,0,-1.1700705,-1.6252965,3.1301658,0.50835556,-0.052556437,0.1051172,0.2585164,0.6832027,-0.70817333,-1.8218664,0.9817486,0.5185563,-1.1250355,0.32493782
-0.1,-0.1,0.9999999999999999,0.5235987755982988,0.0,0,-1.1696289,-1.6188502,3.1301293,0.47362304,-0.12854184,-0.0787458,-0.50894755,0.6827433,-0.70941824,-1.8275335,0.98319083,0.21134943,-0.8239119,-0.39728847
-0.1,-0.1,0.9999999999999999,0.5235987755982988,0.0,0,-1.1702203,-1.6266774,3.1292417,0.5055035,-0.2053544,0.39081123,1.2010295,0.692591,-0.71465373,-1.8281845,0.98245573,0.4585447,-0.9127283,-0.6606167
-0.1,-0.1,0.9999999999999999,0.5235987755982988,0.0,0,-1.1720415,-1.6239733,3.1287491,0.5063027,-0.0468806,0.12777966,0.77500135,0.6950279,-0.7147427,-1.8388468,0.9878137,0.8648732,-1.0281719,0.48639616
-0.1,-0.1,0.9999999999999999,0.5235987755982988,0.0,0,-1.1716906,-1.6308739,3.1294565,0.5162471,-0.16467461,0.052599803,-0.48240998,0.6975971,-0.7069325,-1.831787,0.9906987,0.48971894,-0.9902362,0.27036086
-0.1,-0.1,0.9999999999999999,0.5235987755982988,0.0,0,-1.1696582,-1.6280208,3.129164,0.46627736,-0.08370517,-0.09092019,1.1817421,0.6913555,-0.7056366,-1.827631,0.9833533,0.6047793,-1.1348664,-0.12632518
-0.1,-0.1,0.9999999999999999,0.5235987755982988,0.0,0,-1.1681061,-1.6219255,3.1297708,0.5135177,-0.029724564,0.067979336,-0.39061728,0.6933654,-0.71226346,-1.8302606,0.9871862,0.604126,-1.0424421,-0.20426553
-0.1,-0.1,0.9999999999999999,0.5235987755982988,0.0,0,-1.1728004,-1.6291652,3.1270561,0.5179694,-0.07125245,0.14924407,1.1951745,0.6870023,-0.7103103,-1.822038,0.9901944,0.41146842,-1.05258,-0.3950435
-0.1,-0.1,0.9999999999999999,0.5235987755982988,0.0,0,-1.172127,-1.6359717,3.128208,0.5106635,0.13623014,0.20224789,0.46724802,0.6919423,-0.7023674,-1.821179,0.98658925,0.5323099,-0.6564451,-0.42977643
-0.1,-0.1,0.9999999999999999,0.5235987755982988,0.0,0,-1.1709723,-1.6238437,3.1290576,0.53559333,-0.049161818,0.38989094,0.70247364,0.6836816,-0.7170844,-1.8132114,0.9891826,0.45229658,-1.195257,-0.571853
-0.1,-0.1,0.9999999999999999,0.5235987755982988,0.0,0,-1.171329,-1.62794,3.1286101,0.47305396,0.021878803,-0.031283963,0.8679447,0.69336045,-0.7150671,-1.8317833,0.97548115,0.5757882,-0.91809744,-0.49679992
-0.1,-0.1,0.9999999999999999,0.5235987755982988,0.0,0,-1.170673,-1.624249,3.1264334,0.48892865,-0.06631532,-0.015787832,0.29076457,0.69570047,-0.7145718,-1.8222884,0.9861725,0.4682051,-0.82269675,0.089807376
-0.1,-0.1,0.9999999999999999,0.5235987755982988,0.0,0,-1.1735379,-1.6242788,3.1269436,0.49119157,-0.17071271,0.18424748,0.1655267,0.7013104,-0.70321995,-1.8255546,0.9907803,0.41665235,-1.1202444,-0.2801346
-0.1,-0.1,0.9999999999999999,0.5235987755982988,0.0,0,-1.1737334,-1.630231,3.1316907,0.51887506,-0.14123626,0.40495783,0.46321687,0.6884702,-0.7139636,-1.831058,0.9830513,0.59390044,-0.7780245,0.08430753
-0.1,-0.1,0.9999999999999999,0.5235987755982988,0.0,0,-1.1719848,-1.6324455,3.1279798,0.52736306,-0.0198798,0.19894029,-0.30627042,0.68778163,-0.69777024,-1.821424,0.98643583,0.6484394,-1.1194469,-0.23935664
-0.1,-0.1,0.9999999999999999,0.5235987755982988,0.0,0,-1.1748846,-1.6302074,3.1275382,0.5219375,-0.08833999,0.5500876,-0.72299033,0.6848689,-0.7158697,-1.8248649,0.9930716,0.7499053,-0.65278965,-0.7459757
-0.1,-0.1,0.9999999999999999,0.5235987755982988,0.0,0,-1.1760598,-1.6315495,3.1288164,0.46345448,0.018641023,0.28073764,0.5644225,0.6871064,-0.71601003,-1.8348727,0.976592,0.62990636,-1.0647867,-0.51608735
-0.1,-0.1,0.9999999999999999,0.5235987755982988,0.0,0,-1.1708809,-1.6290284,3.1312091,0.5203371,-0.05423541,-0.09733039,-0.11867096,0.69454575,-0.7105591,-1.8243481,0.9814219,0.49875218,-0.99126995,-0.3661249
-0.1,-0.1,0.9999999999999999,0.5235987755982988,0.0,0,-1.1695415,-1.6244197,3.1327448,0.53337514,-0.08090419,0.13078286,0.049314905,0.68506,-0.71214074,-1.8298177,0.9833452,0.4896275,-0.7362989,-0.45978025
-0.1,-0.1,0.9999999999999999,0.5235987755982988,0.0,0,-1.1721712,-1.6268413,3.1332743,0.5356848,-0.14417975,0.12235842,0.15697283,0.69143116,-0.707756,-1.8192074,0.99309665,0.62728494,-0.7118664,-0.12739012
-0.1,-0.1,0.9999999999999999,0.5235987755982988,0.0,0,-1.168428,-1.6245674,3.1323051,0.5181241,0.017973287,0.2017079,-0.758759,0.6876561,-0.71165794,-1.8236864,0.98541665,0.5440487,-1.0578614,0.28833
-0.1,-0.1,0.9999999999999999,0.5235987755982988,0.0,0,-1.1684914,-1.6337827,3.1332958,0.47653255,-0.025935357,0.32391778,0.29413915,0.6914351,-0.7124485,-1.826304,0.9917228,0.37440965,-0.88018656,-0.38903502
-0.1,-0.1,0.9999999999999999,0.5235987755982988,0.0,0,-1.1703457,-1.6277144,3.1296158,0.49866027,-0.07718361,-0.27114278,-0.44627735,0.6834305,-0.70802444,-1.8244315,0.9921357,0.58540726,-1.0568455,-0.13848142
-0.1,-0.1,0.9999999999999999,0.5235987755982988,0.0,0,-1.174812,-1.6349908,3.126405,0.49996677,-0.0586273,0.13630794,-0.1084706,0.696784,-0.71097237,-1.8302888,0.9895196,0.36217082,-1.0229812,-0.5291994
-0.1,-0.1,0.9999999999999999,0.5235987755982988,0.0,0,-1.1757032,-1.630336,3.1295176,0.46059233,-0.13510936,0.11200081,0.64978766,0.69412875,-0.71106297,-1.8268372,0.9818184,0.59402347,-1.2078118,-0.2667698
-0.1,-0.1,0.9999999999999999,0.5235987755982988,0.0,0,-1.1732793,-1.6263855,3.1320431,0.4949031,-0.090206005,0.48344493,-0.25823978,0.69537467,-0.712254,-1.824406,0.99099135,0.6199184,-1.164086,0.8953835
-0.1,-0.1,0.9999999999999999,0.5235987755982988,0.0,0,-1.1695628,-1.6284072,3.1277995,0.5470229,0.09219211,0.09166025,1.4523973,0.6855637,-0.70560986,-1.8247217,0.98838216,0.516555,-0.6829771,-0.6469118
-0.1,-0.1,0.9999999999999999,0.5235987755982988,0.0,0,-1.16961,-1.6304044,3.1336248,0.50164634,-0.11231165,0.26423207,0.29301393,0.7009592,-0.7160386,-1.8195071,0.98293173,0.47382796,-1.1162136,-0.46832222
-0.1,-0.1,0.9999999999999999,0.5235987755982988,0.0,0,-1.17353,-1.6311562,3.1247995,0.49195823,0.09385687,0.20427263,0.4218925,0.68525714,-0.7137928,-1.827977,0.9820058,0.5740161,-1.1448091,0.3038561
-0.1,-0.1,0.9999999999999999,0.5235987755982988,0.0,0,-1.171634,-1.6248177,3.1299636,0.45528138,0.0037974648,0.12362212,0.17510925,0.68799675,-0.7035848,-1.8190262,0.9872211,0.7224942,-0.8139574,-0.25129545
-0.1,-0.1,0.9999999999999999,0.5235987755982988,0.0,0,-1.1759834,-1.6364323,3.1270278,0.5074072,-0.08433426,0.17035341,-0.33252645,0.696173,-0.7101428,-1.829701,0.99599123,0.56162304,-1.0688283,-0.4514461
-0.1,-0.1,0.9999999999999999,0.5235987755982988,0.0,0,-1.1696024,-1.6271873,3.1333055,0.52631724,-0.11956295,-0.08956731,-0.6613531,0.69294935,-0.70850986,-1.8291042,0.97817665,0.5739642,-0.951593,-0.035464387
-0.1,-0.1,0.9999999999999999,0.5235987755982988,0.0,0,-1.1712934,-1.618021,3.133855,0.4910139,-0.18100904,0.26651838,0.9706558,0.7034252,-0.71513206,-1.8227752,0.9862639,0.55761313,-0.91532654,-0.7005769
-0.1,-0.1,0.9999999999999999,0.5235987755982988,0.0,0,-1.1687164,-1.6376995,3.1287155,0.4781476,-0.07182213,-0.1684229,0.11965926,0.6959389,-0.70787305,-1.828951,0.99075764,0.3984099,-1.1274927,-0.08573459
-0.1,-0.1,0.9999999999999999,0.5235987755982988,0.0,0,-1.174157,-1.6327883,3.1317213,0.4906721,-0.03287596,0.10198967,0.88883966,0.6874222,-0.712144,-1.8302875,0.9884199,0.75678146,-1.0577365,0.042601
-0.1,-0.1,0.9999999999999999,0.5235987755982988,0.0,0,-1.1716021,-1.6266547,3.1283064,0.49219483,-0.02889645,0.034038037,-0.26002586,0.6890445,-0.71075153,-1.827131,0.9818129,0.46081978,-1.3072923,-0.0449661
-0.1,-0.1,0.9999999999999999,0.5235987755982988,0.0,0,-1.1685337,-1.6214129,3.1293187,0.5100029,0.05176644,0.14112277,0.20432812,0.69174516,-0.70901155,-1.8282708,0.98593134,0.46649864,-1.175228,-0.25033823
-0.1,-0.1,0.9999999999999999,0.5235987755982988,0.0,0,-1.1685938,-1.6172184,3.131019,0.4954595,-0.021524422,0.2014108,0.4533444,0.6979816,-0.7124963,-1.8231716,0.9843025,0.48612133,-0.88415277,-0.19169594
-0.1,-0.1,0.9999999999999999,0.5235987755982988,0.0,0,-1.1725085,-1.6312429,3.127536,0.5198315,-0.10686647,0.4516694,0.43673912,0.6847876,-0.7137012,-1.8284484,0.98017263,0.56380993,-0.71867114,-0.2997163
-0.1,-0.1,0.9999999999999999,0.5235987755982988,0.0,0,-1.1710366,-1.6224685,3.1324468,0.47322568,-0.12504548,-0.036568798,-0.046607424,0.69959044,-0.71428883,-1.8288245,0.9853062,0.5287778,-0.94034636,-0.06702001
-0.1,-0.1,0.9999999999999999,0.5235987755982988,0.0,0,-1.1676579,-1.6303586,3.1323924,0.46995646,0.14161842,0.10208631,0.6233972,0.697385,-0.7087731,-1.8201768,0.985034,0.50200033,-1.1395363,-0.91717935
-0.1,-0.1,0.9999999999999999,0.5235987755982988,0.0,0,-1.169208,-1.6255894,3.1303108,0.48309878,-0.16989385,0.19832946,0.76380163,0.69559103,-0.71458244,-1.8241436,0.9797032,0.505478,-0.8108993,-0.4009561
-0.1,-0.1,0.9999999999999999,0.5235987755982988,0.0,0,-1.1744711,-1.6250426,3.1347897,0.46827605,0.053026266,0.08183867,0.79533046,0.68465763,-0.7119392,-1.8254104,0.9928901,0.62557673,-1.0776583,-0.9520701
-0.1,-0.1,0.9999999999999999,0.5235987755982988,0.0,0,-1.1649978,-1.6301203,3.1300385,0.45639345,-0.024331303,0.22932094,0.031013062,0.6938971,-0.71374905,-1.82342,0.97981346,0.40163445,-0.9082244,0.26860476
-0.1,-0.1,0.9999999999999999,0.5235987755982988,0.0,0,-1.1678098,-1.6295717,3.1283207,0.53524345,-0.09891574,0.057617623,0.9178494,0.6848305,-0.71135765,-1.8173397,0.99065477,0.46637574,-1.0713164,0.0830166
-0.1,-0.1,0.9999999999999999,0.5235987755982988,0.0,0,-1.1720346,-1.6194549,3.1322582,0.5664844,-0.1691902,0.4216697,-0.21331285,0.6899934,-0.7088957,-1.8303852,0.98630786,0.57300377,-1.2949367,-0.022869496
-0.1,-0.1,0.9999999999999999,0.5235987755982988,0.0,0,-1.17198,-1.6173164,3.1303685,0.46900034,-0.036835857,0.47873375,1.2477754,0.6933451,-0.71625996,-1.8210742,0.9848999,0.61398804,-1.0315214,-0.8211892
-0.1,-0.1,0.9999999999999999,0.5235987755982988,0.0,0,-1.1704265,-1.6217074,3.1301243,0.5046868,0.14449868,-0.07805138,-0.08583281,0.6867445,-0.7064601,-1.8285075,0.9868773,0.3795499,-0.9191392,-0.7739848
-0.1,-0.1,0.9999999999999999,0.5235987755982988,0.0,0,-1.1702832,-1.6242824,3.1324713,0.4867503,0.10495812,0.15482965,0.21214022,0.6818252,-0.70939595,-1.8253572,0.982274,0.53957623,-0.9930987,-0.70743215
-0.1,-0.1,0.9999999999999999,0.5235987755982988,0.0,0,-1.1727203,-1.621789,3.1346805,0.52801055,0.015717538,0.22494233,0.71058697,0.6904663,-0.7092292,-1.8277256,0.98440915,0.56993073,-0.9440502,-0.25225267
-0.1,-0.1,0.9999999999999999,0.5235987755982988,0.0,0,-1.1694192,-1.6324326,3.1320403,0.46178865,0.108450316,0.14070694,-0.08271999,0.6869838,-0.71079564,-1.8293158,0.9812224,0.51410544,-1.1981953,-0.06916289
-0.1,-0.1,0.9999999999999999,0.5235987755982988,0.0,0,-1.1719182,-1.6178759,3.1359718,0.5419748,-0.22625679,0.28746277,0.069890164,0.68990314,-0.703669,-1.831499,0.98388994,0.64850014,-0.78220147,-0.119298056
-0.1,-0.1,0.9999999999999999,0.5235987755982988,0.0,0,-1.1704588,-1.6349,3.1300478,0.44238114,0.040625617,0.21091183,0.5888453,0.6862036,-0.7071135,-1.8264234,0.98012424,0.62074184,-1.4967037,0.079011984
-0.1,-0.1,0.9999999999999999,0.5235987755982988,0.0,0,-1.1702441,-1.6217899,3.1335447,0.5111289,-0.042133506,0.098781094,-0.5734736,0.6904653,-0.70471823,-1.8328387,0.9989379,0.44849062,-1.2202125,0.1320513
-0.1,-0.1,0.9999999999999999,0.5235987755982988,0.0,0,-1.168598,-1.6305496,3.1323113,0.47658443,0.12633213,-0.14950982,-1.0039476,0.69079614,-0.7150965,-1.8186684,0.9881622,0.54049116,-0.7891655,-1.1953224
-0.1,-0.1,0.9999999999999999,0.5235987755982988,0.0,0,-1.174946,-1.6342431,3.131133,0.4597762,-0.032824524,0.23000221,0.84249604,0.689655,-0.7093702,-1.8218199,0.98603916,0.49854094,-1.467787,-0.68320674
-0.1,-0.1,0.9999999999999999,0.5235987755982988,0.0,0,-1.1690981,-1.631574,3.1300857,0.48759007,-0.026576973,0.089700714,-0.26083106,0.6911711,-0.71120346,-1.8281876,0.9838478,0.5381526,-0.9937572,-0.54622555
-0.1,-0.1,0.9999999999999999,0.5235987755982988,0.0,0,-1.1669565,-1.6248049,3.130893,0.50783974,0.1378231,0.24249533,-0.028531302,0.6939263,-0.70668703,-1.8319707,0.9914155,0.37468213,-1.0999172,-0.3609299
-0.1,-0.1,0.9999999999999999,0.5235987755982988,0.0,0,-1.1699576,-1.6243756,3.1282787,0.46393272,0.0026520116,0.35488856,0.23188157,0.68768257,-0.70530003,-1.8248304,0.99050176,0.34817824,-0.8074161,-0.39538312
-0.1,-0.1,0.9999999999999999,0.5235987755982988,0.0,0,-1.1690114,-1.6200649,3.1282754,0.53889465,0.07103795,0.14938301,-0.07592808,0.685965,-0.7150412,-1.8328009,0.9869243,0.5184924,-0.8934473,-0.707324
-0.1,-0.1,0.9999999999999999,0.5235987755982988,0.0,0,-1.1682729,-1.6231511,3.1338043,0.5014867,-0.11966306,-0.098688655,0.32727006,0.68364984,-0.7082783,-1.8275435,0.98581827,0.62944865,-1.1129571,-0.8247996
-0.1,-0.1,0.9999999999999999,0.5235987755982988,0.0,0,-1.1723723,-1.6179198,3.1308663,0.454812,0.09848212,0.35200658,0.083956435,0.6904822,-0.7145191,-1.8385575,0.9718124,0.45119482,-0.990685,-0.15272035
-0.1,-0.1,0.9999999999999999,0.5235987755982988,0.0,0,-1.1720515,-1.6226225,3.129068,0.5377648,-0.09067991,-0.05575256,-0.02391836,0.6942542,-0.7077293,-1.8277364,0.98129463,0.4354138,-0.73392755,-0.5053975
-0.1,-0.1,0.9999999999999999,0.5235987755982988,0.0,0,-1.172905,-1.6310622,3.1311324,0.4983221,0.026757983,0.21741399,0.26385543,0.6806157,-0.7041976,-1.828359,0.9876068,0.62013435,-1.1074502,-0.37208146
-0.1,-0.1,0.9999999999999999,0.5235987755982988,0.0,0,-1.1774797,-1.6384944,3.1289856,0.5048954,0.13945605,0.08452152,0.09133021,0.68937755,-0.704926,-1.8299593,0.99342453,0.5660579,-0.9987123,-0.89893425
-0.1,-0.1,0.9999999999999999,0.5235987755982988,0.0,0,-1.1678857,-1.6198783,3.131006,0.50171614,-0.011661313,0.09856241,-0.7138934,0.68785167,-0.7024421,-1.8265978,0.9833034,0.53805035,-0.91406393,-0.7475666
-0.1,-0.1,0.9999999999999999,0.5235987755982988,0.0,0,-1.1703585,-1.6343243,3.1274877,0.4582417,0.013753693,0.4860281,0.14405338,0.69322413,-0.714415,-1.8262646,0.97967565,0.51334876,-0.82102334,-0.0019160066
-0.1,-0.1,0.9999999999999999,0.5235987755982988,0.0,0,-1.1713048,-1.6368462,3.1316617,0.49714518,0.020079864,0.32898843,0.4172622,0.680689,-0.70282936,-1.8389312,0.98770094,0.5426599,-0.874789,-0.2949399
-0.1,-0.1,0.9999999999999999,0.5235987755982988,0.0,0,-1.1662929,-1.6245799,3.128044,0.47555417,-0.04921201,0.37731886,-0.045165043,0.6821144,-0.70907974,-1.825077,0.9843155,0.5571794,-0.9154711,-1.5539616
-0.1,-0.1,0.9999999999999999,0.5235987755982988,0.0,0,-1.1729668,-1.6297307,3.129204,0.5106613,-0.10470192,-0.123883136,0.19861814,0.6936218,-0.705328,-1.8273401,0.99388874,0.57243085,-1.043503,0.4707843
-0.1,-0.1,0.9999999999999999,0.5235987755982988,0.0,0,-1.170408,-1.6247035,3.1271484,0.47048792,0.049348023,0.02292042,0.60114354,0.6901103,-0.71103555,-1.8344536,0.98659194,0.47974327,-1.1120186,0.31406412
-0.1,-0.1,0.9999999999999999,0.5235987755982988,0.0,0,-1.1714299,-1.629213,3.13188,0.49555978,-0.21882142,0.39636642,0.667556,0.6784077,-0.7015605,-1.8313166,0.9870895,0.6650786,-0.95637035,0.38499954
-0.1,-0.1,0.9999999999999999,0.5235987755982988,0.0,0,-1.1670799,-1.6290157,3.1266146,0.51082784,-0.07199331,0.057867058,-0.08547515,0.6898541,-0.6985011,-1.8359653,0.99417907,0.6029077,-0.93010646,-0.22562261
-0.1,-0.1,0.9999999999999999,0.5235987755982988,0.0,0,-1.1732107,-1.6280935,3.1322894,0.4882032,-0.038605575,0.24914183,-0.2094979,0.6908798,-0.7074551,-1.8283998,0.99431115,0.5335042,-0.96984124,-0.2453259
-0.1,-0.1,0.9999999999999999,0.5235987755982988,0.0,0,-1.171759,-1.6244975,3.130598,0.42837873,0.034133203,0.076026544,0.73124546,0.6777922,-0.709705,-1.8201197,0.9899662,0.6554399,-1.0767379,-0.29977283
-0.1,-0.1,0.9999999999999999,0.5235987755982988,0.0,0,-1.1741385,-1.6283163,3.1327543,0.51572526,-0.07341505,0.12167987,1.2720407,0.6800755,-0.7119942,-1.8247105,0.9902959,0.461306,-1.2634866,-0.4442433
-0.1,-0.1,0.9999999999999999,0.5235987755982988,0.0,0,-1.1729659,-1.6310936,3.130008,0.48220304,-0.04750408,0.2805738,-0.3711728,0.694787,-0.7089104,-1.8304286,0.9831427,0.42659637,-1.0569894,-0.924356
-0.1,-0.1,0.9999999999999999,0.5235987755982988,0.0,0,-1.1684813,-1.6197047,3.1309767,0.5410564,-0.09121655,0.16030014,0.21612817,0.6952185,-0.7079471,-1.8302971,0.9946773,0.49618182,-0.998284,0.16904265
-0.1,-0.1,0.9999999999999999,0.5235987755982988,0.0,0,-1.1656287,-1.6225394,3.1306362,0.5106366,-0.06888367,0.09131922,0.2752787,0.6960594,-0.70216924,-1.8270872,0.9874899,0.56356245,-1.2761687,-0.6654317
-0.1,-0.1,0.9999999999999999,0.5235987755982988,0.0,0,-1.1729342,-1.6326774,3.129652,0.47564295,-0.07967792,0.23891412,-0.36831,0.6842549,-0.7078466,-1.8325279,0.9854881,0.40502244,-0.98471755,-1.1533749
-0.1,-0.1,0.9999999999999999,0.5235987755982988,0.0,0,-1.1721271,-1.6170222,3.1268003,0.49202,0.012277107,0.44754234,-0.033965666,0.6898555,-0.70888054,-1.8214698,0.99089116,0.3328004,-1.1140363,0.18238556
-0.1,-0.1,0.9999999999999999,0.5235987755982988,0.0,0,-1.170775,-1.6220322,3.1311343,0.50083745,-0.124279656,0.091780186,0.31578943,0.6892754,-0.70585674,-1.8250822,0.9841411,0.44480416,-1.1291686,-0.52068233
-0.1,-0.1,0.9999999999999999,0.5235987755982988,0.0,0,-1.1693588,-1.6214526,3.1303172,0.4936207,0.039029166,0.47051638,0.016197758,0.68805176,-0.70761484,-1.827889,0.98752445,0.6220575,-1.1605824,-0.0845009
-0.1,-0.1,0.9999999999999999,0.5235987755982988,0.0,0,-1.174087,-1.6197252,3.1280217,0.4909356,-0.15573177,0.05847528,0.60030454,0.6855219,-0.70863545,-1.8221588,0.9891516,0.4364391,-0.9738746,-0.516913
-0.1,-0.1,0.9999999999999999,0.5235987755982988,0.0,0,-1.1707118,-1.626374,3.1324248,0.50293964,-0.17006749,0.43261704,0.4614846,0.6932339,-0.7080216,-1.8173403,0.9928502,0.56960034,-0.9769312,-0.23353091
-0.1,-0.1,0.9999999999999999,0.5235987755982988,0.0,0,-1.16997,-1.6271712,3.130562,0.46825755,-0.12704554,0.26172626,-0.0329909,0.68322587,-0.70647025,-1.8240316,0.97569245,0.24091516,-1.0938826,-1.6720575
-0.1,-0.1,0.9999999999999999,0.5235987755982988,0.0,0,-1.1732415,-1.6282096,3.1347725,0.5072975,0.016345847,0.31763384,0.5646499,0.7000536,-0.713882,-1.8274617,0.98645234,0.7647086,-1.1784796,-0.93708575
-0.1,-0.1,0.9999999999999999,0.5235987755982988,0.0,0,-1.1734897,-1.6196637,3.1261249,0.51368684,0.030523086,0.13729006,0.04531579,0.6969621,-0.70737,-1.8310126,0.9933586,0.5844731,-1.1766508,-0.38765195
-0.1,-0.1,0.9999999999999999,0.5235987755982988,0.0,0,-1.1718597,-1.6231227,3.1304142,0.47716418,-0.009494331,0.34194076,-0.40800574,0.6890666,-0.7087905,-1.8294915,0.9779278,0.63859195,-1.1841458,0.47767606
-0.1,-0.1,0.9999999999999999,0.5235987755982988,0.0,0,-1.1712191,-1.6381283,3.130242,0.49677947,-0.17667732,0.25853753,0.9866484,0.68798876,-0.71380115,-1.8272285,0.9929038,0.59019774,-1.014442,-0.1980363
-0.1,-0.1,0.9999999999999999,0.5235987755982988,0.0,0,-1.1701624,-1.633362,3.1306567,0.46449518,-0.0353477,0.20795691,0.65478176,0.68748105,-0.7113906,-1.8287581,0.9857847,0.4496898,-0.9771297,-0.9063335
-0.1,-0.1,0.9999999999999999,0.5235987755982988,0.0,0,-1.1735454,-1.6407564,3.1252396,0.51319116,-0.11929997,0.38616204,0.24943249,0.69189924,-0.7125368,-1.8283372,0.9917361,0.4656523,-0.93671924,0.17864504
-0.1,-0.1,0.9999999999999999,0.5235987755982988,0.0,0,-1.1684927,-1.6302993,3.1299365,0.52968276,0.056390617,0.31395337,-0.06842754,0.69350386,-0.70338476,-1.8281852,0.98274773,0.61001813,-1.0566603,0.46129858
-0.1,-0.1,0.9999999999999999,0.5235987755982988,0.0,0,-1.1717949,-1.6271541,3.1223993,0.4976388,0.009026224,0.41386828,1.705884,0.6823323,-0.71016395,-1.8265944,0.9835027,0.43173409,-1.1520534,-0.47226298
-0.1,-0.1,0.9999999999999999,0.5235987755982988,0.0,0,-1.1718354,-1.6401151,3.1304953,0.49012476,-0.23061971,0.31234217,-0.049689732,0.69134134,-0.7086505,-1.8300794,0.9889313,0.61672974,-0.839354,0.5226499
-0.1,-0.1,0.9999999999999999,0.5235987755982988,0.0,0,-1.1710163,-1.6342154,3.130394,0.49781036,-0.07152543,0.08661672,0.058075063,0.69407314,-0.70948535,-1.8316001,0.9900671,0.5946631,-0.97856355,0.17648572
-0.1,-0.1,0.9999999999999999,0.5235987755982988,0.0,0,-1.1740086,-1.6266528,3.1291006,0.4700037,-0.100442596,0.22105958,0.3344596,0.6841681,-0.7061169,-1.8307521,0.984455,0.5436352,-1.1426548,-1.0897602
-0.1,-0.1,0.9999999999999999,0.5235987755982988,0.0,0,-1.172589,-1.6231512,3.1327338,0.49796006,-0.005542424,0.14019115,-0.2996236,0.6840504,-0.70800793,-1.8258983,0.99260086,0.71057045,-1.2568976,-0.39087662
-0.1,-0.1,0.9999999999999999,0.5235987755982988,0.0,0,-1.1691827,-1.622654,3.1293402,0.51781183,-0.08674608,0.17622569,-0.19339871,0.6915633,-0.7038512,-1.82817,0.98639613,0.49220434,-1.1184993,-0.3388661
-0.1,-0.1,0.9999999999999999,0.5235987755982988,0.0,0,-1.16979,-1.6283226,3.1268668,0.47635975,-0.059300385,0.10134534,-0.6488442,0.6963412,-0.7054723,-1.8249624,0.9823468,0.47403744,-1.1403286,0.034759108
-0.1,-0.1,0.9999999999999999,0.5235987755982988,0.0,0,-1.1689281,-1.623959,3.1290007,0.46928364,-0.014254206,0.2739981,-1.0760946,0.68712175,-0.6991187,-1.8223455,0.9918336,0.39829051,-0.8461516,0.40959105
-0.1,-0.1,0.9999999999999999,0.5235987755982988,0.0,0,-1.1710143,-1.6254306,3.1314123,0.50321835,-0.10904807,0.09987177,0.1912847,0.6885805,-0.7072735,-1.8249545,0.9956394,0.5571825,-1.2101084,0.05763302
-0.1,-0.1,0.9999999999999999,0.5235987755982988,0.0,0,-1.1678762,-1.6286288,3.1308835,0.5082138,-0.0071317344,0.21748117,0.31300527,0.68276566,-0.7048143,-1.8333948,0.98218536,0.67625594,-1.2096746,-0.8900066
-0.1,-0.1,0.9999999999999999,0.5235987755982988,0.0,0,-1.1748984,-1.6251944,3.1278636,0.53758067,-0.11105838,0.02957162,0.34816602,0.6921824,-0.7185038,-1.8232975,0.9821767,0.6336162,-0.87526006,0.41268858
-0.1,-0.1,0.9999999999999999,0.5235987755982988,0.0,0,-1.1696876,-1.6249495,3.12868,0.40834877,0.072707705,0.18217266,0.16153443,0.6889658,-0.7070652,-1.8192639,0.9917089,0.42929623,-0.96956754,-0.6935157
-0.1,-0.1,0.9999999999999999,0.5235987755982988,0.0,0,-1.1699922,-1.614998,3.1219084,0.4992741,0.10103853,0.483697,-0.4413179,0.6871867,-0.7085761,-1.8339368,0.98068017,0.29526392,-0.7533207,0.30366796
-0.1,-0.1,0.9999999999999999,0.5235987755982988,0.0,0,-1.1684673,-1.6179459,3.1309457,0.49581793,0.0065946663,0.062413406,-0.20880371,0.6854963,-0.7187037,-1.8249049,0.9803208,0.5417746,-1.434275,-0.74215835
-0.1,-0.1,0.9999999999999999,0.5235987755982988,0.0,0,-1.170753,-1.6260514,3.1288142,0.54333484,-0.15751357,0.25976178,-0.5733683,0.6823721,-0.71088916,-1.8300503,0.99204534,0.5441939,-0.84432006,-0.15078712
-0.1,-0.1,0.9999999999999999,0.5235987755982988,0.0,0,-1.1712188,-1.6262392,3.1326644,0.45588982,0.13087992,0.00021356484,0.6726076,0.6902006,-0.71225446,-1.8271658,0.97810745,0.5961515,-1.0908766,-0.23491986
-0.1,-0.1,0.9999999999999999,0.5235987755982988,0.0,0,-1.1748345,-1.6275896,3.1334133,0.4978015,0.04062949,0.04674156,0.16154015,0.69186735,-0.71219885,-1.822951,0.97993326,0.4971574,-0.6059523,0.031642847
-0.1,-0.1,0.9999999999999999,0.5235987755982988,0.0,0,-1.1722263,-1.6191505,3.1300046,0.5043861,-0.14351438,-0.24809048,-0.60488886,0.68572396,-0.7108153,-1.8272429,0.98919517,0.77036804,-0.9427028,0.18581368
-0.1,-0.1,0.9999999999999999,0.5235987755982988,0.0,0,-1.1688163,-1.6148401,3.1260226,0.5199993,-0.056174926,0.018215898,-0.111046515,0.6854381,-0.7069998,-1.8246686,0.9795245,0.6367501,-0.85960454,-0.020468956
-0.1,-0.1,0.9999999999999999,0.5235987755982988,0.0,0,-1.1693687,-1.6164654,3.1253283,0.5009301,-0.22265275,0.12656641,0.21035619,0.6947992,-0.70367366,-1.8322502,0.98929983,0.47912386,-1.1352056,-0.42211208
-0.1,-0.1,0.9999999999999999,0.5235987755982988,0.0,0,-1.1695827,-1.6155984,3.1288214,0.50696564,-0.16433367,0.21097256,0.30984455,0.68874913,-0.70490324,-1.8352344,0.98237205,0.4571731,-0.8270713,-0.39478374
-0.1,-0.1,0.9999999999999999,0.5235987755982988,0.0,0,-1.1673628,-1.6177211,3.1284442,0.51152056,0.21890344,0.17301293,-0.9102809,0.6907722,-0.7132929,-1.819089,0.98410213,0.64030224,-0.8239977,-0.8450331
-0.1,-0.1,0.9999999999999999,0.5235987755982988,0.0,0,-1.1707044,-1.6325595,3.130293,0.463611,-0.1744753,-0.011506695,0.27753857,0.6856448,-0.71167463,-1.8275802,0.9863431,0.29713997,-0.9618026,-0.60716057
-0.1,-0.1,0.9999999999999999,0.5235987755982988,0.0,0,-1.1679627,-1.6246436,3.129668,0.49440196,-0.0739114,0.34599742,-0.23972894,0.6967009,-0.701733,-1.8254019,0.9935425,0.24937211,-1.2539377,-0.3261719
-0.1,-0.1,0.9999999999999999,0.5235987755982988,0.0,0,-1.1673876,-1.6292088,3.1320345,0.5159701,-0.057406858,0.46551886,-0.14973634,0.68504924,-0.7098473,-1.8302015,0.98987514,0.5109192,-1.0853155,-1.2164932
-0.1,-0.1,0.9999999999999999,0.5235987755982988,0.0,0,-1.168592,-1.6247599,3.1294348,0.47094828,-0.037155427,0.36675698,-0.65087914,0.7004663,-0.70562613,-1.828736,0.9910297,0.41330507,-1.0821476,-0.39551482
-0.1,-0.1,0.9999999999999999,0.5235987755982988,0.0,0,-1.1719835,-1.6360834,3.1257808,0.44549516,-0.16043861,0.2810111,0.15397581,0.6896471,-0.7032985,-1.8322395,0.98710084,0.58550555,-1.1628326,0.20603734
