sanky1234/BimanualDexCatch/isaacgymenvs/cem_results/football_pose_0.0_-0.1_0.7_0.0_-0.5235987755982988_0_2025-05-26.csv
x,y,z,roll,pitch,yaw,robot1/joint1,robot1/joint2,robot1/joint3,robot1/joint4,robot1/joint5,robot1/joint6,robot1/joint7,robot2/joint1,robot2/joint2,robot2/joint3,robot2/joint4,robot2/joint5,robot2/joint6,robot2/joint7
0.0,-0.1,0.7,0.0,-0.5235987755982988,0,-2.3563478,1.9946276,-0.11093721,-0.64020544,-0.026250325,1.2594309,-0.68602014,0.16518797,1.4833527,-0.33007723,-0.04528179,-0.06435303,1.3447889,-0.5615553
0.0,-0.1,0.7,0.0,-0.5235987755982988,0,-2.3213184,1.9985418,-0.104299806,-0.6409352,-0.038743194,1.2589365,-0.7019724,0.15043096,1.4775708,-0.28347176,-0.04806636,0.27174717,1.2394539,-0.0764273
0.0,-0.1,0.7,0.0,-0.5235987755982988,0,-2.3484423,1.9956756,-0.10450804,-0.63791823,-0.04060123,1.2530034,-0.70305485,0.13880165,1.4801695,-0.3078775,-0.0460356,0.116410166,1.342858,-0.88900447
0.0,-0.1,0.7,0.0,-0.5235987755982988,0,-2.3192906,1.992267,-0.10224616,-0.6402725,-0.038796373,1.2620716,-0.6947948,0.15428178,1.4880416,-0.21744823,-0.019827267,0.16137922,1.3140501,0.112817824
0.0,-0.1,0.7,0.0,-0.5235987755982988,0,-2.333017,1.9914666,-0.105389036,-0.6388444,-0.035289068,1.2620231,-0.67999315,0.12086381,1.4805161,-0.35756078,-0.057010032,0.034321252,1.2958643,0.6456513
0.0,-0.1,0.7,0.0,-0.5235987755982988,0,-2.351505,1.9956871,-0.10437144,-0.65311706,-0.039605126,1.2729796,-0.68641424,0.12605298,1.4792382,-0.29177144,-0.023326997,0.085155144,1.3677701,-0.8008119
0.0,-0.1,0.7,0.0,-0.5235987755982988,0,-2.292452,1.9930314,-0.099639334,-0.6419677,-0.04783805,1.2687849,-0.6664136,0.13777204,1.4830439,-0.27838367,-0.030793594,0.1241369,1.1846149,-0.25536317
0.0,-0.1,0.7,0.0,-0.5235987755982988,0,-2.3158066,1.9952587,-0.11201217,-0.64306104,-0.04031582,1.2675457,-0.67782557,0.14831829,1.480716,-0.33353516,-0.021781484,0.15915911,1.2577897,-0.50677204
0.0,-0.1,0.7,0.0,-0.5235987755982988,0,-2.326676,1.990255,-0.10369559,-0.6409274,-0.030935397,1.2666749,-0.68888575,0.15739186,1.479735,-0.3775424,-0.04517857,0.09223521,1.2799586,-0.5539194
0.0,-0.1,0.7,0.0,-0.5235987755982988,0,-2.3192208,1.9958485,-0.09965594,-0.6514474,-0.040678743,1.2761304,-0.6761079,0.13937551,1.4865535,-0.33317316,-0.03783803,0.07384711,1.2076706,0.40151623
0.0,-0.1,0.7,0.0,-0.5235987755982988,0,-2.3128335,1.9939473,-0.0966653,-0.637114,-0.026202066,1.2653307,-0.6710664,0.1453165,1.4893688,-0.28975812,-0.019754887,0.10561983,1.295037,0.537819
0.0,-0.1,0.7,0.0,-0.5235987755982988,0,-2.2909083,1.997132,-0.10684123,-0.6430481,-0.042825077,1.2650019,-0.7072223,0.15259252,1.4851304,-0.30366886,-0.029207608,0.41811168,1.298332,0.1326407
0.0,-0.1,0.7,0.0,-0.5235987755982988,0,-2.3050659,1.9947159,-0.10423619,-0.64169574,-0.042307593,1.2641004,-0.69589996,0.13510147,1.4876779,-0.35470104,-0.027227113,0.40946674,1.2718626,-0.98181236
0.0,-0.1,0.7,0.0,-0.5235987755982988,0,-2.3376515,1.9958829,-0.10553107,-0.65612125,-0.03434792,1.277914,-0.6727264,0.13697734,1.483301,-0.36242807,-0.012480804,0.19718325,1.355924,0.54212356
0.0,-0.1,0.7,0.0,-0.5235987755982988,0,-2.3260226,1.9935535,-0.103553735,-0.64531356,-0.02715954,1.2682368,-0.70427614,0.15404776,1.4861931,-0.1715369,-0.020941515,0.15560456,1.2389597,0.3150565
0.0,-0.1,0.7,0.0,-0.5235987755982988,0,-2.3434095,1.9919645,-0.10472333,-0.64842904,-0.03767232,1.2684116,-0.71194226,0.15812865,1.4835467,-0.36306158,-0.019031487,-0.120718844,1.2887156,0.9786603
0.0,-0.1,0.7,0.0,-0.5235987755982988,0,-2.3368359,1.9921005,-0.10495991,-0.6375703,-0.03526986,1.2592163,-0.6841212,0.121493936,1.4797354,-0.28907415,-0.0010248644,0.23333341,1.3093684,0.66917706
0.0,-0.1,0.7,0.0,-0.5235987755982988,0,-2.3529387,1.9948059,-0.10292858,-0.63999325,-0.03787753,1.2622727,-0.6705655,0.13899969,1.4819694,-0.33701444,-0.024779586,0.33259857,1.2841797,-0.77933097
0.0,-0.1,0.7,0.0,-0.5235987755982988,0,-2.2930672,1.9954417,-0.10267966,-0.63753116,-0.038353235,1.2597204,-0.7113089,0.18818116,1.4828268,-0.27209282,-0.017156092,-0.06110461,1.3261846,0.35434583
0.0,-0.1,0.7,0.0,-0.5235987755982988,0,-2.3209398,1.9945165,-0.10601869,-0.640165,-0.03148331,1.2593149,-0.71730083,0.16223514,1.4815313,-0.39307415,-0.03101303,0.29729083,1.3663431,0.5977498
0.0,-0.1,0.7,0.0,-0.5235987755982988,0,-2.3282115,1.9944748,-0.106707014,-0.6435714,-0.033634875,1.266639,-0.7220504,0.16389246,1.4836084,-0.2905607,-0.046102572,0.23335798,1.2931992,-0.032691065
0.0,-0.1,0.7,0.0,-0.5235987755982988,0,-2.3106315,1.9948838,-0.10287921,-0.66202974,-0.038005088,1.2822678,-0.7075745,0.13352224,1.477711,-0.36322123,-0.052426644,0.23960239,1.3545157,-0.7440133
0.0,-0.1,0.7,0.0,-0.5235987755982988,0,-2.3333356,1.9944844,-0.10611895,-0.64862907,-0.03407137,1.2725874,-0.6873775,0.14670621,1.4822109,-0.37964663,-0.0057909223,0.5888599,1.2978685,-0.23634201
0.0,-0.1,0.7,0.0,-0.5235987755982988,0,-2.352462,1.9965589,-0.10996728,-0.6436657,-0.04728327,1.2619272,-0.6943181,0.097153194,1.482797,-0.35980853,-0.029042892,0.12819912,1.3371315,0.28537345
0.0,-0.1,0.7,0.0,-0.5235987755982988,0,-2.326585,1.9935404,-0.10546466,-0.6440348,-0.03238961,1.2681733,-0.685124,0.15001002,1.4840595,-0.3140152,-0.043715395,0.008876444,1.3208134,-0.61762047
0.0,-0.1,0.7,0.0,-0.5235987755982988,0,-2.3162837,1.992282,-0.09671973,-0.64241785,-0.04442939,1.269088,-0.68008995,0.14641619,1.4803895,-0.31168267,-0.019477705,0.19118834,1.2706763,-0.42400166
0.0,-0.1,0.7,0.0,-0.5235987755982988,0,-2.318711,1.9931403,-0.10175371,-0.6445452,-0.033997566,1.2654587,-0.71679854,0.13001637,1.4781193,-0.34697276,-0.030925812,0.106339246,1.283504,0.5840312
0.0,-0.1,0.7,0.0,-0.5235987755982988,0,-2.305177,1.9970312,-0.10250364,-0.64261365,-0.04556969,1.2684017,-0.6715546,0.13507377,1.4861183,-0.2786843,-0.03945727,0.037400816,1.3695321,0.018989576
0.0,-0.1,0.7,0.0,-0.5235987755982988,0,-2.3332167,1.9967821,-0.10726746,-0.654308,-0.038228024,1.2812655,-0.695889,0.15299514,1.4773062,-0.3236304,-0.046957493,0.28643295,1.2294924,-0.016499978
0.0,-0.1,0.7,0.0,-0.5235987755982988,0,-2.3243933,1.9941157,-0.102058195,-0.6442474,-0.02862668,1.2669603,-0.7178405,0.15950489,1.4816633,-0.3757217,-0.021225616,0.09679684,1.2903593,0.39771476
0.0,-0.1,0.7,0.0,-0.5235987755982988,0,-2.3402243,1.9902701,-0.104491785,-0.64858,-0.03972502,1.2718079,-0.70271856,0.17028575,1.4865848,-0.25980213,-0.02698923,0.06564091,1.3161961,0.06701728
0.0,-0.1,0.7,0.0,-0.5235987755982988,0,-2.3146312,1.9959885,-0.102605,-0.6446566,-0.033721626,1.2663399,-0.7134667,0.113999754,1.4845583,-0.28712657,-0.027481383,0.05790969,1.284512,0.24244437
0.0,-0.1,0.7,0.0,-0.5235987755982988,0,-2.3257482,1.9944729,-0.09617763,-0.6442072,-0.035688587,1.2675494,-0.7075011,0.13550627,1.4861667,-0.31100142,-0.047282416,0.12215808,1.2648876,0.21556288
0.0,-0.1,0.7,0.0,-0.5235987755982988,0,-2.3203413,1.9948583,-0.10934694,-0.6393047,-0.040671516,1.2607492,-0.6874042,0.14144967,1.4814476,-0.295065,-0.059546936,0.18341899,1.4238849,0.7510157
0.0,-0.1,0.7,0.0,-0.5235987755982988,0,-2.351683,1.9913476,-0.102310374,-0.64511716,-0.04878234,1.2633941,-0.7133518,0.13281398,1.4884065,-0.30067292,-0.046080314,0.16291559,1.3648176,-0.02074736
0.0,-0.1,0.7,0.0,-0.5235987755982988,0,-2.353066,1.9967208,-0.10107119,-0.64527774,-0.049478672,1.2696944,-0.6920761,0.14484037,1.4819729,-0.3972517,-0.03632607,0.013275754,1.3112711,-0.42839828
0.0,-0.1,0.7,0.0,-0.5235987755982988,0,-2.3374329,1.9997112,-0.10621932,-0.64138544,-0.045827862,1.258532,-0.6899203,0.13286261,1.4742827,-0.32046804,-0.03561164,0.16656482,1.3303694,-0.42476016
0.0,-0.1,0.7,0.0,-0.5235987755982988,0,-2.3451147,1.9968779,-0.10114302,-0.6429766,-0.04919252,1.2646005,-0.67390805,0.13708094,1.4802322,-0.3295539,-0.030018803,-0.3201797,1.2418625,-0.24208595
0.0,-0.1,0.7,0.0,-0.5235987755982988,0,-2.3154795,1.9942583,-0.10259586,-0.6455454,-0.029798234,1.2692474,-0.703736,0.17909566,1.4840876,-0.2583378,-0.02946142,-0.029773546,1.3194889,0.28231528
0.0,-0.1,0.7,0.0,-0.5235987755982988,0,-2.3403988,1.9940145,-0.10090291,-0.64627194,-0.043257788,1.2679921,-0.6901192,0.13145675,1.4821812,-0.34247494,-0.018532814,0.20404875,1.2385455,0.7424176
0.0,-0.1,0.7,0.0,-0.5235987755982988,0,-2.3265507,1.9936953,-0.10822036,-0.64528346,-0.04280658,1.2685703,-0.6868873,0.17851876,1.4844763,-0.3462641,-0.039131925,0.17352653,1.2591804,-0.11917604
0.0,-0.1,0.7,0.0,-0.5235987755982988,0,-2.3287823,1.9939568,-0.1048438,-0.6434414,-0.048065685,1.2712035,-0.68811935,0.15691282,1.4867338,-0.21994452,-0.031055275,0.09986553,1.3907174,1.0845407
0.0,-0.1,0.7,0.0,-0.5235987755982988,0,-2.311255,1.9957505,-0.10728882,-0.64550894,-0.038665745,1.2729309,-0.6885267,0.1955036,1.482819,-0.3162847,-0.0184652,0.13192087,1.3320838,0.11314972
0.0,-0.1,0.7,0.0,-0.5235987755982988,0,-2.315457,1.9943277,-0.10861555,-0.63672984,-0.035212368,1.2637277,-0.6789436,0.11805297,1.481722,-0.3323336,-0.04561515,-0.07170492,1.2433304,-0.5785998
0.0,-0.1,0.7,0.0,-0.5235987755982988,0,-2.3355641,1.992762,-0.10351631,-0.64758074,-0.028454838,1.2803382,-0.6715266,0.13533792,1.4858589,-0.30016756,-0.03556547,0.06331947,1.2581795,0.31008372
0.0,-0.1,0.7,0.0,-0.5235987755982988,0,-2.3268065,1.9919854,-0.10097633,-0.6409663,-0.04110314,1.2622089,-0.70167726,0.1379659,1.4819393,-0.35568947,-0.03856698,-0.014631122,1.3535398,0.6615867
0.0,-0.1,0.7,0.0,-0.5235987755982988,0,-2.3313777,1.9908735,-0.101655,-0.6490548,-0.040258955,1.2786119,-0.67649966,0.12531391,1.4867284,-0.2602537,-0.03279133,0.01586936,1.30685,0.18279576
0.0,-0.1,0.7,0.0,-0.5235987755982988,0,-2.3129811,1.9968041,-0.10810291,-0.64406735,-0.036733475,1.2702991,-0.67934793,0.15858524,1.4853656,-0.29763618,-0.036836702,0.38338625,1.2699147,-0.09511445
0.0,-0.1,0.7,0.0,-0.5235987755982988,0,-2.3293018,1.9951749,-0.10832615,-0.63786197,-0.028252985,1.2601326,-0.68904716,0.16999303,1.4846591,-0.29974878,-0.004733756,0.25241888,1.2964329,1.3321073
0.0,-0.1,0.7,0.0,-0.5235987755982988,0,-2.3057,1.9964775,-0.10417586,-0.6444354,-0.043007813,1.2732204,-0.67160773,0.13184743,1.4792837,-0.3904732,-0.036155283,0.2124388,1.3058212,0.5361886
0.0,-0.1,0.7,0.0,-0.5235987755982988,0,-2.3240685,1.9963964,-0.10939592,-0.64265543,-0.043551773,1.2715368,-0.66441387,0.16047278,1.4831164,-0.305063,-0.043733846,-0.021364544,1.2728633,-0.2130271
0.0,-0.1,0.7,0.0,-0.5235987755982988,0,-2.3024688,1.9940655,-0.10347915,-0.63816875,-0.03307851,1.2591269,-0.70594496,0.13987692,1.4861561,-0.33080542,-0.027204022,-0.117492825,1.3235759,-0.85729796
0.0,-0.1,0.7,0.0,-0.5235987755982988,0,-2.3325298,1.9956594,-0.106910355,-0.64224964,-0.048561208,1.2601223,-0.68645716,0.14765435,1.485005,-0.3173178,-0.03413974,0.1678956,1.3381643,1.0291636
0.0,-0.1,0.7,0.0,-0.5235987755982988,0,-2.3185847,1.9985389,-0.10937514,-0.6372139,-0.028839331,1.262711,-0.69222784,0.16444471,1.4816649,-0.32882676,-0.037689306,0.28735524,1.3335655,-0.56533283
0.0,-0.1,0.7,0.0,-0.5235987755982988,0,-2.3403933,1.9936334,-0.0956316,-0.6461655,-0.030859469,1.2716616,-0.694925,0.11661721,1.4905326,-0.2932441,-0.026230488,0.27744907,1.334446,-0.7442738
0.0,-0.1,0.7,0.0,-0.5235987755982988,0,-2.3193827,1.9938338,-0.10884433,-0.6438977,-0.03604508,1.2658837,-0.7163407,0.15721868,1.4822003,-0.35358068,-0.042509988,0.36190102,1.2328237,0.084080145
0.0,-0.1,0.7,0.0,-0.5235987755982988,0,-2.3554795,1.9971129,-0.10045592,-0.63433,-0.03406209,1.2560036,-0.70479876,0.1446699,1.479629,-0.25083596,-0.026405355,0.21503462,1.4160807,-0.62472916
0.0,-0.1,0.7,0.0,-0.5235987755982988,0,-2.3117085,1.9933357,-0.09819874,-0.6471471,-0.03199484,1.2721082,-0.7094907,0.13462037,1.4872781,-0.23999025,-0.022318434,0.14936341,1.2294848,0.22626774
0.0,-0.1,0.7,0.0,-0.5235987755982988,0,-2.319161,1.992973,-0.10385416,-0.6370685,-0.043404184,1.264462,-0.69376796,0.13865818,1.4872954,-0.3089742,-0.026479414,0.37590164,1.2359471,1.0355481
0.0,-0.1,0.7,0.0,-0.5235987755982988,0,-2.2995205,1.9937526,-0.10568893,-0.6406458,-0.04498705,1.2648364,-0.7058801,0.13985837,1.4832858,-0.33212653,-0.026500592,0.25887692,1.281737,0.7300276
0.0,-0.1,0.7,0.0,-0.5235987755982988,0,-2.3198247,1.9948696,-0.10491803,-0.6385174,-0.04063829,1.2434434,-0.6990598,0.16658458,1.4842396,-0.254067,-0.03465832,0.2717528,1.3389227,0.74539775
0.0,-0.1,0.7,0.0,-0.5235987755982988,0,-2.3270748,1.9935081,-0.11310909,-0.6287008,-0.035529237,1.2503734,-0.670481,0.15535969,1.4791739,-0.34336108,-0.04464204,0.08303694,1.2388952,0.13370985
0.0,-0.1,0.7,0.0,-0.5235987755982988,0,-2.3016927,1.9944328,-0.10907062,-0.64778787,-0.033225555,1.2747753,-0.68329513,0.14484003,1.4822416,-0.3148453,-0.037626673,0.23194616,1.3921098,0.12763138
0.0,-0.1,0.7,0.0,-0.5235987755982988,0,-2.3234074,1.994965,-0.11216092,-0.6419426,-0.038059663,1.2617822,-0.70313245,0.15318915,1.4836348,-0.33452335,-0.0105028665,-0.036417622,1.277259,0.1533409
0.0,-0.1,0.7,0.0,-0.5235987755982988,0,-2.3315334,1.9964184,-0.09797643,-0.6425201,-0.041727018,1.2679887,-0.687172,0.12982091,1.4847269,-0.34386754,-0.035230577,0.19252668,1.356495,-0.5276964
0.0,-0.1,0.7,0.0,-0.5235987755982988,0,-2.3350441,1.9961963,-0.10285814,-0.6420729,-0.02598671,1.2644795,-0.71459484,0.14733826,1.4817019,-0.32087728,-0.043390527,0.14428128,1.2083198,0.8471507
0.0,-0.1,0.7,0.0,-0.5235987755982988,0,-2.3352761,1.9916588,-0.111379564,-0.6389261,-0.026638763,1.2627742,-0.67790794,0.14310212,1.4788935,-0.41284445,-0.021331033,0.045021776,1.3128163,-0.08874399
0.0,-0.1,0.7,0.0,-0.5235987755982988,0,-2.3252344,1.993363,-0.1067239,-0.64268005,-0.04764476,1.2677075,-0.6957909,0.13686304,1.4777036,-0.35702497,-0.03910105,0.2727372,1.2793574,-0.04507231
0.0,-0.1,0.7,0.0,-0.5235987755982988,0,-2.342974,1.9964439,-0.10085178,-0.6375744,-0.035585504,1.2596959,-0.6907278,0.16422474,1.4831564,-0.2744749,-0.0343223,0.23209032,1.1536788,-0.25715208
0.0,-0.1,0.7,0.0,-0.5235987755982988,0,-2.3021877,1.996457,-0.10998424,-0.64873815,-0.038214598,1.2735096,-0.680114,0.15272337,1.4877578,-0.2757501,-0.038713682,0.029668517,1.1894823,0.46014658
0.0,-0.1,0.7,0.0,-0.5235987755982988,0,-2.3032556,1.9909395,-0.10856791,-0.6442451,-0.03901996,1.2765129,-0.68107957,0.14477399,1.484896,-0.35219577,-0.041564263,0.20377594,1.2567145,-0.32466492
0.0,-0.1,0.7,0.0,-0.5235987755982988,0,-2.327327,1.9956253,-0.103920504,-0.64867854,-0.0413133,1.2726121,-0.6837979,0.14977565,1.4808061,-0.32959452,-0.039279286,0.1980177,1.3142135,0.3584884
0.0,-0.1,0.7,0.0,-0.5235987755982988,0,-2.3272915,1.9943457,-0.10965805,-0.63731796,-0.034403864,1.2620285,-0.6825577,0.15179805,1.4897248,-0.29786596,-0.05218476,0.08446811,1.2712595,0.45017087
0.0,-0.1,0.7,0.0,-0.5235987755982988,0,-2.336802,1.995734,-0.103643484,-0.64627296,-0.03777992,1.2707524,-0.68734384,0.16092065,1.4848295,-0.3203809,-0.033808764,0.17114489,1.3800774,0.49716884
0.0,-0.1,0.7,0.0,-0.5235987755982988,0,-2.316024,1.9929018,-0.10121453,-0.63949525,-0.035854667,1.2648413,-0.69290495,0.13963597,1.4816103,-0.30698106,-0.015010766,0.21970735,1.2288346,-0.482988
0.0,-0.1,0.7,0.0,-0.5235987755982988,0,-2.2955494,1.9955592,-0.10456341,-0.644504,-0.02562228,1.2700646,-0.71437484,0.12725106,1.4850043,-0.32844636,-0.039111126,0.19108514,1.259683,-0.051204707
0.0,-0.1,0.7,0.0,-0.5235987755982988,0,-2.3326607,1.996408,-0.10320491,-0.6650033,-0.033644114,1.285791,-0.6965175,0.15511921,1.4844236,-0.35387328,-0.054427557,0.12481349,1.3309286,0.20939675
0.0,-0.1,0.7,0.0,-0.5235987755982988,0,-2.3227272,1.9958842,-0.11496355,-0.6390574,-0.036648855,1.2686476,-0.68251187,0.14523403,1.4818897,-0.27062148,-0.018966055,0.45400998,1.2868195,-0.5361079
0.0,-0.1,0.7,0.0,-0.5235987755982988,0,-2.3133156,1.9925549,-0.1005915,-0.6443588,-0.04280469,1.2663473,-0.70770234,0.14165996,1.4760433,-0.37539762,-0.040295497,0.16395994,1.2745142,-0.5501285
0.0,-0.1,0.7,0.0,-0.5235987755982988,0,-2.3352208,1.9947225,-0.104434066,-0.6408023,-0.03531551,1.2640008,-0.71103686,0.16516562,1.4877286,-0.3000593,-0.052441493,0.35217804,1.3047012,0.267887
0.0,-0.1,0.7,0.0,-0.5235987755982988,0,-2.3224602,1.9965546,-0.10273943,-0.653342,-0.047317624,1.2721676,-0.70815706,0.13491231,1.4801496,-0.3341786,-0.0131768705,-0.01750977,1.2735426,0.1219258
0.0,-0.1,0.7,0.0,-0.5235987755982988,0,-2.309977,1.995286,-0.10693811,-0.64478827,-0.040692512,1.2702903,-0.6957098,0.11763725,1.4860678,-0.31645504,-0.023938047,0.26501098,1.3824763,0.46004608
0.0,-0.1,0.7,0.0,-0.5235987755982988,0,-2.325179,1.9946351,-0.10294095,-0.63983744,-0.03186283,1.2648582,-0.69512844,0.11619075,1.4874084,-0.29510885,-0.03934965,0.21054485,1.3092091,0.1455385
0.0,-0.1,0.7,0.0,-0.5235987755982988,0,-2.2921426,1.993653,-0.10977977,-0.639208,-0.03474199,1.2651583,-0.6973171,0.13467284,1.4813799,-0.3688498,-0.025445487,0.048813056,1.3473588,-0.40800464
0.0,-0.1,0.7,0.0,-0.5235987755982988,0,-2.3244667,1.9928527,-0.103198536,-0.6417045,-0.0363476,1.2648455,-0.7121091,0.13434419,1.4876395,-0.3064826,-0.012201563,0.14567517,1.296862,-1.0353596
0.0,-0.1,0.7,0.0,-0.5235987755982988,0,-2.344843,1.9970111,-0.103378035,-0.649437,-0.033562705,1.2722389,-0.6948391,0.12183311,1.4825679,-0.29193506,-0.033734355,0.10376309,1.321847,0.122204244
0.0,-0.1,0.7,0.0,-0.5235987755982988,0,-2.3183444,1.99536,-0.106716715,-0.6456238,-0.042343184,1.2747936,-0.694634,0.14317475,1.4905676,-0.295996,-0.035854816,0.26911992,1.2897353,0.66426635
0.0,-0.1,0.7,0.0,-0.5235987755982988,0,-2.3124225,1.9966469,-0.10137617,-0.63698125,-0.03551297,1.266576,-0.6858551,0.17294687,1.4884412,-0.33633098,-0.038940273,0.19990866,1.2294239,-0.04259378
0.0,-0.1,0.7,0.0,-0.5235987755982988,0,-2.303552,1.9942814,-0.1035124,-0.64366263,-0.04078409,1.2701894,-0.7066425,0.12637493,1.4840039,-0.28687653,-0.058143437,0.19754349,1.2916197,0.38435242
0.0,-0.1,0.7,0.0,-0.5235987755982988,0,-2.2893245,1.9928247,-0.10565672,-0.64521265,-0.031592917,1.2720208,-0.7122631,0.13659772,1.4876324,-0.28194356,-0.027172936,0.017695092,1.3365327,-0.7055793
0.0,-0.1,0.7,0.0,-0.5235987755982988,0,-2.3362708,1.9941941,-0.10535877,-0.6421698,-0.032239113,1.2711935,-0.68709224,0.15782781,1.4874536,-0.33799657,-0.05897775,-0.020530887,1.3017099,-0.17475812
0.0,-0.1,0.7,0.0,-0.5235987755982988,0,-2.3245344,1.9962964,-0.10628174,-0.64694446,-0.04482671,1.2671815,-0.7051934,0.123084515,1.4783485,-0.3286218,-0.02185768,0.22413146,1.2402098,-1.1257906
0.0,-0.1,0.7,0.0,-0.5235987755982988,0,-2.2953062,1.9966274,-0.10386321,-0.6415525,-0.045318022,1.2628433,-0.70234084,0.11947362,1.4870974,-0.28795362,-0.047399253,0.031797994,1.3272978,-0.10999086
0.0,-0.1,0.7,0.0,-0.5235987755982988,0,-2.3253384,1.9966246,-0.10563385,-0.63245153,-0.035603642,1.2547469,-0.6885627,0.12652466,1.4855309,-0.29989398,-0.031766597,0.19336051,1.3534318,-0.10735862
0.0,-0.1,0.7,0.0,-0.5235987755982988,0,-2.3131795,1.992361,-0.10119292,-0.6431365,-0.041404154,1.2688951,-0.68108255,0.14591907,1.4855593,-0.2990564,-0.011973966,0.17646715,1.3780774,-0.15315674
0.0,-0.1,0.7,0.0,-0.5235987755982988,0,-2.3313005,1.9937032,-0.10078454,-0.64277726,-0.03989645,1.2689668,-0.6911208,0.12801614,1.4844276,-0.36639214,-0.040462878,0.15767507,1.2895814,-0.40174943
0.0,-0.1,0.7,0.0,-0.5235987755982988,0,-2.3095162,1.9969312,-0.10473595,-0.6424085,-0.050213717,1.2724712,-0.6786626,0.12513247,1.4828216,-0.32009673,-0.041337065,0.13249643,1.2903066,0.32893607
0.0,-0.1,0.7,0.0,-0.5235987755982988,0,-2.307695,1.9948329,-0.106047936,-0.6334254,-0.030812768,1.2582235,-0.70103407,0.1583427,1.4816532,-0.3266283,-0.028878601,0.2992885,1.2915676,-0.29738477
0.0,-0.1,0.7,0.0,-0.5235987755982988,0,-2.320926,1.9915532,-0.104711704,-0.6368125,-0.034822874,1.2632074,-0.70486593,0.13910386,1.4814824,-0.3488791,-0.018669173,0.05328456,1.2189499,-0.26601633
0.0,-0.1,0.7,0.0,-0.5235987755982988,0,-2.3307986,1.9915181,-0.103762336,-0.6428988,-0.028056648,1.2755902,-0.69501793,0.16565591,1.4822555,-0.32713267,-0.02256909,-0.006710473,1.3116643,0.81381834
0.0,-0.1,0.7,0.0,-0.5235987755982988,0,-2.3151007,1.9968104,-0.10999397,-0.63755035,-0.039206684,1.2591774,-0.69792753,0.14272538,1.4876436,-0.25577372,-0.044623546,0.18389238,1.2981344,-0.5863196
0.0,-0.1,0.7,0.0,-0.5235987755982988,0,-2.3274238,1.9944885,-0.10152117,-0.6435513,-0.028227104,1.2717761,-0.6702937,0.13882208,1.4892814,-0.23912853,-0.03483417,0.09693956,1.2651925,0.135461
0.0,-0.1,0.7,0.0,-0.5235987755982988,0,-2.341993,1.992614,-0.10158402,-0.6452284,-0.03896734,1.2686934,-0.71739393,0.15329877,1.4829625,-0.37530112,-0.040035672,0.0396717,1.2323895,0.535314
0.0,-0.1,0.7,0.0,-0.5235987755982988,0,-2.336445,1.9962976,-0.10624828,-0.64539385,-0.03895725,1.2718374,-0.69418025,0.13356587,1.480787,-0.35093126,-0.029233953,0.2536986,1.2841015,0.83129525
0.0,-0.1,0.7,0.0,-0.5235987755982988,0,-2.318618,1.9951128,-0.11744498,-0.6382768,-0.038066316,1.2587899,-0.68834287,0.15610759,1.4855311,-0.3352637,-0.04383809,0.17579758,1.2606833,0.038422607
0.0,-0.1,0.7,0.0,-0.5235987755982988,0,-2.3053627,1.9891707,-0.10640212,-0.6383689,-0.041571,1.2673086,-0.6874738,0.15489133,1.4853877,-0.31785887,-0.025835747,0.16225211,1.3306367,0.35660607
0.0,-0.1,0.7,0.0,-0.5235987755982988,0,-2.3325284,1.9962503,-0.105469555,-0.6337449,-0.03414227,1.2581722,-0.67102975,0.15543704,1.4803932,-0.38807622,-0.048389684,0.2756964,1.2947499,-1.0698525
0.0,-0.1,0.7,0.0,-0.5235987755982988,0,-2.3198643,1.992951,-0.109420605,-0.6437084,-0.036134895,1.2671547,-0.6798195,0.16017348,1.4845011,-0.28786007,-0.024744242,0.20747301,1.2689295,-0.75012
0.0,-0.1,0.7,0.0,-0.5235987755982988,0,-2.3369799,1.9930322,-0.09968924,-0.63992333,-0.028213413,1.2690167,-0.6679838,0.13970119,1.4871886,-0.25942662,-0.025454486,0.07699419,1.3459626,1.0929931
0.0,-0.1,0.7,0.0,-0.5235987755982988,0,-2.3097625,1.990636,-0.10622947,-0.64106715,-0.03822266,1.2675637,-0.68618673,0.117980585,1.4812645,-0.25741178,-0.040442146,-0.014305812,1.3235525,-0.37886116
0.0,-0.1,0.7,0.0,-0.5235987755982988,0,-2.3277068,1.9948071,-0.102106646,-0.6450774,-0.032678798,1.2788674,-0.68137676,0.13827643,1.4872091,-0.35833687,-0.03790075,-0.044728164,1.3404241,0.117867015
0.0,-0.1,0.7,0.0,-0.5235987755982988,0,-2.3307667,1.9954376,-0.10397169,-0.6498956,-0.0414458,1.2760807,-0.6990811,0.14282484,1.4856297,-0.320926,-0.015597802,0.23261066,1.2431885,-0.15889043
0.0,-0.1,0.7,0.0,-0.5235987755982988,0,-2.307281,1.9931656,-0.10012391,-0.6399446,-0.039079502,1.269824,-0.68212163,0.13112539,1.4881767,-0.24580325,-0.028818497,0.14386243,1.3599555,0.3934705
0.0,-0.1,0.7,0.0,-0.5235987755982988,0,-2.3027117,1.9939462,-0.104761936,-0.6381017,-0.03702294,1.2628076,-0.6929718,0.12162567,1.4856458,-0.30011788,-0.005194297,0.22083646,1.3033952,-0.96959156
0.0,-0.1,0.7,0.0,-0.5235987755982988,0,-2.3346052,1.9936128,-0.102420725,-0.6412595,-0.036189165,1.2643248,-0.7275745,0.15543579,1.4823136,-0.24327461,-0.061840475,0.3678026,1.2758822,0.6520525
0.0,-0.1,0.7,0.0,-0.5235987755982988,0,-2.3208258,1.9958977,-0.10571886,-0.6375907,-0.043305457,1.2646754,-0.6881484,0.14129841,1.4789686,-0.29701024,-0.036744073,0.30403867,1.2652159,0.60494274
0.0,-0.1,0.7,0.0,-0.5235987755982988,0,-2.3381367,1.9969703,-0.105083674,-0.6455624,-0.040098034,1.2678407,-0.6741494,0.14237389,1.4814554,-0.34422195,-0.016045786,0.07184873,1.3650357,-0.42160988
0.0,-0.1,0.7,0.0,-0.5235987755982988,0,-2.3381517,1.9953418,-0.103314854,-0.6424526,-0.029776406,1.2664974,-0.6928931,0.13997431,1.4857202,-0.3351467,-0.024340121,0.023740355,1.243857,-0.52515763
0.0,-0.1,0.7,0.0,-0.5235987755982988,0,-2.339998,1.9937824,-0.10117496,-0.65099454,-0.017672159,1.2794025,-0.701357,0.14765815,1.4822862,-0.28712803,-0.026578037,0.22130494,1.2037979,-0.5275676
0.0,-0.1,0.7,0.0,-0.5235987755982988,0,-2.3333647,1.9897358,-0.100781746,-0.6436243,-0.028851684,1.2704134,-0.6970291,0.129563,1.4848256,-0.3255154,-0.038451985,-0.09547791,1.3361188,0.1656467
0.0,-0.1,0.7,0.0,-0.5235987755982988,0,-2.3227966,1.9940355,-0.10632911,-0.64342576,-0.03991003,1.2777252,-0.6631764,0.14911416,1.4832294,-0.3165277,-0.03210614,0.23441248,1.2701643,-1.0406569
0.0,-0.1,0.7,0.0,-0.5235987755982988,0,-2.3031192,1.9914552,-0.102841035,-0.6367146,-0.027859785,1.2657973,-0.7108786,0.14786418,1.4834225,-0.31708917,-0.040929593,0.25053582,1.2973325,0.29045293
0.0,-0.1,0.7,0.0,-0.5235987755982988,0,-2.3291523,1.9921074,-0.11060455,-0.6437659,-0.03147293,1.268734,-0.6948046,0.15163745,1.4821324,-0.3552467,-0.02688438,0.05004538,1.2708848,0.94229656
0.0,-0.1,0.7,0.0,-0.5235987755982988,0,-2.3237994,1.9937105,-0.104773216,-0.6373105,-0.030355247,1.2611461,-0.70796466,0.15890674,1.4856775,-0.24615622,-0.033040866,0.048330408,1.2968769,0.38608322
0.0,-0.1,0.7,0.0,-0.5235987755982988,0,-2.311706,1.9966803,-0.10431328,-0.6442721,-0.034268595,1.2774264,-0.6846029,0.14070825,1.4821054,-0.31161502,-0.041935276,0.041221846,1.389903,-0.43103296
0.0,-0.1,0.7,0.0,-0.5235987755982988,0,-2.3146968,1.9930456,-0.10873447,-0.63926035,-0.034670617,1.2626555,-0.7151429,0.14140092,1.4845139,-0.32293677,-0.03764192,0.26202807,1.1974273,0.5967905
0.0,-0.1,0.7,0.0,-0.5235987755982988,0,-2.3173633,1.9969574,-0.10703251,-0.65103,-0.03665761,1.2750556,-0.701202,0.137137,1.4866562,-0.33678305,-0.036049023,-0.055074405,1.2707311,-0.66825724
0.0,-0.1,0.7,0.0,-0.5235987755982988,0,-2.3163006,1.9936953,-0.101011604,-0.6475497,-0.04657164,1.2752419,-0.69507813,0.1207258,1.4858441,-0.33331847,-0.013521463,0.048648458,1.2054316,0.91454506
0.0,-0.1,0.7,0.0,-0.5235987755982988,0,-2.3263435,1.9932361,-0.10500648,-0.64511687,-0.02981855,1.2746388,-0.6893189,0.16475484,1.4853747,-0.34618118,-0.013461382,0.25973943,1.2801973,-0.8153065
0.0,-0.1,0.7,0.0,-0.5235987755982988,0,-2.3068132,1.9930377,-0.10899674,-0.6391004,-0.041970883,1.2625222,-0.722559,0.13003874,1.4905218,-0.28376642,-0.03770949,-0.08587915,1.3087049,-0.28839287
0.0,-0.1,0.7,0.0,-0.5235987755982988,0,-2.3411653,1.9913284,-0.10455413,-0.64363277,-0.040281124,1.2668124,-0.6980067,0.13784495,1.4792486,-0.31172076,-0.037529025,0.21490902,1.2632203,0.83831674
0.0,-0.1,0.7,0.0,-0.5235987755982988,0,-2.3004074,1.9943582,-0.106669635,-0.6425397,-0.038405806,1.2752942,-0.6830832,0.15687682,1.4846963,-0.3228988,-0.005995409,0.12872063,1.3322964,-0.27350348
0.0,-0.1,0.7,0.0,-0.5235987755982988,0,-2.342207,1.99306,-0.107383005,-0.6434552,-0.03682619,1.2646272,-0.70515317,0.14123754,1.4837623,-0.29385856,-0.03468556,-0.103267014,1.310379,1.1346155
0.0,-0.1,0.7,0.0,-0.5235987755982988,0,-2.3187132,1.9905645,-0.10481985,-0.6428211,-0.03132797,1.269908,-0.69471234,0.12971829,1.4863303,-0.3133599,-0.025274951,0.1159489,1.3164793,0.8617098
0.0,-0.1,0.7,0.0,-0.5235987755982988,0,-2.3190517,1.9939402,-0.107145585,-0.6454194,-0.041553468,1.2680073,-0.70304483,0.13631028,1.4728651,-0.34118637,-0.032351058,0.27455014,1.1990243,-0.60174716
0.0,-0.1,0.7,0.0,-0.5235987755982988,0,-2.3082633,1.9984653,-0.105530456,-0.6388045,-0.035873394,1.2658174,-0.696339,0.17000054,1.484956,-0.31307557,-0.05803628,0.18154691,1.3411752,-0.41685572
0.0,-0.1,0.7,0.0,-0.5235987755982988,0,-2.3319845,1.9920619,-0.09805475,-0.63976777,-0.03381387,1.2672137,-0.69388807,0.1427799,1.4771075,-0.3185178,-0.022491062,0.23774496,1.2298254,-0.70322114
0.0,-0.1,0.7,0.0,-0.5235987755982988,0,-2.326998,1.9912698,-0.104644366,-0.6380308,-0.038090408,1.2631105,-0.68971276,0.16578703,1.4895461,-0.31688043,-0.0313802,0.38792372,1.2974709,-0.44588855
0.0,-0.1,0.7,0.0,-0.5235987755982988,0,-2.3174791,1.9990062,-0.108400896,-0.6435644,-0.033604022,1.2742819,-0.6776898,0.14400971,1.483869,-0.30408278,-0.04354051,0.1636028,1.3074441,-0.5132442
0.0,-0.1,0.7,0.0,-0.5235987755982988,0,-2.3083012,1.9944507,-0.10252835,-0.63670474,-0.027532417,1.2660453,-0.67878926,0.13908422,1.4810312,-0.31360894,-0.022566266,0.02898586,1.2018064,-0.19444309
0.0,-0.1,0.7,0.0,-0.5235987755982988,0,-2.3140538,1.9944171,-0.10928969,-0.6450601,-0.043042857,1.2772987,-0.6737874,0.12339732,1.483912,-0.36298108,-0.043456953,0.09150878,1.323427,-0.5236028
0.0,-0.1,0.7,0.0,-0.5235987755982988,0,-2.344327,1.9938375,-0.10837597,-0.64035046,-0.03933706,1.2621489,-0.71375567,0.1487017,1.4877118,-0.3286306,-0.019367643,0.14296082,1.2494344,-0.6554924
0.0,-0.1,0.7,0.0,-0.5235987755982988,0,-2.3166664,1.9934626,-0.10819645,-0.63744247,-0.050138954,1.2599921,-0.6916797,0.13925639,1.4843647,-0.36118963,-0.03268629,0.2886682,1.2044573,0.279317
0.0,-0.1,0.7,0.0,-0.5235987755982988,0,-2.3064928,1.9981471,-0.110344194,-0.64960045,-0.039156538,1.2717205,-0.71924204,0.14069645,1.4840642,-0.3063284,-0.0030560968,0.15425871,1.3026615,0.021142304
0.0,-0.1,0.7,0.0,-0.5235987755982988,0,-2.3066142,1.9957632,-0.10320413,-0.640484,-0.032606147,1.2686601,-0.70664,0.114165016,1.4866997,-0.3769944,-0.04043915,0.24815232,1.2884552,0.8389399
0.0,-0.1,0.7,0.0,-0.5235987755982988,0,-2.3399763,1.9925005,-0.103238806,-0.64712536,-0.031644266,1.2737836,-0.70936465,0.120125584,1.4837335,-0.33150434,0.0054260986,0.23268549,1.2424849,-0.26139227
0.0,-0.1,0.7,0.0,-0.5235987755982988,0,-2.300698,1.9942749,-0.10759785,-0.6402652,-0.04658417,1.2597798,-0.69788975,0.12564063,1.4847379,-0.39889804,-0.038363986,0.07820769,1.4088322,-1.1083764
0.0,-0.1,0.7,0.0,-0.5235987755982988,0,-2.3078237,1.994792,-0.10482946,-0.6344861,-0.026781159,1.2651227,-0.68527234,0.13993205,1.4834055,-0.22969402,-0.03601957,-0.08168544,1.2687584,-0.663005
0.0,-0.1,0.7,0.0,-0.5235987755982988,0,-2.2923386,1.9955236,-0.10682462,-0.64222366,-0.041816555,1.2683561,-0.69600046,0.16076513,1.4824725,-0.30643365,-0.027512055,0.14666061,1.2573147,-0.987866
0.0,-0.1,0.7,0.0,-0.5235987755982988,0,-2.3548145,1.9950683,-0.10938808,-0.6339266,-0.035719484,1.2537663,-0.6896379,0.13841806,1.4859698,-0.29414475,-0.02513379,0.15891512,1.3421592,-0.2806518
0.0,-0.1,0.7,0.0,-0.5235987755982988,0,-2.3443155,1.9942391,-0.10472518,-0.6321795,-0.0359327,1.258546,-0.68059194,0.13867204,1.4832928,-0.29408494,-0.030487908,0.2615621,1.2796988,-0.096150376
0.0,-0.1,0.7,0.0,-0.5235987755982988,0,-2.3101964,1.9938515,-0.1035888,-0.6511932,-0.03408906,1.283186,-0.6913972,0.13436478,1.4840515,-0.25651532,-0.020367322,-0.0053460025,1.1898587,-0.27648163
0.0,-0.1,0.7,0.0,-0.5235987755982988,0,-2.3123543,1.9979986,-0.09966276,-0.6445218,-0.03419409,1.27188,-0.6986966,0.13095708,1.4853351,-0.3035101,-0.031262726,0.21402274,1.3179688,-0.5800801
0.0,-0.1,0.7,0.0,-0.5235987755982988,0,-2.3213937,1.9972911,-0.10240078,-0.6480109,-0.0384202,1.2752744,-0.6805043,0.1403216,1.4816782,-0.31858468,-0.033796214,0.18875396,1.3469596,-0.8389205
0.0,-0.1,0.7,0.0,-0.5235987755982988,0,-2.3441377,1.9937103,-0.11045689,-0.63472074,-0.0306937,1.2586398,-0.6954943,0.12433535,1.4816147,-0.36036846,-0.039669935,0.08712681,1.2736561,-0.2894148
0.0,-0.1,0.7,0.0,-0.5235987755982988,0,-2.3000588,1.9962219,-0.108656995,-0.64508414,-0.035361916,1.2720971,-0.69710207,0.14639182,1.4780818,-0.25732222,-0.02432763,0.12611634,1.1593015,0.39952615
0.0,-0.1,0.7,0.0,-0.5235987755982988,0,-2.33777,1.9957469,-0.10433244,-0.6404121,-0.044299465,1.2638655,-0.6956933,0.1310788,1.4790648,-0.32376447,-0.04905721,0.0038548727,1.3483504,0.9033487
0.0,-0.1,0.7,0.0,-0.5235987755982988,0,-2.3264525,1.9955276,-0.10591718,-0.63987905,-0.040988404,1.2647802,-0.70062447,0.11170833,1.485656,-0.29878172,-0.040595572,0.21527228,1.233815,0.05323765
0.0,-0.1,0.7,0.0,-0.5235987755982988,0,-2.2857993,1.9937756,-0.105668925,-0.6366298,-0.04707042,1.2648345,-0.694046,0.15783398,1.4862493,-0.3744621,-0.019615985,0.17432603,1.2772936,-0.14654255
0.0,-0.1,0.7,0.0,-0.5235987755982988,0,-2.31439,1.9965311,-0.10383369,-0.6443759,-0.03820942,1.2701476,-0.702445,0.12128749,1.4840024,-0.3232546,-0.029133478,0.088151865,1.3358426,-0.7993474
0.0,-0.1,0.7,0.0,-0.5235987755982988,0,-2.3063025,1.9932791,-0.106732845,-0.6410394,-0.03863383,1.2698472,-0.6965205,0.14492038,1.4886868,-0.38255176,-0.024144722,0.28500012,1.2687464,-0.67791367
0.0,-0.1,0.7,0.0,-0.5235987755982988,0,-2.3315952,1.9949965,-0.10086065,-0.647081,-0.029712457,1.2742747,-0.70176166,0.15132788,1.482863,-0.33612365,-0.022965739,0.14332914,1.28229,0.096488945
0.0,-0.1,0.7,0.0,-0.5235987755982988,0,-2.280526,1.9912983,-0.1049324,-0.64072406,-0.031229103,1.2704101,-0.7169312,0.16039295,1.486401,-0.3668091,-0.028547928,-0.017871933,1.3577906,-0.34310293
0.0,-0.1,0.7,0.0,-0.5235987755982988,0,-2.3179798,1.9879993,-0.10746247,-0.6433716,-0.039543036,1.2753978,-0.68176806,0.14925417,1.4854918,-0.3339663,-0.02598031,0.26617128,1.2791061,0.5525194
0.0,-0.1,0.7,0.0,-0.5235987755982988,0,-2.3140912,1.9915944,-0.10540752,-0.63694507,-0.046468347,1.2690609,-0.6793788,0.17512883,1.4872329,-0.27754474,-0.024662226,0.29091668,1.4236168,-0.38075116
0.0,-0.1,0.7,0.0,-0.5235987755982988,0,-2.313103,1.9944996,-0.10695314,-0.6319833,-0.053632174,1.2633935,-0.6976288,0.14550027,1.4807506,-0.33874002,-0.047911953,0.16774806,1.2747788,-0.5495704
0.0,-0.1,0.7,0.0,-0.5235987755982988,0,-2.3128984,1.9950645,-0.10569714,-0.6384075,-0.027186835,1.2439607,-0.66664827,0.15133965,1.4887702,-0.33994088,-0.022298614,0.15252164,1.2259206,0.7134369
0.0,-0.1,0.7,0.0,-0.5235987755982988,0,-2.3181276,1.9903276,-0.1043101,-0.63738817,-0.040678617,1.2654964,-0.70460474,0.13960856,1.4816195,-0.2945768,-0.013543343,0.18101436,1.3298702,-0.5516928
0.0,-0.1,0.7,0.0,-0.5235987755982988,0,-2.3247094,1.9944247,-0.107413605,-0.6410776,-0.03960963,1.2773305,-0.67381716,0.13006344,1.4895657,-0.34209567,-0.028747007,0.30325332,1.3311476,-0.0039366656
0.0,-0.1,0.7,0.0,-0.5235987755982988,0,-2.3269575,1.9967175,-0.106607996,-0.6419527,-0.041619305,1.2646148,-0.7131827,0.13667428,1.4825976,-0.3340861,0.00016570603,-0.077620715,1.3326385,0.36201042
0.0,-0.1,0.7,0.0,-0.5235987755982988,0,-2.317725,1.9919909,-0.10712681,-0.63516533,-0.04333277,1.2607386,-0.7031492,0.14673416,1.4804461,-0.35795778,0.00065770245,0.24452585,1.2359284,-0.27072626
0.0,-0.1,0.7,0.0,-0.5235987755982988,0,-2.3218591,1.9950624,-0.10232013,-0.630446,-0.0386515,1.2685926,-0.6766703,0.16945842,1.4853438,-0.26677117,-0.0423258,0.2999972,1.2354423,-0.13725255
0.0,-0.1,0.7,0.0,-0.5235987755982988,0,-2.3513556,1.9977827,-0.10538093,-0.6277499,-0.035067752,1.2299262,-0.6674003,0.13334188,1.4770278,-0.3437716,-0.030359732,0.42637497,1.3176221,-0.7497474
0.0,-0.1,0.7,0.0,-0.5235987755982988,0,-2.3298533,1.9936159,-0.10380835,-0.6368595,-0.039531287,1.2726785,-0.69906896,0.13709262,1.4760191,-0.28963003,-0.018709492,0.026729224,1.3080657,-0.2063976
0.0,-0.1,0.7,0.0,-0.5235987755982988,0,-2.3449378,1.9943193,-0.11188606,-0.6417273,-0.03681158,1.271192,-0.68048716,0.13309583,1.4850996,-0.3050433,-0.018323109,0.31852347,1.3181846,0.869141
0.0,-0.1,0.7,0.0,-0.5235987755982988,0,-2.2989852,1.9990323,-0.10338387,-0.6410862,-0.038503,1.2484083,-0.69004685,0.11600657,1.4882687,-0.37463498,-0.0005280683,0.105282806,1.2645698,1.090318
0.0,-0.1,0.7,0.0,-0.5235987755982988,0,-2.3076954,1.995359,-0.094987236,-0.6403402,-0.049578186,1.2525542,-0.6706378,0.1321062,1.4870452,-0.31698206,-0.043046597,0.21387847,1.3011581,-1.0401864
0.0,-0.1,0.7,0.0,-0.5235987755982988,0,-2.325557,1.996009,-0.10101454,-0.64515793,-0.025099544,1.2540666,-0.6942168,0.11484159,1.4819528,-0.27869838,-0.02700594,0.20503937,1.2546035,0.15757814
0.0,-0.1,0.7,0.0,-0.5235987755982988,0,-2.2904117,1.9982454,-0.10045042,-0.6415047,-0.040952,1.2499729,-0.7036898,0.1285446,1.4856954,-0.36519197,-0.036025625,0.13155563,1.2479674,-0.29463857
0.0,-0.1,0.7,0.0,-0.5235987755982988,0,-2.334697,1.9925765,-0.11199591,-0.64123344,-0.035642326,1.2708141,-0.68681836,0.15369272,1.4897156,-0.3121508,-0.025532959,0.26022404,1.2928439,-0.46463323
0.0,-0.1,0.7,0.0,-0.5235987755982988,0,-2.3297782,1.9940009,-0.10447477,-0.6471312,-0.034461748,1.2576667,-0.69791114,0.14269204,1.4838802,-0.31506687,-0.033075094,0.23354992,1.2393466,-0.38400945
0.0,-0.1,0.7,0.0,-0.5235987755982988,0,-2.3280945,1.9959488,-0.10366565,-0.6310618,-0.030804135,1.2373279,-0.7042244,0.12292217,1.4885833,-0.3133972,-0.03610375,-0.051688913,1.2056427,0.60257125
0.0,-0.1,0.7,0.0,-0.5235987755982988,0,-2.3078697,1.993958,-0.10026886,-0.6412241,-0.0330657,1.2539417,-0.69589466,0.15666163,1.485006,-0.30656227,-0.041922584,-0.057570692,1.2921495,0.43285847
0.0,-0.1,0.7,0.0,-0.5235987755982988,0,-2.2851517,1.9962689,-0.105204046,-0.63871205,-0.025087856,1.2598072,-0.6963711,0.15116107,1.4766737,-0.37271202,-0.020286333,0.15713736,1.3208461,0.49903017
0.0,-0.1,0.7,0.0,-0.5235987755982988,0,-2.3477433,1.9959791,-0.10755282,-0.63735193,-0.03248301,1.2464556,-0.68459636,0.15279186,1.4834481,-0.3454014,-0.026659194,-0.0003680425,1.383401,0.22105017
0.0,-0.1,0.7,0.0,-0.5235987755982988,0,-2.346035,1.9916915,-0.09515427,-0.63750035,-0.030418368,1.2577299,-0.682385,0.16271056,1.4867433,-0.28717464,-0.05411135,0.3637626,1.2709601,-0.27646315
0.0,-0.1,0.7,0.0,-0.5235987755982988,0,-2.3218393,1.9976423,-0.10976337,-0.6427051,-0.029379388,1.2385815,-0.70152897,0.17082746,1.4840218,-0.28648725,-0.021563126,0.036806397,1.2192223,-0.17305627
0.0,-0.1,0.7,0.0,-0.5235987755982988,0,-2.3173428,1.990882,-0.10504613,-0.64530325,-0.0286541,1.2535801,-0.692291,0.1441641,1.4783485,-0.3954509,-0.018666845,0.19085254,1.2628865,0.9009031
0.0,-0.1,0.7,0.0,-0.5235987755982988,0,-2.3433924,1.9951738,-0.1142564,-0.6377102,-0.030408427,1.2399932,-0.6923128,0.15735224,1.4872764,-0.3634081,-0.02467058,0.08079719,1.3056637,-0.25398767
0.0,-0.1,0.7,0.0,-0.5235987755982988,0,-2.326676,1.994474,-0.10777225,-0.6308285,-0.03542917,1.233256,-0.70222366,0.13243496,1.4860102,-0.3316138,-0.025455732,0.06760366,1.2369026,-0.758799
0.0,-0.1,0.7,0.0,-0.5235987755982988,0,-2.2879155,1.9951962,-0.10268378,-0.63834196,-0.043872766,1.2400739,-0.71007836,0.16995494,1.4866124,-0.3499997,-0.020765115,0.02427735,1.2791702,-1.1383371
0.0,-0.1,0.7,0.0,-0.5235987755982988,0,-2.329162,1.9932451,-0.10333753,-0.6460298,-0.03733096,1.2568177,-0.6894437,0.14030185,1.4823328,-0.36452276,-0.0560926,0.015974069,1.2382458,0.6118808
0.0,-0.1,0.7,0.0,-0.5235987755982988,0,-2.3384445,1.9935793,-0.10351094,-0.64253694,-0.03751738,1.2598788,-0.6656754,0.13276975,1.4798585,-0.24683172,-0.033241,0.116221435,1.1988378,0.6675446
0.0,-0.1,0.7,0.0,-0.5235987755982988,0,-2.314398,1.9913583,-0.10573273,-0.6451881,-0.018496666,1.2554133,-0.69893855,0.16416183,1.4865973,-0.2715562,-0.03286859,0.117461696,1.2673678,-0.30792245
0.0,-0.1,0.7,0.0,-0.5235987755982988,0,-2.3290977,1.9957474,-0.09843123,-0.6466367,-0.037056703,1.2714132,-0.6917856,0.1474089,1.4852636,-0.28530768,-0.036016352,0.2957312,1.1605195,0.48404303
0.0,-0.1,0.7,0.0,-0.5235987755982988,0,-2.3009176,1.9969696,-0.10326801,-0.64170617,-0.026085319,1.2673142,-0.6758413,0.1302939,1.4796299,-0.29428574,-0.03053306,0.36836457,1.3088073,0.27988172
0.0,-0.1,0.7,0.0,-0.5235987755982988,0,-2.3043766,1.995196,-0.109742746,-0.6410589,-0.04560041,1.2640363,-0.6953616,0.14831333,1.4777265,-0.34481704,-0.027713671,0.10711462,1.3216541,-0.0288064
0.0,-0.1,0.7,0.0,-0.5235987755982988,0,-2.3296819,1.9938811,-0.100024514,-0.6504806,-0.04020228,1.2588354,-0.6923499,0.18076243,1.48103,-0.30199903,-0.047436003,0.31909692,1.2681676,0.36606976
0.0,-0.1,0.7,0.0,-0.5235987755982988,0,-2.32505,1.9935638,-0.10474734,-0.6437779,-0.029035725,1.2545301,-0.6837359,0.15372916,1.4852926,-0.34692016,-0.04446273,0.26589832,1.3585324,-0.9070049
0.0,-0.1,0.7,0.0,-0.5235987755982988,0,-2.291437,1.9966968,-0.10474395,-0.6413548,-0.041690696,1.2501845,-0.7008414,0.1348216,1.4815677,-0.30955854,-0.034049734,0.27021036,1.3084149,1.0586145
0.0,-0.1,0.7,0.0,-0.5235987755982988,0,-2.334463,1.9970043,-0.101453,-0.6440226,-0.032333348,1.2506894,-0.6633946,0.14296663,1.4849392,-0.29794502,-0.026930055,-0.06168318,1.2402422,0.18302578
0.0,-0.1,0.7,0.0,-0.5235987755982988,0,-2.3207288,1.9956189,-0.10185659,-0.6423043,-0.035113268,1.2585396,-0.65592337,0.12048739,1.4828538,-0.28759733,-0.050558772,0.28029734,1.329765,0.05230531
0.0,-0.1,0.7,0.0,-0.5235987755982988,0,-2.3220057,1.9913774,-0.104273945,-0.6402553,-0.030135317,1.2564505,-0.6764439,0.13495876,1.4831687,-0.2952749,-0.043683015,0.22723338,1.3094234,0.51654
0.0,-0.1,0.7,0.0,-0.5235987755982988,0,-2.3187566,1.9947206,-0.10792305,-0.6423838,-0.03770555,1.2544435,-0.6899512,0.15934728,1.4880381,-0.31051156,-0.028607786,0.1493476,1.2213677,0.2946862
0.0,-0.1,0.7,0.0,-0.5235987755982988,0,-2.3224823,1.9938267,-0.10479099,-0.6452931,-0.030636722,1.2614781,-0.68855053,0.1356673,1.4864352,-0.32200956,-0.022480382,-0.069230564,1.3414425,-0.4736462
0.0,-0.1,0.7,0.0,-0.5235987755982988,0,-2.3429074,1.993842,-0.10317154,-0.6320541,-0.032494746,1.247209,-0.6832059,0.17575946,1.4875028,-0.3314315,-0.026846087,-0.017108675,1.2909381,-0.08603171
0.0,-0.1,0.7,0.0,-0.5235987755982988,0,-2.3028364,1.9974917,-0.09398664,-0.6439694,-0.04252781,1.2653992,-0.6820939,0.1397702,1.4902929,-0.2903889,-0.04232312,0.31586727,1.2395836,0.2408075
0.0,-0.1,0.7,0.0,-0.5235987755982988,0,-2.3255453,1.9950334,-0.1080364,-0.6486794,-0.028542658,1.2647588,-0.6835513,0.1495567,1.4827396,-0.344111,-0.0099437805,0.12764722,1.231379,-0.4542766
0.0,-0.1,0.7,0.0,-0.5235987755982988,0,-2.3264253,1.9937602,-0.10068578,-0.6428733,-0.03635017,1.2586396,-0.70208186,0.15231413,1.4853128,-0.30600795,-0.03976928,0.17973725,1.3653145,0.05819116
0.0,-0.1,0.7,0.0,-0.5235987755982988,0,-2.3172636,1.9956785,-0.10059755,-0.64440787,-0.032228556,1.260042,-0.71759653,0.1690744,1.4872116,-0.36639944,-0.054119002,0.119724445,1.366604,-0.20109771
0.0,-0.1,0.7,0.0,-0.5235987755982988,0,-2.3352957,1.9947951,-0.10131711,-0.6396051,-0.02253018,1.2602409,-0.69142884,0.16415761,1.4813875,-0.27106568,-0.029447556,0.1434071,1.2842681,1.0689278
0.0,-0.1,0.7,0.0,-0.5235987755982988,0,-2.295042,1.99459,-0.10468799,-0.6403516,-0.03192137,1.2652246,-0.66906226,0.1154182,1.4851314,-0.29733074,-0.0151605,0.16053301,1.2869585,0.019896502
0.0,-0.1,0.7,0.0,-0.5235987755982988,0,-2.3075724,1.998091,-0.10504732,-0.6476864,-0.040514305,1.2655052,-0.6882957,0.12820883,1.4860027,-0.31699812,-0.030075908,0.2910571,1.2668452,-1.0078119
0.0,-0.1,0.7,0.0,-0.5235987755982988,0,-2.3404703,1.9950863,-0.10478161,-0.64960015,-0.037672404,1.2668095,-0.69763505,0.1636228,1.4850267,-0.36543095,-0.035917986,0.14858207,1.335813,0.82342136
0.0,-0.1,0.7,0.0,-0.5235987755982988,0,-2.3368616,1.9957614,-0.10052564,-0.6452579,-0.04121284,1.2640306,-0.688965,0.15130553,1.483332,-0.34094295,-0.023258677,0.05482129,1.339244,-0.2970442
0.0,-0.1,0.7,0.0,-0.5235987755982988,0,-2.3288455,1.9966455,-0.101995364,-0.6376276,-0.027561579,1.2619504,-0.68095577,0.14755985,1.4863096,-0.34449953,-0.051141106,0.28923884,1.2446419,-0.3464141
0.0,-0.1,0.7,0.0,-0.5235987755982988,0,-2.3324654,1.9965011,-0.099207796,-0.6414789,-0.024079088,1.2676522,-0.68138885,0.13888234,1.4798167,-0.26738116,-0.038133986,0.23284823,1.2437598,0.076825775
0.0,-0.1,0.7,0.0,-0.5235987755982988,0,-2.2928646,1.9941821,-0.103746936,-0.642838,-0.044107333,1.2641963,-0.69126344,0.123242356,1.487471,-0.31048334,-0.011432336,0.22088508,1.2643093,0.17575124
0.0,-0.1,0.7,0.0,-0.5235987755982988,0,-2.3109837,1.9946046,-0.10343733,-0.6359667,-0.03687332,1.257759,-0.7157806,0.15413187,1.4832064,-0.30342922,-0.031818252,0.1997966,1.2280164,0.8878795
0.0,-0.1,0.7,0.0,-0.5235987755982988,0,-2.3257382,1.9936336,-0.101336926,-0.64737916,-0.035610586,1.2745802,-0.6741101,0.13447976,1.4818757,-0.34292346,-0.04253673,0.45914975,1.3238274,-1.0880071
0.0,-0.1,0.7,0.0,-0.5235987755982988,0,-2.3121183,1.9978015,-0.10623452,-0.62077314,-0.032697413,1.238314,-0.6932223,0.12872678,1.4843162,-0.33680764,-0.047587987,0.03938865,1.2583594,-0.118808314
0.0,-0.1,0.7,0.0,-0.5235987755982988,0,-2.331521,1.9971522,-0.11222526,-0.643047,-0.039228775,1.2588245,-0.6935194,0.16418187,1.4887459,-0.36860043,-0.016471373,0.06671666,1.292411,0.8799044
0.0,-0.1,0.7,0.0,-0.5235987755982988,0,-2.3007722,1.9930422,-0.100715525,-0.6381585,-0.038148325,1.2631664,-0.7026133,0.14260541,1.4870796,-0.38288647,-0.05990243,0.1683547,1.2646158,0.83107793
0.0,-0.1,0.7,0.0,-0.5235987755982988,0,-2.3320534,1.9919327,-0.111547366,-0.63407195,-0.028378364,1.2523025,-0.70640045,0.14260799,1.4828176,-0.32299674,-0.0358893,0.0683143,1.2869494,1.0428957
0.0,-0.1,0.7,0.0,-0.5235987755982988,0,-2.3249497,1.992457,-0.099583715,-0.6282608,-0.04909988,1.2551625,-0.67967564,0.124117926,1.4896342,-0.3800482,-0.03149675,0.30741835,1.3052961,1.2132125
0.0,-0.1,0.7,0.0,-0.5235987755982988,0,-2.322595,1.9948559,-0.1036876,-0.6473111,-0.032520477,1.2695774,-0.6978544,0.1467381,1.4893928,-0.38332617,-0.014381864,0.1732232,1.1962571,-0.20364672
0.0,-0.1,0.7,0.0,-0.5235987755982988,0,-2.2997503,1.9947122,-0.10219337,-0.64645416,-0.034256995,1.2742007,-0.67022437,0.13025588,1.4869308,-0.2998498,-0.04173127,0.1539353,1.333111,0.22998463
0.0,-0.1,0.7,0.0,-0.5235987755982988,0,-2.3044946,1.9933674,-0.102625236,-0.64084345,-0.035187714,1.2702596,-0.69447416,0.1610039,1.4839342,-0.3290223,-0.019891206,0.072555155,1.2904655,0.48593774
0.0,-0.1,0.7,0.0,-0.5235987755982988,0,-2.3229923,1.9964008,-0.109040394,-0.6411121,-0.035740804,1.2626432,-0.6830307,0.14752497,1.4847301,-0.3533753,-0.033637553,-0.0023953721,1.3357381,-0.2917563
0.0,-0.1,0.7,0.0,-0.5235987755982988,0,-2.3291197,1.9944514,-0.105587296,-0.6377968,-0.034379296,1.2551721,-0.7034754,0.172742,1.4798619,-0.38328442,-0.037269488,0.089044124,1.3630283,-0.80916977
0.0,-0.1,0.7,0.0,-0.5235987755982988,0,-2.3100262,1.9928653,-0.10581882,-0.637864,-0.030446531,1.260603,-0.69771314,0.1292592,1.4867958,-0.32700825,-0.03266503,-0.071219996,1.3468655,0.5227707
0.0,-0.1,0.7,0.0,-0.5235987755982988,0,-2.337439,1.9961759,-0.10649944,-0.6398587,-0.034752145,1.2615079,-0.7021748,0.11423472,1.4832797,-0.30323598,-0.034522884,0.11973337,1.3088987,-0.86334836
0.0,-0.1,0.7,0.0,-0.5235987755982988,0,-2.3050077,1.9951502,-0.10765706,-0.63707423,-0.043231886,1.2661532,-0.6626552,0.16425453,1.4808546,-0.29961687,-0.021393586,0.2639321,1.335127,0.842061
0.0,-0.1,0.7,0.0,-0.5235987755982988,0,-2.3080516,1.992499,-0.1065852,-0.63795733,-0.03139747,1.268428,-0.68109125,0.16538693,1.4887241,-0.35822102,-0.047117665,0.18277879,1.277407,-0.5363751
0.0,-0.1,0.7,0.0,-0.5235987755982988,0,-2.3298478,1.9964582,-0.105265185,-0.6423015,-0.043013867,1.262049,-0.6944629,0.14821815,1.4803572,-0.35095075,-0.01619444,0.028343838,1.2841691,1.0701936
0.0,-0.1,0.7,0.0,-0.5235987755982988,0,-2.3334339,1.9930291,-0.10174657,-0.6415059,-0.039572205,1.2647947,-0.6986088,0.1331117,1.4879345,-0.39141774,-0.036186486,0.0584581,1.3107836,0.5520155
0.0,-0.1,0.7,0.0,-0.5235987755982988,0,-2.285475,1.9936793,-0.104990765,-0.64574313,-0.030023813,1.2793378,-0.7003673,0.15680298,1.4792813,-0.295365,-0.021127949,0.23791854,1.2508811,-0.8526359
0.0,-0.1,0.7,0.0,-0.5235987755982988,0,-2.3138824,1.9967837,-0.10947085,-0.6498012,-0.035960175,1.2726728,-0.689975,0.13795137,1.4767449,-0.37649673,-0.012744585,0.10254696,1.2608755,-0.31042174
0.0,-0.1,0.7,0.0,-0.5235987755982988,0,-2.2999074,1.9945413,-0.10922648,-0.64126223,-0.024727585,1.2641884,-0.7010302,0.13178444,1.4854053,-0.33281136,-0.025074946,0.13345791,1.3689437,0.69747806
0.0,-0.1,0.7,0.0,-0.5235987755982988,0,-2.3341196,1.9972885,-0.11125134,-0.64990455,-0.0382687,1.2702144,-0.71335083,0.17371863,1.4856154,-0.3455381,-0.017650235,0.14850067,1.2170969,1.0426724
0.0,-0.1,0.7,0.0,-0.5235987755982988,0,-2.3323307,1.9945747,-0.101201385,-0.6402572,-0.04028308,1.2663314,-0.68868977,0.13845797,1.4863843,-0.29575324,-0.027138142,-0.16970165,1.3657607,0.47277328
0.0,-0.1,0.7,0.0,-0.5235987755982988,0,-2.355038,1.9904203,-0.10166412,-0.63639,-0.030803101,1.266619,-0.67960775,0.13077633,1.4820511,-0.3086339,-0.025506321,0.107275896,1.3039184,-0.021087855
0.0,-0.1,0.7,0.0,-0.5235987755982988,0,-2.3072731,1.9930793,-0.10727565,-0.6360576,-0.030475877,1.2678947,-0.69402796,0.11741928,1.485439,-0.31949553,-0.02404706,0.292153,1.4052761,0.6269095
0.0,-0.1,0.7,0.0,-0.5235987755982988,0,-2.3405936,1.9902582,-0.10811492,-0.6407941,-0.024898937,1.2658994,-0.7065037,0.14583886,1.4896262,-0.27631605,-0.043489423,0.015394152,1.3517163,-0.048702415
0.0,-0.1,0.7,0.0,-0.5235987755982988,0,-2.3226957,1.9927452,-0.10024935,-0.6424346,-0.0400626,1.2716521,-0.68881696,0.15089731,1.4877428,-0.3624954,-0.028044295,0.028936565,1.2576187,-0.20236757
0.0,-0.1,0.7,0.0,-0.5235987755982988,0,-2.3003514,1.9943838,-0.10627204,-0.6408489,-0.032782387,1.2722056,-0.7017627,0.14239557,1.4842101,-0.30222243,-0.010189081,0.32912058,1.2539593,-0.18856695
0.0,-0.1,0.7,0.0,-0.5235987755982988,0,-2.3240833,1.99476,-0.10631755,-0.6430424,-0.03390789,1.271749,-0.69506544,0.15694717,1.4846842,-0.29998553,-0.02832789,0.2589781,1.2784376,-0.20224018
0.0,-0.1,0.7,0.0,-0.5235987755982988,0,-2.3134582,1.991591,-0.10311284,-0.6342362,-0.043959495,1.2403184,-0.70743334,0.1359795,1.482225,-0.30458558,-0.023287015,0.22068387,1.285462,-0.8071326
0.0,-0.1,0.7,0.0,-0.5235987755982988,0,-2.3109689,1.9968373,-0.1040695,-0.6366667,-0.04042107,1.2533526,-0.701793,0.13032147,1.4820043,-0.29294413,-0.0073407437,0.070744194,1.3145319,0.18515871
0.0,-0.1,0.7,0.0,-0.5235987755982988,0,-2.3274307,1.9929495,-0.10410892,-0.6430699,-0.026671201,1.2610487,-0.6951301,0.1677678,1.4788892,-0.34798536,-0.022025121,0.09505633,1.288581,-0.9080693
0.0,-0.1,0.7,0.0,-0.5235987755982988,0,-2.345561,1.9956957,-0.101713695,-0.65099543,-0.036170673,1.2693809,-0.69415075,0.15656441,1.4772228,-0.28176728,-0.031312928,0.24851689,1.2926196,0.24519253
0.0,-0.1,0.7,0.0,-0.5235987755982988,0,-2.3251274,1.9968737,-0.1074272,-0.6437435,-0.03240423,1.2617497,-0.6949249,0.15632956,1.4890746,-0.33846897,-0.046065792,0.14676997,1.2405038,0.23002872
0.0,-0.1,0.7,0.0,-0.5235987755982988,0,-2.3107378,1.9973727,-0.10537872,-0.6440964,-0.04137684,1.265011,-0.6918354,0.13541582,1.4910854,-0.33464462,-0.057979994,0.39435172,1.2270659,-0.6487244
0.0,-0.1,0.7,0.0,-0.5235987755982988,0,-2.3496692,1.9991016,-0.09919253,-0.6440717,-0.03202429,1.2667768,-0.6825429,0.14757456,1.478581,-0.3303443,-0.016474932,0.20427944,1.2307065,0.9016761
0.0,-0.1,0.7,0.0,-0.5235987755982988,0,-2.3272097,1.9963213,-0.11013144,-0.64187247,-0.03952972,1.2613696,-0.70296836,0.12058674,1.4822624,-0.32241812,-0.025861321,0.105676144,1.198117,-0.95009935
0.0,-0.1,0.7,0.0,-0.5235987755982988,0,-2.3156874,1.9941194,-0.099628955,-0.6443082,-0.024954043,1.2642186,-0.70465285,0.14321071,1.4740901,-0.3302775,-0.020606399,0.09721527,1.2482364,-1.3552667
