sanky1234/BimanualDexCatch/isaacgymenvs/cem_results/football_pose_-0.1_0.1_1.4_0.0_-0.5235987755982988_0_2025-05-26.csv
x,y,z,roll,pitch,yaw,robot1/joint1,robot1/joint2,robot1/joint3,robot1/joint4,robot1/joint5,robot1/joint6,robot1/joint7,robot2/joint1,robot2/joint2,robot2/joint3,robot2/joint4,robot2/joint5,robot2/joint6,robot2/joint7
-0.1,0.1,1.4,0.0,-0.5235987755982988,0,1.2435933,0.66534394,0.9094633,0.38490903,0.18819909,1.1834117,0.14866029,-0.0782262,1.305152,-0.01790436,-0.101077005,-0.16374649,1.2488121,0.6818054
-0.1,0.1,1.4,0.0,-0.5235987755982988,0,1.2448583,0.6649027,0.90827954,0.3851021,0.17768288,1.1823701,0.12855242,-0.0065291235,1.3027446,-0.053530123,-0.10607017,-0.03161683,1.2080042,-1.0397556
-0.1,0.1,1.4,0.0,-0.5235987755982988,0,1.2433481,0.6652775,0.9093878,0.38551047,0.18373498,1.1820621,0.116755314,0.2108936,1.2992247,0.3531092,-0.1091886,-0.016250193,1.2274557,0.64826536
-0.1,0.1,1.4,0.0,-0.5235987755982988,0,1.2439476,0.66618365,0.91017646,0.3852493,0.18237565,1.1819057,0.0740442,-0.2168952,1.2940576,0.2437355,-0.09394818,0.05135211,1.2305089,0.7353426
-0.1,0.1,1.4,0.0,-0.5235987755982988,0,1.2441931,0.66580814,0.90949064,0.38500255,0.18340136,1.1823531,0.12883478,0.5703441,1.2942526,0.015778178,-0.0896392,-0.00039357154,1.2517542,0.2736684
-0.1,0.1,1.4,0.0,-0.5235987755982988,0,1.2444656,0.66558987,0.9083916,0.3854047,0.18756953,1.1820823,0.058855735,-0.41792405,1.3010026,-0.27073082,-0.10330486,-0.009494838,1.196105,0.005175477
-0.1,0.1,1.4,0.0,-0.5235987755982988,0,1.2444048,0.66448814,0.9061314,0.38603765,0.1814304,1.1833056,0.13566136,-0.3581822,1.3073472,0.2958089,-0.08616539,-0.030931164,1.2574166,0.14551869
-0.1,0.1,1.4,0.0,-0.5235987755982988,0,1.2448419,0.66561174,0.909916,0.38516954,0.18484502,1.1810155,0.093567155,-0.049811866,1.3092834,0.058856755,-0.12329849,-0.11757566,1.2010088,-0.54748005
-0.1,0.1,1.4,0.0,-0.5235987755982988,0,1.2444652,0.66473144,0.90817237,0.3852217,0.18303686,1.1823547,0.074522264,-0.13336691,1.2641345,0.03177856,-0.12886228,0.052000705,1.2922848,0.24595273
-0.1,0.1,1.4,0.0,-0.5235987755982988,0,1.2436055,0.66541785,0.90848815,0.3858793,0.18400218,1.1825031,0.099575825,0.037741054,1.3081956,-0.013592596,-0.1004963,0.14037777,1.2102945,0.29376704
-0.1,0.1,1.4,0.0,-0.5235987755982988,0,1.2451444,0.66464835,0.9085795,0.38573694,0.18292958,1.1817763,0.12013739,-0.22785428,1.3338208,0.23309395,-0.1032734,-0.05760788,1.2620684,-0.20371455
-0.1,0.1,1.4,0.0,-0.5235987755982988,0,1.2443907,0.6659039,0.9079731,0.38586482,0.18556492,1.1819631,0.08357955,0.24819572,1.3496945,-0.32072467,-0.08179718,0.07741126,1.2777976,0.58434194
-0.1,0.1,1.4,0.0,-0.5235987755982988,0,1.2445095,0.66499996,0.90908396,0.3853868,0.17577623,1.1820977,0.08482834,-0.1330092,1.2980231,-0.03630527,-0.09372473,0.13592117,1.2197822,0.61329705
-0.1,0.1,1.4,0.0,-0.5235987755982988,0,1.2438743,0.66535777,0.9086791,0.38618258,0.17620514,1.181822,0.13621505,-0.31566468,1.3545084,0.0631809,-0.11131021,-0.13651508,1.1733195,0.05260635
-0.1,0.1,1.4,0.0,-0.5235987755982988,0,1.2442768,0.66624004,0.9097609,0.3854458,0.18633972,1.1820979,0.07693748,-0.018957587,1.3195595,-0.20188141,-0.12525539,-0.15487759,1.2891892,0.4534475
-0.1,0.1,1.4,0.0,-0.5235987755982988,0,1.2447294,0.66602284,0.90930265,0.3853599,0.1887943,1.18222,0.10937177,-0.09769054,1.3143969,0.2840172,-0.08868161,-0.14133012,1.2258891,-0.73690826
-0.1,0.1,1.4,0.0,-0.5235987755982988,0,1.2442337,0.6658189,0.9105749,0.38531014,0.17926998,1.1815852,0.0954295,0.21602377,1.3227575,-0.092292614,-0.08703794,-0.08912178,1.232636,0.20313726
-0.1,0.1,1.4,0.0,-0.5235987755982988,0,1.2442456,0.6658532,0.9081908,0.3862458,0.18816893,1.1815206,0.10479786,-0.18623114,1.3580513,-0.09333173,-0.13380967,-0.011370705,1.2915418,0.06473894
-0.1,0.1,1.4,0.0,-0.5235987755982988,0,1.2439699,0.66533786,0.9083852,0.38611168,0.18204668,1.1816506,0.12961636,0.15047868,1.2903548,-0.06181703,-0.11686658,-0.10577701,1.2105802,0.51138157
-0.1,0.1,1.4,0.0,-0.5235987755982988,0,1.2430539,0.66639614,0.9081458,0.3858859,0.17992267,1.1837802,0.058727358,0.3242179,1.3868428,-0.25619304,-0.09172851,-0.2205813,1.2523619,-0.31255922
-0.1,0.1,1.4,0.0,-0.5235987755982988,0,1.243763,0.66555876,0.9097657,0.38568884,0.18251368,1.1818619,0.09304255,0.07568861,1.2949554,-0.068180844,-0.094231695,0.10961373,1.2157066,0.29208785
-0.1,0.1,1.4,0.0,-0.5235987755982988,0,1.2443095,0.6661716,0.9096309,0.38546297,0.1840723,1.1821014,0.108798504,0.07870521,1.3699021,-0.12723069,-0.10890756,-0.076526314,1.1901125,-0.086382575
-0.1,0.1,1.4,0.0,-0.5235987755982988,0,1.244747,0.66527456,0.90853363,0.3856877,0.18251133,1.181888,0.041107498,0.11832712,1.2996538,-0.12577152,-0.09749917,0.091988325,1.2453067,-0.45804328
-0.1,0.1,1.4,0.0,-0.5235987755982988,0,1.2450761,0.6647374,0.90796113,0.3857398,0.18845583,1.1820259,0.13719815,-0.008646965,1.3451568,-0.11528903,-0.08136467,-0.16073285,1.1914403,0.12820382
-0.1,0.1,1.4,0.0,-0.5235987755982988,0,1.2445244,0.664536,0.9089066,0.3849777,0.1813814,1.1836416,0.06536287,-0.17664422,1.3197227,0.23427783,-0.091391414,-0.12922853,1.238865,0.20148681
-0.1,0.1,1.4,0.0,-0.5235987755982988,0,1.2445567,0.6643275,0.9080884,0.38586584,0.18061775,1.1820179,0.058863103,0.25095943,1.2896036,0.1064781,-0.075964235,-0.18270946,1.289913,0.21975462
-0.1,0.1,1.4,0.0,-0.5235987755982988,0,1.2434555,0.66636956,0.908853,0.38622913,0.18180412,1.1821412,0.07484476,-0.13591486,1.3835409,-0.1630251,-0.11872342,0.12270225,1.2034118,0.16614717
-0.1,0.1,1.4,0.0,-0.5235987755982988,0,1.2446237,0.6646423,0.90920687,0.38540488,0.1764444,1.1820163,0.12196946,0.50858027,1.3091184,0.048814755,-0.06698556,-0.04295243,1.2362934,0.42292744
-0.1,0.1,1.4,0.0,-0.5235987755982988,0,1.2433665,0.6642513,0.9086729,0.38596967,0.18203816,1.183041,0.12433489,0.19274162,1.2950913,-0.25793773,-0.07740096,-0.09611248,1.2376688,0.20557025
-0.1,0.1,1.4,0.0,-0.5235987755982988,0,1.2439332,0.6652393,0.9095705,0.38544115,0.18470888,1.1832178,0.083108306,0.47870365,1.3318443,0.23786993,-0.11965302,-0.010598379,1.2423993,-0.33290482
-0.1,0.1,1.4,0.0,-0.5235987755982988,0,1.2445155,0.6655608,0.9092457,0.38601932,0.17545512,1.1813121,0.12938385,-0.22542387,1.3002081,0.1907989,-0.07232301,-0.06409373,1.2011617,0.24720581
-0.1,0.1,1.4,0.0,-0.5235987755982988,0,1.2446187,0.6659457,0.90723985,0.38598233,0.18451779,1.1821408,0.07088382,0.37837878,1.3216368,-0.046807945,-0.1007368,0.20021524,1.1809553,0.4400278
-0.1,0.1,1.4,0.0,-0.5235987755982988,0,1.2442038,0.666154,0.9098198,0.38566574,0.17850775,1.1820626,0.09829341,0.065372765,1.318208,0.1262945,-0.07851317,0.030223742,1.2143762,0.57271284
-0.1,0.1,1.4,0.0,-0.5235987755982988,0,1.2450182,0.6654398,0.9105128,0.3848792,0.18023697,1.1819123,0.09249804,0.36501926,1.34188,-0.12575403,-0.082724474,-0.017353967,1.2220266,0.3641359
-0.1,0.1,1.4,0.0,-0.5235987755982988,0,1.2442915,0.6658372,0.90976477,0.3855553,0.18504253,1.1822838,0.12910248,0.16501628,1.3307573,0.31555852,-0.06609871,0.20082109,1.2787384,0.44378108
-0.1,0.1,1.4,0.0,-0.5235987755982988,0,1.2448921,0.66516685,0.9094371,0.38529107,0.181127,1.181657,0.11524803,-0.0608972,1.3321921,-0.45874122,-0.06810628,-0.02802989,1.1894281,0.10438095
-0.1,0.1,1.4,0.0,-0.5235987755982988,0,1.2442397,0.6639573,0.90899205,0.38590652,0.18340005,1.1822072,0.10438043,0.5378921,1.2903643,-0.53900254,-0.1063965,0.12890394,1.173645,0.27294293
-0.1,0.1,1.4,0.0,-0.5235987755982988,0,1.2450724,0.66558284,0.91045105,0.38554627,0.1780533,1.1828932,0.14710714,-0.014305556,1.3202004,-0.27324125,-0.08028833,-0.11033662,1.2431067,-0.031869
-0.1,0.1,1.4,0.0,-0.5235987755982988,0,1.2439736,0.6643096,0.9101382,0.38520992,0.18297364,1.1820232,0.09883811,0.37261412,1.265481,0.107399486,-0.08105049,-0.07347526,1.2674762,0.26183695
-0.1,0.1,1.4,0.0,-0.5235987755982988,0,1.2441325,0.6651666,0.9105716,0.3854316,0.17959297,1.1821072,0.10770655,-0.01793853,1.2978183,0.15631549,-0.07726832,-0.13981958,1.2093505,0.18115635
-0.1,0.1,1.4,0.0,-0.5235987755982988,0,1.2447271,0.66440606,0.9089165,0.38571402,0.18250614,1.1819998,0.11873096,0.67062193,1.2629367,-0.24995385,-0.098555304,0.15761842,1.1976236,-0.6788392
-0.1,0.1,1.4,0.0,-0.5235987755982988,0,1.2437142,0.6655374,0.9082417,0.3860789,0.18433167,1.1838114,0.13921262,0.7013223,1.3244569,0.13455196,-0.13518691,-0.073084824,1.1778508,-0.44367975
-0.1,0.1,1.4,0.0,-0.5235987755982988,0,1.2444862,0.66483206,0.90939045,0.38540697,0.17960006,1.1826519,0.08019985,0.85684425,1.3589246,-0.21551146,-0.09808384,0.12531842,1.2569493,-0.028055945
-0.1,0.1,1.4,0.0,-0.5235987755982988,0,1.2444977,0.66532844,0.9100084,0.38539442,0.18118483,1.1822302,0.11092731,0.31884605,1.3438305,-0.22699687,-0.073150896,-0.034843653,1.2503585,0.46721464
-0.1,0.1,1.4,0.0,-0.5235987755982988,0,1.2444032,0.66533315,0.909041,0.38537925,0.18208662,1.1827939,0.106945515,0.21119744,1.304688,-0.06227819,-0.10725841,0.056254137,1.2429459,0.29537988
-0.1,0.1,1.4,0.0,-0.5235987755982988,0,1.2445539,0.66559154,0.90978956,0.38556048,0.18044269,1.1822057,0.114329,0.077413894,1.2555449,-0.26089773,-0.0914101,0.05939354,1.1848398,-0.09922126
-0.1,0.1,1.4,0.0,-0.5235987755982988,0,1.2430648,0.66433805,0.9097552,0.386689,0.1815956,1.1804826,0.17704536,0.63779986,1.3299255,0.052431837,-0.08710061,-0.07984639,1.243815,0.7571026
-0.1,0.1,1.4,0.0,-0.5235987755982988,0,1.2442677,0.664574,0.90750355,0.3858614,0.17931758,1.1826545,0.09774196,0.12668908,1.2782878,-0.11658667,-0.088182576,0.07983996,1.2382513,0.1947976
-0.1,0.1,1.4,0.0,-0.5235987755982988,0,1.2444595,0.665296,0.90935236,0.38562557,0.18124564,1.1821582,0.061093573,-0.3143106,1.407534,-0.003387806,-0.080342464,-0.12894948,1.2375426,0.26654342
-0.1,0.1,1.4,0.0,-0.5235987755982988,0,1.2452602,0.6645568,0.9094133,0.38499433,0.18526131,1.1822628,0.108049564,0.6611073,1.3191957,-0.10194285,-0.10561123,0.029757934,1.1857443,0.98780996
-0.1,0.1,1.4,0.0,-0.5235987755982988,0,1.244603,0.6648959,0.9094446,0.385692,0.1808846,1.1819075,0.084855504,0.2821548,1.2549175,-0.2014704,-0.06791253,0.022111086,1.2269316,0.26002076
-0.1,0.1,1.4,0.0,-0.5235987755982988,0,1.2445339,0.66637737,0.90867716,0.3865584,0.18606177,1.1824968,0.0561558,0.6159544,1.3435057,-0.036460374,-0.102026545,-0.13266228,1.2202967,-0.05630793
-0.1,0.1,1.4,0.0,-0.5235987755982988,0,1.2448457,0.6638744,0.9090114,0.38577974,0.1767142,1.1815747,0.11966236,-0.38295835,1.2938471,0.114975765,-0.07698737,-0.10186546,1.2725106,0.25367537
-0.1,0.1,1.4,0.0,-0.5235987755982988,0,1.2446839,0.66508484,0.9084485,0.38591906,0.18833484,1.1811942,0.10643909,0.33260414,1.27878,0.11353174,-0.10233947,-0.045044914,1.1957246,0.08337472
-0.1,0.1,1.4,0.0,-0.5235987755982988,0,1.245128,0.6655732,0.9083231,0.38583776,0.18264976,1.1820388,0.1204264,0.0021710435,1.3163072,0.035465643,-0.11810694,0.058458194,1.2309996,-0.10623051
-0.1,0.1,1.4,0.0,-0.5235987755982988,0,1.2449777,0.6647315,0.90872884,0.38571486,0.18604383,1.1815591,0.07341846,0.57349366,1.3636593,0.034228392,-0.08854799,0.08471406,1.2406076,0.8456231
-0.1,0.1,1.4,0.0,-0.5235987755982988,0,1.2446434,0.66565144,0.90865225,0.38602298,0.18487166,1.18197,0.12686361,-0.100984775,1.3090227,-0.18558165,-0.10906396,-0.10971938,1.3033581,-0.3564179
-0.1,0.1,1.4,0.0,-0.5235987755982988,0,1.2436839,0.6658994,0.9086988,0.3863242,0.18110052,1.1823776,0.101112016,0.34525037,1.3506007,-0.011694225,-0.09435117,-0.083305426,1.2560458,0.46628606
-0.1,0.1,1.4,0.0,-0.5235987755982988,0,1.2442617,0.6646221,0.909961,0.38580105,0.18475264,1.1816485,0.089605995,0.1849334,1.3071141,0.029280748,-0.09597058,-0.02721766,1.1959673,0.62959987
-0.1,0.1,1.4,0.0,-0.5235987755982988,0,1.2446442,0.66486484,0.9105762,0.38525414,0.18142197,1.1823459,0.059454147,-0.3775779,1.2801584,-0.055586997,-0.09206775,0.027307669,1.2698793,-0.5172053
-0.1,0.1,1.4,0.0,-0.5235987755982988,0,1.2444513,0.66462594,0.910534,0.3855937,0.18291399,1.1820109,0.08285483,0.0974697,1.3274671,0.2568571,-0.107772626,-0.098744966,1.2514391,0.97662437
-0.1,0.1,1.4,0.0,-0.5235987755982988,0,1.2432017,0.6646837,0.9099183,0.3864101,0.18278827,1.1826531,0.09138181,0.115425006,1.2422583,-0.37501723,-0.10795645,0.10437163,1.2517047,0.37197563
-0.1,0.1,1.4,0.0,-0.5235987755982988,0,1.244885,0.6656059,0.908745,0.38574925,0.18927981,1.1828481,0.09177808,0.27918583,1.338462,-0.06976707,-0.100124486,-0.04485899,1.2111723,0.34426102
-0.1,0.1,1.4,0.0,-0.5235987755982988,0,1.2441603,0.66554976,0.9107893,0.38558045,0.18383971,1.1826204,0.13900758,0.37378967,1.2591431,0.12251219,-0.086944155,-0.0887854,1.1946305,0.13169639
-0.1,0.1,1.4,0.0,-0.5235987755982988,0,1.2451522,0.66505855,0.90920335,0.38536268,0.17508677,1.1827873,0.09431326,0.13281326,1.2814661,0.18710724,-0.09977277,-1.1766731e-05,1.1840504,0.32497796
-0.1,0.1,1.4,0.0,-0.5235987755982988,0,1.2438767,0.665393,0.9083413,0.38675168,0.18497069,1.1820631,0.10379215,-0.1025668,1.3235577,-0.12820162,-0.065968946,0.09499876,1.2156172,0.56982034
-0.1,0.1,1.4,0.0,-0.5235987755982988,0,1.2448444,0.6652227,0.90911883,0.38621584,0.17705484,1.1817001,0.15030983,0.22544345,1.2653797,0.06743939,-0.09423565,-0.09841071,1.2537395,0.81190497
-0.1,0.1,1.4,0.0,-0.5235987755982988,0,1.2441453,0.66420287,0.90943325,0.38658023,0.17552444,1.1805224,0.049064554,0.041073147,1.2826513,0.23254514,-0.057657056,0.16322906,1.2898475,0.33255818
-0.1,0.1,1.4,0.0,-0.5235987755982988,0,1.244957,0.66613007,0.9091307,0.38636118,0.1812448,1.1811786,0.13812998,0.15277962,1.2708389,-0.13238235,-0.11365242,-0.09270046,1.1977047,0.3007863
-0.1,0.1,1.4,0.0,-0.5235987755982988,0,1.2442158,0.6655263,0.9093364,0.38617447,0.18455608,1.1822169,0.1418763,-0.23073754,1.3215755,0.021899091,-0.11037244,-0.0754987,1.2276347,0.1780983
-0.1,0.1,1.4,0.0,-0.5235987755982988,0,1.2443452,0.6662188,0.9100612,0.38611743,0.18178174,1.1819059,0.101891726,0.23172358,1.3355758,0.17063333,-0.118702866,0.048875984,1.1806204,0.023605272
-0.1,0.1,1.4,0.0,-0.5235987755982988,0,1.2451854,0.6644382,0.9076636,0.38586158,0.1776155,1.1825719,0.100557245,0.43160447,1.3266096,-0.23795773,-0.1193305,-0.20033085,1.2572609,0.4962566
-0.1,0.1,1.4,0.0,-0.5235987755982988,0,1.2449294,0.6647233,0.9091488,0.38573834,0.18416846,1.1830782,0.067388915,0.03252378,1.3079581,0.020517584,-0.09876759,-0.14070229,1.2012795,0.32496363
-0.1,0.1,1.4,0.0,-0.5235987755982988,0,1.2445363,0.66478646,0.91014326,0.38551384,0.17393136,1.1838249,0.17404956,-0.13898619,1.3312957,-0.17187065,-0.08505001,-0.04358073,1.231174,0.8100155
-0.1,0.1,1.4,0.0,-0.5235987755982988,0,1.2450715,0.66499835,0.90811056,0.3854678,0.18585914,1.182159,0.12531786,-0.06881502,1.2687703,-0.5003249,-0.10070536,0.15271011,1.2233986,0.4060919
-0.1,0.1,1.4,0.0,-0.5235987755982988,0,1.2451245,0.66509104,0.9096097,0.38530278,0.18660052,1.1824697,0.09012614,0.24258749,1.3104367,0.16948363,-0.07306233,0.11015044,1.2436907,-0.52872115
-0.1,0.1,1.4,0.0,-0.5235987755982988,0,1.244757,0.6655463,0.9093856,0.38595814,0.18055005,1.1824062,0.16449037,0.045333948,1.2995089,-0.053431112,-0.09153292,0.01668038,1.1954497,0.436052
-0.1,0.1,1.4,0.0,-0.5235987755982988,0,1.2447759,0.66402894,0.9075908,0.38685083,0.1792642,1.181976,0.10551877,-0.16396415,1.2835176,-0.2515219,-0.08829456,-0.10343577,1.1906127,0.39632264
-0.1,0.1,1.4,0.0,-0.5235987755982988,0,1.2451891,0.6659755,0.9103425,0.38584447,0.17954971,1.1818244,0.14975196,-0.014212473,1.2375522,-0.18507034,-0.11286542,-0.044881236,1.243187,0.6396298
-0.1,0.1,1.4,0.0,-0.5235987755982988,0,1.2450631,0.66466147,0.909832,0.38597172,0.18250713,1.182141,0.06132249,-0.1566132,1.2747264,0.12468298,-0.084628485,0.13245282,1.2790666,-0.24198717
-0.1,0.1,1.4,0.0,-0.5235987755982988,0,1.2445407,0.6649421,0.9098582,0.38636184,0.1799901,1.1819129,0.05408625,0.5683156,1.3078427,-0.19279426,-0.11773645,-0.12954928,1.249356,1.1393048
-0.1,0.1,1.4,0.0,-0.5235987755982988,0,1.244043,0.66542464,0.90960854,0.38676903,0.17937383,1.1818895,0.1036103,0.18510488,1.3085123,0.1530481,-0.08617697,-0.011072307,1.1969959,0.011735525
-0.1,0.1,1.4,0.0,-0.5235987755982988,0,1.2447993,0.6666641,0.90916866,0.38640127,0.18660672,1.1821072,0.053305,-0.21039222,1.331266,0.103458084,-0.12228123,0.008782088,1.2085847,0.8404299
-0.1,0.1,1.4,0.0,-0.5235987755982988,0,1.2445937,0.66523063,0.90968066,0.3862374,0.17935053,1.1827004,0.14011802,0.10328285,1.3638672,0.15586874,-0.070557006,0.005059701,1.2312498,-0.6251902
-0.1,0.1,1.4,0.0,-0.5235987755982988,0,1.2445713,0.66569847,0.9096674,0.38672596,0.18218787,1.1830996,0.12601814,-0.16708858,1.3444699,-0.023637198,-0.0926677,-0.06665228,1.2795877,-0.5196819
-0.1,0.1,1.4,0.0,-0.5235987755982988,0,1.2451067,0.6660898,0.90995836,0.38525325,0.18548293,1.1825428,0.09641595,0.1627354,1.3085179,-0.11000585,-0.076343864,-0.039764654,1.2575989,0.26509094
-0.1,0.1,1.4,0.0,-0.5235987755982988,0,1.24501,0.6649217,0.9090271,0.38675255,0.18566947,1.181657,0.15927392,0.11403278,1.2771144,0.16431084,-0.1034924,-0.09319487,1.2585742,0.77775496
-0.1,0.1,1.4,0.0,-0.5235987755982988,0,1.2448975,0.6654169,0.90655583,0.3861204,0.18425104,1.1820369,0.037172273,0.014113423,1.3547369,-0.046307642,-0.08122577,-0.0683625,1.2460736,0.24381708
-0.1,0.1,1.4,0.0,-0.5235987755982988,0,1.2438104,0.66689306,0.9071642,0.38503203,0.1808288,1.1822875,0.08692221,0.29089636,1.2935845,-0.18865015,-0.07628919,0.07347369,1.2173778,0.54418874
-0.1,0.1,1.4,0.0,-0.5235987755982988,0,1.2439597,0.6657,0.90693986,0.38528275,0.1860602,1.1819626,0.058108278,0.27611518,1.3139187,-0.068979494,-0.10571371,0.084544525,1.1991761,0.3094739
-0.1,0.1,1.4,0.0,-0.5235987755982988,0,1.2440645,0.66497445,0.90739554,0.38520068,0.18256854,1.1820041,0.0512891,-0.07233842,1.3075321,0.11286482,-0.103142895,-0.040384714,1.2135274,-0.117198415
-0.1,0.1,1.4,0.0,-0.5235987755982988,0,1.2436953,0.6652675,0.9096785,0.38506457,0.1829611,1.1817186,0.11434755,0.10313371,1.3797914,0.3828257,-0.090931386,0.055031586,1.2245785,0.12495977
-0.1,0.1,1.4,0.0,-0.5235987755982988,0,1.2446543,0.6663215,0.90783936,0.38482517,0.17628208,1.1820862,0.09413897,0.5653671,1.3289227,0.22238532,-0.090696715,-0.041742843,1.2433308,0.30838943
-0.1,0.1,1.4,0.0,-0.5235987755982988,0,1.2451279,0.66601306,0.9091143,0.38478836,0.17761625,1.1815208,0.13532396,0.8737895,1.300308,-0.17758407,-0.08568541,0.038448058,1.2579978,-0.17848566
-0.1,0.1,1.4,0.0,-0.5235987755982988,0,1.2440937,0.66583914,0.90837944,0.38493446,0.18309243,1.1822795,0.06926445,-0.40143043,1.3491266,-0.23889972,-0.10329827,-0.23673254,1.210405,0.83033806
-0.1,0.1,1.4,0.0,-0.5235987755982988,0,1.2435775,0.66559327,0.9056973,0.3861726,0.1766997,1.1817132,0.11115051,-0.21215767,1.227143,-0.19514625,-0.068008505,0.034853227,1.2755909,0.56311154
-0.1,0.1,1.4,0.0,-0.5235987755982988,0,1.24404,0.66540945,0.9100345,0.3845897,0.18289028,1.1820669,0.04575133,-0.053538527,1.3759288,-0.24442622,-0.053316843,0.029536093,1.2455999,-0.7398243
-0.1,0.1,1.4,0.0,-0.5235987755982988,0,1.2443796,0.6647047,0.9076182,0.38507497,0.17245114,1.1824529,0.11243925,0.31496096,1.297591,0.1012565,-0.0642439,-0.20923969,1.2339368,0.11905462
-0.1,0.1,1.4,0.0,-0.5235987755982988,0,1.2438091,0.66445476,0.9089355,0.38525763,0.18094943,1.1811107,0.13299848,0.5821575,1.2597398,0.28975663,-0.09472224,0.03066732,1.2689992,0.31876987
-0.1,0.1,1.4,0.0,-0.5235987755982988,0,1.2446294,0.6643866,0.90794516,0.3848018,0.17677656,1.1820251,0.0961382,0.3384389,1.3067979,0.066706344,-0.12080412,-0.15853581,1.2686546,0.64914244
-0.1,0.1,1.4,0.0,-0.5235987755982988,0,1.2452688,0.6658694,0.9081518,0.38476342,0.17858282,1.1822859,0.080110505,0.63773096,1.3005581,-0.118208654,-0.10103198,-0.094220236,1.242465,-0.39989525
-0.1,0.1,1.4,0.0,-0.5235987755982988,0,1.2448143,0.6664508,0.9072654,0.385744,0.17212673,1.182387,0.08575126,0.32741556,1.2738955,0.07031443,-0.064255446,-0.09140924,1.1704476,0.8195008
-0.1,0.1,1.4,0.0,-0.5235987755982988,0,1.2436868,0.66630065,0.9090689,0.38570264,0.1760149,1.1814115,0.046919618,0.6740603,1.3277144,-0.18200678,-0.05473799,0.09923781,1.2129607,0.10855981
-0.1,0.1,1.4,0.0,-0.5235987755982988,0,1.2438539,0.6645664,0.90925753,0.3852481,0.17615946,1.1825812,0.102686875,-0.2650128,1.389731,0.14334242,-0.07147491,-0.25951397,1.1675514,0.9007369
-0.1,0.1,1.4,0.0,-0.5235987755982988,0,1.2444367,0.66614056,0.90799,0.3856052,0.18072547,1.1814854,0.10588358,0.28151312,1.2864052,-0.26162344,-0.09916235,-0.019544182,1.1919633,0.22060499
-0.1,0.1,1.4,0.0,-0.5235987755982988,0,1.2440054,0.66490906,0.90955055,0.38511887,0.1812028,1.181705,0.0863904,-0.30015227,1.318451,0.034672968,-0.14179523,0.046611227,1.2110494,0.52031094
-0.1,0.1,1.4,0.0,-0.5235987755982988,0,1.2442443,0.6652705,0.90819085,0.38527566,0.17881708,1.1822605,0.15228137,0.24572065,1.3379688,-0.2557053,-0.0845908,0.017469613,1.1673969,0.81745744
-0.1,0.1,1.4,0.0,-0.5235987755982988,0,1.2447407,0.6657941,0.90819865,0.38525575,0.18328549,1.1812713,0.086128235,0.46022457,1.3526125,-0.12641685,-0.07270225,-0.1334417,1.195869,0.41608655
-0.1,0.1,1.4,0.0,-0.5235987755982988,0,1.2443465,0.6641687,0.90853274,0.38544086,0.18566836,1.1811022,0.18817411,0.6455816,1.3554646,0.3920722,-0.08996301,0.14063804,1.1985687,0.14877445
-0.1,0.1,1.4,0.0,-0.5235987755982988,0,1.2438312,0.6657345,0.9078092,0.3860387,0.18093185,1.1818036,0.08889758,0.12575845,1.2813435,0.07050691,-0.090408035,-0.06942252,1.1978374,-0.72156316
-0.1,0.1,1.4,0.0,-0.5235987755982988,0,1.2428665,0.6647839,0.9099389,0.3854311,0.1807384,1.1816336,0.092676826,-0.24241127,1.3212177,-0.1704718,-0.06716641,0.060615577,1.2194693,0.47676378
-0.1,0.1,1.4,0.0,-0.5235987755982988,0,1.2437147,0.66555667,0.9105876,0.38531813,0.18068886,1.1810797,0.08258041,-0.53013235,1.3270833,-0.19858213,-0.12448332,-0.050313346,1.2091519,-0.32117423
-0.1,0.1,1.4,0.0,-0.5235987755982988,0,1.2435623,0.6658546,0.9083901,0.38579878,0.18806425,1.1819581,0.09351908,-0.34668955,1.3142772,-0.25906366,-0.10262978,-0.3524275,1.1934295,-0.5012805
-0.1,0.1,1.4,0.0,-0.5235987755982988,0,1.2439309,0.6649777,0.91012096,0.38539287,0.1810018,1.1824872,0.115998015,-0.053978626,1.3344176,0.3709911,-0.099487185,-0.049100403,1.2356093,0.3258498
-0.1,0.1,1.4,0.0,-0.5235987755982988,0,1.2451302,0.6639101,0.9069663,0.38530445,0.1829774,1.1825382,0.14214936,0.2294106,1.3511814,0.036215857,-0.081380606,0.046296507,1.1374753,0.089952
-0.1,0.1,1.4,0.0,-0.5235987755982988,0,1.2437414,0.66601366,0.9100262,0.38538697,0.1826563,1.1815523,0.11038909,-0.06684952,1.313715,-0.1540831,-0.09187238,-0.07104156,1.1998551,-0.5288485
-0.1,0.1,1.4,0.0,-0.5235987755982988,0,1.2447046,0.66529727,0.90835536,0.38505635,0.17947061,1.1823121,0.035282094,0.048547465,1.3036346,0.1420374,-0.08318491,0.12233063,1.2455559,-0.14037324
-0.1,0.1,1.4,0.0,-0.5235987755982988,0,1.2448074,0.6644254,0.90761596,0.38552156,0.17259227,1.181936,0.104631625,0.38349786,1.3436241,-0.18588918,-0.07156562,-0.14791027,1.2483808,-0.17285171
-0.1,0.1,1.4,0.0,-0.5235987755982988,0,1.2439966,0.6652633,0.907282,0.38574764,0.17806782,1.1819968,0.13827133,-0.09793792,1.2597661,0.07846644,-0.08358875,0.020702817,1.2243011,0.21970077
-0.1,0.1,1.4,0.0,-0.5235987755982988,0,1.2436519,0.6656157,0.908755,0.38585845,0.18091738,1.1819352,0.15621024,0.10301576,1.331689,0.20744658,-0.09569104,-0.11658158,1.2224245,1.467194
-0.1,0.1,1.4,0.0,-0.5235987755982988,0,1.2445867,0.6659209,0.9063793,0.3859016,0.17711024,1.1820964,0.084650576,0.8096988,1.2855515,0.042124715,-0.09407143,0.08943652,1.1903899,-0.065079674
-0.1,0.1,1.4,0.0,-0.5235987755982988,0,1.2444102,0.6658927,0.9108642,0.38484848,0.18157816,1.1813927,0.06289884,-0.13492213,1.358751,-0.038454782,-0.079073094,0.18513118,1.2226168,0.6267155
-0.1,0.1,1.4,0.0,-0.5235987755982988,0,1.2441808,0.6669304,0.9108471,0.3847562,0.17978308,1.1826521,0.036507357,0.008281856,1.3023555,-0.04327762,-0.08552636,-0.01737414,1.2088869,1.0487744
-0.1,0.1,1.4,0.0,-0.5235987755982988,0,1.2443779,0.6652574,0.9080565,0.3855069,0.18173005,1.1823679,0.078174226,0.61465615,1.2922865,-0.10792321,-0.09510673,0.038046308,1.269004,0.21996795
-0.1,0.1,1.4,0.0,-0.5235987755982988,0,1.244866,0.66519004,0.9073131,0.38529345,0.17846967,1.1825216,0.15447555,0.3490636,1.3952914,-0.13720024,-0.10885448,0.05976764,1.2296083,0.39883354
-0.1,0.1,1.4,0.0,-0.5235987755982988,0,1.2440016,0.6656577,0.90808547,0.38544822,0.18181182,1.1829354,0.07963351,-0.112356216,1.3594259,-0.049776234,-0.10268762,0.22380173,1.2725697,-0.05566916
-0.1,0.1,1.4,0.0,-0.5235987755982988,0,1.2436334,0.6654267,0.9095047,0.3851685,0.18197256,1.1821222,0.05757453,0.08268898,1.3460968,-0.2717164,-0.106259644,0.004326219,1.1783223,-0.46066013
-0.1,0.1,1.4,0.0,-0.5235987755982988,0,1.2441894,0.66521305,0.90835756,0.38555494,0.17712714,1.1830086,0.12098442,0.44436568,1.390462,-0.35661963,-0.030069415,0.01239717,1.2465144,0.47989494
-0.1,0.1,1.4,0.0,-0.5235987755982988,0,1.2452972,0.66607004,0.9070808,0.385186,0.17887005,1.1822908,0.091644935,0.1710744,1.333139,-0.1818798,-0.086322576,0.0713509,1.1918912,0.45740923
-0.1,0.1,1.4,0.0,-0.5235987755982988,0,1.2450306,0.6662482,0.90752304,0.38559437,0.18193246,1.1820832,0.08563314,0.109042235,1.3040694,-0.22879328,-0.066537924,0.050464425,1.1943219,0.14179513
-0.1,0.1,1.4,0.0,-0.5235987755982988,0,1.2443539,0.6644635,0.907691,0.38540226,0.18194169,1.1829389,0.07321,0.339029,1.3730826,-0.013281884,-0.09887398,-0.053993784,1.2244476,0.093181476
-0.1,0.1,1.4,0.0,-0.5235987755982988,0,1.2445501,0.66653454,0.90902853,0.3855094,0.18347509,1.1824255,0.105868466,0.04875546,1.2850547,-0.32516453,-0.10273963,-0.1580689,1.2206458,0.9648158
-0.1,0.1,1.4,0.0,-0.5235987755982988,0,1.243599,0.6663948,0.9076947,0.3865855,0.18356468,1.1813501,0.08454487,0.21922465,1.328419,0.14125021,-0.12023651,0.21189854,1.2417543,0.09508649
-0.1,0.1,1.4,0.0,-0.5235987755982988,0,1.2440283,0.6656594,0.9087834,0.38532194,0.18061455,1.1828697,0.050329737,-0.18594335,1.3208637,-0.075140156,-0.12171698,0.08146844,1.2353324,-0.69188493
-0.1,0.1,1.4,0.0,-0.5235987755982988,0,1.2446376,0.66518945,0.90776575,0.38562945,0.18975924,1.1816607,0.068409875,0.61441857,1.2949092,-0.103048235,-0.070542045,0.1167914,1.1655921,-0.62757725
-0.1,0.1,1.4,0.0,-0.5235987755982988,0,1.2449545,0.6653801,0.90830046,0.38553593,0.17594214,1.1821009,0.16384827,0.07585816,1.3440608,-0.4254588,-0.07729824,0.0045576375,1.2281262,0.16351378
-0.1,0.1,1.4,0.0,-0.5235987755982988,0,1.2448272,0.6656694,0.9084976,0.38560283,0.18034029,1.1820978,0.10088853,-0.25167686,1.3535569,0.011389604,-0.07610972,0.16933914,1.2202942,0.49301302
-0.1,0.1,1.4,0.0,-0.5235987755982988,0,1.2442998,0.66405326,0.9083315,0.3857936,0.17480034,1.1827061,0.09748523,0.19855933,1.3604658,0.23019312,-0.030017607,-0.13139868,1.2543321,0.89264476
-0.1,0.1,1.4,0.0,-0.5235987755982988,0,1.2453609,0.6664715,0.9093388,0.38508457,0.18479474,1.1819603,0.021987969,0.24943529,1.2788191,0.30750453,-0.06708917,0.075059935,1.1868925,-0.38542318
-0.1,0.1,1.4,0.0,-0.5235987755982988,0,1.2446835,0.6659517,0.90820265,0.38543555,0.18182763,1.1824694,0.10497976,-0.30568236,1.3666592,0.19857171,-0.09688411,0.08092126,1.243227,0.8078929
-0.1,0.1,1.4,0.0,-0.5235987755982988,0,1.2447284,0.66548985,0.90892303,0.38568023,0.1879702,1.1813791,0.0015049231,-0.60169005,1.2919931,-0.14000025,-0.097769834,-0.12148966,1.1550936,0.70708483
-0.1,0.1,1.4,0.0,-0.5235987755982988,0,1.24453,0.66585976,0.90884405,0.38553214,0.18774344,1.1824679,0.038228508,0.039266538,1.2766793,-0.030521063,-0.1092472,-0.25035787,1.2388331,-0.08801438
-0.1,0.1,1.4,0.0,-0.5235987755982988,0,1.2450328,0.6650021,0.907984,0.3858656,0.18228592,1.1811163,0.10274518,0.20467372,1.3098444,-0.23177996,-0.12559797,0.046993364,1.204155,0.29583317
-0.1,0.1,1.4,0.0,-0.5235987755982988,0,1.2441418,0.6647649,0.9096242,0.3855929,0.18817554,1.1818302,0.044730667,-0.23914377,1.3346568,-0.3289256,-0.077358775,0.024482407,1.336607,0.42914128
-0.1,0.1,1.4,0.0,-0.5235987755982988,0,1.2436212,0.66563374,0.9072921,0.3863777,0.1846502,1.181978,0.05875069,-0.16729933,1.2545564,-0.037956867,-0.12178932,-0.03924758,1.1932853,0.05976747
-0.1,0.1,1.4,0.0,-0.5235987755982988,0,1.243994,0.6648078,0.91066545,0.38529712,0.18109529,1.1818054,0.11071491,0.60033566,1.2504334,0.036283612,-0.09550611,0.16379282,1.2742717,-0.18621981
-0.1,0.1,1.4,0.0,-0.5235987755982988,0,1.2445377,0.6645047,0.9088453,0.38601813,0.18987983,1.1806892,0.14294036,0.32758844,1.309074,0.027170144,-0.07138155,0.050704703,1.2008351,0.730588
-0.1,0.1,1.4,0.0,-0.5235987755982988,0,1.2442615,0.66499746,0.90953183,0.38568252,0.17705074,1.1820489,0.07376311,0.19281685,1.2800848,-0.18447417,-0.06843776,0.06722397,1.1932063,0.9638031
-0.1,0.1,1.4,0.0,-0.5235987755982988,0,1.2443955,0.66466004,0.91005534,0.38565618,0.1789117,1.1816812,0.048463557,-0.44983575,1.3477838,-0.32630157,-0.09620902,0.017790122,1.2015852,-0.7830872
-0.1,0.1,1.4,0.0,-0.5235987755982988,0,1.2439072,0.66480416,0.9103653,0.38557416,0.18320842,1.1822962,0.053357046,0.70108247,1.311006,-0.4302946,-0.053731956,-0.04891173,1.2793308,0.65638155
-0.1,0.1,1.4,0.0,-0.5235987755982988,0,1.2445241,0.66505635,0.9092597,0.38652083,0.18130964,1.1815152,0.1569021,0.41093656,1.2928288,-0.026750594,-0.08346637,0.02992241,1.2751504,0.60730726
-0.1,0.1,1.4,0.0,-0.5235987755982988,0,1.2450885,0.66534215,0.9083051,0.38587272,0.17845248,1.1819974,0.10623723,0.58307505,1.3360293,-0.109274544,-0.11547111,0.05991816,1.261136,0.27745566
-0.1,0.1,1.4,0.0,-0.5235987755982988,0,1.2444298,0.664494,0.90942466,0.38551608,0.18126833,1.1822618,0.07148696,0.3816201,1.3697374,0.0062047355,-0.14887652,0.038590312,1.2133214,0.07043768
-0.1,0.1,1.4,0.0,-0.5235987755982988,0,1.2446197,0.6648212,0.90836287,0.38621238,0.17984626,1.1820816,0.09687868,0.31717435,1.3159984,-0.281995,-0.1442802,-0.1492362,1.1718593,0.32513374
-0.1,0.1,1.4,0.0,-0.5235987755982988,0,1.2449671,0.664974,0.9097592,0.38548136,0.17988744,1.1818355,0.042867474,-0.14867876,1.3156556,-0.10459683,-0.080530286,-0.038603712,1.2805638,0.7475269
-0.1,0.1,1.4,0.0,-0.5235987755982988,0,1.2446717,0.66562414,0.910079,0.38561803,0.17391704,1.1821667,0.03603145,0.0102281915,1.2719804,0.29241705,-0.1060704,-0.10854552,1.282019,0.06772862
-0.1,0.1,1.4,0.0,-0.5235987755982988,0,1.2443492,0.6673483,0.91003776,0.3858425,0.1791674,1.1826973,0.13952309,-0.1494958,1.2879823,-0.16404061,-0.09120997,0.058075313,1.1681955,-0.059087142
-0.1,0.1,1.4,0.0,-0.5235987755982988,0,1.2455567,0.6650418,0.9104946,0.38637033,0.17775267,1.1812516,0.098380886,-0.08019566,1.3577877,-0.028092764,-0.071537085,0.2198087,1.2447517,0.2284784
-0.1,0.1,1.4,0.0,-0.5235987755982988,0,1.2430586,0.6644178,0.9100159,0.3859911,0.19526958,1.183051,0.09057295,-0.22757562,1.3039656,-0.04943874,-0.10665965,-0.07854976,1.2186852,0.55135804
-0.1,0.1,1.4,0.0,-0.5235987755982988,0,1.2447978,0.66591495,0.90957695,0.38570487,0.17747203,1.1824675,0.07379691,-0.47959477,1.2883224,-0.16297251,-0.10688757,0.0076255496,1.1898655,-0.20482762
-0.1,0.1,1.4,0.0,-0.5235987755982988,0,1.2439084,0.66529447,0.91008973,0.3860687,0.17704856,1.1818746,0.19165021,0.018057646,1.2928421,0.09316966,-0.07911093,0.007922452,1.2200289,-0.07093407
-0.1,0.1,1.4,0.0,-0.5235987755982988,0,1.2444514,0.6648972,0.9082048,0.3861756,0.17696035,1.1826657,0.078401536,-0.07764201,1.3613746,-0.24033153,-0.106863916,-0.080330625,1.2239376,-0.28568816
-0.1,0.1,1.4,0.0,-0.5235987755982988,0,1.2452296,0.6644996,0.90735644,0.38607243,0.18261468,1.1826231,0.12561205,0.45997363,1.2753572,0.3018128,-0.111517034,-0.12797897,1.2593092,-0.0014030853
-0.1,0.1,1.4,0.0,-0.5235987755982988,0,1.2446051,0.66666216,0.91028047,0.3858063,0.1790535,1.1819655,0.06589877,0.90154874,1.2845894,-0.081651755,-0.099211104,-0.060033295,1.2826669,0.033013932
-0.1,0.1,1.4,0.0,-0.5235987755982988,0,1.2451181,0.6649374,0.9095795,0.38570133,0.1795594,1.1820213,0.05637369,-0.2351435,1.3473711,0.08943096,-0.077596135,0.052661978,1.2733902,-0.018984621
-0.1,0.1,1.4,0.0,-0.5235987755982988,0,1.2449144,0.66561913,0.90881395,0.3861974,0.17970031,1.1822543,0.021735484,-0.25045475,1.3955166,-0.027621731,-0.09322597,-0.10886332,1.2610981,0.06947651
-0.1,0.1,1.4,0.0,-0.5235987755982988,0,1.2436073,0.665194,0.9088316,0.38664326,0.17892218,1.1824886,0.13233955,0.04396247,1.299518,0.28326428,-0.10535977,-0.068950236,1.2284055,0.20240912
-0.1,0.1,1.4,0.0,-0.5235987755982988,0,1.2447802,0.66522807,0.9088967,0.38594538,0.19045596,1.1822971,0.1206578,-0.47660336,1.3083631,-0.0089553725,-0.103333674,0.2579094,1.2572895,0.47597715
-0.1,0.1,1.4,0.0,-0.5235987755982988,0,1.2442588,0.66592985,0.9093954,0.38609678,0.17909527,1.1825987,0.012482472,-0.1299062,1.279194,0.035012886,-0.095700674,-0.07245635,1.2788045,0.3795301
-0.1,0.1,1.4,0.0,-0.5235987755982988,0,1.244208,0.6642634,0.90791327,0.38640383,0.17897412,1.1824553,0.13399002,-0.40697217,1.3443485,0.08972935,-0.12098774,-0.16169925,1.2402352,-0.032580286
-0.1,0.1,1.4,0.0,-0.5235987755982988,0,1.2438453,0.66575444,0.9095111,0.38609293,0.18133833,1.1836451,0.13252744,0.23471266,1.2900319,0.12891813,-0.079407185,0.14113632,1.2160076,0.6341896
-0.1,0.1,1.4,0.0,-0.5235987755982988,0,1.2449644,0.66620404,0.9105578,0.38586634,0.18211704,1.1820308,0.08633621,-0.4208413,1.3266714,-0.14055432,-0.074175835,0.035875,1.2330414,0.13328028
-0.1,0.1,1.4,0.0,-0.5235987755982988,0,1.2442237,0.66555977,0.9095278,0.3861305,0.17769067,1.1837504,0.1604752,-0.055957448,1.3284305,-0.26407057,-0.13981408,-0.028848123,1.2451377,0.031366415
-0.1,0.1,1.4,0.0,-0.5235987755982988,0,1.2442434,0.66532636,0.91115403,0.38642436,0.1802746,1.1817571,0.13201873,-0.35900632,1.3301051,0.14639814,-0.088872686,-0.037883732,1.1720768,0.2761867
-0.1,0.1,1.4,0.0,-0.5235987755982988,0,1.2449715,0.6654079,0.90924555,0.3862827,0.18320948,1.1819985,0.12763941,-0.14950112,1.2997142,0.1004611,-0.04570359,0.071727164,1.2249796,0.7323145
-0.1,0.1,1.4,0.0,-0.5235987755982988,0,1.2451019,0.6644647,0.9098264,0.38603592,0.1823962,1.1817836,0.113558546,-0.059129685,1.3094574,0.37142745,-0.10952865,0.01808928,1.1919532,-0.15802939
-0.1,0.1,1.4,0.0,-0.5235987755982988,0,1.2443451,0.66542983,0.90925956,0.38660353,0.18477379,1.1828262,0.10845982,0.3857382,1.3052623,-0.2764129,-0.070080996,-0.10137605,1.1806045,0.5721538
-0.1,0.1,1.4,0.0,-0.5235987755982988,0,1.2440763,0.66497207,0.9095735,0.38574824,0.18490057,1.1821135,0.09633664,0.34669405,1.3567123,0.30507126,-0.12566943,0.14321274,1.2258996,-0.13017605
-0.1,0.1,1.4,0.0,-0.5235987755982988,0,1.2450774,0.6659999,0.9087283,0.38567466,0.18542373,1.1824911,0.084096394,0.016419591,1.2578398,0.12733845,-0.09429089,-0.08840655,1.2264602,1.1763288
-0.1,0.1,1.4,0.0,-0.5235987755982988,0,1.2443786,0.66563904,0.90908176,0.38692036,0.18773659,1.1829591,0.13452429,-0.12028461,1.2955201,-0.09166891,-0.059536245,-0.10276585,1.172708,-0.14792022
-0.1,0.1,1.4,0.0,-0.5235987755982988,0,1.2445768,0.66458124,0.9077838,0.38543198,0.1821386,1.1814994,0.067146644,0.35117748,1.3008767,0.027197264,-0.12235084,-0.036664266,1.2225034,0.40422747
-0.1,0.1,1.4,0.0,-0.5235987755982988,0,1.2448936,0.6636543,0.9103752,0.3862366,0.18279204,1.1811658,0.07497877,-0.39918962,1.3054061,-0.2642055,-0.07020793,-0.027423112,1.2440857,0.09756757
-0.1,0.1,1.4,0.0,-0.5235987755982988,0,1.2442706,0.6640908,0.91094846,0.38563958,0.1781434,1.1810651,0.0953951,-0.2146199,1.3290364,-0.0324574,-0.10036275,-0.1546917,1.2418474,0.5282436
-0.1,0.1,1.4,0.0,-0.5235987755982988,0,1.2455758,0.6650202,0.9085639,0.3859838,0.18324631,1.1829969,0.13165075,-0.32324615,1.2947186,-0.1346475,-0.1298993,0.040768865,1.2111104,0.09535582
-0.1,0.1,1.4,0.0,-0.5235987755982988,0,1.243128,0.6657723,0.909258,0.38489956,0.18162106,1.1814749,0.062004577,1.0922992,1.3510901,-0.13654755,-0.11135563,-0.1138303,1.1910796,0.59542334
-0.1,0.1,1.4,0.0,-0.5235987755982988,0,1.2452556,0.6657923,0.9080137,0.38497487,0.17746134,1.1814193,0.09710237,-0.2431911,1.2951541,0.11862852,-0.087705076,0.27857414,1.241493,0.6756286
-0.1,0.1,1.4,0.0,-0.5235987755982988,0,1.2441834,0.6657167,0.91035944,0.38468614,0.17358111,1.1812795,0.09279012,0.34738916,1.3415084,0.021355005,-0.09926233,-0.13316593,1.1932722,0.065776534
-0.1,0.1,1.4,0.0,-0.5235987755982988,0,1.2432433,0.6662632,0.9094492,0.38549,0.17993,1.18155,0.07745514,0.08318793,1.2515296,0.17905338,-0.08978693,-0.2864598,1.2251179,-0.10368384
-0.1,0.1,1.4,0.0,-0.5235987755982988,0,1.243549,0.6655514,0.908057,0.38540286,0.18007031,1.1821754,0.09407676,0.007087626,1.3656255,0.21487732,-0.047914013,-0.06859001,1.2016767,-1.0661019
-0.1,0.1,1.4,0.0,-0.5235987755982988,0,1.2439942,0.666725,0.90786994,0.38518345,0.17912592,1.1824788,0.12686141,0.6445382,1.2823701,-0.21457855,-0.10531051,-0.16646421,1.1757298,-0.008295129
-0.1,0.1,1.4,0.0,-0.5235987755982988,0,1.2433866,0.66612434,0.90809363,0.38551852,0.19179349,1.1814297,0.10311111,0.3305274,1.3573436,0.17169543,-0.111448355,-0.019324398,1.2117267,-0.50242543
-0.1,0.1,1.4,0.0,-0.5235987755982988,0,1.2437457,0.6655295,0.908151,0.38541576,0.17921793,1.1823257,0.11207537,0.13176893,1.3101838,-0.01691915,-0.10463936,0.15785526,1.1759754,0.8668001
-0.1,0.1,1.4,0.0,-0.5235987755982988,0,1.2440358,0.6656322,0.90920174,0.38498005,0.17370929,1.1829495,0.05772256,0.20644477,1.2975906,0.39783758,-0.08616584,-0.08638039,1.190527,0.13447565
-0.1,0.1,1.4,0.0,-0.5235987755982988,0,1.2446173,0.6664307,0.9078588,0.38506147,0.17999782,1.1833419,0.1286126,0.46171382,1.2620901,-0.0785913,-0.10429468,-0.110982575,1.2119795,0.7718363
-0.1,0.1,1.4,0.0,-0.5235987755982988,0,1.2436773,0.66448563,0.90884626,0.38534102,0.18359311,1.1818458,0.043211877,0.64359415,1.3249365,0.098911814,-0.091040246,0.20574683,1.2314247,-0.02420264
-0.1,0.1,1.4,0.0,-0.5235987755982988,0,1.2445326,0.66529447,0.9077571,0.3852706,0.18285133,1.1815257,0.11289996,0.11570803,1.294158,0.020948697,-0.1530758,-0.059605908,1.2050271,0.015359379
-0.1,0.1,1.4,0.0,-0.5235987755982988,0,1.2440197,0.66463375,0.90772295,0.38574743,0.18168154,1.1829692,0.15281041,0.35418364,1.2735229,0.20500322,-0.11092918,0.02181208,1.1922272,-0.54354733
-0.1,0.1,1.4,0.0,-0.5235987755982988,0,1.243581,0.6655441,0.9088483,0.38579366,0.18571067,1.1824132,0.0518854,0.239162,1.3458014,-0.09810886,-0.056614008,-0.059463926,1.2858812,-0.14487678
-0.1,0.1,1.4,0.0,-0.5235987755982988,0,1.2436332,0.6657899,0.9086652,0.38522568,0.18709466,1.1823558,0.03430037,0.3452686,1.2354714,0.0093541,-0.09853911,0.018060165,1.1766787,0.081619106
-0.1,0.1,1.4,0.0,-0.5235987755982988,0,1.2441227,0.66580087,0.9073662,0.38580802,0.18351482,1.1818584,0.0483387,0.21177901,1.3249049,0.11989536,-0.09679504,-0.07336453,1.2588379,0.48750415
-0.1,0.1,1.4,0.0,-0.5235987755982988,0,1.2446305,0.66622806,0.9077587,0.3857841,0.16903782,1.1825204,0.15533262,0.4825366,1.3305374,0.24180248,-0.12236837,-0.3495207,1.188616,0.07912776
-0.1,0.1,1.4,0.0,-0.5235987755982988,0,1.2443397,0.66528696,0.90868354,0.3853238,0.17800573,1.1814102,0.060602423,0.9425443,1.3263793,-0.021695424,-0.08737243,-0.017583737,1.1776546,0.28754333
-0.1,0.1,1.4,0.0,-0.5235987755982988,0,1.2431824,0.6650394,0.9082288,0.3856084,0.18642344,1.1825899,0.10034694,0.36043587,1.3714366,-0.05882973,-0.07756999,-0.12969348,1.2590772,-0.409841
-0.1,0.1,1.4,0.0,-0.5235987755982988,0,1.2437938,0.6657573,0.91005516,0.38483438,0.1826158,1.1830398,0.07149745,0.33316872,1.3168654,-0.23072582,-0.12607673,0.112765625,1.1934526,-0.006171557
-0.1,0.1,1.4,0.0,-0.5235987755982988,0,1.2443466,0.66545993,0.91001904,0.38515738,0.18159659,1.1817526,0.06305331,0.4569437,1.3081133,0.09185284,-0.095111355,-0.1578583,1.2906873,-0.4571592
-0.1,0.1,1.4,0.0,-0.5235987755982988,0,1.2448375,0.6663191,0.9115311,0.38441536,0.1839687,1.1826615,0.13585667,-0.06542046,1.2579653,-0.33218133,-0.08884838,0.26471016,1.2111673,-0.014584349
-0.1,0.1,1.4,0.0,-0.5235987755982988,0,1.243733,0.6651556,0.90933084,0.3860462,0.18359554,1.1813384,0.07398293,0.72698796,1.2843678,0.2320595,-0.085129105,-0.16760054,1.1839674,-0.29857162
-0.1,0.1,1.4,0.0,-0.5235987755982988,0,1.2451323,0.664344,0.9082074,0.38499695,0.17947328,1.1823685,0.13154356,-0.21698831,1.3048623,-0.028401792,-0.08812916,0.17417273,1.2512963,0.63348126
-0.1,0.1,1.4,0.0,-0.5235987755982988,0,1.2443465,0.6659832,0.90912616,0.38547787,0.18342413,1.1821468,0.049178883,0.22619312,1.3007008,-0.033117868,-0.095916666,-0.039374318,1.2547889,0.49203104
-0.1,0.1,1.4,0.0,-0.5235987755982988,0,1.2438786,0.66548413,0.90723246,0.38624337,0.19043082,1.1820629,0.07638186,0.73458326,1.369139,-0.05608669,-0.06098665,-0.11691195,1.2002734,-0.21475926
-0.1,0.1,1.4,0.0,-0.5235987755982988,0,1.244545,0.66532254,0.90841377,0.38563597,0.18377593,1.1823586,0.058581244,0.3290195,1.3001275,-0.3023492,-0.058280587,0.03398917,1.260966,1.215562
-0.1,0.1,1.4,0.0,-0.5235987755982988,0,1.2441715,0.6655701,0.90864897,0.3857252,0.17793228,1.1820863,0.04196885,0.6158993,1.2744569,-0.25433505,-0.099170506,-0.08188627,1.222705,0.833658
-0.1,0.1,1.4,0.0,-0.5235987755982988,0,1.2433155,0.66501075,0.9099066,0.38587838,0.1777148,1.1826863,0.078401014,0.35896128,1.2712054,-0.19867307,-0.071511865,0.18783003,1.2378035,1.164589
-0.1,0.1,1.4,0.0,-0.5235987755982988,0,1.2447789,0.6639373,0.90971816,0.3851036,0.17461546,1.18244,0.1414748,0.09710919,1.2971708,0.252102,-0.13280676,-0.08020295,1.2418354,-0.13563414
-0.1,0.1,1.4,0.0,-0.5235987755982988,0,1.2444474,0.6631011,0.9083327,0.3856052,0.18100925,1.1823305,0.07229266,-0.3594373,1.2688869,-0.21392106,-0.071056224,0.03913602,1.2325374,-0.19377264
-0.1,0.1,1.4,0.0,-0.5235987755982988,0,1.2438504,0.6651105,0.909711,0.38554546,0.17977756,1.1827484,0.112987615,0.101362325,1.337266,-0.07063552,-0.072001755,-0.05386643,1.2696514,0.64378786
-0.1,0.1,1.4,0.0,-0.5235987755982988,0,1.2439706,0.66461885,0.908786,0.38662052,0.18075165,1.181098,0.15638562,0.79893655,1.3103757,0.060554143,-0.10575868,0.16006064,1.2175018,-0.111226946
-0.1,0.1,1.4,0.0,-0.5235987755982988,0,1.2437092,0.66567725,0.911431,0.38592142,0.17644589,1.181419,0.106104754,-0.24222887,1.278409,-0.08952676,-0.077404626,-0.025125673,1.1867216,0.524932
-0.1,0.1,1.4,0.0,-0.5235987755982988,0,1.244371,0.66561836,0.9115187,0.38509926,0.17975725,1.1823931,0.113645166,0.41795358,1.3010627,0.107919306,-0.084550336,0.012342152,1.2181399,0.34215346
-0.1,0.1,1.4,0.0,-0.5235987755982988,0,1.2450176,0.66617036,0.90864706,0.3859168,0.17824997,1.182932,0.118131384,-0.36837253,1.3033056,-0.121961266,-0.07697933,-0.04754202,1.1499561,0.17731278
-0.1,0.1,1.4,0.0,-0.5235987755982988,0,1.2450962,0.6640899,0.9076678,0.38659868,0.18092994,1.1819009,0.11891929,0.24161784,1.3510668,-0.3370771,-0.10037683,-0.20058422,1.176056,0.035068866
-0.1,0.1,1.4,0.0,-0.5235987755982988,0,1.24434,0.66492605,0.90931493,0.38613233,0.18822607,1.1821455,0.041103125,0.7557227,1.3652955,-0.046123132,-0.112258896,0.05818714,1.2702479,-0.261613
-0.1,0.1,1.4,0.0,-0.5235987755982988,0,1.2449075,0.66512877,0.90982074,0.38562733,0.17879653,1.1828209,0.10688289,0.8508475,1.2909211,0.29378498,-0.11432966,-0.03622125,1.2159818,0.124156974
-0.1,0.1,1.4,0.0,-0.5235987755982988,0,1.2439429,0.6654233,0.90974236,0.38618934,0.1879914,1.1827142,0.05075012,-0.13736123,1.327753,0.112319306,-0.08695612,-0.06609488,1.2314622,0.17886259
-0.1,0.1,1.4,0.0,-0.5235987755982988,0,1.2447833,0.66530263,0.9091426,0.38643748,0.18072951,1.1812755,0.09747541,0.76059246,1.290996,0.1032152,-0.11636823,-0.15159339,1.1732892,-0.24778235
-0.1,0.1,1.4,0.0,-0.5235987755982988,0,1.2447938,0.6646669,0.90933084,0.3862393,0.1857215,1.1820699,0.07920103,0.30124733,1.3216027,0.0029406475,-0.104248755,0.0120262075,1.2731229,-0.4495969
-0.1,0.1,1.4,0.0,-0.5235987755982988,0,1.245736,0.6659876,0.90889186,0.38583627,0.18168302,1.1818364,0.09251423,-0.11786829,1.2783988,-0.33648396,-0.067921326,-0.056389704,1.2175547,-0.52664953
-0.1,0.1,1.4,0.0,-0.5235987755982988,0,1.2442878,0.6656244,0.9086622,0.38513604,0.17803426,1.1815721,0.09422268,-0.060564358,1.3694893,0.011090945,-0.07930652,-0.10705987,1.1740128,0.015909815
-0.1,0.1,1.4,0.0,-0.5235987755982988,0,1.2436378,0.66479,0.90729856,0.3852892,0.17659974,1.1822673,0.0921147,0.54892963,1.2768266,0.18898013,-0.05987673,0.08722973,1.1858948,0.15442067
-0.1,0.1,1.4,0.0,-0.5235987755982988,0,1.2443645,0.66442317,0.9079942,0.38491648,0.1766973,1.1817868,0.06649331,0.3808831,1.3115208,0.06954598,-0.09109027,-0.13892694,1.23803,0.48063648
-0.1,0.1,1.4,0.0,-0.5235987755982988,0,1.2439681,0.66429585,0.9101856,0.38480642,0.18933024,1.1812122,-0.014301938,0.10386126,1.2798268,-0.10184059,-0.091984525,0.2197913,1.2295139,-0.25963625
-0.1,0.1,1.4,0.0,-0.5235987755982988,0,1.2451206,0.6664976,0.90828604,0.38609427,0.18623735,1.1820383,0.08619786,0.46839035,1.2940787,-0.23457424,-0.12445888,0.23780389,1.1915613,-0.41811302
-0.1,0.1,1.4,0.0,-0.5235987755982988,0,1.2445971,0.6651485,0.9084029,0.38529867,0.17829253,1.1818335,0.0754172,-0.3690741,1.3298419,-0.011053933,-0.099209875,0.018824536,1.2747818,0.5731102
-0.1,0.1,1.4,0.0,-0.5235987755982988,0,1.2448418,0.66515815,0.90840155,0.38514414,0.17474331,1.1827266,0.086628154,0.29412755,1.3183264,-0.083490506,-0.092350245,0.13691053,1.1777623,-0.74151134
-0.1,0.1,1.4,0.0,-0.5235987755982988,0,1.2437084,0.66588235,0.9088647,0.38599104,0.17991012,1.1816313,0.04369204,0.6504817,1.331189,0.23333842,-0.12186597,0.084549546,1.192522,-0.12737598
-0.1,0.1,1.4,0.0,-0.5235987755982988,0,1.2443043,0.6644306,0.9106277,0.38510412,0.18224071,1.1811469,0.060965665,-0.28600892,1.3024989,-0.22355933,-0.11383878,-0.010158711,1.216354,0.039271094
-0.1,0.1,1.4,0.0,-0.5235987755982988,0,1.2447232,0.66510826,0.9093458,0.38486752,0.18182284,1.1826555,0.098925956,0.07600051,1.3240726,0.2595795,-0.06464211,0.16563481,1.2237588,-0.13480929
-0.1,0.1,1.4,0.0,-0.5235987755982988,0,1.2440387,0.66495687,0.91032803,0.3856246,0.1794886,1.1814582,0.13115376,0.74351656,1.2972716,0.2855013,-0.081228115,0.045173224,1.1993554,0.8153591
-0.1,0.1,1.4,0.0,-0.5235987755982988,0,1.2444986,0.66637033,0.9087457,0.38585386,0.17842123,1.182413,0.123583525,-0.13108239,1.35586,0.039956447,-0.08294176,0.19672297,1.1713498,-0.6956483
-0.1,0.1,1.4,0.0,-0.5235987755982988,0,1.2443985,0.66442645,0.9082338,0.38638595,0.18302403,1.1823556,0.103318855,0.14992881,1.3849491,0.53473926,-0.113454126,-0.13152757,1.2136496,0.4162998
-0.1,0.1,1.4,0.0,-0.5235987755982988,0,1.2443438,0.6655387,0.9077587,0.38652197,0.18701686,1.1817213,0.12969135,-0.19577034,1.2804778,0.085886806,-0.09288718,-0.083118245,1.2499733,-0.26326624
-0.1,0.1,1.4,0.0,-0.5235987755982988,0,1.2442915,0.6645389,0.90939206,0.38600245,0.18048495,1.1826514,0.11638094,0.25626278,1.2234142,0.12996505,-0.10613154,-0.09702182,1.1757419,1.0847161
-0.1,0.1,1.4,0.0,-0.5235987755982988,0,1.2449411,0.6645597,0.90955776,0.38738748,0.18222901,1.1819453,0.10783087,0.5782669,1.2476192,0.45594013,-0.08834308,0.067636624,1.2271855,-0.29781744
-0.1,0.1,1.4,0.0,-0.5235987755982988,0,1.2436111,0.6656924,0.90710676,0.38518053,0.18055384,1.1821535,0.06549341,0.5480662,1.3096713,0.16053337,-0.06582501,-0.1480716,1.261084,0.36884463
-0.1,0.1,1.4,0.0,-0.5235987755982988,0,1.2444168,0.66344076,0.90784115,0.3848664,0.18217437,1.1813207,0.12649807,0.33025858,1.3119522,0.5775956,-0.08273704,-0.077030055,1.262863,0.5926895
-0.1,0.1,1.4,0.0,-0.5235987755982988,0,1.2437383,0.66489613,0.90679127,0.3855294,0.17115094,1.1823751,0.12914331,0.31873667,1.3313866,-0.1960248,-0.09007679,-0.009294925,1.1895678,0.5382701
-0.1,0.1,1.4,0.0,-0.5235987755982988,0,1.2443451,0.6656236,0.90923285,0.38482696,0.18071936,1.1822529,0.100009374,-0.05032726,1.3248005,0.14849567,-0.042748522,-0.008579358,1.2101483,0.7660106
-0.1,0.1,1.4,0.0,-0.5235987755982988,0,1.243818,0.665895,0.91057533,0.3852322,0.18577144,1.1820346,0.08834501,-0.16131409,1.3033723,0.09316627,-0.116731755,0.053811464,1.1998599,-0.19237313
-0.1,0.1,1.4,0.0,-0.5235987755982988,0,1.2443726,0.6648083,0.9108147,0.3847295,0.17762621,1.1821918,0.13736533,0.6030761,1.379363,0.05593213,-0.09373251,-0.17692028,1.2265757,1.4110224
-0.1,0.1,1.4,0.0,-0.5235987755982988,0,1.2433344,0.6646913,0.90730965,0.38657594,0.17756905,1.1817628,0.12693584,-0.28017724,1.2537825,-0.20264006,-0.09731415,0.06440536,1.2530801,0.26978284
-0.1,0.1,1.4,0.0,-0.5235987755982988,0,1.2437824,0.66537344,0.9079212,0.38633418,0.18201628,1.1813403,0.084371775,0.4741812,1.2901319,-0.14994355,-0.123109706,0.10579522,1.2259115,1.2601426
-0.1,0.1,1.4,0.0,-0.5235987755982988,0,1.2439924,0.6649823,0.9096104,0.3856176,0.18137154,1.1818902,0.095093615,0.33101454,1.2590113,-0.0218237,-0.10769538,-0.20169203,1.279181,-0.31283888
-0.1,0.1,1.4,0.0,-0.5235987755982988,0,1.2442762,0.66580254,0.9100622,0.38718972,0.18288368,1.1829191,0.14868744,-0.23085752,1.2902632,-0.06697415,-0.112152785,0.1178385,1.2242618,0.2620374
-0.1,0.1,1.4,0.0,-0.5235987755982988,0,1.2439075,0.6640064,0.90708965,0.3858019,0.18193293,1.18298,0.07111757,-0.34783596,1.2832913,-0.2966735,-0.113305174,-0.07123369,1.221813,0.48828867
-0.1,0.1,1.4,0.0,-0.5235987755982988,0,1.2442963,0.6656123,0.9096359,0.3862066,0.18053897,1.182807,0.12540226,0.21990548,1.2712562,-0.0035018472,-0.095114484,0.015196658,1.2389326,-0.115302816
-0.1,0.1,1.4,0.0,-0.5235987755982988,0,1.2443491,0.6658119,0.9093586,0.38646838,0.18886077,1.1819053,0.074820705,0.040885434,1.3544384,0.081991635,-0.0662599,0.045452345,1.1888734,1.01525
