sanky1234/BimanualDexCatch/isaacgymenvs/cem_results/football_pose_-0.2_-0.2_0.6_-0.34906585039886584_-0.5235987755982988_0.34906585039886606.csv
x,y,z,roll,pitch,yaw,robot1/joint1,robot1/joint2,robot1/joint3,robot1/joint4,robot1/joint5,robot1/joint6,robot1/joint7,robot2/joint1,robot2/joint2,robot2/joint3,robot2/joint4,robot2/joint5,robot2/joint6,robot2/joint7
-0.2,-0.2,0.6,-0.34906585039886584,-0.5235987755982988,0.34906585039886606,1.196923,1.6257445,0.26019698,0.24597308,0.1985013,0.6543541,0.54727393,-0.39459327,1.4617431,-0.26723027,-0.6789778,0.23030512,1.2400312,1.0715008
-0.2,-0.2,0.6,-0.34906585039886584,-0.5235987755982988,0.34906585039886606,1.1878207,1.6147847,0.30578664,0.21116552,0.20004258,0.64940214,0.5486053,-0.39446238,1.4464037,-0.27253732,-0.6908802,0.22489423,1.2253271,1.1474195
-0.2,-0.2,0.6,-0.34906585039886584,-0.5235987755982988,0.34906585039886606,1.2291226,1.617823,0.28552863,0.19567335,0.23960353,0.6442206,0.49969923,-0.38545012,1.4515353,-0.26151013,-0.6533384,0.2557253,1.2289737,1.0616528
-0.2,-0.2,0.6,-0.34906585039886584,-0.5235987755982988,0.34906585039886606,1.2047758,1.6043103,0.26420155,0.23705402,0.20869888,0.6610052,0.5318932,-0.3932007,1.4549577,-0.2407685,-0.6704674,0.23678441,1.2320313,1.0906718
-0.2,-0.2,0.6,-0.34906585039886584,-0.5235987755982988,0.34906585039886606,1.1769313,1.6418614,0.2781002,0.1910792,0.2635186,0.6695619,0.5419267,-0.39457968,1.456209,-0.2555253,-0.7096097,0.23580115,1.2419839,1.0542004
-0.2,-0.2,0.6,-0.34906585039886584,-0.5235987755982988,0.34906585039886606,1.1637583,1.6283826,0.30506605,0.22932826,0.26646984,0.6715415,0.49611518,-0.39271253,1.4547424,-0.2773793,-0.6361821,0.238652,1.2378318,0.8852363
-0.2,-0.2,0.6,-0.34906585039886584,-0.5235987755982988,0.34906585039886606,1.1724089,1.6108598,0.28882197,0.18200478,0.25409308,0.6446688,0.55441034,-0.39361966,1.4478239,-0.25363478,-0.69727665,0.22672892,1.2152956,0.83324224
-0.2,-0.2,0.6,-0.34906585039886584,-0.5235987755982988,0.34906585039886606,1.1921341,1.6304696,0.3001857,0.21817467,0.25343928,0.6750828,0.5358209,-0.38875863,1.4526203,-0.2782129,-0.66996604,0.246668,1.2399434,1.0673686
-0.2,-0.2,0.6,-0.34906585039886584,-0.5235987755982988,0.34906585039886606,1.2238069,1.6087528,0.28656936,0.23078576,0.22459984,0.6519472,0.56651944,-0.386043,1.4557803,-0.24707533,-0.66222256,0.21392581,1.2491096,1.0893884
-0.2,-0.2,0.6,-0.34906585039886584,-0.5235987755982988,0.34906585039886606,1.1938097,1.636089,0.28859922,0.22752528,0.23680504,0.6715839,0.55561787,-0.39252284,1.4651426,-0.27242452,-0.65500593,0.23518313,1.2266835,1.1471837
-0.2,-0.2,0.6,-0.34906585039886584,-0.5235987755982988,0.34906585039886606,1.1946173,1.6432276,0.28074697,0.22392596,0.27598724,0.67611027,0.49548292,-0.3923604,1.4631397,-0.2304042,-0.65285105,0.25953427,1.237035,1.1005021
-0.2,-0.2,0.6,-0.34906585039886584,-0.5235987755982988,0.34906585039886606,1.1949638,1.6188478,0.28889087,0.20112823,0.2387025,0.6636347,0.57352513,-0.38795787,1.4483995,-0.24963172,-0.6688101,0.24561524,1.2438456,1.1454877
-0.2,-0.2,0.6,-0.34906585039886584,-0.5235987755982988,0.34906585039886606,1.1878645,1.6250721,0.27507785,0.21561234,0.24494785,0.68405485,0.51626444,-0.388363,1.4546149,-0.2551741,-0.67236656,0.2746014,1.233583,1.0494642
-0.2,-0.2,0.6,-0.34906585039886584,-0.5235987755982988,0.34906585039886606,1.1788197,1.6212898,0.28520015,0.20256989,0.24541713,0.6558017,0.52863437,-0.39106917,1.4438628,-0.24299069,-0.66773456,0.2187232,1.2436682,1.2339975
-0.2,-0.2,0.6,-0.34906585039886584,-0.5235987755982988,0.34906585039886606,1.2047099,1.6220964,0.2870864,0.16802885,0.21850182,0.6379465,0.5605454,-0.39237985,1.467388,-0.22530304,-0.7026106,0.24350396,1.2172403,0.93961865
-0.2,-0.2,0.6,-0.34906585039886584,-0.5235987755982988,0.34906585039886606,1.1959422,1.6190181,0.25846627,0.18046424,0.24542797,0.68147475,0.5338214,-0.394468,1.4556286,-0.2522992,-0.68610805,0.25070256,1.2409196,1.2235461
-0.2,-0.2,0.6,-0.34906585039886584,-0.5235987755982988,0.34906585039886606,1.1892929,1.6190523,0.30330712,0.20465724,0.24747382,0.60403204,0.55770403,-0.39678046,1.4608613,-0.2561924,-0.68512577,0.23564613,1.2411741,1.0643736
-0.2,-0.2,0.6,-0.34906585039886584,-0.5235987755982988,0.34906585039886606,1.2113966,1.6371721,0.2863196,0.1870312,0.1993932,0.68251526,0.53942597,-0.39461926,1.450528,-0.24807166,-0.6606452,0.26261404,1.2125059,0.80774325
-0.2,-0.2,0.6,-0.34906585039886584,-0.5235987755982988,0.34906585039886606,1.2076627,1.6119705,0.28741914,0.20108049,0.21544021,0.61689895,0.49205643,-0.38809752,1.4548962,-0.24262595,-0.6907465,0.24833247,1.2300819,0.91194445
-0.2,-0.2,0.6,-0.34906585039886584,-0.5235987755982988,0.34906585039886606,1.1731081,1.6045549,0.29113343,0.22319391,0.26600665,0.6689349,0.5447007,-0.38556948,1.4490868,-0.26585245,-0.6543608,0.25851008,1.2168407,1.0214703
-0.2,-0.2,0.6,-0.34906585039886584,-0.5235987755982988,0.34906585039886606,1.1914514,1.6101195,0.31634694,0.21069366,0.20897853,0.66169345,0.5413499,-0.39597163,1.4538385,-0.23535456,-0.6651184,0.24812931,1.2632309,0.9556377
-0.2,-0.2,0.6,-0.34906585039886584,-0.5235987755982988,0.34906585039886606,1.192457,1.6264154,0.27638665,0.25310677,0.19477038,0.66202813,0.5377701,-0.38752848,1.4524713,-0.24518657,-0.650824,0.2692484,1.2308356,1.0712962
-0.2,-0.2,0.6,-0.34906585039886584,-0.5235987755982988,0.34906585039886606,1.2079841,1.6241176,0.24907435,0.25027344,0.22873688,0.6684375,0.5310405,-0.38109928,1.4578549,-0.25927588,-0.68961656,0.2622972,1.2394439,1.2826589
-0.2,-0.2,0.6,-0.34906585039886584,-0.5235987755982988,0.34906585039886606,1.1847228,1.6101328,0.26909065,0.21058643,0.23040935,0.6618421,0.54893285,-0.39370698,1.4604635,-0.24185947,-0.6848775,0.22901218,1.2227851,0.9910798
-0.2,-0.2,0.6,-0.34906585039886584,-0.5235987755982988,0.34906585039886606,1.2022941,1.626533,0.28680116,0.18892978,0.20088245,0.68748647,0.52863085,-0.3959743,1.4486881,-0.25788596,-0.70495033,0.23114356,1.2420949,0.99063826
-0.2,-0.2,0.6,-0.34906585039886584,-0.5235987755982988,0.34906585039886606,1.1781911,1.6163508,0.28557137,0.22035898,0.23294039,0.65059423,0.483456,-0.38995907,1.4634931,-0.2777257,-0.6840112,0.26006138,1.2345071,1.0808213
-0.2,-0.2,0.6,-0.34906585039886584,-0.5235987755982988,0.34906585039886606,1.1576127,1.6396596,0.29634383,0.20387329,0.2108865,0.6906211,0.56156194,-0.38959408,1.4554136,-0.23270658,-0.65729916,0.25984052,1.2280296,1.00771
-0.2,-0.2,0.6,-0.34906585039886584,-0.5235987755982988,0.34906585039886606,1.1755265,1.6167492,0.3098761,0.22406673,0.20612527,0.6732429,0.47885275,-0.39775982,1.4642514,-0.27573776,-0.67772365,0.23893255,1.2204374,1.0898182
-0.2,-0.2,0.6,-0.34906585039886584,-0.5235987755982988,0.34906585039886606,1.2236989,1.6291453,0.28237468,0.18659471,0.24510778,0.67042017,0.5318809,-0.391493,1.4454005,-0.24150579,-0.68229777,0.22664659,1.2293917,1.0751762
-0.2,-0.2,0.6,-0.34906585039886584,-0.5235987755982988,0.34906585039886606,1.1920729,1.6397164,0.297472,0.28439382,0.2361067,0.64077175,0.51680017,-0.39254135,1.4502621,-0.2624072,-0.62836766,0.27042955,1.2320386,1.1149756
-0.2,-0.2,0.6,-0.34906585039886584,-0.5235987755982988,0.34906585039886606,1.1775994,1.6322483,0.2972809,0.17629041,0.24385583,0.6900418,0.56352496,-0.39147645,1.4512693,-0.2203618,-0.6836082,0.23502348,1.2408888,0.918954
-0.2,-0.2,0.6,-0.34906585039886584,-0.5235987755982988,0.34906585039886606,1.1710634,1.6137637,0.28117546,0.19788817,0.2417619,0.71230525,0.4995288,-0.40551645,1.458293,-0.25670755,-0.6934264,0.21983631,1.2551295,1.1731288
-0.2,-0.2,0.6,-0.34906585039886584,-0.5235987755982988,0.34906585039886606,1.1912667,1.630274,0.27915558,0.2507182,0.23154749,0.6719451,0.534281,-0.40080357,1.4663559,-0.25727937,-0.6556628,0.27409843,1.2229922,1.2968969
-0.2,-0.2,0.6,-0.34906585039886584,-0.5235987755982988,0.34906585039886606,1.2113549,1.641467,0.2725439,0.19252563,0.28402463,0.6738075,0.46830654,-0.38256052,1.4512267,-0.25266722,-0.65016586,0.21831188,1.2196977,1.123708
-0.2,-0.2,0.6,-0.34906585039886584,-0.5235987755982988,0.34906585039886606,1.185098,1.6264355,0.29052126,0.20245746,0.27007154,0.6485613,0.5226385,-0.3808702,1.4639771,-0.25308013,-0.6757397,0.25524816,1.2356359,0.962496
-0.2,-0.2,0.6,-0.34906585039886584,-0.5235987755982988,0.34906585039886606,1.2153206,1.6184243,0.2797688,0.22028568,0.2166191,0.6799676,0.54484975,-0.3888465,1.4595577,-0.2681622,-0.6509881,0.25702807,1.225647,0.883352
-0.2,-0.2,0.6,-0.34906585039886584,-0.5235987755982988,0.34906585039886606,1.1870131,1.6266947,0.27535117,0.24216649,0.23618546,0.65640867,0.43790135,-0.3998023,1.446734,-0.27480748,-0.6659693,0.24443963,1.2428434,1.0560491
-0.2,-0.2,0.6,-0.34906585039886584,-0.5235987755982988,0.34906585039886606,1.1824354,1.630579,0.28507105,0.2586708,0.25189856,0.65027535,0.5528635,-0.39224762,1.4508812,-0.28584918,-0.63705873,0.2525221,1.2359195,1.1735287
-0.2,-0.2,0.6,-0.34906585039886584,-0.5235987755982988,0.34906585039886606,1.176023,1.6380872,0.3017194,0.21716134,0.2501417,0.66728187,0.5376094,-0.39439362,1.4510078,-0.26886353,-0.6751021,0.24849576,1.2354296,1.0912141
-0.2,-0.2,0.6,-0.34906585039886584,-0.5235987755982988,0.34906585039886606,1.1794035,1.6187856,0.28538367,0.19897035,0.2545393,0.68131703,0.50785583,-0.3935729,1.4760741,-0.28516868,-0.689105,0.24878421,1.2347654,1.0761149
-0.2,-0.2,0.6,-0.34906585039886584,-0.5235987755982988,0.34906585039886606,1.1785398,1.6180375,0.2791891,0.25692624,0.26136333,0.6794891,0.5498399,-0.4016771,1.4603597,-0.25230128,-0.68502134,0.23390934,1.2445776,1.0160143
-0.2,-0.2,0.6,-0.34906585039886584,-0.5235987755982988,0.34906585039886606,1.1928526,1.615927,0.26667926,0.25093684,0.25973088,0.6752662,0.6022474,-0.39990857,1.4591311,-0.25502396,-0.67243445,0.26100868,1.2347987,1.0059375
-0.2,-0.2,0.6,-0.34906585039886584,-0.5235987755982988,0.34906585039886606,1.1477821,1.6464646,0.2717409,0.3022104,0.21847112,0.6514413,0.5706656,-0.39714998,1.453088,-0.2515994,-0.637603,0.24089068,1.2187623,1.1418477
-0.2,-0.2,0.6,-0.34906585039886584,-0.5235987755982988,0.34906585039886606,1.1757311,1.628652,0.29779777,0.20314547,0.28478113,0.6710179,0.4839654,-0.38904217,1.4609742,-0.27352145,-0.67747176,0.22642171,1.2593578,1.1924498
-0.2,-0.2,0.6,-0.34906585039886584,-0.5235987755982988,0.34906585039886606,1.1987959,1.625318,0.30255148,0.21695478,0.20933785,0.6506746,0.45174804,-0.39710918,1.4575199,-0.29012874,-0.67972785,0.23764253,1.234827,1.0638452
-0.2,-0.2,0.6,-0.34906585039886584,-0.5235987755982988,0.34906585039886606,1.1980046,1.6281163,0.2863055,0.17196609,0.22313772,0.66787004,0.46932408,-0.39490235,1.4556783,-0.2576243,-0.74730337,0.19833814,1.234985,0.9824338
-0.2,-0.2,0.6,-0.34906585039886584,-0.5235987755982988,0.34906585039886606,1.2096077,1.6199669,0.2864443,0.24865295,0.261117,0.6465691,0.522377,-0.38398808,1.4704806,-0.2481525,-0.62367326,0.23692094,1.2379509,0.92740965
-0.2,-0.2,0.6,-0.34906585039886584,-0.5235987755982988,0.34906585039886606,1.2067438,1.6325256,0.2684953,0.23224993,0.2237872,0.69471085,0.53373796,-0.40083638,1.4630004,-0.27350995,-0.7054273,0.26353943,1.2310487,0.92415017
-0.2,-0.2,0.6,-0.34906585039886584,-0.5235987755982988,0.34906585039886606,1.1932926,1.6125747,0.27361146,0.29991493,0.25617293,0.66048646,0.510255,-0.39803368,1.465256,-0.27576238,-0.6552158,0.23060513,1.2441372,1.0765668
-0.2,-0.2,0.6,-0.34906585039886584,-0.5235987755982988,0.34906585039886606,1.1978111,1.6136788,0.30212748,0.21996482,0.21905051,0.67337555,0.55982894,-0.3889139,1.4630779,-0.25616434,-0.64769703,0.24078113,1.2289184,0.9493987
-0.2,-0.2,0.6,-0.34906585039886584,-0.5235987755982988,0.34906585039886606,1.1700456,1.6354411,0.25739184,0.1984029,0.24559946,0.7023101,0.53252983,-0.3902237,1.4679118,-0.27290687,-0.6596742,0.25670856,1.2245086,1.2447326
-0.2,-0.2,0.6,-0.34906585039886584,-0.5235987755982988,0.34906585039886606,1.1702482,1.6209747,0.29983974,0.20511407,0.23726054,0.6849038,0.4781057,-0.40041617,1.455075,-0.26845083,-0.67739075,0.23532426,1.2323494,1.0454705
-0.2,-0.2,0.6,-0.34906585039886584,-0.5235987755982988,0.34906585039886606,1.2047596,1.6073792,0.29749,0.20460108,0.30451518,0.63944525,0.5178537,-0.38865235,1.4470844,-0.26013196,-0.6454949,0.26627275,1.2370209,1.016393
-0.2,-0.2,0.6,-0.34906585039886584,-0.5235987755982988,0.34906585039886606,1.1879793,1.6034971,0.27223638,0.22833022,0.23361677,0.688125,0.56301695,-0.39436916,1.4639769,-0.24329792,-0.6518419,0.24205235,1.2365869,0.9207149
-0.2,-0.2,0.6,-0.34906585039886584,-0.5235987755982988,0.34906585039886606,1.2285272,1.6108983,0.26897004,0.23937576,0.23718344,0.6339476,0.49003574,-0.38665402,1.460481,-0.2641665,-0.6701893,0.25186178,1.248347,1.0486438
-0.2,-0.2,0.6,-0.34906585039886584,-0.5235987755982988,0.34906585039886606,1.178082,1.6454571,0.27483377,0.25882247,0.21527728,0.6716745,0.48133314,-0.38492513,1.4558469,-0.26839575,-0.67891866,0.2297701,1.2316844,1.0852066
-0.2,-0.2,0.6,-0.34906585039886584,-0.5235987755982988,0.34906585039886606,1.2014766,1.6305758,0.28742653,0.21322276,0.27628884,0.61588466,0.5259952,-0.3869878,1.4596258,-0.23726034,-0.649198,0.2564742,1.2373621,1.0396967
-0.2,-0.2,0.6,-0.34906585039886584,-0.5235987755982988,0.34906585039886606,1.1810249,1.610926,0.3084029,0.1799448,0.22220287,0.6450499,0.4793944,-0.40351,1.4535067,-0.23661838,-0.6652952,0.2718609,1.2384058,1.1012869
-0.2,-0.2,0.6,-0.34906585039886584,-0.5235987755982988,0.34906585039886606,1.1936164,1.626174,0.31505108,0.23192888,0.23804663,0.66549253,0.53521,-0.40157512,1.4518293,-0.2434087,-0.653802,0.21977365,1.2364432,1.159122
-0.2,-0.2,0.6,-0.34906585039886584,-0.5235987755982988,0.34906585039886606,1.1823887,1.6218114,0.28317398,0.25019398,0.20132183,0.62647194,0.46510252,-0.40383658,1.4621774,-0.26229012,-0.6662881,0.21352124,1.2288852,0.8713949
-0.2,-0.2,0.6,-0.34906585039886584,-0.5235987755982988,0.34906585039886606,1.2399396,1.6258214,0.27263656,0.22682068,0.18938738,0.6441062,0.48224282,-0.39508766,1.4587328,-0.24700674,-0.68686616,0.22331868,1.2292793,1.0897626
-0.2,-0.2,0.6,-0.34906585039886584,-0.5235987755982988,0.34906585039886606,1.1912107,1.6171495,0.29488236,0.20829979,0.24480689,0.64155525,0.54686916,-0.3896125,1.4556836,-0.2690441,-0.65461344,0.2547051,1.2389761,0.97293186
-0.2,-0.2,0.6,-0.34906585039886584,-0.5235987755982988,0.34906585039886606,1.1950314,1.634168,0.2805823,0.18455833,0.21332966,0.604368,0.5169382,-0.38543004,1.453279,-0.25440785,-0.69676894,0.24967912,1.2278624,1.0063411
-0.2,-0.2,0.6,-0.34906585039886584,-0.5235987755982988,0.34906585039886606,1.1891598,1.630839,0.29185832,0.24239929,0.23270386,0.6753567,0.5002342,-0.38648105,1.4477041,-0.27656773,-0.6693562,0.24971616,1.2283105,0.92360276
-0.2,-0.2,0.6,-0.34906585039886584,-0.5235987755982988,0.34906585039886606,1.182066,1.6166996,0.30276194,0.20798105,0.22190711,0.6400609,0.5363311,-0.40215373,1.4593059,-0.29253644,-0.72260624,0.23820977,1.260274,1.1355903
-0.2,-0.2,0.6,-0.34906585039886584,-0.5235987755982988,0.34906585039886606,1.1704285,1.6092644,0.31565082,0.18880124,0.20416299,0.71420133,0.51128006,-0.39311704,1.4590086,-0.26361373,-0.65838015,0.24150066,1.2467557,0.97720146
-0.2,-0.2,0.6,-0.34906585039886584,-0.5235987755982988,0.34906585039886606,1.1808703,1.6208901,0.27724975,0.17843123,0.26566023,0.67012745,0.52642953,-0.40399152,1.4621418,-0.25243497,-0.73942643,0.2405157,1.2429991,1.133008
-0.2,-0.2,0.6,-0.34906585039886584,-0.5235987755982988,0.34906585039886606,1.2245501,1.6173753,0.28173226,0.16679844,0.24157454,0.6536832,0.49226877,-0.39768302,1.4602959,-0.25565687,-0.758447,0.23160705,1.2365369,0.9306542
-0.2,-0.2,0.6,-0.34906585039886584,-0.5235987755982988,0.34906585039886606,1.1595567,1.6175655,0.26659083,0.2573828,0.22326313,0.6650418,0.5814763,-0.40351108,1.4564308,-0.24556662,-0.673185,0.24745177,1.2210366,1.2189671
-0.2,-0.2,0.6,-0.34906585039886584,-0.5235987755982988,0.34906585039886606,1.1997606,1.6159189,0.28363276,0.20848654,0.24185927,0.6714025,0.51632637,-0.39323008,1.4639354,-0.26144597,-0.6637287,0.24990317,1.2320879,0.8443565
-0.2,-0.2,0.6,-0.34906585039886584,-0.5235987755982988,0.34906585039886606,1.2093571,1.6129689,0.273905,0.25003788,0.22597826,0.66475254,0.46556503,-0.40131983,1.4676045,-0.2636,-0.70997185,0.20866022,1.2477245,0.98836815
-0.2,-0.2,0.6,-0.34906585039886584,-0.5235987755982988,0.34906585039886606,1.181824,1.6203092,0.29061627,0.19923702,0.24527052,0.62340015,0.5975167,-0.39413142,1.4594232,-0.24199302,-0.711869,0.21884419,1.2330513,1.1396897
-0.2,-0.2,0.6,-0.34906585039886584,-0.5235987755982988,0.34906585039886606,1.1890497,1.6191711,0.2943911,0.24807394,0.1959736,0.661462,0.5035725,-0.39696652,1.4610748,-0.27492,-0.6597016,0.21894741,1.2292856,1.0355515
-0.2,-0.2,0.6,-0.34906585039886584,-0.5235987755982988,0.34906585039886606,1.2118963,1.6214426,0.2624528,0.26678512,0.23425503,0.65778244,0.5391413,-0.39028767,1.4655628,-0.28522727,-0.6544841,0.25173095,1.2255808,1.1577588
-0.2,-0.2,0.6,-0.34906585039886584,-0.5235987755982988,0.34906585039886606,1.1942284,1.6222636,0.27604863,0.21946618,0.23912957,0.68939334,0.4967957,-0.40010113,1.4550114,-0.2553494,-0.66275907,0.21539842,1.2354352,0.97057956
-0.2,-0.2,0.6,-0.34906585039886584,-0.5235987755982988,0.34906585039886606,1.188445,1.6355633,0.29725176,0.23427401,0.25630534,0.7076026,0.52910024,-0.39309764,1.4511548,-0.2679969,-0.66600275,0.24050164,1.2497832,0.9865034
-0.2,-0.2,0.6,-0.34906585039886584,-0.5235987755982988,0.34906585039886606,1.216486,1.5918139,0.26531565,0.20724119,0.229559,0.67176574,0.4870817,-0.4082156,1.4532723,-0.25804466,-0.6793274,0.24049398,1.2334367,0.96374977
-0.2,-0.2,0.6,-0.34906585039886584,-0.5235987755982988,0.34906585039886606,1.205695,1.6092877,0.28617004,0.24171643,0.25671113,0.6354277,0.54134846,-0.39242765,1.4429799,-0.24475782,-0.6693913,0.22046517,1.2303461,0.9403052
-0.2,-0.2,0.6,-0.34906585039886584,-0.5235987755982988,0.34906585039886606,1.1776061,1.6401196,0.29646295,0.19130036,0.24146396,0.63536453,0.53396255,-0.39171627,1.4641714,-0.25192386,-0.72450125,0.22830576,1.2219172,1.0821352
-0.2,-0.2,0.6,-0.34906585039886584,-0.5235987755982988,0.34906585039886606,1.2067184,1.6126243,0.3010926,0.23302111,0.23735332,0.6748701,0.5599749,-0.4116818,1.4600753,-0.24757777,-0.6840398,0.21712723,1.2376485,0.9449809
-0.2,-0.2,0.6,-0.34906585039886584,-0.5235987755982988,0.34906585039886606,1.199717,1.6192712,0.26346484,0.23881704,0.23051532,0.64968264,0.54999375,-0.3895666,1.4521667,-0.2483255,-0.64649343,0.24805765,1.2229439,1.1092002
-0.2,-0.2,0.6,-0.34906585039886584,-0.5235987755982988,0.34906585039886606,1.2212507,1.6059847,0.27373466,0.28245217,0.17616361,0.66825366,0.5156946,-0.3920408,1.4626237,-0.27250642,-0.6315812,0.23959005,1.235725,1.0424682
-0.2,-0.2,0.6,-0.34906585039886584,-0.5235987755982988,0.34906585039886606,1.1733578,1.6299529,0.28084376,0.23295987,0.26323098,0.68106085,0.48970532,-0.39237702,1.4637896,-0.25923124,-0.66710174,0.24189614,1.2614844,1.204224
-0.2,-0.2,0.6,-0.34906585039886584,-0.5235987755982988,0.34906585039886606,1.189841,1.6445291,0.27293375,0.2424639,0.19802728,0.65817416,0.55067754,-0.4005793,1.4715034,-0.26387623,-0.6999182,0.23757613,1.2276722,1.0084788
-0.2,-0.2,0.6,-0.34906585039886584,-0.5235987755982988,0.34906585039886606,1.2087129,1.6217446,0.25896856,0.22104745,0.22242326,0.64234406,0.5330643,-0.39499643,1.4478111,-0.25693622,-0.672322,0.23080286,1.2300034,1.0893462
-0.2,-0.2,0.6,-0.34906585039886584,-0.5235987755982988,0.34906585039886606,1.216655,1.6041623,0.29288936,0.21855685,0.2561319,0.6653187,0.5774453,-0.39356625,1.4598353,-0.24468006,-0.6655049,0.21908465,1.2214032,1.1614419
-0.2,-0.2,0.6,-0.34906585039886584,-0.5235987755982988,0.34906585039886606,1.1853653,1.6485277,0.29887673,0.23155253,0.23716806,0.63421136,0.49896303,-0.3907893,1.4568557,-0.24211225,-0.66446996,0.23706995,1.2305675,0.93641895
-0.2,-0.2,0.6,-0.34906585039886584,-0.5235987755982988,0.34906585039886606,1.1868534,1.6242541,0.29947165,0.23459493,0.22613572,0.68257624,0.53550977,-0.39999112,1.4595693,-0.24909486,-0.64434606,0.25546342,1.2336574,1.2432692
-0.2,-0.2,0.6,-0.34906585039886584,-0.5235987755982988,0.34906585039886606,1.2149333,1.6267838,0.29804555,0.22150236,0.26500347,0.69382846,0.5473855,-0.3876633,1.4521166,-0.25693667,-0.6440633,0.22852437,1.2410849,1.0156687
-0.2,-0.2,0.6,-0.34906585039886584,-0.5235987755982988,0.34906585039886606,1.2165517,1.6150337,0.30330068,0.28360894,0.24775757,0.67310816,0.5600857,-0.40253228,1.449798,-0.2743436,-0.6282306,0.24956569,1.2426287,1.050801
-0.2,-0.2,0.6,-0.34906585039886584,-0.5235987755982988,0.34906585039886606,1.1619653,1.6259972,0.27475533,0.25809515,0.272695,0.6829281,0.5113266,-0.39878365,1.4594913,-0.26714212,-0.6413335,0.24566032,1.211072,0.8044679
-0.2,-0.2,0.6,-0.34906585039886584,-0.5235987755982988,0.34906585039886606,1.1838506,1.6247911,0.29167193,0.23324405,0.28290838,0.686658,0.5424214,-0.40143767,1.4656258,-0.26565212,-0.68577754,0.21226981,1.2235891,0.98028374
-0.2,-0.2,0.6,-0.34906585039886584,-0.5235987755982988,0.34906585039886606,1.2174797,1.6214193,0.26266736,0.22043028,0.23336099,0.6562885,0.5046305,-0.38717473,1.4570327,-0.27978384,-0.6915589,0.26344144,1.2305546,0.9535501
-0.2,-0.2,0.6,-0.34906585039886584,-0.5235987755982988,0.34906585039886606,1.2243677,1.6318218,0.2559678,0.24611236,0.23689982,0.65999424,0.5459402,-0.39187717,1.4517627,-0.25500527,-0.6778936,0.22347188,1.2297465,0.98578775
-0.2,-0.2,0.6,-0.34906585039886584,-0.5235987755982988,0.34906585039886606,1.198651,1.6312263,0.2544161,0.2134844,0.2574096,0.6517677,0.46008593,-0.3982777,1.451606,-0.26699436,-0.7495423,0.2270481,1.244179,0.9638098
-0.2,-0.2,0.6,-0.34906585039886584,-0.5235987755982988,0.34906585039886606,1.160944,1.6058898,0.28927338,0.22450428,0.24611494,0.6528595,0.4839407,-0.39580515,1.4601978,-0.25406253,-0.67987216,0.23168622,1.2421422,0.8534944
-0.2,-0.2,0.6,-0.34906585039886584,-0.5235987755982988,0.34906585039886606,1.1582215,1.6131936,0.2779879,0.22136049,0.21550864,0.65144116,0.5325138,-0.41426656,1.4484752,-0.23661193,-0.6841856,0.24586518,1.2123173,0.9870893
-0.2,-0.2,0.6,-0.34906585039886584,-0.5235987755982988,0.34906585039886606,1.2185061,1.6311022,0.2747387,0.23234816,0.23086879,0.6766398,0.5151719,-0.39077878,1.4636428,-0.25229698,-0.6441117,0.2364148,1.2262642,1.0632464
-0.2,-0.2,0.6,-0.34906585039886584,-0.5235987755982988,0.34906585039886606,1.1677841,1.6016835,0.28111017,0.2403776,0.24860683,0.67878604,0.5425999,-0.39246443,1.456317,-0.25575814,-0.6501321,0.233196,1.2226566,0.9761869
-0.2,-0.2,0.6,-0.34906585039886584,-0.5235987755982988,0.34906585039886606,1.1842502,1.6050323,0.25481126,0.2379137,0.2953291,0.631102,0.53742385,-0.3960453,1.4659736,-0.25733376,-0.70024437,0.24278866,1.251504,0.87803787
-0.2,-0.2,0.6,-0.34906585039886584,-0.5235987755982988,0.34906585039886606,1.1657687,1.6177642,0.2832965,0.22270201,0.20132732,0.67119163,0.53930175,-0.3943992,1.4633763,-0.26835567,-0.72942066,0.21920776,1.2416424,1.0043514
-0.2,-0.2,0.6,-0.34906585039886584,-0.5235987755982988,0.34906585039886606,1.1572759,1.6143624,0.2971431,0.2777799,0.21841897,0.662248,0.5218543,-0.388971,1.4640802,-0.24915832,-0.62819386,0.22864124,1.2229161,1.0751078
-0.2,-0.2,0.6,-0.34906585039886584,-0.5235987755982988,0.34906585039886606,1.1797898,1.6324775,0.30671525,0.21796763,0.23620903,0.6644839,0.4907477,-0.39754054,1.4584614,-0.2633428,-0.65607727,0.2387993,1.2454035,0.89326537
-0.2,-0.2,0.6,-0.34906585039886584,-0.5235987755982988,0.34906585039886606,1.1691025,1.6082561,0.28830945,0.27072734,0.21282771,0.6859655,0.5125142,-0.39090672,1.4548682,-0.24627385,-0.6352692,0.24108844,1.2498277,0.99870825
-0.2,-0.2,0.6,-0.34906585039886584,-0.5235987755982988,0.34906585039886606,1.2009608,1.6269937,0.28957036,0.20805131,0.24398933,0.6473863,0.5397071,-0.38886973,1.4614922,-0.2678293,-0.68771535,0.23620714,1.2376235,0.99452865
-0.2,-0.2,0.6,-0.34906585039886584,-0.5235987755982988,0.34906585039886606,1.2124474,1.6297376,0.30137357,0.18158302,0.23959254,0.6426046,0.49123904,-0.39190328,1.4586407,-0.27132377,-0.6863905,0.24515301,1.2274754,0.9591646
-0.2,-0.2,0.6,-0.34906585039886584,-0.5235987755982988,0.34906585039886606,1.1515751,1.6225069,0.28262565,0.25533637,0.22194679,0.6930982,0.5035619,-0.39133275,1.4717288,-0.2780843,-0.65432185,0.25192624,1.2342672,1.0305972
-0.2,-0.2,0.6,-0.34906585039886584,-0.5235987755982988,0.34906585039886606,1.2207893,1.6123433,0.25590456,0.2556146,0.20896997,0.63680077,0.4189562,-0.3979509,1.4675353,-0.26852039,-0.6686206,0.23356411,1.2216297,1.0077266
-0.2,-0.2,0.6,-0.34906585039886584,-0.5235987755982988,0.34906585039886606,1.2189693,1.6205099,0.26938748,0.18850386,0.23444165,0.6913174,0.5150689,-0.40146482,1.4669048,-0.2695249,-0.7063853,0.23255734,1.2444545,1.1394155
-0.2,-0.2,0.6,-0.34906585039886584,-0.5235987755982988,0.34906585039886606,1.1927344,1.6162928,0.28455263,0.22243486,0.21490377,0.6657718,0.51179284,-0.38689506,1.4484766,-0.27155218,-0.66777277,0.21882977,1.2519014,1.3057681
-0.2,-0.2,0.6,-0.34906585039886584,-0.5235987755982988,0.34906585039886606,1.1911414,1.6192868,0.27117854,0.23751403,0.23253158,0.64060163,0.5019972,-0.39953357,1.4571178,-0.2501931,-0.72924864,0.2219783,1.2278436,1.1764265
-0.2,-0.2,0.6,-0.34906585039886584,-0.5235987755982988,0.34906585039886606,1.1956735,1.6245714,0.26160887,0.26570496,0.21559052,0.66717875,0.5471667,-0.394535,1.4554789,-0.28746653,-0.66260237,0.22359666,1.2336451,0.909823
-0.2,-0.2,0.6,-0.34906585039886584,-0.5235987755982988,0.34906585039886606,1.2135576,1.6372739,0.29733112,0.20557246,0.30375877,0.6757321,0.56114256,-0.38207,1.4560503,-0.24051751,-0.65287507,0.22488293,1.2423048,0.90178686
-0.2,-0.2,0.6,-0.34906585039886584,-0.5235987755982988,0.34906585039886606,1.1720543,1.6259115,0.2919631,0.23086372,0.20199609,0.6758824,0.51805496,-0.40235585,1.4597365,-0.25634697,-0.6788095,0.23685226,1.2327087,1.2564253
-0.2,-0.2,0.6,-0.34906585039886584,-0.5235987755982988,0.34906585039886606,1.2375699,1.6086545,0.25313056,0.2612112,0.23637676,0.67867696,0.5148977,-0.3997283,1.4606276,-0.2849218,-0.6001456,0.23137799,1.2256595,0.9677913
-0.2,-0.2,0.6,-0.34906585039886584,-0.5235987755982988,0.34906585039886606,1.1701814,1.6054361,0.34537777,0.21436101,0.24103762,0.69528073,0.48045757,-0.39723614,1.4540892,-0.23013262,-0.6268954,0.20887408,1.2447869,1.0157589
-0.2,-0.2,0.6,-0.34906585039886584,-0.5235987755982988,0.34906585039886606,1.2152538,1.609553,0.30782735,0.21913034,0.2345469,0.7168896,0.5551943,-0.39650568,1.4576743,-0.23760837,-0.6472033,0.25525245,1.2412068,0.8535041
-0.2,-0.2,0.6,-0.34906585039886584,-0.5235987755982988,0.34906585039886606,1.2082689,1.6073078,0.2787368,0.25442502,0.24439692,0.63592005,0.55402327,-0.39561224,1.4630566,-0.27784997,-0.6621262,0.23227541,1.2318099,1.3410524
-0.2,-0.2,0.6,-0.34906585039886584,-0.5235987755982988,0.34906585039886606,1.1333416,1.6330035,0.2697576,0.24349076,0.21441565,0.637422,0.52131295,-0.40515974,1.4599447,-0.26033804,-0.7096662,0.22453927,1.2440726,1.1923306
-0.2,-0.2,0.6,-0.34906585039886584,-0.5235987755982988,0.34906585039886606,1.16751,1.6283578,0.27269933,0.23101227,0.2308185,0.6522754,0.5139074,-0.38847312,1.457471,-0.25063953,-0.6931537,0.22247219,1.2486842,0.9143652
-0.2,-0.2,0.6,-0.34906585039886584,-0.5235987755982988,0.34906585039886606,1.1814101,1.6113945,0.27816096,0.24407306,0.20812556,0.6823469,0.5442509,-0.40454295,1.4480191,-0.25272098,-0.67468107,0.250099,1.2222464,0.9617209
-0.2,-0.2,0.6,-0.34906585039886584,-0.5235987755982988,0.34906585039886606,1.1981614,1.6227719,0.30496958,0.22431302,0.2873848,0.6632751,0.53725016,-0.4010169,1.4465055,-0.26993626,-0.63965285,0.22600028,1.2229824,1.0134733
-0.2,-0.2,0.6,-0.34906585039886584,-0.5235987755982988,0.34906585039886606,1.189392,1.6142535,0.26002964,0.30851364,0.19012554,0.648348,0.4776779,-0.38765094,1.4501129,-0.25124338,-0.6409698,0.23596954,1.2407585,0.9400425
-0.2,-0.2,0.6,-0.34906585039886584,-0.5235987755982988,0.34906585039886606,1.1880765,1.623339,0.2817641,0.23058297,0.2393776,0.6795222,0.5749697,-0.40988463,1.4622794,-0.22170357,-0.6340696,0.23705997,1.2290661,1.1589236
-0.2,-0.2,0.6,-0.34906585039886584,-0.5235987755982988,0.34906585039886606,1.2125126,1.6271315,0.2630683,0.31649348,0.18504634,0.68759423,0.53178054,-0.40140432,1.4583968,-0.2607557,-0.62973696,0.24309924,1.2308708,0.949712
-0.2,-0.2,0.6,-0.34906585039886584,-0.5235987755982988,0.34906585039886606,1.1946235,1.6311166,0.30167097,0.2436469,0.2525771,0.6587633,0.5851102,-0.3904811,1.4672935,-0.25398666,-0.6693611,0.23220424,1.2473229,1.1418657
-0.2,-0.2,0.6,-0.34906585039886584,-0.5235987755982988,0.34906585039886606,1.179744,1.629857,0.29043865,0.20726264,0.24232262,0.68122655,0.52816427,-0.38849732,1.4503213,-0.24709089,-0.6615331,0.23658994,1.2304747,0.9718279
-0.2,-0.2,0.6,-0.34906585039886584,-0.5235987755982988,0.34906585039886606,1.2015072,1.6049612,0.27482525,0.19291446,0.260439,0.6792491,0.4814177,-0.39038706,1.4564776,-0.2685263,-0.6664549,0.23432118,1.2176802,0.97671276
-0.2,-0.2,0.6,-0.34906585039886584,-0.5235987755982988,0.34906585039886606,1.1870679,1.6344622,0.2603134,0.29510033,0.22525106,0.64091915,0.5230168,-0.39450788,1.4622183,-0.2578824,-0.67954254,0.22591163,1.2357559,1.0627296
-0.2,-0.2,0.6,-0.34906585039886584,-0.5235987755982988,0.34906585039886606,1.1830225,1.610001,0.2818651,0.2299521,0.24241705,0.6670191,0.49841377,-0.39160177,1.4700749,-0.24561326,-0.66527236,0.24813884,1.2400832,0.79432213
-0.2,-0.2,0.6,-0.34906585039886584,-0.5235987755982988,0.34906585039886606,1.1678257,1.6249621,0.25813606,0.2944618,0.27127075,0.6650441,0.5946263,-0.39220232,1.4501194,-0.22969253,-0.6475135,0.20870352,1.2356015,0.9873485
-0.2,-0.2,0.6,-0.34906585039886584,-0.5235987755982988,0.34906585039886606,1.2048869,1.6352005,0.31134772,0.2287879,0.24980026,0.66451705,0.46648082,-0.3830581,1.4554787,-0.27092272,-0.6427929,0.23807798,1.2456204,1.0940163
-0.2,-0.2,0.6,-0.34906585039886584,-0.5235987755982988,0.34906585039886606,1.1963512,1.6179267,0.28548434,0.16854143,0.26965174,0.64726055,0.5635436,-0.39727598,1.4611305,-0.2737338,-0.6720041,0.23640344,1.2210633,1.0390991
-0.2,-0.2,0.6,-0.34906585039886584,-0.5235987755982988,0.34906585039886606,1.1976931,1.619804,0.28553393,0.22987658,0.23914285,0.61670876,0.50930643,-0.38954037,1.4571389,-0.26268882,-0.6735581,0.21686153,1.2389113,0.95991886
-0.2,-0.2,0.6,-0.34906585039886584,-0.5235987755982988,0.34906585039886606,1.1753759,1.6443683,0.30215922,0.18988395,0.19796945,0.7018801,0.5291755,-0.3865342,1.4567791,-0.26972294,-0.65957254,0.23821956,1.2192314,0.94585365
-0.2,-0.2,0.6,-0.34906585039886584,-0.5235987755982988,0.34906585039886606,1.1888264,1.6397202,0.27134994,0.26473057,0.23636831,0.67386293,0.48195708,-0.4033414,1.4634036,-0.27434698,-0.68905413,0.21548547,1.2329264,1.0728946
-0.2,-0.2,0.6,-0.34906585039886584,-0.5235987755982988,0.34906585039886606,1.1944894,1.6099244,0.2727019,0.23423165,0.2799524,0.6832307,0.5052852,-0.38736677,1.4529448,-0.27350184,-0.63611174,0.2363621,1.2272415,1.0531805
-0.2,-0.2,0.6,-0.34906585039886584,-0.5235987755982988,0.34906585039886606,1.1965069,1.6251031,0.28885555,0.24046054,0.20956615,0.6788033,0.6173001,-0.3976383,1.4678302,-0.24241278,-0.6871066,0.21787098,1.239785,1.0294788
-0.2,-0.2,0.6,-0.34906585039886584,-0.5235987755982988,0.34906585039886606,1.174653,1.6272012,0.2817055,0.22989798,0.16165042,0.69508195,0.47834632,-0.39202338,1.4574935,-0.28861937,-0.6605942,0.24749619,1.2305503,1.1391549
-0.2,-0.2,0.6,-0.34906585039886584,-0.5235987755982988,0.34906585039886606,1.20993,1.6132983,0.26791704,0.25541857,0.28652665,0.671638,0.54985595,-0.3884174,1.4493512,-0.24715954,-0.63450176,0.23631613,1.2029307,1.0215186
-0.2,-0.2,0.6,-0.34906585039886584,-0.5235987755982988,0.34906585039886606,1.2154533,1.605495,0.2744171,0.21633579,0.2087288,0.68301344,0.5005636,-0.39933503,1.449914,-0.26364493,-0.6637969,0.2457361,1.2373837,1.1300054
-0.2,-0.2,0.6,-0.34906585039886584,-0.5235987755982988,0.34906585039886606,1.2070599,1.6107922,0.3150127,0.20501941,0.2211021,0.6778304,0.5462396,-0.39264908,1.4532757,-0.25672823,-0.64512753,0.2594061,1.237008,1.04413
-0.2,-0.2,0.6,-0.34906585039886584,-0.5235987755982988,0.34906585039886606,1.1898062,1.6263095,0.28565,0.21566428,0.26674536,0.6472574,0.5546099,-0.39544275,1.4486473,-0.2557912,-0.7043672,0.23397541,1.2406113,0.87931514
-0.2,-0.2,0.6,-0.34906585039886584,-0.5235987755982988,0.34906585039886606,1.193102,1.6366411,0.26891553,0.22383638,0.19726457,0.67201847,0.56991935,-0.40159345,1.4510199,-0.26382136,-0.67648405,0.2611875,1.232796,1.0780238
-0.2,-0.2,0.6,-0.34906585039886584,-0.5235987755982988,0.34906585039886606,1.1985112,1.6448805,0.26749736,0.26504013,0.20771842,0.6503824,0.48680225,-0.38922584,1.4597546,-0.28449932,-0.6719759,0.24558458,1.2305444,1.258682
-0.2,-0.2,0.6,-0.34906585039886584,-0.5235987755982988,0.34906585039886606,1.19465,1.6261542,0.30144182,0.20317563,0.26857865,0.67409503,0.5275494,-0.39370152,1.4595045,-0.24546726,-0.6554201,0.22796604,1.2303069,1.2509975
-0.2,-0.2,0.6,-0.34906585039886584,-0.5235987755982988,0.34906585039886606,1.1867727,1.6254258,0.27331245,0.25517535,0.26923117,0.66014606,0.5274583,-0.3862965,1.4643064,-0.2322869,-0.6755298,0.23567015,1.2274776,0.9419643
-0.2,-0.2,0.6,-0.34906585039886584,-0.5235987755982988,0.34906585039886606,1.2150886,1.6199523,0.28377748,0.24005851,0.20088902,0.6738912,0.49765325,-0.38728586,1.4651598,-0.27205905,-0.64925766,0.22318444,1.2277974,1.0757729
-0.2,-0.2,0.6,-0.34906585039886584,-0.5235987755982988,0.34906585039886606,1.2003331,1.6244209,0.2587665,0.30345532,0.21438287,0.6250156,0.49899983,-0.40544203,1.4604148,-0.26127973,-0.65153795,0.23088719,1.225967,1.0561044
-0.2,-0.2,0.6,-0.34906585039886584,-0.5235987755982988,0.34906585039886606,1.1744441,1.64684,0.26468146,0.25829282,0.1988993,0.6669121,0.52559114,-0.39568853,1.4715313,-0.2758422,-0.7071857,0.2307034,1.2365097,1.0676942
-0.2,-0.2,0.6,-0.34906585039886584,-0.5235987755982988,0.34906585039886606,1.150993,1.6206057,0.29649892,0.22567384,0.22368571,0.6277205,0.47237584,-0.38888165,1.4569004,-0.26538584,-0.69233674,0.24776815,1.228031,1.0525435
-0.2,-0.2,0.6,-0.34906585039886584,-0.5235987755982988,0.34906585039886606,1.1699883,1.6312681,0.3026309,0.19652747,0.26931894,0.67146397,0.52156323,-0.39637613,1.456465,-0.28052342,-0.65732753,0.2637933,1.2315851,1.0286447
-0.2,-0.2,0.6,-0.34906585039886584,-0.5235987755982988,0.34906585039886606,1.1814605,1.6359248,0.276371,0.2766865,0.23568934,0.6512773,0.53973174,-0.39685777,1.4585592,-0.27462533,-0.66282225,0.25167283,1.2103901,0.9260165
-0.2,-0.2,0.6,-0.34906585039886584,-0.5235987755982988,0.34906585039886606,1.178115,1.6294314,0.3050822,0.21571685,0.20258209,0.6369193,0.5435183,-0.39111203,1.4410663,-0.25036764,-0.65175563,0.2574768,1.2420863,1.0417606
-0.2,-0.2,0.6,-0.34906585039886584,-0.5235987755982988,0.34906585039886606,1.2210655,1.6460882,0.3064691,0.23785135,0.19859378,0.64443636,0.5575184,-0.39037135,1.4622027,-0.24707541,-0.67793876,0.21690181,1.2467257,0.913167
-0.2,-0.2,0.6,-0.34906585039886584,-0.5235987755982988,0.34906585039886606,1.195533,1.657171,0.27270654,0.22881076,0.23021388,0.6766022,0.5378693,-0.39584485,1.4550021,-0.25962633,-0.670685,0.24411488,1.2241033,0.98534554
-0.2,-0.2,0.6,-0.34906585039886584,-0.5235987755982988,0.34906585039886606,1.1741973,1.6485034,0.2861362,0.19337855,0.25318536,0.67963254,0.4980306,-0.38455805,1.4623672,-0.26422286,-0.7277994,0.22968836,1.2197369,1.0336906
-0.2,-0.2,0.6,-0.34906585039886584,-0.5235987755982988,0.34906585039886606,1.2176256,1.6229208,0.26557335,0.17632715,0.2914514,0.67050177,0.54668605,-0.39055154,1.4591031,-0.28759268,-0.69423944,0.25155202,1.2411654,0.87381715
-0.2,-0.2,0.6,-0.34906585039886584,-0.5235987755982988,0.34906585039886606,1.171349,1.5858676,0.28702316,0.19392052,0.27640086,0.6777334,0.53390145,-0.3987931,1.4521484,-0.25653523,-0.6360674,0.26792157,1.2196342,1.0163245
-0.2,-0.2,0.6,-0.34906585039886584,-0.5235987755982988,0.34906585039886606,1.1825233,1.6169848,0.28212512,0.24741724,0.22673376,0.6865294,0.48912302,-0.39066324,1.4605798,-0.2537692,-0.6688158,0.25087848,1.2257226,1.0075139
-0.2,-0.2,0.6,-0.34906585039886584,-0.5235987755982988,0.34906585039886606,1.1810756,1.6066309,0.28215182,0.24477807,0.20736015,0.6596185,0.447497,-0.39444074,1.4592873,-0.26980147,-0.66823465,0.24232118,1.2419955,1.0970902
-0.2,-0.2,0.6,-0.34906585039886584,-0.5235987755982988,0.34906585039886606,1.2013007,1.6190065,0.26955932,0.25044367,0.21079974,0.71992034,0.4986362,-0.40434813,1.451745,-0.23953202,-0.63074404,0.22779419,1.2331083,0.93609
-0.2,-0.2,0.6,-0.34906585039886584,-0.5235987755982988,0.34906585039886606,1.1932298,1.6338769,0.23906788,0.22313121,0.24478427,0.68444806,0.59736997,-0.39957014,1.4599133,-0.25663707,-0.74436146,0.25793225,1.2308697,0.9440534
-0.2,-0.2,0.6,-0.34906585039886584,-0.5235987755982988,0.34906585039886606,1.2436742,1.6306913,0.27973786,0.21930464,0.17498663,0.68842113,0.54013896,-0.38776562,1.4526163,-0.23514274,-0.653873,0.2307955,1.2488256,0.994714
-0.2,-0.2,0.6,-0.34906585039886584,-0.5235987755982988,0.34906585039886606,1.2112272,1.6182345,0.26243758,0.24059665,0.23413989,0.6658193,0.43932828,-0.4004113,1.450421,-0.20988964,-0.63354814,0.19968252,1.2270536,1.1576916
-0.2,-0.2,0.6,-0.34906585039886584,-0.5235987755982988,0.34906585039886606,1.1729537,1.6365905,0.2820725,0.22553463,0.23290934,0.62931126,0.5140394,-0.39983162,1.449478,-0.24082816,-0.67026913,0.23257026,1.2294785,1.1004131
-0.2,-0.2,0.6,-0.34906585039886584,-0.5235987755982988,0.34906585039886606,1.2266316,1.637034,0.29240644,0.2419346,0.22512461,0.6599969,0.5522546,-0.40371582,1.462126,-0.26659822,-0.6740852,0.22782516,1.2376957,1.1610057
-0.2,-0.2,0.6,-0.34906585039886584,-0.5235987755982988,0.34906585039886606,1.1965274,1.6107175,0.31801042,0.15216258,0.19358851,0.70548713,0.5135494,-0.39193574,1.4555027,-0.27534842,-0.666196,0.24206199,1.2215453,1.1079144
-0.2,-0.2,0.6,-0.34906585039886584,-0.5235987755982988,0.34906585039886606,1.1854728,1.6349602,0.2860253,0.21537027,0.2298156,0.6893981,0.5277412,-0.38700932,1.4485543,-0.26593503,-0.65861523,0.241912,1.2238702,1.2125512
-0.2,-0.2,0.6,-0.34906585039886584,-0.5235987755982988,0.34906585039886606,1.2020967,1.6346028,0.3112528,0.22418316,0.22522601,0.6635039,0.5561331,-0.3856195,1.4594821,-0.25039235,-0.6650282,0.2358435,1.2532665,1.1500673
-0.2,-0.2,0.6,-0.34906585039886584,-0.5235987755982988,0.34906585039886606,1.1826211,1.6336008,0.31101727,0.22462402,0.21301256,0.68015796,0.51339066,-0.40282172,1.4543935,-0.24317808,-0.6490169,0.25105882,1.2383409,0.9436059
-0.2,-0.2,0.6,-0.34906585039886584,-0.5235987755982988,0.34906585039886606,1.2014012,1.6166333,0.26137888,0.2807903,0.25151843,0.64284253,0.52779305,-0.39155832,1.4548935,-0.24710256,-0.64353096,0.24086945,1.2533636,1.0705521
-0.2,-0.2,0.6,-0.34906585039886584,-0.5235987755982988,0.34906585039886606,1.1933241,1.6256995,0.29383525,0.19059408,0.19460462,0.66349274,0.5089644,-0.39623109,1.4584285,-0.27323753,-0.69295305,0.25097466,1.2276136,1.0020366
-0.2,-0.2,0.6,-0.34906585039886584,-0.5235987755982988,0.34906585039886606,1.2297065,1.6351795,0.28318718,0.24336678,0.21287382,0.6779144,0.5100169,-0.39657208,1.4603137,-0.26863632,-0.6694717,0.23686501,1.2354059,1.1060096
-0.2,-0.2,0.6,-0.34906585039886584,-0.5235987755982988,0.34906585039886606,1.1617907,1.6156344,0.29066607,0.27696198,0.19863103,0.6280005,0.56011564,-0.3996045,1.4612137,-0.26010594,-0.644935,0.25911194,1.2308304,0.91353434
-0.2,-0.2,0.6,-0.34906585039886584,-0.5235987755982988,0.34906585039886606,1.2220695,1.6287322,0.24256927,0.28473783,0.20604374,0.65225345,0.5424291,-0.39396524,1.4540639,-0.25224495,-0.6458474,0.22129758,1.2343678,1.0746081
-0.2,-0.2,0.6,-0.34906585039886584,-0.5235987755982988,0.34906585039886606,1.1933389,1.6151872,0.2781095,0.25865832,0.25149313,0.6674162,0.54900205,-0.4001168,1.4558922,-0.22658698,-0.6589768,0.24820001,1.2186929,0.9872366
-0.2,-0.2,0.6,-0.34906585039886584,-0.5235987755982988,0.34906585039886606,1.163198,1.6465206,0.32278576,0.22821392,0.22140089,0.6702981,0.54302895,-0.39124444,1.4578668,-0.28321242,-0.63167965,0.26883373,1.2311983,1.3856375
-0.2,-0.2,0.6,-0.34906585039886584,-0.5235987755982988,0.34906585039886606,1.2047695,1.6284759,0.26344493,0.18903069,0.21277003,0.702119,0.51246727,-0.39521343,1.4607857,-0.27458742,-0.68563724,0.22688428,1.2249999,0.9979913
-0.2,-0.2,0.6,-0.34906585039886584,-0.5235987755982988,0.34906585039886606,1.2121924,1.6345546,0.28214613,0.23617737,0.23393607,0.621487,0.55096734,-0.39441743,1.466011,-0.2566347,-0.6897269,0.23202538,1.2183694,1.0494255
-0.2,-0.2,0.6,-0.34906585039886584,-0.5235987755982988,0.34906585039886606,1.1952124,1.6245754,0.26907393,0.21994042,0.24040824,0.66497886,0.52182955,-0.3903729,1.4553412,-0.2503714,-0.6908595,0.22374132,1.2412691,0.9693049
-0.2,-0.2,0.6,-0.34906585039886584,-0.5235987755982988,0.34906585039886606,1.1815376,1.6349125,0.2972727,0.17135017,0.25059605,0.66385996,0.5131191,-0.37394154,1.4653866,-0.27447155,-0.68404543,0.24855593,1.2438012,1.1007912
-0.2,-0.2,0.6,-0.34906585039886584,-0.5235987755982988,0.34906585039886606,1.1575459,1.6210644,0.28679022,0.27725017,0.23285286,0.6730666,0.5273313,-0.3989803,1.4589305,-0.24790277,-0.62809336,0.24859335,1.2368029,0.93921477
-0.2,-0.2,0.6,-0.34906585039886584,-0.5235987755982988,0.34906585039886606,1.153062,1.6199523,0.2464595,0.21617785,0.25646567,0.6594506,0.50536644,-0.3954566,1.4596221,-0.25179517,-0.6755482,0.25266972,1.229995,1.0626345
-0.2,-0.2,0.6,-0.34906585039886584,-0.5235987755982988,0.34906585039886606,1.192925,1.631093,0.26666537,0.27151302,0.23996212,0.6733827,0.5874064,-0.40159225,1.4627689,-0.22836341,-0.6348511,0.23295186,1.2350029,0.97903097
-0.2,-0.2,0.6,-0.34906585039886584,-0.5235987755982988,0.34906585039886606,1.1988498,1.6292173,0.30647808,0.2086748,0.21972068,0.6593268,0.47268823,-0.39755884,1.4604388,-0.25232068,-0.6432791,0.24956414,1.2417288,1.0979539
-0.2,-0.2,0.6,-0.34906585039886584,-0.5235987755982988,0.34906585039886606,1.1939179,1.6205885,0.2782262,0.15874894,0.24150956,0.6761245,0.5602248,-0.4075216,1.451113,-0.2519512,-0.7005574,0.2661301,1.2466309,1.0627929
-0.2,-0.2,0.6,-0.34906585039886584,-0.5235987755982988,0.34906585039886606,1.2139857,1.635532,0.2913711,0.21465069,0.2224417,0.68844736,0.6038593,-0.38540083,1.4546615,-0.26135942,-0.66332984,0.21213463,1.2263861,1.0739415
-0.2,-0.2,0.6,-0.34906585039886584,-0.5235987755982988,0.34906585039886606,1.1788229,1.6378981,0.2941802,0.18201882,0.23424497,0.67507523,0.4841714,-0.39101347,1.4576497,-0.24854861,-0.68902415,0.2331741,1.2288607,1.0775735
-0.2,-0.2,0.6,-0.34906585039886584,-0.5235987755982988,0.34906585039886606,1.1788679,1.6456859,0.26624575,0.27440968,0.19839491,0.658091,0.48675498,-0.38865632,1.4705517,-0.2566965,-0.64019406,0.26040798,1.2356825,1.0856584
-0.2,-0.2,0.6,-0.34906585039886584,-0.5235987755982988,0.34906585039886606,1.1956589,1.6344417,0.25937518,0.23778751,0.2364592,0.67862755,0.4898514,-0.4137682,1.4524719,-0.2490007,-0.6739432,0.23101434,1.2290148,1.140185
-0.2,-0.2,0.6,-0.34906585039886584,-0.5235987755982988,0.34906585039886606,1.2184931,1.6302537,0.28933182,0.21294059,0.23447347,0.66754425,0.5158173,-0.39075562,1.4552466,-0.24061066,-0.64422864,0.23428154,1.249032,1.1035652
-0.2,-0.2,0.6,-0.34906585039886584,-0.5235987755982988,0.34906585039886606,1.1851301,1.624735,0.29179475,0.22965685,0.24271584,0.6612902,0.45582137,-0.39417315,1.4612029,-0.25275663,-0.6649648,0.22265108,1.2413557,1.1543913
-0.2,-0.2,0.6,-0.34906585039886584,-0.5235987755982988,0.34906585039886606,1.181304,1.6350687,0.27904317,0.2545846,0.2078446,0.6808314,0.51998705,-0.39225143,1.4477867,-0.247178,-0.62246037,0.22897941,1.2311316,1.0617806
-0.2,-0.2,0.6,-0.34906585039886584,-0.5235987755982988,0.34906585039886606,1.198528,1.620077,0.2940124,0.27608907,0.24403143,0.6588874,0.4960109,-0.3925622,1.455532,-0.26583192,-0.61114645,0.22350551,1.2148854,1.1531912
-0.2,-0.2,0.6,-0.34906585039886584,-0.5235987755982988,0.34906585039886606,1.1997552,1.6105814,0.2507365,0.21868749,0.18950331,0.7020004,0.49189636,-0.3930079,1.4589151,-0.24772224,-0.69311047,0.23028158,1.2262734,1.162559
-0.2,-0.2,0.6,-0.34906585039886584,-0.5235987755982988,0.34906585039886606,1.2065588,1.61552,0.28047228,0.22542025,0.25728425,0.6560159,0.5055498,-0.3856736,1.4448283,-0.2634049,-0.65864134,0.23449597,1.2341322,0.972617
-0.2,-0.2,0.6,-0.34906585039886584,-0.5235987755982988,0.34906585039886606,1.1875224,1.6274068,0.2765488,0.19521198,0.24735491,0.68122005,0.54668266,-0.39204538,1.4600537,-0.24964021,-0.6843687,0.23316987,1.2245713,0.8565707
-0.2,-0.2,0.6,-0.34906585039886584,-0.5235987755982988,0.34906585039886606,1.1700499,1.6253921,0.27699444,0.24124454,0.22547133,0.6643449,0.4974699,-0.40041268,1.4640855,-0.274316,-0.6483625,0.23981963,1.2367458,1.1315545
-0.2,-0.2,0.6,-0.34906585039886584,-0.5235987755982988,0.34906585039886606,1.2035758,1.6097134,0.27203423,0.18516271,0.23601933,0.68332946,0.48111063,-0.3863998,1.4566921,-0.2467852,-0.67817014,0.2404938,1.2417994,0.8717166
-0.2,-0.2,0.6,-0.34906585039886584,-0.5235987755982988,0.34906585039886606,1.1843679,1.6193457,0.27399445,0.24641415,0.24384436,0.6546162,0.524408,-0.39469212,1.464161,-0.24742271,-0.68380076,0.25332826,1.241558,0.9903181
-0.2,-0.2,0.6,-0.34906585039886584,-0.5235987755982988,0.34906585039886606,1.2060003,1.6311564,0.25298995,0.25751963,0.22896811,0.6534632,0.56720316,-0.40024033,1.4536266,-0.25406805,-0.6430069,0.23296933,1.2391506,1.0177279
-0.2,-0.2,0.6,-0.34906585039886584,-0.5235987755982988,0.34906585039886606,1.1905938,1.6126,0.2611342,0.22875911,0.20699783,0.66718394,0.48460326,-0.40136614,1.4506077,-0.25606132,-0.68415475,0.26884183,1.2361072,1.0224223
-0.2,-0.2,0.6,-0.34906585039886584,-0.5235987755982988,0.34906585039886606,1.1783975,1.6136069,0.28012374,0.23061672,0.22154672,0.64394104,0.5040723,-0.38928428,1.457356,-0.2664613,-0.70918936,0.23172145,1.2378824,1.1603667
-0.2,-0.2,0.6,-0.34906585039886584,-0.5235987755982988,0.34906585039886606,1.1767217,1.6244459,0.26916516,0.23971139,0.2348651,0.6986169,0.482756,-0.39968342,1.4546407,-0.2483107,-0.6644156,0.2506471,1.235401,0.83671683
-0.2,-0.2,0.6,-0.34906585039886584,-0.5235987755982988,0.34906585039886606,1.1881167,1.60742,0.29127514,0.23134154,0.22047944,0.6477327,0.4707313,-0.39847007,1.456184,-0.25798807,-0.70184845,0.24406473,1.2356442,0.9275284
-0.2,-0.2,0.6,-0.34906585039886584,-0.5235987755982988,0.34906585039886606,1.1859664,1.6328917,0.26672375,0.26486525,0.25938216,0.68752944,0.50746214,-0.38800046,1.4497958,-0.26133487,-0.6337999,0.23808517,1.2263483,1.1799403
-0.2,-0.2,0.6,-0.34906585039886584,-0.5235987755982988,0.34906585039886606,1.2131772,1.6103883,0.25444445,0.2490549,0.27224252,0.6756803,0.47605053,-0.3949543,1.4587692,-0.27104983,-0.65234643,0.2351314,1.2161974,0.96091586
-0.2,-0.2,0.6,-0.34906585039886584,-0.5235987755982988,0.34906585039886606,1.21136,1.6365268,0.25211093,0.24454503,0.24828187,0.64193124,0.5460987,-0.38646024,1.4619753,-0.2755967,-0.7576493,0.22631231,1.2348459,1.0177315
-0.2,-0.2,0.6,-0.34906585039886584,-0.5235987755982988,0.34906585039886606,1.1837105,1.630251,0.30083093,0.16291046,0.2162864,0.6988031,0.5048626,-0.39356256,1.4555296,-0.26718906,-0.66273063,0.23295014,1.2237285,1.0704525
-0.2,-0.2,0.6,-0.34906585039886584,-0.5235987755982988,0.34906585039886606,1.1826581,1.641805,0.2673438,0.25003552,0.20942277,0.70190513,0.5726315,-0.38514993,1.4559703,-0.26745865,-0.6587363,0.23860745,1.2287896,1.0696291
-0.2,-0.2,0.6,-0.34906585039886584,-0.5235987755982988,0.34906585039886606,1.2098093,1.631644,0.26013136,0.21858309,0.24854846,0.62684155,0.5186746,-0.38865635,1.4548508,-0.26759082,-0.6780898,0.23191074,1.2252808,1.0622541
-0.2,-0.2,0.6,-0.34906585039886584,-0.5235987755982988,0.34906585039886606,1.1936507,1.6381894,0.26373965,0.25862274,0.22891462,0.6533034,0.54885846,-0.3965865,1.4541868,-0.25482175,-0.64268655,0.23648475,1.2308013,1.0799204
-0.2,-0.2,0.6,-0.34906585039886584,-0.5235987755982988,0.34906585039886606,1.2192351,1.6159364,0.26298848,0.18657002,0.20337309,0.6779414,0.5797655,-0.3931153,1.4516515,-0.24381031,-0.67015916,0.2640242,1.2356617,0.9978948
-0.2,-0.2,0.6,-0.34906585039886584,-0.5235987755982988,0.34906585039886606,1.2138387,1.624552,0.30448028,0.17643417,0.20922807,0.667476,0.50289184,-0.39237553,1.4629182,-0.25105795,-0.6559933,0.24744931,1.2447156,1.0449786
-0.2,-0.2,0.6,-0.34906585039886584,-0.5235987755982988,0.34906585039886606,1.1872891,1.6013913,0.28965294,0.21390022,0.25721586,0.6765533,0.5567901,-0.3888471,1.4505777,-0.2566555,-0.64181775,0.23446135,1.2242634,1.0323832
-0.2,-0.2,0.6,-0.34906585039886584,-0.5235987755982988,0.34906585039886606,1.1796148,1.6394416,0.26742598,0.24803555,0.2271107,0.6688551,0.47617084,-0.39072102,1.4506651,-0.24357885,-0.63761246,0.2254461,1.2399921,1.1115061
-0.2,-0.2,0.6,-0.34906585039886584,-0.5235987755982988,0.34906585039886606,1.2048422,1.6157883,0.29818457,0.24922371,0.26279706,0.6623317,0.5381098,-0.3977183,1.4513283,-0.27438897,-0.6543683,0.23107217,1.2278295,0.9266887
-0.2,-0.2,0.6,-0.34906585039886584,-0.5235987755982988,0.34906585039886606,1.1795088,1.6143771,0.32013848,0.20365487,0.25885105,0.64622176,0.53937984,-0.39326087,1.451723,-0.24999087,-0.6461712,0.2318045,1.2194359,0.8060044
-0.2,-0.2,0.6,-0.34906585039886584,-0.5235987755982988,0.34906585039886606,1.2190543,1.6398937,0.28555536,0.23826711,0.20508446,0.6508423,0.5039688,-0.39734516,1.4553839,-0.26509103,-0.6562108,0.21882848,1.2312073,1.0966816
-0.2,-0.2,0.6,-0.34906585039886584,-0.5235987755982988,0.34906585039886606,1.1850837,1.6151447,0.28903642,0.23576711,0.21480642,0.65624475,0.48013398,-0.39213666,1.4614694,-0.26239386,-0.6705639,0.2510439,1.2248063,1.1060356
-0.2,-0.2,0.6,-0.34906585039886584,-0.5235987755982988,0.34906585039886606,1.1696135,1.6150694,0.25355998,0.14163473,0.23833379,0.6744898,0.5580774,-0.38943255,1.451143,-0.2584512,-0.6983716,0.26352185,1.2308489,1.0148532
-0.2,-0.2,0.6,-0.34906585039886584,-0.5235987755982988,0.34906585039886606,1.1873499,1.6283481,0.257944,0.19460057,0.18556096,0.6736739,0.54483736,-0.3868796,1.4446098,-0.24661732,-0.6911185,0.25555,1.2398129,0.9914834
-0.2,-0.2,0.6,-0.34906585039886584,-0.5235987755982988,0.34906585039886606,1.2078061,1.6300887,0.29430032,0.18620141,0.24140735,0.6629786,0.5120009,-0.38471416,1.4555875,-0.24411923,-0.6470704,0.23420963,1.2211744,1.0729895
-0.2,-0.2,0.6,-0.34906585039886584,-0.5235987755982988,0.34906585039886606,1.1795589,1.6272186,0.28055117,0.20361204,0.21417534,0.6951604,0.5518472,-0.40078485,1.4505842,-0.24937864,-0.71418566,0.22231868,1.2106628,0.81321126
-0.2,-0.2,0.6,-0.34906585039886584,-0.5235987755982988,0.34906585039886606,1.2239941,1.6150824,0.27663723,0.1923459,0.2387567,0.6763537,0.52796704,-0.4026853,1.4667284,-0.24869283,-0.7401677,0.2259789,1.2511033,1.0748051
-0.2,-0.2,0.6,-0.34906585039886584,-0.5235987755982988,0.34906585039886606,1.1986606,1.6176993,0.268319,0.24978304,0.24977762,0.66918105,0.5090942,-0.39439327,1.4554559,-0.25408524,-0.66710687,0.2370829,1.2388269,0.99088067
-0.2,-0.2,0.6,-0.34906585039886584,-0.5235987755982988,0.34906585039886606,1.1667954,1.6217927,0.27974272,0.25599086,0.2385269,0.6251533,0.52466583,-0.3980101,1.4588423,-0.24715775,-0.68487495,0.23673227,1.2458079,1.1191262
-0.2,-0.2,0.6,-0.34906585039886584,-0.5235987755982988,0.34906585039886606,1.1971643,1.6094661,0.28027394,0.2343883,0.26104864,0.6952932,0.5309944,-0.39734066,1.4666322,-0.26141044,-0.6947936,0.20893711,1.2345685,0.91323346
-0.2,-0.2,0.6,-0.34906585039886584,-0.5235987755982988,0.34906585039886606,1.1849091,1.6340706,0.2797248,0.23295052,0.21573716,0.69993067,0.47346577,-0.3932552,1.4573647,-0.25373906,-0.6781134,0.20263301,1.2251897,1.1030728
-0.2,-0.2,0.6,-0.34906585039886584,-0.5235987755982988,0.34906585039886606,1.1791635,1.6315598,0.29449707,0.23953894,0.24478796,0.6291561,0.48121727,-0.39256242,1.454561,-0.25599796,-0.6633493,0.2549024,1.2401357,0.99823815
-0.2,-0.2,0.6,-0.34906585039886584,-0.5235987755982988,0.34906585039886606,1.1833631,1.632335,0.296819,0.22715196,0.26525754,0.6806023,0.54782027,-0.3928109,1.4559058,-0.2640483,-0.664977,0.24320377,1.2310114,0.9346541
-0.2,-0.2,0.6,-0.34906585039886584,-0.5235987755982988,0.34906585039886606,1.195329,1.6100389,0.27725676,0.21060242,0.27751097,0.67938244,0.49133053,-0.3876615,1.4558637,-0.2658188,-0.69126034,0.21462099,1.245049,1.0274842
-0.2,-0.2,0.6,-0.34906585039886584,-0.5235987755982988,0.34906585039886606,1.1805503,1.6236409,0.26939717,0.220177,0.2256975,0.69728863,0.5469292,-0.3904759,1.45886,-0.2538442,-0.6872322,0.21975473,1.2390902,1.1486378
-0.2,-0.2,0.6,-0.34906585039886584,-0.5235987755982988,0.34906585039886606,1.1614225,1.622618,0.31377968,0.2624799,0.29415572,0.6341704,0.5411351,-0.39049023,1.4545618,-0.25748152,-0.6245605,0.2507221,1.2436535,0.9503005
-0.2,-0.2,0.6,-0.34906585039886584,-0.5235987755982988,0.34906585039886606,1.1914009,1.6209043,0.27097446,0.2406689,0.26592195,0.68922967,0.47260505,-0.4061007,1.4511548,-0.2635494,-0.667637,0.24655597,1.2309394,0.95755345
-0.2,-0.2,0.6,-0.34906585039886584,-0.5235987755982988,0.34906585039886606,1.1500086,1.6349975,0.31701484,0.24035698,0.24102378,0.6755153,0.49734026,-0.39253423,1.4537662,-0.27067742,-0.65027565,0.2147784,1.2360902,1.1812645
-0.2,-0.2,0.6,-0.34906585039886584,-0.5235987755982988,0.34906585039886606,1.2147409,1.6148579,0.29006845,0.17799295,0.29880804,0.64687514,0.56475955,-0.40344787,1.459856,-0.26985252,-0.69505554,0.23892102,1.2292533,1.1404465
-0.2,-0.2,0.6,-0.34906585039886584,-0.5235987755982988,0.34906585039886606,1.180639,1.6236407,0.25640422,0.23925492,0.22461697,0.6699322,0.54320365,-0.38778967,1.4486517,-0.2728051,-0.6648789,0.2253446,1.2274867,0.81633735
-0.2,-0.2,0.6,-0.34906585039886584,-0.5235987755982988,0.34906585039886606,1.2174716,1.6082337,0.29640377,0.19881758,0.19863816,0.68141204,0.57121515,-0.39063284,1.4468527,-0.26225722,-0.6750601,0.23076913,1.2426058,1.015281
-0.2,-0.2,0.6,-0.34906585039886584,-0.5235987755982988,0.34906585039886606,1.2000414,1.6389673,0.2968291,0.23689464,0.21593261,0.69011635,0.48356676,-0.39881927,1.4570698,-0.23995765,-0.6393731,0.24563293,1.2346743,1.1279902
-0.2,-0.2,0.6,-0.34906585039886584,-0.5235987755982988,0.34906585039886606,1.1515564,1.6122111,0.28537917,0.26447687,0.22729984,0.64802647,0.54527074,-0.39535555,1.4657425,-0.24758056,-0.6552998,0.25651434,1.2442167,1.0436411
-0.2,-0.2,0.6,-0.34906585039886584,-0.5235987755982988,0.34906585039886606,1.1910928,1.6182085,0.2709566,0.23191436,0.25846738,0.63290167,0.50901204,-0.39089945,1.4665892,-0.2783533,-0.7327933,0.24868612,1.2368505,1.187908
-0.2,-0.2,0.6,-0.34906585039886584,-0.5235987755982988,0.34906585039886606,1.2046493,1.6421802,0.28230643,0.20893437,0.21236978,0.67116594,0.53100395,-0.39427066,1.455308,-0.27019182,-0.7124694,0.21762128,1.2230976,1.0337163
-0.2,-0.2,0.6,-0.34906585039886584,-0.5235987755982988,0.34906585039886606,1.2124406,1.6255674,0.30011043,0.17649958,0.24321,0.67044747,0.5557298,-0.38505265,1.4502833,-0.26970378,-0.6643098,0.2438896,1.2320857,0.9596742
-0.2,-0.2,0.6,-0.34906585039886584,-0.5235987755982988,0.34906585039886606,1.2017243,1.6115135,0.26779607,0.29747933,0.21980384,0.65666896,0.52871656,-0.4086389,1.4662385,-0.25655717,-0.63818187,0.21803643,1.216565,0.8846443
-0.2,-0.2,0.6,-0.34906585039886584,-0.5235987755982988,0.34906585039886606,1.1704758,1.632026,0.2656799,0.2563869,0.30919015,0.6707664,0.520458,-0.39816108,1.4544691,-0.2385254,-0.66486603,0.23018678,1.2419688,1.0411007
-0.2,-0.2,0.6,-0.34906585039886584,-0.5235987755982988,0.34906585039886606,1.1934987,1.6287514,0.28051695,0.28274056,0.22270335,0.6833006,0.545718,-0.40033185,1.4599335,-0.264813,-0.65316427,0.21217051,1.2518711,1.1172863
-0.2,-0.2,0.6,-0.34906585039886584,-0.5235987755982988,0.34906585039886606,1.2025039,1.6315525,0.259783,0.21235557,0.23259355,0.721179,0.5904677,-0.40274668,1.4579122,-0.25768775,-0.7114253,0.23662716,1.2316791,1.0051991
-0.2,-0.2,0.6,-0.34906585039886584,-0.5235987755982988,0.34906585039886606,1.1608574,1.6266742,0.26085153,0.16393013,0.20943755,0.64238524,0.5702409,-0.40222383,1.4590849,-0.24042757,-0.7315079,0.2206224,1.2273015,1.044234
-0.2,-0.2,0.6,-0.34906585039886584,-0.5235987755982988,0.34906585039886606,1.160174,1.6171898,0.2661348,0.22021303,0.24877438,0.6650764,0.508898,-0.38851377,1.4615258,-0.24470085,-0.69153225,0.26156643,1.2396798,0.9225257
-0.2,-0.2,0.6,-0.34906585039886584,-0.5235987755982988,0.34906585039886606,1.2030132,1.6098,0.29806414,0.21632822,0.25382772,0.65669113,0.5516676,-0.39681596,1.4556186,-0.2539153,-0.6435708,0.21493834,1.232443,0.9952254
-0.2,-0.2,0.6,-0.34906585039886584,-0.5235987755982988,0.34906585039886606,1.2141203,1.6060603,0.25931525,0.2126173,0.22801493,0.689944,0.512758,-0.39036912,1.4497218,-0.27414754,-0.67961895,0.25207448,1.2301056,0.95180273
-0.2,-0.2,0.6,-0.34906585039886584,-0.5235987755982988,0.34906585039886606,1.2079386,1.6283095,0.25709727,0.21254283,0.27820107,0.6784824,0.5208046,-0.38978234,1.4498168,-0.23779936,-0.6507787,0.26334015,1.226952,1.1177114
-0.2,-0.2,0.6,-0.34906585039886584,-0.5235987755982988,0.34906585039886606,1.1850424,1.6350678,0.3108737,0.25027677,0.2511913,0.6519839,0.5296806,-0.39593136,1.4514207,-0.27311233,-0.6707851,0.23632883,1.2491097,1.0152801
-0.2,-0.2,0.6,-0.34906585039886584,-0.5235987755982988,0.34906585039886606,1.2100842,1.6211784,0.26663756,0.22114871,0.258199,0.6707422,0.60019606,-0.39094663,1.4623386,-0.26534683,-0.6553027,0.2322861,1.2201194,0.8988438
-0.2,-0.2,0.6,-0.34906585039886584,-0.5235987755982988,0.34906585039886606,1.1845431,1.6362135,0.28975886,0.27398697,0.24289398,0.65962934,0.52382684,-0.3878282,1.4537268,-0.26826984,-0.63269836,0.22910352,1.2599245,0.887691
-0.2,-0.2,0.6,-0.34906585039886584,-0.5235987755982988,0.34906585039886606,1.1907046,1.6138082,0.30286336,0.27759227,0.22628771,0.62963265,0.53147787,-0.40126196,1.4534688,-0.2685972,-0.6403508,0.2235524,1.2222503,0.98633456
-0.2,-0.2,0.6,-0.34906585039886584,-0.5235987755982988,0.34906585039886606,1.1744397,1.6176499,0.30348384,0.18742087,0.24946792,0.6581675,0.5320025,-0.38090107,1.4690424,-0.24573535,-0.69505924,0.24662063,1.2321543,1.0223824
-0.2,-0.2,0.6,-0.34906585039886584,-0.5235987755982988,0.34906585039886606,1.2103077,1.6128575,0.26735723,0.1837823,0.2749608,0.6670355,0.5091283,-0.3972876,1.4602239,-0.25136638,-0.679998,0.23059359,1.2292336,1.0995566
-0.2,-0.2,0.6,-0.34906585039886584,-0.5235987755982988,0.34906585039886606,1.234327,1.6174191,0.2836673,0.19713263,0.24718809,0.6443597,0.47897583,-0.38972518,1.4684868,-0.27424154,-0.6746404,0.23586072,1.2286594,0.95995665
-0.2,-0.2,0.6,-0.34906585039886584,-0.5235987755982988,0.34906585039886606,1.1645925,1.6222721,0.24015059,0.2861659,0.21789746,0.6668285,0.52350587,-0.39497435,1.4545522,-0.25044975,-0.665201,0.2333015,1.2404314,1.1172957
-0.2,-0.2,0.6,-0.34906585039886584,-0.5235987755982988,0.34906585039886606,1.1811727,1.6287984,0.28422007,0.18357632,0.27168766,0.6837236,0.54051477,-0.38612682,1.452579,-0.241683,-0.69332784,0.2181076,1.2309376,1.1685745
-0.2,-0.2,0.6,-0.34906585039886584,-0.5235987755982988,0.34906585039886606,1.203652,1.6281744,0.30616158,0.21455196,0.20334004,0.60518163,0.47411832,-0.40503383,1.4514041,-0.24033086,-0.7007556,0.24541707,1.2319887,1.0910407
-0.2,-0.2,0.6,-0.34906585039886584,-0.5235987755982988,0.34906585039886606,1.2007474,1.6202773,0.2824222,0.20687658,0.23813953,0.6179184,0.49964306,-0.39796597,1.4565798,-0.2610599,-0.7032586,0.25345352,1.2221178,1.1062216
-0.2,-0.2,0.6,-0.34906585039886584,-0.5235987755982988,0.34906585039886606,1.1694378,1.6127703,0.24230109,0.23994035,0.25538248,0.6578567,0.46298,-0.3909089,1.4620942,-0.2872306,-0.70184064,0.25158808,1.2276889,1.0752935
-0.2,-0.2,0.6,-0.34906585039886584,-0.5235987755982988,0.34906585039886606,1.1601427,1.6326097,0.2939881,0.2114178,0.2561799,0.7129665,0.54273635,-0.39015722,1.4648713,-0.2537248,-0.67395246,0.22266153,1.2366664,1.0621215
-0.2,-0.2,0.6,-0.34906585039886584,-0.5235987755982988,0.34906585039886606,1.2239201,1.6224768,0.2632251,0.21773565,0.22656985,0.6897516,0.52708644,-0.39057404,1.4510965,-0.25583473,-0.64630973,0.22073543,1.2449065,1.0188668
-0.2,-0.2,0.6,-0.34906585039886584,-0.5235987755982988,0.34906585039886606,1.1895546,1.643829,0.24581224,0.27577403,0.22360256,0.64297265,0.47810373,-0.3928508,1.4515125,-0.26144254,-0.66201615,0.21620396,1.2261329,1.0141363
-0.2,-0.2,0.6,-0.34906585039886584,-0.5235987755982988,0.34906585039886606,1.2136127,1.6215514,0.2788747,0.17361659,0.20501664,0.7022789,0.5343358,-0.39416462,1.4618928,-0.2856011,-0.69792753,0.23510294,1.2328478,0.9912377
-0.2,-0.2,0.6,-0.34906585039886584,-0.5235987755982988,0.34906585039886606,1.2002877,1.6170228,0.267704,0.23148963,0.23550332,0.6757204,0.5168038,-0.3864603,1.4517082,-0.24960756,-0.6453095,0.23358048,1.2208908,0.94555527
-0.2,-0.2,0.6,-0.34906585039886584,-0.5235987755982988,0.34906585039886606,1.1926026,1.626069,0.2638329,0.1797545,0.20164025,0.6864035,0.5023778,-0.3891911,1.4525211,-0.26201788,-0.7163463,0.23725188,1.2421591,0.93021464
-0.2,-0.2,0.6,-0.34906585039886584,-0.5235987755982988,0.34906585039886606,1.1667176,1.6141366,0.2704116,0.23811229,0.1809406,0.6471369,0.48556894,-0.40163943,1.4595997,-0.24512208,-0.6664031,0.2363327,1.223523,1.1002523
-0.2,-0.2,0.6,-0.34906585039886584,-0.5235987755982988,0.34906585039886606,1.1866206,1.6288054,0.26593807,0.20259444,0.18580578,0.7069034,0.477577,-0.39231983,1.454652,-0.23492283,-0.6538303,0.23869656,1.2297603,0.87557286
-0.2,-0.2,0.6,-0.34906585039886584,-0.5235987755982988,0.34906585039886606,1.2052577,1.625528,0.26995412,0.21331939,0.26748967,0.6798681,0.5171419,-0.3965465,1.4468958,-0.2696398,-0.698025,0.24537832,1.2311379,0.9655297
-0.2,-0.2,0.6,-0.34906585039886584,-0.5235987755982988,0.34906585039886606,1.2134672,1.6166794,0.261029,0.23417968,0.2777031,0.66420424,0.5755499,-0.38167343,1.4519252,-0.27074564,-0.6791815,0.2509921,1.2377757,1.1163644
-0.2,-0.2,0.6,-0.34906585039886584,-0.5235987755982988,0.34906585039886606,1.1398072,1.6172606,0.26993307,0.26977205,0.2208763,0.68661577,0.4670892,-0.38448358,1.4558978,-0.24842456,-0.6464864,0.23637688,1.2541635,1.0457349
-0.2,-0.2,0.6,-0.34906585039886584,-0.5235987755982988,0.34906585039886606,1.2035912,1.6276176,0.2687267,0.18586074,0.2341539,0.6521962,0.54346234,-0.3989502,1.4698242,-0.266561,-0.73287433,0.24190065,1.2456686,1.1567907
-0.2,-0.2,0.6,-0.34906585039886584,-0.5235987755982988,0.34906585039886606,1.2080914,1.6133423,0.27748516,0.19970784,0.22404157,0.6336829,0.5847168,-0.40239716,1.4552662,-0.26719216,-0.73995227,0.24181087,1.2324067,1.0506455
-0.2,-0.2,0.6,-0.34906585039886584,-0.5235987755982988,0.34906585039886606,1.1814106,1.6295483,0.24986185,0.26841265,0.2535267,0.6660538,0.53218126,-0.3893043,1.4476156,-0.2747726,-0.6634345,0.26198393,1.2503608,0.8202674
-0.2,-0.2,0.6,-0.34906585039886584,-0.5235987755982988,0.34906585039886606,1.2031093,1.6353477,0.25621086,0.19008128,0.21045353,0.6643759,0.51382726,-0.3905728,1.4574238,-0.274417,-0.7213734,0.22802521,1.2341962,0.9611243
-0.2,-0.2,0.6,-0.34906585039886584,-0.5235987755982988,0.34906585039886606,1.1766174,1.6424795,0.29211563,0.25505438,0.23503806,0.6289647,0.5325955,-0.39104775,1.4543478,-0.2732413,-0.6324406,0.22289024,1.237509,1.0805596
-0.2,-0.2,0.6,-0.34906585039886584,-0.5235987755982988,0.34906585039886606,1.2012532,1.6428431,0.26434737,0.16615142,0.26145697,0.67422134,0.5882571,-0.39904916,1.4605634,-0.2419965,-0.7251154,0.23450808,1.245776,1.0002667
-0.2,-0.2,0.6,-0.34906585039886584,-0.5235987755982988,0.34906585039886606,1.1948004,1.6413392,0.25794354,0.22058672,0.23692003,0.6215247,0.50747454,-0.3944401,1.4565674,-0.26591858,-0.79931587,0.23852879,1.2588177,1.0742841
-0.2,-0.2,0.6,-0.34906585039886584,-0.5235987755982988,0.34906585039886606,1.1859708,1.6254123,0.26950935,0.20953809,0.22484317,0.6405916,0.52108866,-0.3969693,1.4637188,-0.23763199,-0.7019871,0.22893736,1.2253212,0.98486036
-0.2,-0.2,0.6,-0.34906585039886584,-0.5235987755982988,0.34906585039886606,1.1934042,1.6271728,0.28258255,0.21673764,0.18919232,0.67895544,0.53910255,-0.38696167,1.451539,-0.27286336,-0.6680979,0.23986076,1.2332171,1.1634144
-0.2,-0.2,0.6,-0.34906585039886584,-0.5235987755982988,0.34906585039886606,1.1947011,1.6258345,0.2510047,0.2708925,0.22687654,0.6522374,0.5406879,-0.3968735,1.4560598,-0.25537694,-0.6865555,0.2376058,1.2466801,0.97528565
-0.2,-0.2,0.6,-0.34906585039886584,-0.5235987755982988,0.34906585039886606,1.203814,1.6339523,0.2782074,0.21579422,0.24187346,0.67957836,0.5546351,-0.39474097,1.4579723,-0.2573468,-0.65091854,0.2390137,1.2310901,0.9631818
-0.2,-0.2,0.6,-0.34906585039886584,-0.5235987755982988,0.34906585039886606,1.212846,1.6301302,0.2743089,0.19335057,0.23027489,0.6580233,0.49364987,-0.39613557,1.4661996,-0.266557,-0.7159185,0.22607681,1.2213695,1.214629
-0.2,-0.2,0.6,-0.34906585039886584,-0.5235987755982988,0.34906585039886606,1.1789211,1.6157488,0.2566602,0.2310816,0.2382736,0.6454261,0.5193937,-0.40740064,1.4718181,-0.27109647,-0.74930966,0.24099141,1.232509,1.0142671
-0.2,-0.2,0.6,-0.34906585039886584,-0.5235987755982988,0.34906585039886606,1.1772649,1.6171724,0.28274006,0.21452652,0.21157724,0.6612296,0.57472295,-0.4059697,1.4587426,-0.273892,-0.68279666,0.25672147,1.2238574,1.0813609
-0.2,-0.2,0.6,-0.34906585039886584,-0.5235987755982988,0.34906585039886606,1.1788068,1.6106594,0.2750173,0.22996359,0.21115287,0.6712287,0.55815625,-0.39518267,1.4565029,-0.24526347,-0.6689073,0.23638234,1.2331171,1.140048
-0.2,-0.2,0.6,-0.34906585039886584,-0.5235987755982988,0.34906585039886606,1.2065271,1.6187056,0.2869041,0.22670856,0.20489337,0.6661133,0.56034446,-0.39769456,1.4481447,-0.24395417,-0.6733876,0.20044705,1.2255281,1.1460222
-0.2,-0.2,0.6,-0.34906585039886584,-0.5235987755982988,0.34906585039886606,1.1641718,1.6283385,0.2936495,0.24602716,0.17302904,0.67044115,0.5270098,-0.408556,1.4521616,-0.26652917,-0.6881154,0.23853268,1.2523324,1.0453327
-0.2,-0.2,0.6,-0.34906585039886584,-0.5235987755982988,0.34906585039886606,1.1937636,1.6226166,0.28148806,0.24358858,0.21346007,0.67932165,0.48896116,-0.388434,1.4527872,-0.25618932,-0.64440197,0.21645236,1.2397974,1.0810128
-0.2,-0.2,0.6,-0.34906585039886584,-0.5235987755982988,0.34906585039886606,1.1796854,1.6234356,0.3113148,0.23182471,0.24419305,0.6344558,0.5379764,-0.39341387,1.4521255,-0.2628994,-0.6263191,0.2367283,1.2382724,1.0613943
-0.2,-0.2,0.6,-0.34906585039886584,-0.5235987755982988,0.34906585039886606,1.1804821,1.6255449,0.26141956,0.22742124,0.22937953,0.6731289,0.48470637,-0.39770824,1.468639,-0.26810214,-0.69229025,0.2356645,1.2204902,0.89230365
-0.2,-0.2,0.6,-0.34906585039886584,-0.5235987755982988,0.34906585039886606,1.1985271,1.6100683,0.29818296,0.19463772,0.24713258,0.60710555,0.4962117,-0.40050465,1.4530914,-0.2583415,-0.6771427,0.24008782,1.2390203,1.0094548
-0.2,-0.2,0.6,-0.34906585039886584,-0.5235987755982988,0.34906585039886606,1.194148,1.6470287,0.2574344,0.23496363,0.31453255,0.68355256,0.56432825,-0.40041137,1.4539646,-0.24206293,-0.6833834,0.2257041,1.2597673,0.95087737
-0.2,-0.2,0.6,-0.34906585039886584,-0.5235987755982988,0.34906585039886606,1.2001615,1.6255593,0.2743172,0.2215196,0.2131802,0.66409963,0.55762446,-0.39839408,1.4548578,-0.25806278,-0.69866514,0.23221284,1.2544788,1.0519289
-0.2,-0.2,0.6,-0.34906585039886584,-0.5235987755982988,0.34906585039886606,1.1953266,1.611644,0.25519273,0.18973221,0.24115767,0.68926996,0.56680644,-0.38899553,1.4557222,-0.2748638,-0.70274264,0.23952012,1.246939,1.0075858
-0.2,-0.2,0.6,-0.34906585039886584,-0.5235987755982988,0.34906585039886606,1.1981239,1.6390615,0.28361228,0.23057844,0.29320383,0.6783602,0.52493656,-0.39666525,1.4615211,-0.2577323,-0.6417882,0.23425995,1.2249217,0.9801631
-0.2,-0.2,0.6,-0.34906585039886584,-0.5235987755982988,0.34906585039886606,1.2124665,1.622258,0.28027207,0.21772061,0.19277446,0.65992546,0.53223264,-0.39126676,1.4551686,-0.26836544,-0.66516435,0.2691693,1.2416269,0.9898102
-0.2,-0.2,0.6,-0.34906585039886584,-0.5235987755982988,0.34906585039886606,1.1933931,1.6321888,0.2882897,0.23545909,0.2043215,0.67174184,0.5189966,-0.391678,1.4490469,-0.2530583,-0.67875993,0.23389386,1.2414044,0.99304396
-0.2,-0.2,0.6,-0.34906585039886584,-0.5235987755982988,0.34906585039886606,1.1767884,1.5999104,0.24358276,0.24398583,0.21103232,0.6467689,0.5404072,-0.38827333,1.452354,-0.2696862,-0.6635456,0.25979015,1.2287546,1.1119031
-0.2,-0.2,0.6,-0.34906585039886584,-0.5235987755982988,0.34906585039886606,1.1775962,1.6052576,0.2750257,0.2050436,0.22335903,0.64870954,0.47625735,-0.38506657,1.4582826,-0.24926803,-0.65231377,0.25073582,1.2263132,1.0266408
-0.2,-0.2,0.6,-0.34906585039886584,-0.5235987755982988,0.34906585039886606,1.2267827,1.615102,0.26344123,0.20068865,0.2862546,0.66337,0.52523774,-0.38785973,1.4559537,-0.24654989,-0.65685916,0.24684009,1.2353482,1.0552596
-0.2,-0.2,0.6,-0.34906585039886584,-0.5235987755982988,0.34906585039886606,1.159548,1.6384045,0.28705132,0.223714,0.24351682,0.68482465,0.48856598,-0.38848498,1.450857,-0.26060203,-0.6506051,0.24349049,1.2408471,1.2571138
-0.2,-0.2,0.6,-0.34906585039886584,-0.5235987755982988,0.34906585039886606,1.1778939,1.6086531,0.27896404,0.19238856,0.2039023,0.6639907,0.53182226,-0.40619054,1.4646578,-0.25864175,-0.6893128,0.2336251,1.2229654,1.0735772
-0.2,-0.2,0.6,-0.34906585039886584,-0.5235987755982988,0.34906585039886606,1.1798521,1.6219583,0.2884269,0.3089432,0.24536638,0.6340522,0.5493802,-0.38918534,1.4538567,-0.26689535,-0.590189,0.24789976,1.2356155,0.9891203
-0.2,-0.2,0.6,-0.34906585039886584,-0.5235987755982988,0.34906585039886606,1.2064431,1.6419866,0.29695973,0.22902401,0.26210907,0.6680316,0.52840364,-0.4009715,1.4616199,-0.2624478,-0.6758802,0.25170594,1.2359757,0.98235875
-0.2,-0.2,0.6,-0.34906585039886584,-0.5235987755982988,0.34906585039886606,1.1819499,1.6358961,0.2525558,0.25079525,0.24909988,0.69556254,0.5319283,-0.3894439,1.4607654,-0.25657585,-0.67124987,0.21692638,1.222373,0.8327616
-0.2,-0.2,0.6,-0.34906585039886584,-0.5235987755982988,0.34906585039886606,1.2057756,1.6239946,0.29644534,0.26637894,0.17965783,0.61598176,0.47857186,-0.38770062,1.4543556,-0.2812172,-0.64780635,0.22972733,1.2424374,1.0437286
-0.2,-0.2,0.6,-0.34906585039886584,-0.5235987755982988,0.34906585039886606,1.1673044,1.6202188,0.2444606,0.24469824,0.2549938,0.65045226,0.48029697,-0.4037066,1.461793,-0.27105924,-0.710681,0.22213535,1.2411836,1.1198835
-0.2,-0.2,0.6,-0.34906585039886584,-0.5235987755982988,0.34906585039886606,1.188066,1.6176106,0.3014894,0.2452422,0.24443023,0.6623825,0.53659624,-0.39419314,1.4516739,-0.25378996,-0.6142733,0.22201528,1.2451695,1.1340449
-0.2,-0.2,0.6,-0.34906585039886584,-0.5235987755982988,0.34906585039886606,1.1829036,1.6411484,0.29675284,0.23145351,0.25672165,0.6895982,0.56049293,-0.40232858,1.4593192,-0.27433679,-0.64365464,0.22079149,1.2342769,1.1390532
-0.2,-0.2,0.6,-0.34906585039886584,-0.5235987755982988,0.34906585039886606,1.2057343,1.6279829,0.25355747,0.21550798,0.17324726,0.66179276,0.56212264,-0.4045482,1.4566948,-0.28496873,-0.73594934,0.26748726,1.2263529,0.9750648
-0.2,-0.2,0.6,-0.34906585039886584,-0.5235987755982988,0.34906585039886606,1.1787271,1.6238738,0.28256056,0.25082278,0.24615377,0.6523338,0.5537451,-0.39756364,1.4531776,-0.28109336,-0.6652515,0.23519017,1.2247759,1.0097326
-0.2,-0.2,0.6,-0.34906585039886584,-0.5235987755982988,0.34906585039886606,1.2071762,1.6395979,0.26458237,0.21014304,0.19125499,0.6488957,0.489573,-0.3947053,1.457593,-0.25756297,-0.75198585,0.21884742,1.244331,1.0798359
-0.2,-0.2,0.6,-0.34906585039886584,-0.5235987755982988,0.34906585039886606,1.1825861,1.6141601,0.26089802,0.29223776,0.24363019,0.62803835,0.4898904,-0.38450432,1.4529269,-0.28645197,-0.6227348,0.24289176,1.2518846,1.0841496
-0.2,-0.2,0.6,-0.34906585039886584,-0.5235987755982988,0.34906585039886606,1.2433894,1.6193031,0.2719852,0.26819006,0.22477272,0.6380444,0.56140566,-0.38971937,1.4701194,-0.27840048,-0.65307546,0.2601283,1.248845,0.95305604
-0.2,-0.2,0.6,-0.34906585039886584,-0.5235987755982988,0.34906585039886606,1.1841834,1.6219554,0.287212,0.26956284,0.22174051,0.6454399,0.5179747,-0.392378,1.4563404,-0.25461912,-0.6481443,0.22803211,1.2395848,1.0806054
-0.2,-0.2,0.6,-0.34906585039886584,-0.5235987755982988,0.34906585039886606,1.236876,1.6330255,0.27637437,0.16456823,0.220425,0.68345755,0.4805949,-0.39407265,1.450418,-0.2610232,-0.69287103,0.22002447,1.2425991,1.1025634
-0.2,-0.2,0.6,-0.34906585039886584,-0.5235987755982988,0.34906585039886606,1.1688713,1.6198016,0.2995911,0.22031128,0.23824798,0.644137,0.52680945,-0.38871175,1.4679726,-0.23803289,-0.67788976,0.22629692,1.2416792,0.8942561
-0.2,-0.2,0.6,-0.34906585039886584,-0.5235987755982988,0.34906585039886606,1.1984613,1.6166928,0.2907379,0.20183197,0.2524444,0.65061337,0.5372466,-0.4029883,1.4581923,-0.28177956,-0.66687346,0.23656766,1.2250997,0.8415491
-0.2,-0.2,0.6,-0.34906585039886584,-0.5235987755982988,0.34906585039886606,1.2043246,1.6255873,0.2559472,0.20626369,0.21077253,0.6515233,0.4876228,-0.39829236,1.4532694,-0.2625949,-0.69447386,0.23702453,1.2232782,1.0574088
-0.2,-0.2,0.6,-0.34906585039886584,-0.5235987755982988,0.34906585039886606,1.1770794,1.6454631,0.26227263,0.19866194,0.22572705,0.6852323,0.5287806,-0.39573762,1.4619037,-0.26426706,-0.67104214,0.2761697,1.245309,1.1027163
-0.2,-0.2,0.6,-0.34906585039886584,-0.5235987755982988,0.34906585039886606,1.1885448,1.6114525,0.28245854,0.27378377,0.21420829,0.62484634,0.46094516,-0.40036368,1.457878,-0.2843639,-0.645953,0.24547917,1.2411165,1.1670897
-0.2,-0.2,0.6,-0.34906585039886584,-0.5235987755982988,0.34906585039886606,1.1795921,1.6427075,0.264345,0.22846259,0.23439251,0.6665791,0.5630187,-0.3922994,1.4471401,-0.26859814,-0.67387646,0.23436856,1.2474358,1.1962231
-0.2,-0.2,0.6,-0.34906585039886584,-0.5235987755982988,0.34906585039886606,1.1927782,1.6283213,0.28651357,0.22533572,0.23760964,0.6693348,0.53939056,-0.3882014,1.4568856,-0.2388126,-0.63433594,0.26279283,1.2370616,1.1294404
-0.2,-0.2,0.6,-0.34906585039886584,-0.5235987755982988,0.34906585039886606,1.1716044,1.6315542,0.27164605,0.23229146,0.2519818,0.6322775,0.5383925,-0.3927525,1.4554132,-0.26712665,-0.68245786,0.24385947,1.2217796,0.9487754
-0.2,-0.2,0.6,-0.34906585039886584,-0.5235987755982988,0.34906585039886606,1.2540478,1.615465,0.28182948,0.20461193,0.2445742,0.69893813,0.54818654,-0.38627824,1.4622843,-0.24329436,-0.65850306,0.2237356,1.2638661,1.0319277
-0.2,-0.2,0.6,-0.34906585039886584,-0.5235987755982988,0.34906585039886606,1.1955086,1.6200092,0.26448184,0.25898257,0.26834032,0.6853572,0.5073081,-0.39182532,1.4641678,-0.2570772,-0.64006275,0.24265529,1.2188269,0.9546897
-0.2,-0.2,0.6,-0.34906585039886584,-0.5235987755982988,0.34906585039886606,1.1778365,1.6374118,0.26770297,0.23995458,0.24216938,0.66086555,0.5600697,-0.39815757,1.4564139,-0.22937647,-0.71815854,0.21295519,1.2549329,1.1664156
-0.2,-0.2,0.6,-0.34906585039886584,-0.5235987755982988,0.34906585039886606,1.2018074,1.626113,0.2787536,0.20452133,0.20144272,0.66680676,0.4762971,-0.40028134,1.4628271,-0.25530085,-0.7165187,0.22016078,1.2313164,1.1343907
-0.2,-0.2,0.6,-0.34906585039886584,-0.5235987755982988,0.34906585039886606,1.1652714,1.6303451,0.2757861,0.22603886,0.18786344,0.63699126,0.6027971,-0.39144045,1.4576597,-0.26897448,-0.69221133,0.23758459,1.2298876,1.0403258
-0.2,-0.2,0.6,-0.34906585039886584,-0.5235987755982988,0.34906585039886606,1.2001522,1.6200193,0.2720627,0.20941815,0.20061189,0.66766053,0.5301315,-0.38589284,1.4645004,-0.25950235,-0.66706157,0.24906681,1.2278469,1.076681
-0.2,-0.2,0.6,-0.34906585039886584,-0.5235987755982988,0.34906585039886606,1.2092986,1.6189761,0.27888975,0.18855809,0.23613471,0.6818393,0.51970154,-0.38832986,1.4486917,-0.2521043,-0.6848972,0.22104578,1.2397679,0.9383156
-0.2,-0.2,0.6,-0.34906585039886584,-0.5235987755982988,0.34906585039886606,1.2199973,1.6247271,0.268071,0.26555675,0.19567114,0.6677462,0.55336714,-0.39760306,1.4538503,-0.26334462,-0.6366854,0.23660289,1.2287834,1.0159867
-0.2,-0.2,0.6,-0.34906585039886584,-0.5235987755982988,0.34906585039886606,1.1918972,1.6205223,0.23830454,0.28957328,0.24600804,0.63549125,0.49806133,-0.38976508,1.4454635,-0.25964633,-0.66493315,0.26789105,1.2408959,1.05108
-0.2,-0.2,0.6,-0.34906585039886584,-0.5235987755982988,0.34906585039886606,1.1958561,1.6324716,0.27473885,0.24789548,0.26814592,0.6398291,0.5539516,-0.38757658,1.4519049,-0.2481753,-0.6461959,0.21721722,1.2478547,0.974848
-0.2,-0.2,0.6,-0.34906585039886584,-0.5235987755982988,0.34906585039886606,1.2007416,1.61308,0.24905476,0.23980352,0.27358055,0.6580655,0.48613828,-0.38401315,1.4513303,-0.2526647,-0.6654506,0.20519334,1.25106,1.0312852
-0.2,-0.2,0.6,-0.34906585039886584,-0.5235987755982988,0.34906585039886606,1.1665531,1.6309412,0.29105935,0.27161834,0.25376496,0.62707,0.5247175,-0.39012402,1.4640477,-0.2604347,-0.6507809,0.22901501,1.2412714,0.86796385
-0.2,-0.2,0.6,-0.34906585039886584,-0.5235987755982988,0.34906585039886606,1.1803792,1.6158412,0.26001114,0.20926143,0.25828636,0.6830545,0.50955236,-0.39176273,1.4465933,-0.2589564,-0.6633868,0.24756685,1.2547264,1.1824373
-0.2,-0.2,0.6,-0.34906585039886584,-0.5235987755982988,0.34906585039886606,1.2097964,1.6204617,0.27445096,0.22756366,0.24061762,0.64514786,0.5113536,-0.3866528,1.463315,-0.24369529,-0.67292386,0.21231814,1.237089,0.9387973
-0.2,-0.2,0.6,-0.34906585039886584,-0.5235987755982988,0.34906585039886606,1.1988366,1.6230896,0.27397004,0.17952275,0.190316,0.6689428,0.49262956,-0.40646428,1.4575566,-0.26628658,-0.71479785,0.21991137,1.2216733,1.2625021
-0.2,-0.2,0.6,-0.34906585039886584,-0.5235987755982988,0.34906585039886606,1.2011192,1.6158868,0.32616463,0.25000593,0.21931067,0.6388324,0.52646327,-0.4081098,1.4490451,-0.2584889,-0.6146973,0.2527443,1.2442554,1.161036
-0.2,-0.2,0.6,-0.34906585039886584,-0.5235987755982988,0.34906585039886606,1.1888642,1.6358969,0.26099256,0.23382872,0.2690622,0.70468783,0.5334533,-0.40136415,1.4742562,-0.24759944,-0.6918853,0.21668711,1.2397231,0.8194054
-0.2,-0.2,0.6,-0.34906585039886584,-0.5235987755982988,0.34906585039886606,1.1595143,1.6253853,0.27057606,0.22247478,0.26318058,0.67816514,0.55713046,-0.38049,1.4640121,-0.25812343,-0.67749554,0.23915187,1.2387196,0.9965223
-0.2,-0.2,0.6,-0.34906585039886584,-0.5235987755982988,0.34906585039886606,1.2203553,1.6310949,0.26247075,0.16922852,0.21932976,0.621909,0.55373687,-0.39472914,1.449184,-0.25115195,-0.733516,0.230823,1.2321534,0.8537161
-0.2,-0.2,0.6,-0.34906585039886584,-0.5235987755982988,0.34906585039886606,1.223463,1.6057351,0.30233267,0.22392279,0.25175533,0.6279947,0.48920026,-0.3857751,1.4685254,-0.26257426,-0.6280574,0.21576367,1.2512008,1.0282507
-0.2,-0.2,0.6,-0.34906585039886584,-0.5235987755982988,0.34906585039886606,1.1673918,1.6270125,0.26354828,0.22137077,0.25995302,0.6912606,0.5133742,-0.39395165,1.4501432,-0.26337638,-0.67826396,0.23949389,1.247581,1.0053898
-0.2,-0.2,0.6,-0.34906585039886584,-0.5235987755982988,0.34906585039886606,1.1723824,1.6470513,0.28900266,0.25846988,0.23271495,0.6787827,0.55984753,-0.38837054,1.4445013,-0.2785339,-0.65909135,0.2394794,1.2561135,1.0171245
-0.2,-0.2,0.6,-0.34906585039886584,-0.5235987755982988,0.34906585039886606,1.1755782,1.6249772,0.2785942,0.19139129,0.2364906,0.6601436,0.5138528,-0.39121658,1.4560275,-0.25804633,-0.6709693,0.25341496,1.2235185,1.0831037
-0.2,-0.2,0.6,-0.34906585039886584,-0.5235987755982988,0.34906585039886606,1.1953053,1.6279596,0.285483,0.27511722,0.1946203,0.6344835,0.55344605,-0.39284438,1.4640467,-0.25805268,-0.62596655,0.2372886,1.2325824,0.89859533
-0.2,-0.2,0.6,-0.34906585039886584,-0.5235987755982988,0.34906585039886606,1.207223,1.6092131,0.275284,0.2071586,0.20740633,0.64017755,0.52140737,-0.39919922,1.4591699,-0.24897803,-0.6861591,0.23864967,1.2257665,1.0476454
-0.2,-0.2,0.6,-0.34906585039886584,-0.5235987755982988,0.34906585039886606,1.1933397,1.6391771,0.29037613,0.17702073,0.20053558,0.69147444,0.5327359,-0.39899343,1.4598428,-0.23302239,-0.6550263,0.22761375,1.2358953,1.1409272
-0.2,-0.2,0.6,-0.34906585039886584,-0.5235987755982988,0.34906585039886606,1.2067878,1.6417171,0.28976843,0.21747634,0.26355588,0.6510273,0.49652612,-0.39922628,1.4499987,-0.2846192,-0.6773741,0.24049242,1.2220006,1.0675812
-0.2,-0.2,0.6,-0.34906585039886584,-0.5235987755982988,0.34906585039886606,1.1998644,1.6360555,0.27438378,0.2521634,0.235189,0.6460607,0.5584345,-0.40270683,1.4664923,-0.25402826,-0.68313086,0.22187692,1.2374998,1.0725875
-0.2,-0.2,0.6,-0.34906585039886584,-0.5235987755982988,0.34906585039886606,1.1991353,1.6469294,0.28819296,0.20952524,0.2595069,0.65972406,0.4792262,-0.3993483,1.4642617,-0.24919921,-0.67574733,0.24018523,1.2448847,0.89972895
-0.2,-0.2,0.6,-0.34906585039886584,-0.5235987755982988,0.34906585039886606,1.1987394,1.6394175,0.27384576,0.22082068,0.24456748,0.69220936,0.5520174,-0.3963902,1.4573519,-0.26305756,-0.64916205,0.24949533,1.2283604,0.9359242
-0.2,-0.2,0.6,-0.34906585039886584,-0.5235987755982988,0.34906585039886606,1.1917918,1.6455635,0.2754433,0.22059444,0.25891536,0.66420656,0.51060045,-0.3905108,1.4563296,-0.24504426,-0.6612896,0.23438737,1.2194985,0.9929582
-0.2,-0.2,0.6,-0.34906585039886584,-0.5235987755982988,0.34906585039886606,1.2001647,1.634761,0.26486757,0.2375293,0.22220032,0.6772645,0.543176,-0.39232156,1.4608961,-0.27150062,-0.6814302,0.22145759,1.2179714,1.0162542
-0.2,-0.2,0.6,-0.34906585039886584,-0.5235987755982988,0.34906585039886606,1.2052482,1.6351327,0.29653072,0.25895935,0.25605187,0.6510155,0.5023233,-0.39901215,1.4514836,-0.25510594,-0.6306405,0.2238019,1.2242941,0.99395025
-0.2,-0.2,0.6,-0.34906585039886584,-0.5235987755982988,0.34906585039886606,1.1947099,1.626819,0.29178336,0.26066786,0.24490535,0.6610382,0.5665762,-0.38969028,1.4580885,-0.2607851,-0.6410348,0.22147256,1.2398342,1.0765973
-0.2,-0.2,0.6,-0.34906585039886584,-0.5235987755982988,0.34906585039886606,1.1987249,1.6237048,0.2787725,0.23783235,0.2428016,0.6606201,0.5131175,-0.38806134,1.4509273,-0.26288104,-0.665019,0.22839116,1.2383319,0.88009864
-0.2,-0.2,0.6,-0.34906585039886584,-0.5235987755982988,0.34906585039886606,1.192074,1.6451645,0.2784046,0.2568426,0.24299364,0.6948203,0.569937,-0.40290493,1.463054,-0.25708595,-0.6695667,0.21608862,1.2257257,1.1178335
-0.2,-0.2,0.6,-0.34906585039886584,-0.5235987755982988,0.34906585039886606,1.2203014,1.6277333,0.32445917,0.21671219,0.24418558,0.6750107,0.5903217,-0.3911557,1.458014,-0.23883863,-0.58612126,0.22416498,1.2378548,1.0960852
-0.2,-0.2,0.6,-0.34906585039886584,-0.5235987755982988,0.34906585039886606,1.1907088,1.634799,0.2843898,0.24548994,0.2718153,0.6399144,0.5462837,-0.39054558,1.4562802,-0.25830883,-0.6475968,0.23652174,1.2321317,1.0349852
-0.2,-0.2,0.6,-0.34906585039886584,-0.5235987755982988,0.34906585039886606,1.19112,1.6248122,0.28655264,0.23563322,0.21185334,0.62490255,0.48941597,-0.398521,1.4622616,-0.2761592,-0.65092206,0.24726105,1.2250894,0.9366266
-0.2,-0.2,0.6,-0.34906585039886584,-0.5235987755982988,0.34906585039886606,1.210485,1.6316293,0.2714995,0.24503806,0.2290349,0.66007304,0.49990284,-0.40591112,1.4485127,-0.27583537,-0.68543607,0.22190435,1.2348839,1.0394478
-0.2,-0.2,0.6,-0.34906585039886584,-0.5235987755982988,0.34906585039886606,1.1973109,1.6178807,0.30268946,0.1888889,0.2430542,0.6610544,0.5664139,-0.39473206,1.4558803,-0.27834374,-0.6909316,0.23335338,1.2331443,1.0135565
-0.2,-0.2,0.6,-0.34906585039886584,-0.5235987755982988,0.34906585039886606,1.2244815,1.6228429,0.2679686,0.22106266,0.26499087,0.68429947,0.520491,-0.39451155,1.4496939,-0.2389144,-0.62361026,0.23929758,1.2269912,1.0226789
-0.2,-0.2,0.6,-0.34906585039886584,-0.5235987755982988,0.34906585039886606,1.2023004,1.6303803,0.30785984,0.1308599,0.29125428,0.6405239,0.53924173,-0.40526006,1.4555522,-0.26429564,-0.745725,0.23665255,1.233867,0.97313976
-0.2,-0.2,0.6,-0.34906585039886584,-0.5235987755982988,0.34906585039886606,1.1466907,1.620793,0.31621423,0.27668408,0.20499755,0.60175717,0.5542275,-0.40101808,1.4622813,-0.2380359,-0.63497686,0.24121995,1.2372662,0.9579335
-0.2,-0.2,0.6,-0.34906585039886584,-0.5235987755982988,0.34906585039886606,1.1917276,1.6357958,0.27389628,0.22181411,0.26190135,0.67061055,0.52434903,-0.38527524,1.4471807,-0.26897436,-0.6804103,0.23144414,1.2314373,0.982336
-0.2,-0.2,0.6,-0.34906585039886584,-0.5235987755982988,0.34906585039886606,1.2043074,1.6138586,0.26530716,0.22182892,0.24114208,0.64157563,0.5560848,-0.397858,1.459248,-0.25666285,-0.69846874,0.23147987,1.2349604,1.2109653
-0.2,-0.2,0.6,-0.34906585039886584,-0.5235987755982988,0.34906585039886606,1.1779418,1.6070154,0.28277928,0.22926913,0.28242612,0.68016034,0.53489417,-0.39290276,1.4574331,-0.2576425,-0.6412606,0.23454234,1.2202917,0.951152
-0.2,-0.2,0.6,-0.34906585039886584,-0.5235987755982988,0.34906585039886606,1.1993208,1.6380513,0.28329936,0.21677834,0.24618916,0.6788029,0.5506137,-0.37792718,1.4705815,-0.27433914,-0.6470726,0.22724344,1.2252452,1.0959057
-0.2,-0.2,0.6,-0.34906585039886584,-0.5235987755982988,0.34906585039886606,1.1974355,1.6323926,0.2957296,0.26148185,0.23921277,0.6716685,0.5456468,-0.39665526,1.4523749,-0.27182415,-0.6379436,0.24686438,1.2339208,1.1294746
-0.2,-0.2,0.6,-0.34906585039886584,-0.5235987755982988,0.34906585039886606,1.2223532,1.6293645,0.26725486,0.206779,0.23227766,0.63066643,0.5485804,-0.397297,1.4537294,-0.25856754,-0.66816735,0.2464814,1.2286329,0.76828444
-0.2,-0.2,0.6,-0.34906585039886584,-0.5235987755982988,0.34906585039886606,1.1646392,1.6128328,0.29216036,0.24358746,0.20370656,0.6604103,0.57967603,-0.3887493,1.4563756,-0.2614507,-0.6657098,0.23510568,1.240222,1.0770472
-0.2,-0.2,0.6,-0.34906585039886584,-0.5235987755982988,0.34906585039886606,1.1994569,1.6218561,0.25402468,0.22613563,0.31286266,0.6415378,0.5002231,-0.3973318,1.4510761,-0.25849906,-0.6948849,0.23508705,1.22185,1.1157081
-0.2,-0.2,0.6,-0.34906585039886584,-0.5235987755982988,0.34906585039886606,1.1819177,1.6213868,0.2802216,0.21600614,0.26012087,0.6392711,0.584399,-0.39056617,1.4470218,-0.26318005,-0.68832564,0.23467444,1.212908,1.0721983
-0.2,-0.2,0.6,-0.34906585039886584,-0.5235987755982988,0.34906585039886606,1.1846056,1.6278058,0.28850532,0.19735691,0.25209078,0.67911357,0.5667716,-0.39889666,1.46486,-0.25494602,-0.6587273,0.2280319,1.234015,1.2496339
-0.2,-0.2,0.6,-0.34906585039886584,-0.5235987755982988,0.34906585039886606,1.228494,1.6244035,0.26805353,0.1827571,0.22391997,0.6424791,0.4877706,-0.40125516,1.4618835,-0.24627265,-0.7259472,0.21732509,1.2291808,0.98424613
-0.2,-0.2,0.6,-0.34906585039886584,-0.5235987755982988,0.34906585039886606,1.1893419,1.6492875,0.29868022,0.24434544,0.2426201,0.61120296,0.5594864,-0.3929958,1.4482317,-0.2325893,-0.63928324,0.23324707,1.2247616,1.1729743
-0.2,-0.2,0.6,-0.34906585039886584,-0.5235987755982988,0.34906585039886606,1.2115458,1.6427594,0.27035785,0.2794998,0.2394808,0.65196943,0.5121211,-0.41369617,1.451406,-0.2646833,-0.6507177,0.2729091,1.2333324,1.026643
-0.2,-0.2,0.6,-0.34906585039886584,-0.5235987755982988,0.34906585039886606,1.207412,1.6206865,0.244627,0.22239171,0.20430346,0.64030266,0.56750417,-0.4030283,1.4472595,-0.27196023,-0.69737804,0.24725506,1.2365854,1.3472023
-0.2,-0.2,0.6,-0.34906585039886584,-0.5235987755982988,0.34906585039886606,1.212463,1.620962,0.28663614,0.23700987,0.22323056,0.6622034,0.5168642,-0.38868928,1.4648751,-0.2620795,-0.6926874,0.2343068,1.2338835,1.0330884
-0.2,-0.2,0.6,-0.34906585039886584,-0.5235987755982988,0.34906585039886606,1.187253,1.6285484,0.27343667,0.23134826,0.20119041,0.65032095,0.47975218,-0.39451998,1.448443,-0.27492628,-0.71199536,0.22439954,1.2200379,0.9718429
-0.2,-0.2,0.6,-0.34906585039886584,-0.5235987755982988,0.34906585039886606,1.1902012,1.6178961,0.2945365,0.22982772,0.24252716,0.6638201,0.4918546,-0.39352268,1.4637192,-0.26571736,-0.65344435,0.24197055,1.2454491,1.0603007
-0.2,-0.2,0.6,-0.34906585039886584,-0.5235987755982988,0.34906585039886606,1.1551864,1.6088151,0.28221503,0.16772746,0.2461087,0.62141544,0.47476137,-0.40050113,1.4564234,-0.26901287,-0.69539165,0.23004721,1.2376018,1.0638717
-0.2,-0.2,0.6,-0.34906585039886584,-0.5235987755982988,0.34906585039886606,1.1934731,1.6379334,0.29035848,0.1688542,0.21116726,0.69855934,0.48966804,-0.3947689,1.4604577,-0.25253916,-0.65487105,0.25510055,1.2444896,0.9766789
-0.2,-0.2,0.6,-0.34906585039886584,-0.5235987755982988,0.34906585039886606,1.2200445,1.6247367,0.28829923,0.21733363,0.30055586,0.66421765,0.54953,-0.40379837,1.457063,-0.23204719,-0.6405729,0.24113221,1.2408859,0.8296467
-0.2,-0.2,0.6,-0.34906585039886584,-0.5235987755982988,0.34906585039886606,1.2007736,1.6282412,0.29201883,0.2078373,0.21053752,0.6599882,0.55438304,-0.40384758,1.4588727,-0.23234108,-0.6497282,0.23652406,1.239285,1.0098753
-0.2,-0.2,0.6,-0.34906585039886584,-0.5235987755982988,0.34906585039886606,1.1993387,1.6302211,0.2815418,0.26609516,0.29609865,0.6329452,0.5494171,-0.38343158,1.4541317,-0.25132114,-0.6399688,0.23726107,1.2481062,1.0333766
-0.2,-0.2,0.6,-0.34906585039886584,-0.5235987755982988,0.34906585039886606,1.2248243,1.6353655,0.26621813,0.25462773,0.23177844,0.68531066,0.52038336,-0.39805707,1.4579098,-0.24040481,-0.61952156,0.23535025,1.2369605,1.0052042
-0.2,-0.2,0.6,-0.34906585039886584,-0.5235987755982988,0.34906585039886606,1.2224892,1.6209289,0.29245657,0.2102044,0.21865475,0.6564861,0.52685326,-0.38243598,1.4609698,-0.24404152,-0.64193255,0.24092214,1.2296647,1.2138072
-0.2,-0.2,0.6,-0.34906585039886584,-0.5235987755982988,0.34906585039886606,1.1909542,1.6052942,0.28963926,0.23169011,0.23636648,0.65372485,0.5108512,-0.39840078,1.4622506,-0.24534534,-0.6617308,0.22454889,1.2427418,1.0296307
-0.2,-0.2,0.6,-0.34906585039886584,-0.5235987755982988,0.34906585039886606,1.179915,1.6258589,0.26828393,0.2617642,0.20034227,0.66988254,0.49336255,-0.39619473,1.4552366,-0.25568634,-0.6524282,0.26015925,1.2257377,1.0148094
-0.2,-0.2,0.6,-0.34906585039886584,-0.5235987755982988,0.34906585039886606,1.1859818,1.6227981,0.27495545,0.30591866,0.18904185,0.6802582,0.4791152,-0.3995318,1.4725791,-0.2626585,-0.64385927,0.21779157,1.2350807,1.0120791
-0.2,-0.2,0.6,-0.34906585039886584,-0.5235987755982988,0.34906585039886606,1.1975387,1.651772,0.29628766,0.22695102,0.18957661,0.67690504,0.5023077,-0.40073648,1.4620774,-0.27098092,-0.65648705,0.2152738,1.2472795,0.91137874
-0.2,-0.2,0.6,-0.34906585039886584,-0.5235987755982988,0.34906585039886606,1.1971687,1.6404334,0.29391816,0.25546908,0.23964937,0.69499576,0.5391581,-0.3988223,1.4551011,-0.2597426,-0.60992813,0.24428433,1.2316024,1.0014192
-0.2,-0.2,0.6,-0.34906585039886584,-0.5235987755982988,0.34906585039886606,1.2162411,1.6243014,0.27602187,0.19472876,0.26383564,0.68288916,0.523368,-0.39706916,1.4640785,-0.25198656,-0.67409766,0.22308812,1.2406155,1.0852679
-0.2,-0.2,0.6,-0.34906585039886584,-0.5235987755982988,0.34906585039886606,1.2017497,1.6195598,0.29129916,0.24782854,0.24985342,0.6945177,0.5485942,-0.4069049,1.4634563,-0.2674616,-0.61678714,0.26482758,1.2319275,1.2804853
-0.2,-0.2,0.6,-0.34906585039886584,-0.5235987755982988,0.34906585039886606,1.1992081,1.6297536,0.30192253,0.24097522,0.19660665,0.66573274,0.46096635,-0.3975538,1.4492072,-0.2667971,-0.6123283,0.24693711,1.2447503,1.0146636
-0.2,-0.2,0.6,-0.34906585039886584,-0.5235987755982988,0.34906585039886606,1.1848327,1.6336209,0.279886,0.17469265,0.26518053,0.68665636,0.5928351,-0.39592427,1.4528205,-0.24087569,-0.6398534,0.26110387,1.23399,1.0261954
-0.2,-0.2,0.6,-0.34906585039886584,-0.5235987755982988,0.34906585039886606,1.1798364,1.6091633,0.2843766,0.2592067,0.21356785,0.67164665,0.47072265,-0.40344974,1.4585185,-0.26113015,-0.62479067,0.24636552,1.243065,1.1312667
-0.2,-0.2,0.6,-0.34906585039886584,-0.5235987755982988,0.34906585039886606,1.1696875,1.6404411,0.267463,0.2211443,0.24800853,0.64588875,0.5568287,-0.3922479,1.4598354,-0.26390594,-0.7213782,0.22526772,1.2301576,1.0709436
-0.2,-0.2,0.6,-0.34906585039886584,-0.5235987755982988,0.34906585039886606,1.2062021,1.6117513,0.2887369,0.2275009,0.25081697,0.6506403,0.5242841,-0.39581364,1.464922,-0.27295384,-0.6745166,0.25097913,1.2534406,0.94403356
-0.2,-0.2,0.6,-0.34906585039886584,-0.5235987755982988,0.34906585039886606,1.1928259,1.6468544,0.28920594,0.18959421,0.24840462,0.6896253,0.5625176,-0.39376295,1.4575955,-0.24385864,-0.6740851,0.23099895,1.2121474,0.8949587
-0.2,-0.2,0.6,-0.34906585039886584,-0.5235987755982988,0.34906585039886606,1.1934072,1.6352061,0.292392,0.22046198,0.24524783,0.6576175,0.56987137,-0.38599625,1.4675375,-0.26925048,-0.66368574,0.25900957,1.2474643,1.0302157
-0.2,-0.2,0.6,-0.34906585039886584,-0.5235987755982988,0.34906585039886606,1.2081913,1.6228844,0.254455,0.22032885,0.2125517,0.6965701,0.5079596,-0.39625955,1.4653547,-0.27476665,-0.6295753,0.24601507,1.2520328,1.0358723
-0.2,-0.2,0.6,-0.34906585039886584,-0.5235987755982988,0.34906585039886606,1.204281,1.6282744,0.26542187,0.25882936,0.2108174,0.7039144,0.5445962,-0.3862984,1.4498729,-0.26836336,-0.6385932,0.25170413,1.2334398,1.106798
-0.2,-0.2,0.6,-0.34906585039886584,-0.5235987755982988,0.34906585039886606,1.1779537,1.6405648,0.27956113,0.25490746,0.2307996,0.67145294,0.5467565,-0.39129847,1.4667279,-0.24895106,-0.65205175,0.23491003,1.2335187,1.0040512
-0.2,-0.2,0.6,-0.34906585039886584,-0.5235987755982988,0.34906585039886606,1.1619035,1.6188157,0.2868094,0.2086914,0.27088267,0.6673414,0.50328714,-0.40179425,1.4635113,-0.2235128,-0.6747571,0.20746815,1.2423353,0.99211276
-0.2,-0.2,0.6,-0.34906585039886584,-0.5235987755982988,0.34906585039886606,1.1742969,1.6264485,0.30243665,0.22611244,0.20912834,0.63874966,0.49880043,-0.38244838,1.4512744,-0.26127666,-0.6294391,0.24551728,1.2276088,1.0439111
-0.2,-0.2,0.6,-0.34906585039886584,-0.5235987755982988,0.34906585039886606,1.2276956,1.6218978,0.3009817,0.22953701,0.19659013,0.661603,0.55665123,-0.39736402,1.4743559,-0.27240834,-0.6360823,0.24196666,1.2417464,0.97255707
-0.2,-0.2,0.6,-0.34906585039886584,-0.5235987755982988,0.34906585039886606,1.2036134,1.6282674,0.28496534,0.22220701,0.2312636,0.6938726,0.549943,-0.3959237,1.456946,-0.25853735,-0.6672808,0.22366033,1.2332647,0.92025125
-0.2,-0.2,0.6,-0.34906585039886584,-0.5235987755982988,0.34906585039886606,1.1900945,1.6388983,0.28815877,0.2540668,0.20843482,0.68767136,0.45885503,-0.3930225,1.4640812,-0.27878866,-0.6559998,0.2452191,1.2366887,1.1647836
-0.2,-0.2,0.6,-0.34906585039886584,-0.5235987755982988,0.34906585039886606,1.1756843,1.6008749,0.27024582,0.26773402,0.29304457,0.654693,0.51573056,-0.38532808,1.4559062,-0.24382038,-0.6420455,0.19775528,1.2343233,1.021398
-0.2,-0.2,0.6,-0.34906585039886584,-0.5235987755982988,0.34906585039886606,1.1701643,1.6263828,0.30678466,0.25135353,0.255029,0.6425975,0.5984684,-0.399932,1.4589939,-0.250901,-0.6380246,0.22738642,1.2269156,1.1853237
-0.2,-0.2,0.6,-0.34906585039886584,-0.5235987755982988,0.34906585039886606,1.1853826,1.6114811,0.30195218,0.22072944,0.26346523,0.6928747,0.51215255,-0.38580158,1.4633099,-0.2568095,-0.6171262,0.23585634,1.2420713,1.0360721
-0.2,-0.2,0.6,-0.34906585039886584,-0.5235987755982988,0.34906585039886606,1.1727365,1.6238707,0.30278686,0.24009466,0.22799078,0.6685905,0.51321036,-0.3966346,1.4600947,-0.26411003,-0.64377636,0.23731984,1.2396886,1.2557017
-0.2,-0.2,0.6,-0.34906585039886584,-0.5235987755982988,0.34906585039886606,1.2189653,1.6298238,0.2676629,0.22634166,0.26494947,0.6955405,0.51886564,-0.3919704,1.4561793,-0.25659025,-0.63397515,0.23153321,1.2292638,1.0336647
-0.2,-0.2,0.6,-0.34906585039886584,-0.5235987755982988,0.34906585039886606,1.2091088,1.6373718,0.26935595,0.21862765,0.23415147,0.66233695,0.555783,-0.39412433,1.4670902,-0.2403104,-0.6778528,0.25173527,1.2453334,0.99922246
-0.2,-0.2,0.6,-0.34906585039886584,-0.5235987755982988,0.34906585039886606,1.170592,1.6174797,0.28483576,0.2330238,0.25379214,0.6470788,0.5745414,-0.4013583,1.4709046,-0.24834569,-0.67793965,0.2481347,1.2387557,1.0830396
-0.2,-0.2,0.6,-0.34906585039886584,-0.5235987755982988,0.34906585039886606,1.2114755,1.6406116,0.2693055,0.21932322,0.18981612,0.6898135,0.5293599,-0.39157766,1.4506572,-0.25031358,-0.63877445,0.22862905,1.2315577,1.0534304
-0.2,-0.2,0.6,-0.34906585039886584,-0.5235987755982988,0.34906585039886606,1.1936573,1.6295763,0.28648272,0.21546312,0.22769351,0.61781913,0.50312555,-0.38952625,1.4582989,-0.24989825,-0.6723019,0.23899929,1.252431,1.1295166
-0.2,-0.2,0.6,-0.34906585039886584,-0.5235987755982988,0.34906585039886606,1.1704869,1.6416464,0.2830552,0.2492565,0.19146237,0.67229575,0.47990403,-0.40225765,1.4541314,-0.25448105,-0.59307915,0.2393461,1.2193613,1.3235188
-0.2,-0.2,0.6,-0.34906585039886584,-0.5235987755982988,0.34906585039886606,1.1891081,1.6098446,0.24083976,0.30821592,0.28134412,0.6572067,0.5638996,-0.4016901,1.452724,-0.27099508,-0.6341149,0.24568783,1.2404828,0.9886018
-0.2,-0.2,0.6,-0.34906585039886584,-0.5235987755982988,0.34906585039886606,1.1887581,1.6385069,0.28530312,0.2326467,0.21082547,0.6576594,0.5563845,-0.40695646,1.4564879,-0.24298178,-0.6647613,0.23110405,1.230961,1.0775754
-0.2,-0.2,0.6,-0.34906585039886584,-0.5235987755982988,0.34906585039886606,1.2102137,1.6216167,0.25206625,0.23313692,0.25537923,0.6719968,0.5083554,-0.3922408,1.4496936,-0.27475804,-0.6705837,0.22556137,1.2141577,1.0571512
-0.2,-0.2,0.6,-0.34906585039886584,-0.5235987755982988,0.34906585039886606,1.1805294,1.6240543,0.2903122,0.20194362,0.21405967,0.6512971,0.54800147,-0.40133348,1.4603796,-0.23784721,-0.69644713,0.24637662,1.2355168,0.80766606
-0.2,-0.2,0.6,-0.34906585039886584,-0.5235987755982988,0.34906585039886606,1.2001165,1.6310679,0.29882056,0.22387506,0.20066485,0.6592133,0.5634114,-0.40294352,1.4530805,-0.26544613,-0.6736633,0.2691595,1.2291796,0.95662403
-0.2,-0.2,0.6,-0.34906585039886584,-0.5235987755982988,0.34906585039886606,1.1897928,1.6115503,0.25987074,0.2502363,0.22242758,0.67289394,0.5544354,-0.39821178,1.4654822,-0.25023246,-0.67151296,0.25813147,1.2326559,0.9375834
-0.2,-0.2,0.6,-0.34906585039886584,-0.5235987755982988,0.34906585039886606,1.1858591,1.6286561,0.24538594,0.2920678,0.20491618,0.6985187,0.5631023,-0.39555007,1.4649212,-0.25562578,-0.65790164,0.22781438,1.2365791,0.9131249
-0.2,-0.2,0.6,-0.34906585039886584,-0.5235987755982988,0.34906585039886606,1.1924657,1.6139586,0.29147655,0.22899875,0.23818016,0.6555834,0.48880115,-0.39355054,1.4688553,-0.2608297,-0.66858834,0.22984843,1.2390053,0.86125934
-0.2,-0.2,0.6,-0.34906585039886584,-0.5235987755982988,0.34906585039886606,1.1757779,1.6104327,0.28959924,0.214958,0.24896437,0.67325485,0.49523225,-0.388913,1.4650732,-0.2779919,-0.6538227,0.24086991,1.2141922,1.2557098
-0.2,-0.2,0.6,-0.34906585039886584,-0.5235987755982988,0.34906585039886606,1.1788442,1.6265999,0.30136588,0.1889177,0.22352539,0.6791463,0.5749741,-0.39573076,1.4597934,-0.24321042,-0.65572387,0.24163927,1.2377617,0.9639516
-0.2,-0.2,0.6,-0.34906585039886584,-0.5235987755982988,0.34906585039886606,1.1834316,1.6333374,0.30316868,0.21151207,0.19802073,0.67806965,0.5190742,-0.39667517,1.4623922,-0.24707843,-0.6611843,0.24436083,1.2240487,1.0773672
-0.2,-0.2,0.6,-0.34906585039886584,-0.5235987755982988,0.34906585039886606,1.2126523,1.6217649,0.30227166,0.22900371,0.2659676,0.66978055,0.5122918,-0.3850835,1.4578127,-0.25287813,-0.6291928,0.22853918,1.246053,0.908886
-0.2,-0.2,0.6,-0.34906585039886584,-0.5235987755982988,0.34906585039886606,1.1862665,1.6243441,0.27706054,0.28490078,0.25859347,0.668381,0.5685784,-0.38474473,1.4488413,-0.28250408,-0.6308436,0.2306982,1.2336702,1.0625066
-0.2,-0.2,0.6,-0.34906585039886584,-0.5235987755982988,0.34906585039886606,1.1919072,1.6069772,0.26824677,0.23073341,0.23212063,0.6881336,0.5803812,-0.3832969,1.4447144,-0.25095126,-0.63626957,0.23816395,1.2311002,1.0541047
-0.2,-0.2,0.6,-0.34906585039886584,-0.5235987755982988,0.34906585039886606,1.2054371,1.6226859,0.2670649,0.22970067,0.18982632,0.6402757,0.59389114,-0.39422914,1.4630089,-0.26630282,-0.70113885,0.22324106,1.2316836,0.9978839
-0.2,-0.2,0.6,-0.34906585039886584,-0.5235987755982988,0.34906585039886606,1.1895307,1.6439137,0.30478463,0.16049916,0.29806674,0.66582274,0.51342577,-0.38852268,1.4567081,-0.23031522,-0.6277575,0.22592829,1.2472665,1.2051804
