sanky1234/BimanualDexCatch/isaacgymenvs/cem_results/football_pose_-0.2_-0.2_0.7999999999999999_0.5235987755982988_0.0_0_2025-05-24.csv
x,y,z,roll,pitch,yaw,robot1/joint1,robot1/joint2,robot1/joint3,robot1/joint4,robot1/joint5,robot1/joint6,robot1/joint7,robot2/joint1,robot2/joint2,robot2/joint3,robot2/joint4,robot2/joint5,robot2/joint6,robot2/joint7
-0.2,-0.2,0.7999999999999999,0.5235987755982988,0.0,0,0.4042882,1.3766723,0.03937786,-0.098506466,0.22331488,1.3266956,0.87613165,0.41988245,0.49037725,-1.2167529,0.1757279,0.11290889,1.4361115,2.3150036
-0.2,-0.2,0.7999999999999999,0.5235987755982988,0.0,0,-0.84608215,1.2296823,-0.13110311,-0.01271559,0.12464561,1.252789,-0.0907783,0.42354897,0.4845163,-1.2215627,0.17609459,0.11348547,1.4361353,2.3278477
-0.2,-0.2,0.7999999999999999,0.5235987755982988,0.0,0,0.057303198,1.2883024,0.090299174,-0.020285748,0.00877412,1.2175977,0.13712421,0.42217487,0.50351346,-1.2206845,0.17670056,0.10961616,1.4367405,2.3246236
-0.2,-0.2,0.7999999999999999,0.5235987755982988,0.0,0,-1.2285087,1.3206457,-0.23509176,-0.12097611,0.015180281,1.2148244,0.47664487,0.42118743,0.4904893,-1.2234622,0.17749944,0.11105614,1.434252,2.3272579
-0.2,-0.2,0.7999999999999999,0.5235987755982988,0.0,0,-1.222626,1.1637625,0.022474596,-0.03228385,0.041563295,1.2268832,-0.27606776,0.4198385,0.4883015,-1.2194084,0.17509684,0.112383574,1.4383453,2.3074327
-0.2,-0.2,0.7999999999999999,0.5235987755982988,0.0,0,0.3894428,1.1855917,-0.08063515,-0.07821764,0.109977014,1.2572967,-0.31081504,0.42146227,0.48890135,-1.2191973,0.17800306,0.113650694,1.436063,2.3067493
-0.2,-0.2,0.7999999999999999,0.5235987755982988,0.0,0,-0.735096,1.2204098,0.016864998,-0.11189685,-0.020667715,1.263939,0.6315966,0.42214954,0.5056989,-1.2202221,0.17743668,0.11538901,1.4341091,2.3240807
-0.2,-0.2,0.7999999999999999,0.5235987755982988,0.0,0,-0.08978873,1.2852252,-0.11922348,-0.050725363,-0.1839579,1.2441287,-0.30066884,0.42185444,0.49715894,-1.2163994,0.17669913,0.114627466,1.4380025,2.3123531
-0.2,-0.2,0.7999999999999999,0.5235987755982988,0.0,0,-0.16402507,1.3681458,0.057164457,-0.075579695,0.06275262,1.2718083,-0.25693592,0.42119464,0.48719606,-1.2182908,0.17368078,0.1128451,1.4374216,2.3114955
-0.2,-0.2,0.7999999999999999,0.5235987755982988,0.0,0,-0.9213223,1.2889826,-0.16796483,-0.044596154,-0.1104507,1.2115213,0.19556966,0.42215618,0.4825692,-1.2191097,0.17832394,0.11357695,1.439712,2.3090155
-0.2,-0.2,0.7999999999999999,0.5235987755982988,0.0,0,-0.89599,1.3675715,0.022322966,-0.042932395,-0.022500386,1.1932279,-0.3676098,0.4205032,0.47522306,-1.2220275,0.1763759,0.11159558,1.435521,2.3153558
-0.2,-0.2,0.7999999999999999,0.5235987755982988,0.0,0,0.035107117,1.21884,0.042499207,-0.04391944,-0.094317146,1.2290115,0.3344116,0.42421672,0.4932823,-1.222572,0.17618121,0.11347991,1.4378062,2.3122113
-0.2,-0.2,0.7999999999999999,0.5235987755982988,0.0,0,-0.61821455,1.3597419,-0.098715894,-0.117512554,0.22860709,1.2645062,0.47517627,0.4209711,0.48177823,-1.2220795,0.17420566,0.113893375,1.4349492,2.3332453
-0.2,-0.2,0.7999999999999999,0.5235987755982988,0.0,0,0.12371584,1.3229079,0.070334546,-0.06348568,-0.11344174,1.2590045,0.18815732,0.42168194,0.50335455,-1.2186441,0.17806672,0.111515224,1.4366206,2.3108735
-0.2,-0.2,0.7999999999999999,0.5235987755982988,0.0,0,-0.4441916,1.3178235,-0.12737797,-0.085167386,-0.023977723,1.2704763,0.283055,0.42282286,0.51011336,-1.2226528,0.1776253,0.11563801,1.4336622,2.312659
-0.2,-0.2,0.7999999999999999,0.5235987755982988,0.0,0,-1.134988,1.2489322,-0.099487886,-0.07257992,0.21685629,1.3035771,0.6624335,0.4213749,0.5059896,-1.2215934,0.17838454,0.116694205,1.4348812,2.3084373
-0.2,-0.2,0.7999999999999999,0.5235987755982988,0.0,0,-0.40305418,1.3153889,0.002695237,-0.04443419,-0.05804699,1.2499437,-0.015566098,0.41960856,0.48926598,-1.2181512,0.17708452,0.11622336,1.4379519,2.3134825
-0.2,-0.2,0.7999999999999999,0.5235987755982988,0.0,0,-1.2223363,1.3088297,-0.017553434,-0.1243868,0.0047226744,1.1383141,0.7496352,0.42407268,0.50396836,-1.221642,0.17859349,0.11019811,1.4359925,2.304597
-0.2,-0.2,0.7999999999999999,0.5235987755982988,0.0,0,-0.7113672,1.3037364,-0.107807696,-0.0668061,-0.036304176,1.3789768,0.945445,0.42159477,0.49185526,-1.2221506,0.17550597,0.11145299,1.4353023,2.31828
-0.2,-0.2,0.7999999999999999,0.5235987755982988,0.0,0,-0.57612115,1.2672906,0.030706935,-0.11752789,0.12398894,1.2919066,-0.08141349,0.42112213,0.48957428,-1.2187961,0.17671482,0.114206776,1.4398274,2.3171918
-0.2,-0.2,0.7999999999999999,0.5235987755982988,0.0,0,-0.47797835,1.3330735,-0.11069902,-0.03408127,-0.22770624,1.2557849,0.26824608,0.42357188,0.4837612,-1.2221905,0.17666811,0.10751641,1.4337577,2.3256154
-0.2,-0.2,0.7999999999999999,0.5235987755982988,0.0,0,-0.58617896,1.393719,0.09360247,-0.034458093,0.2323062,1.2625743,0.029837044,0.42326012,0.4826714,-1.2198352,0.17512417,0.106283054,1.4370534,2.3074653
-0.2,-0.2,0.7999999999999999,0.5235987755982988,0.0,0,0.35297582,1.4001544,-0.11623953,-0.14723709,0.0074192123,1.2552267,0.084854506,0.422382,0.4795223,-1.221306,0.1760375,0.11145349,1.4359456,2.3219576
-0.2,-0.2,0.7999999999999999,0.5235987755982988,0.0,0,0.26531598,1.36073,-0.24312744,-0.11105071,-0.115303345,1.3018048,0.5180438,0.42004842,0.47183487,-1.2201037,0.17662872,0.11559875,1.4368901,2.3216825
-0.2,-0.2,0.7999999999999999,0.5235987755982988,0.0,0,0.3332092,1.2992284,-0.1659162,-0.05384566,-0.121219106,1.2709103,0.31280646,0.41800764,0.48856455,-1.2186513,0.1767365,0.111820646,1.437605,2.321599
-0.2,-0.2,0.7999999999999999,0.5235987755982988,0.0,0,-0.68909705,1.4001237,-0.04283918,-0.08347352,-0.03049985,1.2083032,0.6170125,0.42125225,0.50071615,-1.2218692,0.17561792,0.11520647,1.433841,2.3210335
-0.2,-0.2,0.7999999999999999,0.5235987755982988,0.0,0,-0.49450672,1.2353501,0.04074601,-0.06706303,0.047758695,1.2876418,-0.00028532665,0.4228268,0.4792835,-1.2204587,0.17723821,0.10921598,1.4353884,2.333734
-0.2,-0.2,0.7999999999999999,0.5235987755982988,0.0,0,-0.5677246,1.2415502,-0.1853913,-0.060213793,0.16647413,1.3210136,0.74269724,0.42083615,0.487231,-1.2199743,0.17673859,0.11393517,1.4363247,2.3097787
-0.2,-0.2,0.7999999999999999,0.5235987755982988,0.0,0,0.053485107,1.2660961,-0.01091783,-0.09351131,-0.16634825,1.1686379,0.07105699,0.42043963,0.4861617,-1.22111,0.17776528,0.11289328,1.4357387,2.3075304
-0.2,-0.2,0.7999999999999999,0.5235987755982988,0.0,0,-0.4127917,1.304374,0.10195941,-0.060924176,0.023510665,1.2148075,0.6019623,0.41764128,0.48140284,-1.222573,0.17624767,0.113077946,1.4352245,2.3232307
-0.2,-0.2,0.7999999999999999,0.5235987755982988,0.0,0,-0.71825606,1.3639151,-0.14051002,-0.048629764,0.048531573,1.3287764,0.08450041,0.42309242,0.4884985,-1.221417,0.17575088,0.10966413,1.4367265,2.30265
-0.2,-0.2,0.7999999999999999,0.5235987755982988,0.0,0,-0.050379742,1.2873465,0.016518982,-0.13826786,0.008665636,1.3613541,-0.026207488,0.42317542,0.5032141,-1.222436,0.1748072,0.113002285,1.4382411,2.312993
-0.2,-0.2,0.7999999999999999,0.5235987755982988,0.0,0,-0.76504105,1.3520806,-0.05330502,-0.086523116,-0.09141165,1.2835488,0.726531,0.42161667,0.50213957,-1.216894,0.17871849,0.11500131,1.4359094,2.3285031
-0.2,-0.2,0.7999999999999999,0.5235987755982988,0.0,0,-0.179186,1.2733909,-0.17466106,-0.06626091,-0.035612237,1.2316185,-0.18861537,0.41999778,0.48999262,-1.2224357,0.17649944,0.113566406,1.4346322,2.3091052
-0.2,-0.2,0.7999999999999999,0.5235987755982988,0.0,0,-0.57147604,1.307501,-0.05607649,-0.09290637,0.17827736,1.2298874,0.09547519,0.41975468,0.48959067,-1.2183534,0.175067,0.11080835,1.4361287,2.3262312
-0.2,-0.2,0.7999999999999999,0.5235987755982988,0.0,0,0.3756658,1.289891,-0.033084083,-0.045067143,0.097984545,1.3591925,0.059851766,0.42293662,0.48319754,-1.2220299,0.17795324,0.11631831,1.4350438,2.320523
-0.2,-0.2,0.7999999999999999,0.5235987755982988,0.0,0,-0.46415284,1.3781005,0.21310605,-0.08193291,0.0779579,1.2015129,-0.5550616,0.42187062,0.49426213,-1.2178489,0.1769096,0.10998084,1.4343159,2.3205223
-0.2,-0.2,0.7999999999999999,0.5235987755982988,0.0,0,-0.041306574,1.3307537,0.072704986,-0.085573,0.022993755,1.2713721,-0.40387207,0.41954258,0.4882943,-1.2204746,0.17486799,0.110150754,1.4360034,2.3126373
-0.2,-0.2,0.7999999999999999,0.5235987755982988,0.0,0,-0.38124102,1.2625761,-0.07021656,-0.025357015,-0.14949855,1.2152302,-0.23241664,0.42272037,0.47712275,-1.2238625,0.17514223,0.1125253,1.438144,2.322111
-0.2,-0.2,0.7999999999999999,0.5235987755982988,0.0,0,-0.4395333,1.236849,-0.18100016,-0.05112148,0.04745523,1.2141744,-0.19119596,0.42136672,0.4929026,-1.2197193,0.17517468,0.1110617,1.4392558,2.309451
-0.2,-0.2,0.7999999999999999,0.5235987755982988,0.0,0,-0.8750892,1.346239,-0.12647387,-0.11812639,0.1309207,1.2130231,0.9713777,0.42168722,0.4758751,-1.2252043,0.17441995,0.106643096,1.4371554,2.3005629
-0.2,-0.2,0.7999999999999999,0.5235987755982988,0.0,0,-0.036521148,1.249987,-0.04580324,-0.06002254,0.24164519,1.3038884,0.60835457,0.41820297,0.47822654,-1.2199523,0.17670733,0.11432046,1.4374566,2.3113956
-0.2,-0.2,0.7999999999999999,0.5235987755982988,0.0,0,0.19244137,1.2185628,0.0069177966,-0.070943594,-0.08353349,1.3238415,-0.48433286,0.41878697,0.48417497,-1.221957,0.17690375,0.11308485,1.4339843,2.30941
-0.2,-0.2,0.7999999999999999,0.5235987755982988,0.0,0,0.8814365,1.2213391,0.01707992,-0.059590627,0.09300028,1.2524508,0.6783382,0.42286092,0.4966104,-1.2168881,0.17749403,0.11501463,1.437978,2.3284972
-0.2,-0.2,0.7999999999999999,0.5235987755982988,0.0,0,-0.13787185,1.3905786,-0.18721773,-0.05248671,-0.014308729,1.2751648,-0.3771158,0.42010823,0.49235043,-1.223021,0.17518407,0.11574589,1.4352753,2.3245845
-0.2,-0.2,0.7999999999999999,0.5235987755982988,0.0,0,-1.1422305,1.290646,-0.02276719,-0.053772595,0.055768594,1.3075432,0.6626894,0.41840246,0.47647655,-1.2179823,0.17811936,0.11182486,1.4383949,2.3109884
-0.2,-0.2,0.7999999999999999,0.5235987755982988,0.0,0,0.6152515,1.3985164,-0.20489947,-0.07466215,0.025388712,1.2778914,-0.44781744,0.42084485,0.4739283,-1.2257485,0.17639406,0.115065604,1.4372305,2.3113165
-0.2,-0.2,0.7999999999999999,0.5235987755982988,0.0,0,0.7256539,1.3021991,-0.17453496,-0.05422675,0.059476938,1.2004058,0.14233842,0.41852024,0.47578976,-1.2194397,0.17659883,0.11117959,1.4362828,2.311077
-0.2,-0.2,0.7999999999999999,0.5235987755982988,0.0,0,-0.6609562,1.1917329,0.040880598,-0.095114104,0.060132448,1.3448521,-0.0634049,0.4210822,0.48944834,-1.221772,0.17529888,0.10987877,1.4384851,2.3148286
-0.2,-0.2,0.7999999999999999,0.5235987755982988,0.0,0,1.1438246,1.2028563,0.09083455,0.017367736,0.06673115,1.2680563,-0.3235726,0.41997346,0.47654635,-1.2211583,0.17851417,0.11061571,1.4353567,2.315998
-0.2,-0.2,0.7999999999999999,0.5235987755982988,0.0,0,-0.509248,1.3140059,0.12659065,-0.087181866,0.0010960051,1.2777921,-0.21953431,0.41928613,0.48972893,-1.2217827,0.17421459,0.113611594,1.439318,2.3122194
-0.2,-0.2,0.7999999999999999,0.5235987755982988,0.0,0,-0.9381121,1.3936362,-0.32448313,-0.05378764,0.195929,1.2748199,0.10044699,0.4203049,0.48344743,-1.2224617,0.17875323,0.111821026,1.4332215,2.3106177
-0.2,-0.2,0.7999999999999999,0.5235987755982988,0.0,0,-0.6934702,1.266948,-0.05189545,-0.11911338,-0.055702653,1.3461307,0.43749583,0.4216493,0.4925879,-1.2234886,0.17639172,0.11162967,1.4333099,2.3273292
-0.2,-0.2,0.7999999999999999,0.5235987755982988,0.0,0,-0.5308276,1.2795297,-0.07899087,-0.0820544,0.2901285,1.3042436,-0.13763773,0.41971743,0.48257655,-1.2209327,0.17884567,0.11083991,1.4375451,2.3076484
-0.2,-0.2,0.7999999999999999,0.5235987755982988,0.0,0,-1.0807983,1.3428851,-0.08049696,-0.082234345,-0.06816099,1.211076,0.18421936,0.4189026,0.4958245,-1.2235483,0.17715041,0.116484806,1.4342829,2.3140674
-0.2,-0.2,0.7999999999999999,0.5235987755982988,0.0,0,0.795125,1.3417044,-0.11776879,-0.027947117,-0.042551246,1.3251464,0.56658864,0.419345,0.48672217,-1.222501,0.17563166,0.112832084,1.433469,2.336125
-0.2,-0.2,0.7999999999999999,0.5235987755982988,0.0,0,-0.7208016,1.1780161,0.065682575,-0.07982685,-0.14648294,1.1734885,-0.34203687,0.42253438,0.48342222,-1.22095,0.17570199,0.11406707,1.4381269,2.3183794
-0.2,-0.2,0.7999999999999999,0.5235987755982988,0.0,0,0.15693823,1.2857944,-0.17208867,-0.10407765,-8.889418e-06,1.300419,-0.9935217,0.42050463,0.48244226,-1.2212276,0.17602038,0.1173464,1.4393167,2.3127298
-0.2,-0.2,0.7999999999999999,0.5235987755982988,0.0,0,-0.36988616,1.2360791,0.06957085,-0.05669781,0.006340213,1.1771921,-0.15774779,0.42015895,0.48167405,-1.2202263,0.1775018,0.11442621,1.4368428,2.3061547
-0.2,-0.2,0.7999999999999999,0.5235987755982988,0.0,0,-0.7001206,1.3891158,-0.062567614,-0.05437513,0.09962864,1.1758252,0.7238229,0.42366266,0.48606712,-1.2222185,0.17817149,0.113883756,1.4395027,2.3239424
-0.2,-0.2,0.7999999999999999,0.5235987755982988,0.0,0,0.14299533,1.3323376,-0.23139526,0.0012161733,0.07233994,1.2962636,-0.3738405,0.41971534,0.47625592,-1.2199221,0.17599837,0.1138122,1.4431889,2.2999468
-0.2,-0.2,0.7999999999999999,0.5235987755982988,0.0,0,-0.38372764,1.3338413,-0.25749728,-0.015600377,-0.03825232,1.3146319,0.31320488,0.42181775,0.49515042,-1.2225178,0.17690694,0.11267923,1.4342884,2.310049
-0.2,-0.2,0.7999999999999999,0.5235987755982988,0.0,0,0.5377065,1.2481141,-0.13110813,-0.09059101,0.005692345,1.2934036,-0.44857952,0.4192905,0.48804414,-1.2221155,0.17897274,0.114553206,1.4343222,2.3173673
-0.2,-0.2,0.7999999999999999,0.5235987755982988,0.0,0,-1.353188,1.3187264,0.012532979,-0.07831718,0.09563224,1.1871682,-0.14039275,0.41989627,0.49438474,-1.2176131,0.17777961,0.10884902,1.4373,2.314605
-0.2,-0.2,0.7999999999999999,0.5235987755982988,0.0,0,-0.36392477,1.2521528,-0.24102888,-0.061744627,-0.15742727,1.2695698,0.5611537,0.42139977,0.4873466,-1.2254121,0.17766996,0.11596832,1.4381472,2.309161
-0.2,-0.2,0.7999999999999999,0.5235987755982988,0.0,0,0.37822238,1.1966994,-0.10730567,-0.11427467,0.039378814,1.2621056,-0.039365593,0.42173904,0.4872016,-1.2224396,0.17623544,0.111047104,1.4344639,2.3172982
-0.2,-0.2,0.7999999999999999,0.5235987755982988,0.0,0,-0.440345,1.2651893,-0.17112647,-0.04548423,0.10163882,1.1654545,0.40018374,0.4203936,0.4836088,-1.2220953,0.17671068,0.109473996,1.4343151,2.3270257
-0.2,-0.2,0.7999999999999999,0.5235987755982988,0.0,0,0.12436875,1.2715986,-0.19908851,0.030585332,0.17315328,1.3220086,0.1850043,0.41998723,0.48075044,-1.2230917,0.17287752,0.11065068,1.4377209,2.3160474
-0.2,-0.2,0.7999999999999999,0.5235987755982988,0.0,0,0.22470453,1.3285887,0.08412385,-0.09618538,0.030563809,1.2609905,0.48611128,0.42169407,0.47834516,-1.2194558,0.17973992,0.11044276,1.4354037,2.3245263
-0.2,-0.2,0.7999999999999999,0.5235987755982988,0.0,0,0.17147866,1.2891649,-0.14901607,-0.043288685,0.06588122,1.2492913,-0.044805463,0.42240372,0.48490927,-1.2212273,0.17568235,0.11331181,1.4363706,2.3198192
-0.2,-0.2,0.7999999999999999,0.5235987755982988,0.0,0,-0.53973895,1.1896522,-0.08445483,-0.094287045,0.028651714,1.281846,0.6855623,0.4195746,0.49643478,-1.2215393,0.17695373,0.110804416,1.4347019,2.3261364
-0.2,-0.2,0.7999999999999999,0.5235987755982988,0.0,0,0.5955752,1.2986151,-0.11713156,-0.07145212,0.10306895,1.298452,0.65391624,0.42040768,0.4850643,-1.2207923,0.1785738,0.11150046,1.4385756,2.316172
-0.2,-0.2,0.7999999999999999,0.5235987755982988,0.0,0,-1.0428538,1.3299297,-0.118234955,-0.124243654,-0.040088423,1.3702482,0.08237996,0.42002526,0.48598555,-1.2215427,0.17565624,0.11303263,1.4369261,2.3217504
-0.2,-0.2,0.7999999999999999,0.5235987755982988,0.0,0,-0.5258513,1.3440317,-0.17932175,-0.07298344,0.064941816,1.1596789,0.35147583,0.4221106,0.48959643,-1.2186273,0.17649828,0.110350326,1.4377443,2.2957041
-0.2,-0.2,0.7999999999999999,0.5235987755982988,0.0,0,0.3612219,1.2603579,0.062401094,-0.087792486,0.047966324,1.2583574,0.10657418,0.42341658,0.48394424,-1.2198085,0.17744657,0.10725928,1.4366652,2.322797
-0.2,-0.2,0.7999999999999999,0.5235987755982988,0.0,0,-0.15532304,1.3435906,-0.15763317,-0.110915765,0.038092807,1.193481,0.1812008,0.4199371,0.48994854,-1.2203358,0.1779317,0.11682029,1.4394597,2.2997832
-0.2,-0.2,0.7999999999999999,0.5235987755982988,0.0,0,0.49668038,1.3853812,-0.089130186,-0.0014791524,0.043558665,1.3011676,-0.5661168,0.42170832,0.4775031,-1.2205898,0.17579146,0.11550913,1.4399769,2.3137224
-0.2,-0.2,0.7999999999999999,0.5235987755982988,0.0,0,-0.09190318,1.3027706,-0.0047632772,-0.07836339,-0.036102597,1.1479111,0.12625334,0.42138585,0.49343893,-1.2236172,0.17549613,0.11412007,1.4356486,2.3014915
-0.2,-0.2,0.7999999999999999,0.5235987755982988,0.0,0,-1.0329762,1.2590249,-0.11475683,-0.042948026,-0.07326797,1.2016349,0.0231261,0.42163238,0.4984335,-1.223538,0.17552742,0.114578255,1.4377902,2.3231497
-0.2,-0.2,0.7999999999999999,0.5235987755982988,0.0,0,0.8214229,1.21114,-0.011173584,-0.103859514,0.011963763,1.2664115,0.009439409,0.4191454,0.4904705,-1.2215502,0.17666005,0.115012705,1.4384811,2.312712
-0.2,-0.2,0.7999999999999999,0.5235987755982988,0.0,0,-0.29888147,1.3785135,-0.12016794,-0.124122344,-0.19954653,1.237652,-0.13222294,0.41977575,0.48615572,-1.2233037,0.17882724,0.11737831,1.4369764,2.3050044
-0.2,-0.2,0.7999999999999999,0.5235987755982988,0.0,0,0.43606284,1.314515,-0.08807733,-0.074430816,0.15591326,1.3066281,0.40710366,0.42216653,0.48469463,-1.2221918,0.1748909,0.11136099,1.4374982,2.3134427
-0.2,-0.2,0.7999999999999999,0.5235987755982988,0.0,0,-0.6384229,1.3286967,0.16240743,-0.043765623,0.050292153,1.2373923,0.09592993,0.42309567,0.48298055,-1.2244036,0.17675821,0.11213931,1.4351941,2.3193302
-0.2,-0.2,0.7999999999999999,0.5235987755982988,0.0,0,-0.66769993,1.2148293,0.041519906,-0.084071115,0.06430076,1.3150904,0.26614574,0.42552066,0.4940626,-1.2235165,0.1754566,0.111170314,1.4420906,2.3092527
-0.2,-0.2,0.7999999999999999,0.5235987755982988,0.0,0,0.13531184,1.3172765,0.04668317,-0.043291975,-0.13374437,1.2657877,-0.6423915,0.42096525,0.49774358,-1.2194151,0.17573316,0.11464921,1.4385941,2.3352036
-0.2,-0.2,0.7999999999999999,0.5235987755982988,0.0,0,0.061074033,1.4468163,-0.19189994,-0.077664606,-0.15622349,1.3112662,1.0514162,0.42076507,0.48362297,-1.220917,0.17460087,0.112772256,1.434676,2.3239644
-0.2,-0.2,0.7999999999999999,0.5235987755982988,0.0,0,0.9130431,1.3515013,-0.042614426,-0.10725967,-0.30758905,1.298962,0.251666,0.42396864,0.48955253,-1.221233,0.17506501,0.11338576,1.435361,2.325878
-0.2,-0.2,0.7999999999999999,0.5235987755982988,0.0,0,0.22579038,1.2899328,-0.18196738,-0.06970885,-0.19183011,1.3341938,-0.35291135,0.42085183,0.48691908,-1.2230202,0.17754169,0.11114191,1.43474,2.3264344
-0.2,-0.2,0.7999999999999999,0.5235987755982988,0.0,0,-0.41388857,1.2811888,-0.099449605,-0.058299016,-0.13784406,1.3843073,0.5209791,0.42117414,0.48116395,-1.2187397,0.17728207,0.11677182,1.4404227,2.31092
-0.2,-0.2,0.7999999999999999,0.5235987755982988,0.0,0,0.07251054,1.2802675,-0.054344352,-0.09454538,-0.18090777,1.3016282,0.40961155,0.42374834,0.4902412,-1.2213858,0.17582875,0.11332272,1.4400926,2.3217814
-0.2,-0.2,0.7999999999999999,0.5235987755982988,0.0,0,0.031221202,1.256336,-0.018842598,-0.040362857,-0.101821035,1.3021771,-0.21946213,0.41900164,0.48881558,-1.2207224,0.17767175,0.11486764,1.437441,2.3136928
-0.2,-0.2,0.7999999999999999,0.5235987755982988,0.0,0,-0.3620992,1.2793021,0.13103718,-0.021579947,-0.08742129,1.3034742,0.56832,0.42090693,0.48435587,-1.2204307,0.1775681,0.111920625,1.441248,2.3172045
-0.2,-0.2,0.7999999999999999,0.5235987755982988,0.0,0,-0.020058108,1.3117201,-0.16797794,-0.08241842,-0.07817143,1.3103853,0.49226895,0.42154726,0.47785246,-1.2197264,0.17417781,0.11219357,1.4365226,2.313661
-0.2,-0.2,0.7999999999999999,0.5235987755982988,0.0,0,0.65511084,1.2913603,-0.03962613,-0.07092948,-0.026188042,1.2097791,-0.5189548,0.42192668,0.48537543,-1.2174637,0.17752944,0.11439939,1.4396557,2.316443
-0.2,-0.2,0.7999999999999999,0.5235987755982988,0.0,0,-0.402014,1.3019187,0.035018194,-0.027185574,0.090206146,1.3461661,-0.02644656,0.42048544,0.48934826,-1.2190075,0.17711304,0.11173358,1.4354413,2.3161306
-0.2,-0.2,0.7999999999999999,0.5235987755982988,0.0,0,-0.5885494,1.2111897,-0.12643614,-0.083117455,-0.010170622,1.197027,0.043970715,0.42342958,0.48540807,-1.2253009,0.17646344,0.11272084,1.4359212,2.3288095
-0.2,-0.2,0.7999999999999999,0.5235987755982988,0.0,0,0.36055595,1.3169425,-0.104651,-0.055328093,0.042214923,1.3366299,0.24072874,0.42092365,0.4833107,-1.222368,0.1779783,0.11249519,1.4328082,2.319509
-0.2,-0.2,0.7999999999999999,0.5235987755982988,0.0,0,-0.1395884,1.3138754,-0.030696357,-0.0490081,0.14760052,1.3226153,0.18544002,0.42123303,0.47110704,-1.2252331,0.17616408,0.11276941,1.4374981,2.331696
-0.2,-0.2,0.7999999999999999,0.5235987755982988,0.0,0,-0.7750288,1.3017046,-0.15641676,-0.04635777,0.12972963,1.3189776,0.97686535,0.41916132,0.480187,-1.2222123,0.17920183,0.11664739,1.4354172,2.3093774
-0.2,-0.2,0.7999999999999999,0.5235987755982988,0.0,0,0.28526738,1.367748,-0.106304266,0.02433549,-0.18778555,1.210831,0.47727427,0.41944376,0.4819909,-1.2219986,0.17727897,0.11410389,1.4360818,2.3106396
-0.2,-0.2,0.7999999999999999,0.5235987755982988,0.0,0,-0.39363205,1.350305,-0.013178607,-0.08586474,-0.12813167,1.2086588,0.003586271,0.41845086,0.49266046,-1.21806,0.17552741,0.11094013,1.4377995,2.3197172
-0.2,-0.2,0.7999999999999999,0.5235987755982988,0.0,0,-0.6220638,1.1131793,-0.068255015,-0.11311713,0.043919686,1.2883513,0.28320643,0.42174834,0.47506148,-1.2230415,0.17590924,0.11180235,1.4373078,2.3062265
-0.2,-0.2,0.7999999999999999,0.5235987755982988,0.0,0,-0.14283861,1.2098047,-0.18878207,-0.056421574,0.09732918,1.2947962,-0.344661,0.423043,0.4931861,-1.2193496,0.17471835,0.10878334,1.4381764,2.3265932
-0.2,-0.2,0.7999999999999999,0.5235987755982988,0.0,0,0.49518108,1.3419571,0.019777527,-0.08145894,0.0730846,1.2847631,0.1571139,0.42052594,0.4880643,-1.2187114,0.17731372,0.113973774,1.4381621,2.314453
-0.2,-0.2,0.7999999999999999,0.5235987755982988,0.0,0,0.25005004,1.1700455,-0.15057087,-0.11487036,-0.06332372,1.3273039,-0.3997241,0.42041922,0.4882175,-1.2196796,0.17679656,0.1109495,1.4366598,2.310013
-0.2,-0.2,0.7999999999999999,0.5235987755982988,0.0,0,-0.76318634,1.3020434,-0.072133504,-8.97675e-05,-0.15560211,1.2827128,0.20517938,0.42034557,0.4894623,-1.2199396,0.1767372,0.11378845,1.4399786,2.313348
-0.2,-0.2,0.7999999999999999,0.5235987755982988,0.0,0,-0.065867305,1.2003162,-0.08517141,-0.09565554,0.050074127,1.2523314,0.28749982,0.4226589,0.501424,-1.2229048,0.1765075,0.11284135,1.4374052,2.316133
-0.2,-0.2,0.7999999999999999,0.5235987755982988,0.0,0,-0.5176501,1.3079438,0.0070179794,-0.06111573,0.05243356,1.2311437,0.09698718,0.4226273,0.4929321,-1.2254171,0.17601947,0.114710435,1.438006,2.3035402
-0.2,-0.2,0.7999999999999999,0.5235987755982988,0.0,0,-0.18900672,1.340167,0.02989443,-0.046089772,0.099871054,1.2040557,-0.43757433,0.4218301,0.4942077,-1.219952,0.1766032,0.111778475,1.4325602,2.319118
-0.2,-0.2,0.7999999999999999,0.5235987755982988,0.0,0,1.0018631,1.1618451,-0.037892025,-0.078212135,0.192592,1.1887624,0.26844513,0.4191854,0.48624524,-1.2212664,0.17685908,0.11703853,1.439875,2.3167498
-0.2,-0.2,0.7999999999999999,0.5235987755982988,0.0,0,-0.6510712,1.3264655,-0.14713587,-0.0746417,0.066819154,1.308275,0.59937274,0.4201725,0.48915243,-1.222265,0.17753652,0.11630661,1.4376627,2.3173175
-0.2,-0.2,0.7999999999999999,0.5235987755982988,0.0,0,-0.43380418,1.3544012,-0.22906902,-0.057690956,-0.06182726,1.2140483,0.24454464,0.42198515,0.48660406,-1.2224221,0.17710057,0.11474471,1.439183,2.3293388
-0.2,-0.2,0.7999999999999999,0.5235987755982988,0.0,0,-1.4036589,1.3675907,-0.12702726,-0.068324104,0.033765897,1.321708,-0.05860482,0.4207406,0.4866187,-1.2196316,0.17665453,0.11604402,1.4398131,2.3109353
-0.2,-0.2,0.7999999999999999,0.5235987755982988,0.0,0,-0.8783688,1.2558812,-0.13505489,-0.07500412,-0.061150387,1.2079448,0.13173467,0.42156643,0.48294416,-1.2231754,0.17803957,0.119919196,1.4357443,2.337298
-0.2,-0.2,0.7999999999999999,0.5235987755982988,0.0,0,0.41326982,1.2903463,-0.27677497,-0.13237903,0.024157703,1.2849711,-0.45544398,0.42318743,0.49945706,-1.2202581,0.1749,0.11190677,1.4361883,2.3241503
-0.2,-0.2,0.7999999999999999,0.5235987755982988,0.0,0,-0.2520907,1.3558201,0.12711391,-0.13366394,-0.17613362,1.1945544,-0.415249,0.41986793,0.47641152,-1.2205554,0.17537877,0.11028745,1.4372469,2.3110046
-0.2,-0.2,0.7999999999999999,0.5235987755982988,0.0,0,-0.63062435,1.2725878,-0.0059037064,-0.07564756,-0.059416406,1.262334,0.10752188,0.42162693,0.4875801,-1.2184646,0.17823783,0.11572979,1.4381081,2.3088708
-0.2,-0.2,0.7999999999999999,0.5235987755982988,0.0,0,0.05513888,1.1991757,-0.15007368,-0.057652224,-0.089558534,1.2534865,-0.25531596,0.4230083,0.49284518,-1.220144,0.17609018,0.11382447,1.4428877,2.3219547
-0.2,-0.2,0.7999999999999999,0.5235987755982988,0.0,0,0.25038406,1.316947,-0.061333396,-0.05844757,-0.28708813,1.1194205,0.30454582,0.4203928,0.49090376,-1.2234836,0.17800176,0.11440775,1.4361105,2.32758
-0.2,-0.2,0.7999999999999999,0.5235987755982988,0.0,0,-0.2609488,1.1932667,-0.11041586,0.009120322,-0.13145016,1.3780099,0.07476858,0.42044675,0.4820578,-1.2210394,0.1761337,0.11205209,1.4370838,2.3245687
-0.2,-0.2,0.7999999999999999,0.5235987755982988,0.0,0,-0.56704444,1.3074229,0.03171881,-0.07919505,-0.032945674,1.1878893,0.301488,0.42208904,0.48797178,-1.2225162,0.17813398,0.11602349,1.4369638,2.3170545
-0.2,-0.2,0.7999999999999999,0.5235987755982988,0.0,0,-0.6836823,1.2045574,-0.05918225,-0.07774004,-0.24206589,1.2932149,0.51293296,0.4225709,0.49257958,-1.219749,0.1773549,0.11403183,1.4412774,2.3243732
-0.2,-0.2,0.7999999999999999,0.5235987755982988,0.0,0,-0.54319066,1.318568,-0.0764679,-0.12482088,0.15894966,1.2845254,0.38595283,0.42124853,0.48178092,-1.2207175,0.17756853,0.11378392,1.441758,2.321827
-0.2,-0.2,0.7999999999999999,0.5235987755982988,0.0,0,-0.37438798,1.2512892,-0.20854807,-0.11731235,0.035784993,1.1853486,-0.25662974,0.4194341,0.4916787,-1.2243378,0.17482409,0.1138911,1.4331889,2.311345
-0.2,-0.2,0.7999999999999999,0.5235987755982988,0.0,0,0.30197135,1.2423862,0.035615217,-0.07320232,0.08577496,1.1967329,0.09210791,0.4208042,0.4792299,-1.2231739,0.17982364,0.11052316,1.4422135,2.3167
-0.2,-0.2,0.7999999999999999,0.5235987755982988,0.0,0,-0.51268554,1.381944,0.012167205,-0.081996955,0.0507296,1.1937873,0.5180987,0.42290992,0.49127558,-1.2206978,0.17430258,0.11648711,1.4326718,2.307206
-0.2,-0.2,0.7999999999999999,0.5235987755982988,0.0,0,-0.7464696,1.2864109,-0.09484958,0.035204813,-0.038179457,1.2382301,0.029395223,0.41985846,0.48512626,-1.2195221,0.17644364,0.1094204,1.4343717,2.317543
-0.2,-0.2,0.7999999999999999,0.5235987755982988,0.0,0,-0.48894536,1.318581,-0.1341777,-0.024066562,-0.014888397,1.2015353,0.5602373,0.41926545,0.496251,-1.2214605,0.17533179,0.11340138,1.4345462,2.3249357
-0.2,-0.2,0.7999999999999999,0.5235987755982988,0.0,0,-1.2949102,1.2995828,-0.13487524,-0.06230877,-0.10445403,1.2638556,-0.45893925,0.42271402,0.49304935,-1.2170453,0.17616743,0.113886975,1.4348793,2.3163702
-0.2,-0.2,0.7999999999999999,0.5235987755982988,0.0,0,-0.9880599,1.3377656,0.06353242,-0.036136094,-0.18139735,1.3444262,-0.48749006,0.42219105,0.49913922,-1.2185843,0.17624652,0.114480756,1.4377596,2.320472
-0.2,-0.2,0.7999999999999999,0.5235987755982988,0.0,0,0.8427522,1.2280931,-0.119748764,-0.042372268,-0.066560894,1.255071,0.6149739,0.4232392,0.5049531,-1.2213434,0.17805386,0.11689807,1.4338713,2.3213966
-0.2,-0.2,0.7999999999999999,0.5235987755982988,0.0,0,-0.23534448,1.3205408,-0.070873946,-0.084144786,0.038933355,1.2504976,0.30865574,0.42017,0.48976678,-1.2203681,0.17433111,0.119454876,1.4336696,2.3108208
-0.2,-0.2,0.7999999999999999,0.5235987755982988,0.0,0,-0.20354642,1.3030622,-0.25821787,-0.055381242,0.1055381,1.2410336,0.1769536,0.41989875,0.48893067,-1.2209985,0.17516801,0.110182375,1.4387183,2.3095195
-0.2,-0.2,0.7999999999999999,0.5235987755982988,0.0,0,-0.075023815,1.3039459,0.039008435,-0.015242003,0.09608228,1.2935883,0.02968282,0.42001462,0.48263618,-1.2195392,0.17579967,0.11633574,1.4342024,2.3336294
-0.2,-0.2,0.7999999999999999,0.5235987755982988,0.0,0,-0.14185056,1.2962352,-0.114360146,-0.08239147,-0.104448326,1.217118,0.07051309,0.42044708,0.47943515,-1.2223117,0.1750001,0.11016464,1.4334955,2.3116364
-0.2,-0.2,0.7999999999999999,0.5235987755982988,0.0,0,-1.4966755,1.2368913,-0.040791024,-0.15310064,-0.007661057,1.2088915,0.5330775,0.41814202,0.48719808,-1.2174926,0.1763299,0.11242803,1.4384638,2.3200445
-0.2,-0.2,0.7999999999999999,0.5235987755982988,0.0,0,0.4211587,1.214652,0.030867001,-0.103970535,0.057505284,1.2209308,-0.831165,0.42374638,0.49747178,-1.2200484,0.17634772,0.11040837,1.4374838,2.3208945
-0.2,-0.2,0.7999999999999999,0.5235987755982988,0.0,0,0.13437435,1.2972786,-0.014562426,-0.116200924,0.01885518,1.3012611,-0.48404858,0.41979757,0.49868062,-1.2190032,0.17627403,0.11252302,1.4368367,2.3200598
-0.2,-0.2,0.7999999999999999,0.5235987755982988,0.0,0,0.05836913,1.320934,0.114345975,-0.085488364,0.24075325,1.2734532,0.21786448,0.4208312,0.48660508,-1.2219336,0.17486353,0.11490753,1.4346768,2.3220787
-0.2,-0.2,0.7999999999999999,0.5235987755982988,0.0,0,0.103941515,1.3268179,0.0043166205,-0.034193873,-0.16891372,1.1921656,0.009926234,0.41864443,0.47994766,-1.2218738,0.17797227,0.114674985,1.4387007,2.3141992
-0.2,-0.2,0.7999999999999999,0.5235987755982988,0.0,0,-0.6251349,1.130126,-0.20078821,-0.08335266,0.08444777,1.2184093,-0.18870755,0.4187556,0.48506826,-1.2225825,0.1772943,0.11167706,1.4380548,2.3129473
-0.2,-0.2,0.7999999999999999,0.5235987755982988,0.0,0,-0.6215313,1.3858584,-0.05960796,0.0315939,0.29680356,1.2585754,0.011860339,0.42348477,0.47045276,-1.2212917,0.17456695,0.11448075,1.4353536,2.3128407
-0.2,-0.2,0.7999999999999999,0.5235987755982988,0.0,0,-0.5300835,1.3140099,-0.25932032,-0.08903454,0.06637924,1.2386317,0.09713773,0.42150348,0.48498127,-1.2183715,0.17563163,0.11523638,1.4371672,2.32759
-0.2,-0.2,0.7999999999999999,0.5235987755982988,0.0,0,0.5013951,1.2766395,-0.19976506,-0.06505871,0.091239296,1.2468677,-0.008825723,0.42311528,0.49939418,-1.220372,0.17682734,0.11170466,1.4370524,2.3245087
-0.2,-0.2,0.7999999999999999,0.5235987755982988,0.0,0,-1.2710878,1.1710649,-0.061492585,0.0038533467,-0.13891102,1.3474033,0.39634806,0.4218115,0.48652798,-1.2196863,0.175638,0.11312833,1.4330136,2.3214808
-0.2,-0.2,0.7999999999999999,0.5235987755982988,0.0,0,0.37171122,1.3723998,0.105482265,-0.0918625,-0.12025037,1.2720954,0.070058055,0.4205525,0.49403396,-1.2161553,0.17850189,0.11799965,1.4365907,2.2993684
-0.2,-0.2,0.7999999999999999,0.5235987755982988,0.0,0,-0.2986633,1.2919823,0.05149126,-0.05319421,0.17178519,1.2697974,0.12937821,0.4214328,0.48601124,-1.220554,0.1759921,0.10861638,1.4362123,2.302258
-0.2,-0.2,0.7999999999999999,0.5235987755982988,0.0,0,0.15154667,1.3937556,0.049362257,-0.063182734,0.1505631,1.226752,-0.1524959,0.42087626,0.48529333,-1.2221649,0.17589279,0.1099492,1.4352506,2.304322
-0.2,-0.2,0.7999999999999999,0.5235987755982988,0.0,0,-0.5552639,1.2816801,-0.022829672,-0.042557865,-0.29535574,1.3792084,0.76836175,0.42156652,0.4880298,-1.2220161,0.17697956,0.11396788,1.4374541,2.33484
-0.2,-0.2,0.7999999999999999,0.5235987755982988,0.0,0,0.019262973,1.2297384,-0.119632885,-0.05207555,-0.04524058,1.1929386,0.22743286,0.42095727,0.48496017,-1.2209667,0.17868637,0.1150183,1.434441,2.2968335
-0.2,-0.2,0.7999999999999999,0.5235987755982988,0.0,0,-0.20570624,1.3609512,-0.104111195,-0.028680759,-0.047922328,1.2806778,-0.10920345,0.42078698,0.50194174,-1.222509,0.1784966,0.113729544,1.4352176,2.3190799
-0.2,-0.2,0.7999999999999999,0.5235987755982988,0.0,0,0.5792203,1.2570571,0.16345277,-0.042620976,0.08468575,1.3144925,0.4976281,0.4230742,0.49866164,-1.2222604,0.17698532,0.10928302,1.4364206,2.3178465
-0.2,-0.2,0.7999999999999999,0.5235987755982988,0.0,0,0.09597129,1.3600826,-0.19904654,-0.025415232,0.08990652,1.2781066,0.76186043,0.4239322,0.49336052,-1.2179252,0.1784152,0.109639704,1.4322997,2.294011
-0.2,-0.2,0.7999999999999999,0.5235987755982988,0.0,0,0.2805694,1.2756782,0.12512557,-0.004810562,-0.0144182835,1.2583991,-0.14043665,0.42259565,0.4845803,-1.2188296,0.17550118,0.11134059,1.4375985,2.3054194
-0.2,-0.2,0.7999999999999999,0.5235987755982988,0.0,0,0.35220858,1.3297733,0.030348383,-0.10275927,0.12066735,1.2981181,0.23979223,0.42059553,0.48711124,-1.2231667,0.1767369,0.1159521,1.4396528,2.321453
-0.2,-0.2,0.7999999999999999,0.5235987755982988,0.0,0,0.2720118,1.3822964,-0.077805124,-0.055083193,-0.009649187,1.3076749,-0.10387705,0.4189932,0.49069574,-1.2212992,0.17301981,0.11318452,1.4393739,2.3019435
-0.2,-0.2,0.7999999999999999,0.5235987755982988,0.0,0,-0.12555857,1.2977499,-0.15548758,-0.06272693,0.1710449,1.275309,-0.511853,0.42323807,0.48439074,-1.2238424,0.1749854,0.1139444,1.4371881,2.305137
-0.2,-0.2,0.7999999999999999,0.5235987755982988,0.0,0,0.23731615,1.2142974,-0.04024743,-0.062368758,0.03950063,1.259256,-0.6488596,0.4163342,0.5132519,-1.2184572,0.17649974,0.11068632,1.4350319,2.3130713
-0.2,-0.2,0.7999999999999999,0.5235987755982988,0.0,0,-0.5629637,1.2845466,0.01769362,-0.11378446,0.09579802,1.285468,-0.33289355,0.42162997,0.50011384,-1.2212938,0.17628734,0.10994899,1.4293739,2.3101017
-0.2,-0.2,0.7999999999999999,0.5235987755982988,0.0,0,-0.42691123,1.2982775,-0.099076085,-0.05898328,-0.09824598,1.1486762,0.76157296,0.4172076,0.48750874,-1.22052,0.17606023,0.11328496,1.4382808,2.317199
-0.2,-0.2,0.7999999999999999,0.5235987755982988,0.0,0,-1.3322461,1.2792525,-0.004920666,-0.07215521,-0.07894316,1.2491665,0.10450347,0.42434466,0.50948536,-1.2183661,0.17821273,0.109737515,1.4364587,2.3051546
-0.2,-0.2,0.7999999999999999,0.5235987755982988,0.0,0,0.33978087,1.3204867,0.04802395,-0.10761405,0.08350862,1.1901461,0.5898033,0.41903698,0.48559928,-1.2198086,0.17844827,0.114841916,1.4337817,2.2998283
-0.2,-0.2,0.7999999999999999,0.5235987755982988,0.0,0,0.5933345,1.2040781,-0.24529526,-0.013394411,0.06573833,1.2466152,0.07744652,0.4221592,0.47386017,-1.2200047,0.17674722,0.11062552,1.440802,2.310376
-0.2,-0.2,0.7999999999999999,0.5235987755982988,0.0,0,-1.3154324,1.2651932,-0.06473705,-0.06591693,0.14133559,1.243283,0.118477456,0.42353663,0.49151847,-1.218703,0.17653552,0.114502765,1.43752,2.3109653
-0.2,-0.2,0.7999999999999999,0.5235987755982988,0.0,0,-0.18594973,1.2405354,-0.11172978,-0.07020628,-0.015587095,1.256795,-0.1552617,0.41903666,0.49520227,-1.218349,0.1751744,0.11199437,1.4340463,2.3069952
-0.2,-0.2,0.7999999999999999,0.5235987755982988,0.0,0,0.18613945,1.4400201,-0.18562794,-0.0062605077,0.005717232,1.2004105,0.29974768,0.42015848,0.49110198,-1.2217996,0.17819567,0.11052486,1.4358631,2.3192565
-0.2,-0.2,0.7999999999999999,0.5235987755982988,0.0,0,-0.14987545,1.326885,0.11163404,-0.03263911,-0.032214474,1.3420818,-0.32972372,0.42170113,0.48593137,-1.2177781,0.17577028,0.11305271,1.4383738,2.3080578
-0.2,-0.2,0.7999999999999999,0.5235987755982988,0.0,0,0.50773245,1.22956,-0.093572594,0.002955661,0.01432003,1.2350405,-0.21597694,0.42027804,0.49039724,-1.2203419,0.17695299,0.11302821,1.4390182,2.3211677
-0.2,-0.2,0.7999999999999999,0.5235987755982988,0.0,0,-1.2508212,1.3500772,0.105177216,-0.098917075,0.054047577,1.3970128,0.5355962,0.42066056,0.49709368,-1.2166206,0.1766317,0.10949529,1.4373453,2.3077393
-0.2,-0.2,0.7999999999999999,0.5235987755982988,0.0,0,-1.2534177,1.2557058,0.055685103,-0.024046738,-0.093663916,1.2188865,0.004481602,0.41995856,0.48923823,-1.2203106,0.17838769,0.10879417,1.4383897,2.2996752
-0.2,-0.2,0.7999999999999999,0.5235987755982988,0.0,0,-0.48334748,1.2618603,-0.015150302,-0.093883485,0.028686551,1.2022041,-0.14155142,0.42141446,0.48435575,-1.2243712,0.1773568,0.110095926,1.4355497,2.3065324
-0.2,-0.2,0.7999999999999999,0.5235987755982988,0.0,0,0.23388134,1.3739268,-0.07127803,-0.016786208,-0.009034404,1.2451656,0.1276417,0.42286387,0.48589927,-1.2222762,0.17716058,0.11074969,1.4324816,2.2919657
-0.2,-0.2,0.7999999999999999,0.5235987755982988,0.0,0,-0.5602752,1.242466,0.022093926,-0.03868267,0.099380925,1.2020606,-0.045854665,0.42047933,0.4946246,-1.2199033,0.17643906,0.110133536,1.4349682,2.316434
-0.2,-0.2,0.7999999999999999,0.5235987755982988,0.0,0,-0.3076405,1.3459239,0.27288142,-0.15120023,0.084310964,1.3307427,-0.35360128,0.420317,0.49289715,-1.2220299,0.17855573,0.11284162,1.4337049,2.3063931
-0.2,-0.2,0.7999999999999999,0.5235987755982988,0.0,0,0.14435843,1.3406873,-0.0322249,-0.10863222,0.10794137,1.2001983,0.16475336,0.42252365,0.47870055,-1.2206808,0.17737478,0.11282364,1.430646,2.3000412
-0.2,-0.2,0.7999999999999999,0.5235987755982988,0.0,0,-0.5502468,1.2384443,-0.08372744,-0.118619755,0.0960111,1.2345792,0.095135905,0.42145845,0.49214086,-1.2213604,0.17547055,0.11763998,1.4390403,2.309398
-0.2,-0.2,0.7999999999999999,0.5235987755982988,0.0,0,-0.62359947,1.3402654,0.10442961,0.017680319,0.15351908,1.1990513,0.03356438,0.41831487,0.49980587,-1.2185233,0.17709023,0.11211151,1.4346377,2.3057396
-0.2,-0.2,0.7999999999999999,0.5235987755982988,0.0,0,-0.3972157,1.3513967,-0.12830089,-0.044433855,0.05630589,1.2886789,0.091453135,0.42136988,0.4831249,-1.2207597,0.17567642,0.11259234,1.4315766,2.3155072
-0.2,-0.2,0.7999999999999999,0.5235987755982988,0.0,0,1.2172153,1.212145,-0.08352691,-0.095379524,0.06439661,1.2017521,0.4498587,0.4223341,0.48800775,-1.2183709,0.17509638,0.112528704,1.4348719,2.3137853
-0.2,-0.2,0.7999999999999999,0.5235987755982988,0.0,0,-0.8695508,1.2872124,0.003193613,-0.07072638,0.0326952,1.2156855,-0.59288305,0.4214604,0.47480816,-1.2219999,0.1755831,0.11583654,1.4372883,2.3220441
-0.2,-0.2,0.7999999999999999,0.5235987755982988,0.0,0,0.922473,1.2444147,-0.104080595,-0.10785839,0.034747306,1.3119962,0.19266257,0.42278507,0.4926236,-1.2158717,0.17681564,0.107845455,1.4366397,2.3216236
-0.2,-0.2,0.7999999999999999,0.5235987755982988,0.0,0,-0.27357516,1.3424551,-0.061824434,-0.11230673,0.038634203,1.2767273,-0.032706186,0.4220727,0.50223184,-1.2212383,0.1762463,0.11195544,1.4330531,2.322732
-0.2,-0.2,0.7999999999999999,0.5235987755982988,0.0,0,-0.8406081,1.3746524,-0.22683345,-0.039761208,0.13025354,1.2911301,-0.64511776,0.41938484,0.49981108,-1.2223928,0.17537339,0.11394923,1.4362924,2.3139584
-0.2,-0.2,0.7999999999999999,0.5235987755982988,0.0,0,0.22962159,1.1749218,-0.010707706,-0.022105454,-0.07992991,1.2109946,0.0394621,0.4220797,0.48492202,-1.2206922,0.17972781,0.11112605,1.4407232,2.3024108
-0.2,-0.2,0.7999999999999999,0.5235987755982988,0.0,0,0.254076,1.3233123,-0.13160141,-0.026894214,0.0062044915,1.2832824,1.087775,0.42167768,0.49800324,-1.2192048,0.17837025,0.11040508,1.4344202,2.3111193
-0.2,-0.2,0.7999999999999999,0.5235987755982988,0.0,0,-0.42144445,1.2773652,-0.13398036,-0.011589409,-0.1563028,1.1614636,1.1297996,0.42229337,0.49576288,-1.2231706,0.17546138,0.12171378,1.4378278,2.3127468
-0.2,-0.2,0.7999999999999999,0.5235987755982988,0.0,0,-0.3607008,1.2986993,-0.081394605,0.0056381095,-0.09385505,1.3058978,0.14803395,0.42181697,0.48830026,-1.2203541,0.17553276,0.114122815,1.4377048,2.3105443
-0.2,-0.2,0.7999999999999999,0.5235987755982988,0.0,0,-0.1088962,1.2903923,0.11384089,-0.09021274,0.14600895,1.1889162,0.00092314294,0.4216389,0.5048191,-1.2197832,0.17854212,0.11222971,1.4345375,2.3087254
-0.2,-0.2,0.7999999999999999,0.5235987755982988,0.0,0,0.106276765,1.3260859,0.141579,-0.07010069,0.062450785,1.3019332,0.11122445,0.4209632,0.4931353,-1.2240497,0.17760392,0.11501708,1.4395082,2.3019822
-0.2,-0.2,0.7999999999999999,0.5235987755982988,0.0,0,0.15399624,1.2505738,0.076532334,-0.101948634,0.017217563,1.2087804,-0.39670572,0.4210022,0.48688245,-1.2189144,0.17870389,0.112428114,1.4328775,2.3228996
-0.2,-0.2,0.7999999999999999,0.5235987755982988,0.0,0,-0.442612,1.2977445,-0.13426276,-0.079971716,-0.16514926,1.3387022,0.811567,0.42391726,0.49204937,-1.223073,0.17717537,0.117412135,1.4363763,2.3180127
-0.2,-0.2,0.7999999999999999,0.5235987755982988,0.0,0,-0.13784446,1.2658523,-0.14543815,-0.043465007,-0.066607065,1.2825892,-0.02463193,0.4159409,0.4838016,-1.2196714,0.17741136,0.11073783,1.4350324,2.3173618
-0.2,-0.2,0.7999999999999999,0.5235987755982988,0.0,0,-0.29950583,1.2341127,-0.2798036,-0.042238634,0.20990571,1.2688417,0.29991436,0.42168552,0.48999822,-1.2187701,0.17658313,0.11195977,1.434341,2.3216503
-0.2,-0.2,0.7999999999999999,0.5235987755982988,0.0,0,-0.37449923,1.2749249,-0.07565628,-0.015792783,0.047643255,1.1681612,0.55788195,0.4216052,0.4973453,-1.2197874,0.17745352,0.11073257,1.4388328,2.305439
-0.2,-0.2,0.7999999999999999,0.5235987755982988,0.0,0,0.4911956,1.3275915,-0.25483325,-0.036111884,0.029764667,1.2222902,-0.606114,0.42340457,0.49374193,-1.2218149,0.17452647,0.11789195,1.434072,2.3228233
-0.2,-0.2,0.7999999999999999,0.5235987755982988,0.0,0,-0.29828045,1.3097943,0.032573257,-0.052224547,-0.30660918,1.3624547,0.53970593,0.41965505,0.49865386,-1.2199135,0.17746118,0.11329411,1.434179,2.3013968
-0.2,-0.2,0.7999999999999999,0.5235987755982988,0.0,0,0.47944313,1.2626001,-0.0727715,-0.042335737,0.009637525,1.2718022,0.2505127,0.42198157,0.49537492,-1.2225868,0.1744567,0.11457294,1.436152,2.3142443
-0.2,-0.2,0.7999999999999999,0.5235987755982988,0.0,0,0.4963224,1.2990237,0.08277283,-0.064589664,0.0030734234,1.234342,-0.03112153,0.42197734,0.49092394,-1.2216505,0.17670049,0.1143991,1.4370099,2.3069131
-0.2,-0.2,0.7999999999999999,0.5235987755982988,0.0,0,-0.124248095,1.2215633,-0.0980787,-0.025062934,-0.022202851,1.3965819,-0.20510228,0.4199708,0.48426315,-1.2202162,0.1770541,0.11596008,1.441227,2.3195899
-0.2,-0.2,0.7999999999999999,0.5235987755982988,0.0,0,0.21075925,1.3061779,-0.12305443,-0.14405496,-0.014373726,1.2699462,0.17666377,0.420497,0.5009273,-1.2217029,0.17699485,0.11108878,1.4365319,2.3118656
-0.2,-0.2,0.7999999999999999,0.5235987755982988,0.0,0,-0.065516196,1.2458624,0.15687464,-0.075314805,-0.0032892493,1.2409165,-0.39909068,0.42173734,0.48645276,-1.2205448,0.1743616,0.11293461,1.4371514,2.3143384
-0.2,-0.2,0.7999999999999999,0.5235987755982988,0.0,0,0.04591606,1.2764097,-0.14076388,-0.06678035,-0.22131108,1.26739,-0.0525279,0.42201212,0.48656204,-1.2200614,0.17880882,0.11320464,1.4367867,2.3144152
-0.2,-0.2,0.7999999999999999,0.5235987755982988,0.0,0,-0.10457376,1.2135525,0.0040830118,0.0073738573,-0.18018566,1.2497141,0.074216336,0.41897988,0.502458,-1.218798,0.17484884,0.112906426,1.4349504,2.321109
-0.2,-0.2,0.7999999999999999,0.5235987755982988,0.0,0,-0.3928618,1.3527923,-0.1359901,-0.07533761,0.061800968,1.3077515,0.9292445,0.4189193,0.49334356,-1.219664,0.17966008,0.113652684,1.4369956,2.316815
-0.2,-0.2,0.7999999999999999,0.5235987755982988,0.0,0,0.32784882,1.3627648,0.042538106,-0.11919067,0.14809611,1.2557774,0.7515094,0.42322826,0.4794473,-1.2218223,0.17729679,0.11248283,1.4339471,2.3131163
-0.2,-0.2,0.7999999999999999,0.5235987755982988,0.0,0,-0.4327582,1.2712866,0.009621141,-0.08029224,0.01996965,1.2102089,0.69358194,0.4222318,0.4825157,-1.2221761,0.17839886,0.11007302,1.4391822,2.2948592
-0.2,-0.2,0.7999999999999999,0.5235987755982988,0.0,0,0.00236407,1.3419284,-0.052473288,-0.006089229,0.16229387,1.3203417,0.4892008,0.42178416,0.4757871,-1.2229155,0.17938972,0.10943929,1.4351426,2.2974463
-0.2,-0.2,0.7999999999999999,0.5235987755982988,0.0,0,0.25926727,1.2833871,-0.15847328,-0.054249752,-0.03506715,1.2876966,0.049188167,0.42047918,0.4975226,-1.2192724,0.17951077,0.11185197,1.4364392,2.3024344
-0.2,-0.2,0.7999999999999999,0.5235987755982988,0.0,0,-1.7369546,1.1897343,0.042790603,-0.043417353,-0.0027254613,1.1731288,0.40207225,0.4209162,0.4952558,-1.2198905,0.1777758,0.11501949,1.4407576,2.3138435
-0.2,-0.2,0.7999999999999999,0.5235987755982988,0.0,0,-0.6234611,1.3567215,-0.031073343,-0.09116394,-0.06253809,1.2735516,-0.3065949,0.42060876,0.4959868,-1.2219839,0.1760651,0.11488162,1.4350935,2.3069394
-0.2,-0.2,0.7999999999999999,0.5235987755982988,0.0,0,-0.6888336,1.2174932,-0.22164857,-0.0576988,0.14266936,1.1821481,-0.15078294,0.4223665,0.48628625,-1.2199076,0.1794184,0.11033901,1.4338613,2.3137455
-0.2,-0.2,0.7999999999999999,0.5235987755982988,0.0,0,-0.51448685,1.2806617,-0.086844906,-0.07861886,0.006404526,1.2109419,0.21280515,0.42089146,0.48934948,-1.2205637,0.17677028,0.110598356,1.4382155,2.3155239
-0.2,-0.2,0.7999999999999999,0.5235987755982988,0.0,0,-0.87236327,1.2372905,-0.28228384,-0.06352064,0.052415915,1.3111156,-0.124217406,0.42014706,0.49845645,-1.220753,0.17394531,0.1103232,1.4408901,2.3190444
-0.2,-0.2,0.7999999999999999,0.5235987755982988,0.0,0,-0.16321678,1.4037042,-0.28370643,-0.10292907,-0.03597265,1.2322603,0.2375072,0.4205035,0.49534518,-1.2203554,0.1754135,0.113427065,1.4398036,2.298431
-0.2,-0.2,0.7999999999999999,0.5235987755982988,0.0,0,0.024484811,1.2287285,-0.056021247,-0.061416112,-0.17564112,1.2275438,-0.06908862,0.42136303,0.50506073,-1.2189091,0.17782557,0.115016036,1.4352052,2.3214586
-0.2,-0.2,0.7999999999999999,0.5235987755982988,0.0,0,-1.1337179,1.3108218,0.1967253,-0.10003195,0.027338706,1.2730852,0.53888035,0.42204696,0.4901479,-1.2185628,0.17643487,0.11462077,1.4364735,2.3307574
-0.2,-0.2,0.7999999999999999,0.5235987755982988,0.0,0,0.45873958,1.2712629,0.007707511,-0.058083244,-0.0425177,1.273438,0.19027926,0.4178984,0.48862982,-1.2199079,0.17557094,0.11785418,1.4396322,2.319201
-0.2,-0.2,0.7999999999999999,0.5235987755982988,0.0,0,-1.8179519,1.2932819,0.22587742,-0.064435065,0.12459648,1.3215095,0.15857588,0.4218754,0.4881045,-1.2183715,0.1752725,0.11155205,1.4397297,2.3294206
-0.2,-0.2,0.7999999999999999,0.5235987755982988,0.0,0,1.1713431,1.2683334,0.0061378223,-0.03929916,-0.21258345,1.2327214,0.090633914,0.420082,0.4898307,-1.2195998,0.17790002,0.111314915,1.437962,2.3120553
-0.2,-0.2,0.7999999999999999,0.5235987755982988,0.0,0,-0.58353215,1.3153381,-0.059974506,0.012340747,-0.11401018,1.3010362,0.78855973,0.42099556,0.46940255,-1.221589,0.17618252,0.114528336,1.4402133,2.3169024
-0.2,-0.2,0.7999999999999999,0.5235987755982988,0.0,0,-0.5748506,1.2569631,-0.109459534,-0.07431805,0.17093834,1.3455808,0.9552734,0.4193651,0.47562173,-1.215344,0.1751606,0.11192613,1.4379678,2.3004565
-0.2,-0.2,0.7999999999999999,0.5235987755982988,0.0,0,0.12893115,1.3192258,-0.03758052,-0.057525158,0.03988429,1.276389,0.4709055,0.42339733,0.48802674,-1.2205652,0.17701495,0.113451175,1.4342331,2.3232691
-0.2,-0.2,0.7999999999999999,0.5235987755982988,0.0,0,-0.7451531,1.3543624,-0.20883611,-0.10621921,0.15787871,1.180703,-0.11487102,0.42256987,0.4850312,-1.219244,0.17928238,0.11296722,1.4367326,2.324437
-0.2,-0.2,0.7999999999999999,0.5235987755982988,0.0,0,-0.914336,1.3622694,0.019309856,-0.06653818,-0.12373019,1.2402197,0.6560656,0.41930628,0.49071878,-1.2204603,0.17745537,0.11278513,1.4366616,2.3038983
-0.2,-0.2,0.7999999999999999,0.5235987755982988,0.0,0,-0.048677303,1.3747871,-0.31912005,-0.06625555,-0.019836547,1.3295597,-0.08529092,0.42005014,0.4885775,-1.2226974,0.17403309,0.1126056,1.4359792,2.3083153
-0.2,-0.2,0.7999999999999999,0.5235987755982988,0.0,0,-0.7252555,1.2481698,-0.10833759,-0.12057637,-0.08203232,1.2892888,0.10034018,0.42044377,0.507695,-1.220544,0.1743961,0.11047664,1.437004,2.3001876
-0.2,-0.2,0.7999999999999999,0.5235987755982988,0.0,0,-0.8994465,1.1840688,0.047397252,-0.02722688,0.0997195,1.2686467,-0.38805178,0.41857338,0.47893795,-1.2215637,0.17577758,0.117546745,1.4387368,2.29818
-0.2,-0.2,0.7999999999999999,0.5235987755982988,0.0,0,0.2127687,1.390831,-0.020662839,-0.04880205,-0.14392622,1.2412571,0.5376354,0.4231379,0.48449355,-1.2240894,0.17481595,0.112342395,1.4394028,2.3228915
-0.2,-0.2,0.7999999999999999,0.5235987755982988,0.0,0,0.08714859,1.3660473,-0.1472069,-0.053720836,0.07595281,1.2642906,-0.28211233,0.4220231,0.48447326,-1.2186252,0.17646189,0.110741906,1.4378574,2.3102062
-0.2,-0.2,0.7999999999999999,0.5235987755982988,0.0,0,-0.082264565,1.2750399,-0.11897707,-0.098291546,0.1251122,1.2464631,1.0984994,0.41972816,0.4963391,-1.2219273,0.17550988,0.11242434,1.438639,2.314814
-0.2,-0.2,0.7999999999999999,0.5235987755982988,0.0,0,-0.38845605,1.2192482,-0.13412103,-0.061415743,0.045778196,1.2009249,0.45251885,0.4218122,0.49795127,-1.2219267,0.17469186,0.11269258,1.4379311,2.3162704
-0.2,-0.2,0.7999999999999999,0.5235987755982988,0.0,0,-0.30891618,1.2686471,-0.13613154,-0.1537256,0.062118724,1.1818043,-0.023606753,0.41998363,0.4858241,-1.2235801,0.17376307,0.112066895,1.4353815,2.3074434
-0.2,-0.2,0.7999999999999999,0.5235987755982988,0.0,0,0.533971,1.3021021,-0.24644376,-0.082636975,0.06681516,1.2208655,0.4670476,0.422447,0.49147844,-1.2200389,0.17705557,0.11012599,1.4374145,2.314014
-0.2,-0.2,0.7999999999999999,0.5235987755982988,0.0,0,1.1655736,1.1863353,-0.061831407,-0.075684726,-0.17009352,1.2628593,0.34861544,0.4192865,0.47972715,-1.2219961,0.17667943,0.11749832,1.44108,2.3259413
-0.2,-0.2,0.7999999999999999,0.5235987755982988,0.0,0,-0.33750433,1.2051898,0.11531442,-0.07648344,-0.009567295,1.2294248,0.11228224,0.42055565,0.48171905,-1.2231753,0.17364626,0.1134171,1.4360899,2.3294647
-0.2,-0.2,0.7999999999999999,0.5235987755982988,0.0,0,-0.08975039,1.3932806,-0.09608749,-0.06263707,-0.015935384,1.2043786,0.18416876,0.41883123,0.4835031,-1.2204472,0.17661701,0.11656953,1.4409852,2.312
-0.2,-0.2,0.7999999999999999,0.5235987755982988,0.0,0,-0.0679022,1.3561637,0.010024697,-0.0324314,0.03191532,1.3009892,0.25630108,0.42105618,0.4829638,-1.2192926,0.17931807,0.114878364,1.4384184,2.3218408
-0.2,-0.2,0.7999999999999999,0.5235987755982988,0.0,0,0.3329326,1.249334,-0.008029579,-0.08357966,-0.12591468,1.1326504,0.6713411,0.42149103,0.48630005,-1.2204758,0.17968221,0.11538881,1.4359143,2.3208802
-0.2,-0.2,0.7999999999999999,0.5235987755982988,0.0,0,0.02692261,1.3615049,-0.010777264,-0.03993212,0.22507474,1.3461539,0.43074927,0.42236218,0.5082299,-1.2215858,0.17658679,0.10907741,1.4318582,2.326832
-0.2,-0.2,0.7999999999999999,0.5235987755982988,0.0,0,0.0723897,1.4230055,0.024366297,-0.069875635,-0.090818435,1.2792156,0.00978547,0.42146203,0.47867534,-1.2208745,0.17761196,0.118817255,1.4395646,2.3159823
-0.2,-0.2,0.7999999999999999,0.5235987755982988,0.0,0,-0.13844554,1.2773943,0.04767109,-0.04221299,-0.019992959,1.2973771,0.23820797,0.42075074,0.4809199,-1.2228978,0.17758858,0.11881318,1.4359037,2.3124266
-0.2,-0.2,0.7999999999999999,0.5235987755982988,0.0,0,0.10699843,1.2098876,0.09175325,-0.063851856,-0.035089877,1.3922312,-0.21215458,0.42156857,0.48026773,-1.2190608,0.17989816,0.117015526,1.437328,2.3220775
-0.2,-0.2,0.7999999999999999,0.5235987755982988,0.0,0,-0.004091221,1.3647362,-0.05653479,-0.057717636,0.24722885,1.2385346,0.46519905,0.42206508,0.49896118,-1.2213752,0.17488034,0.11396574,1.4377726,2.3194559
-0.2,-0.2,0.7999999999999999,0.5235987755982988,0.0,0,-0.22610648,1.2046899,-0.035882834,-0.046958014,-0.06662521,1.2433934,-0.0043798448,0.41719884,0.47945756,-1.2205611,0.17683132,0.111986145,1.4410884,2.3148758
-0.2,-0.2,0.7999999999999999,0.5235987755982988,0.0,0,-0.12991482,1.3345615,0.024206901,0.014440601,0.11590149,1.2537959,-0.5816538,0.41880697,0.49132487,-1.2183185,0.17678742,0.11632117,1.4328276,2.3054361
-0.2,-0.2,0.7999999999999999,0.5235987755982988,0.0,0,-0.2151264,1.316248,-0.16907415,-0.03943836,0.053660657,1.2519867,-0.21803774,0.4199127,0.48574933,-1.2172884,0.1775768,0.11179002,1.4361188,2.324163
-0.2,-0.2,0.7999999999999999,0.5235987755982988,0.0,0,0.32712418,1.3090088,-0.07424117,-0.05706886,-0.042396158,1.2681872,-0.053805064,0.42194122,0.48928043,-1.2204584,0.17783624,0.11220746,1.4306164,2.3167474
-0.2,-0.2,0.7999999999999999,0.5235987755982988,0.0,0,-0.30533126,1.158057,0.110915385,-0.0164781,0.05560787,1.2665409,-0.2943856,0.4231493,0.5094603,-1.2239314,0.17741632,0.11120697,1.4388617,2.3063624
-0.2,-0.2,0.7999999999999999,0.5235987755982988,0.0,0,-0.25529504,1.2434558,0.19681674,-0.10845129,0.17353736,1.2424817,-0.11488146,0.42065543,0.48302105,-1.2229244,0.17663488,0.11360655,1.4365087,2.311134
-0.2,-0.2,0.7999999999999999,0.5235987755982988,0.0,0,-0.08741499,1.3158518,0.13613732,-0.14576282,0.0029684298,1.2053052,0.47338915,0.4255129,0.49000815,-1.2201468,0.17906922,0.10727451,1.4361092,2.3088467
-0.2,-0.2,0.7999999999999999,0.5235987755982988,0.0,0,-0.32497528,1.3467551,-0.14837945,-0.1019309,0.13818723,1.2960337,0.8443154,0.41961238,0.4936634,-1.2205681,0.1753575,0.11207881,1.4376106,2.3098972
-0.2,-0.2,0.7999999999999999,0.5235987755982988,0.0,0,-0.624921,1.2311975,0.01707456,-0.103031605,0.19976723,1.2180997,-0.42976865,0.42171383,0.4939018,-1.2198615,0.1761328,0.1109026,1.4367603,2.3157036
-0.2,-0.2,0.7999999999999999,0.5235987755982988,0.0,0,-1.2097492,1.3312768,-0.320205,-0.06673272,0.06107704,1.243679,-0.9605026,0.4221908,0.4912398,-1.2202235,0.17713286,0.11593711,1.4357404,2.3328056
-0.2,-0.2,0.7999999999999999,0.5235987755982988,0.0,0,-0.45279047,1.263464,-0.037050024,-0.09966751,0.076511495,1.1722965,0.017622992,0.42050174,0.48659652,-1.219962,0.17606212,0.11300493,1.4372952,2.3195536
-0.2,-0.2,0.7999999999999999,0.5235987755982988,0.0,0,-1.6760768,1.3290833,0.0009811366,-0.056759045,0.13930656,1.3549439,-0.3770048,0.41916654,0.49646312,-1.2219344,0.17889991,0.1155422,1.4372029,2.312856
-0.2,-0.2,0.7999999999999999,0.5235987755982988,0.0,0,-0.4425051,1.317013,-0.0010659406,-0.06883781,0.019119415,1.1930732,0.6995419,0.42025402,0.4829398,-1.2215886,0.17737478,0.110268764,1.4349053,2.2986283
