sanky1234/BimanualDexCatch/isaacgymenvs/cem_results/football_pose_-0.2_-0.2_0.7999999999999999_-0.5235987755982988_0.5235987755982988_0_2025-05-24.csv
x,y,z,roll,pitch,yaw,robot1/joint1,robot1/joint2,robot1/joint3,robot1/joint4,robot1/joint5,robot1/joint6,robot1/joint7,robot2/joint1,robot2/joint2,robot2/joint3,robot2/joint4,robot2/joint5,robot2/joint6,robot2/joint7
-0.2,-0.2,0.7999999999999999,-0.5235987755982988,0.5235987755982988,0,-0.7025497,1.2591605,0.034365706,-0.08382583,-0.12256802,1.310262,-0.54590625,-0.36066476,1.1607472,-1.3172792,0.021526739,0.44217902,0.99901783,1.0614924
-0.2,-0.2,0.7999999999999999,-0.5235987755982988,0.5235987755982988,0,0.11299104,1.3241073,-0.23640957,-0.09101814,0.16582401,1.2264329,-0.7142408,-0.36114532,1.1614146,-1.3145578,0.021409146,0.4798477,1.0021118,1.2877321
-0.2,-0.2,0.7999999999999999,-0.5235987755982988,0.5235987755982988,0,-0.887056,1.3493181,-0.3274527,-0.08430265,-0.064646564,1.239078,0.60555077,-0.3610299,1.1612138,-1.3160778,0.021725284,0.46834645,1.0023886,0.36787584
-0.2,-0.2,0.7999999999999999,-0.5235987755982988,0.5235987755982988,0,-0.19690065,1.3611573,-0.43674925,-0.027270209,-0.1006256,1.3408102,-1.1383896,-0.36093044,1.1625826,-1.3162259,0.020808361,0.45227256,0.9949097,0.8936314
-0.2,-0.2,0.7999999999999999,-0.5235987755982988,0.5235987755982988,0,-0.43656427,1.2855386,-0.21618673,-0.07608365,0.07049172,1.3081112,-0.450643,-0.3607239,1.1619861,-1.32059,0.020991042,0.44330618,1.0011591,1.0336041
-0.2,-0.2,0.7999999999999999,-0.5235987755982988,0.5235987755982988,0,-1.3562129,1.3343198,0.1127386,-0.11822819,0.11980119,1.2735304,0.27241886,-0.36026046,1.1607502,-1.3172439,0.02203754,0.47584587,0.99528515,-0.3349473
-0.2,-0.2,0.7999999999999999,-0.5235987755982988,0.5235987755982988,0,-0.2709792,1.3273245,-0.33247322,-0.10899074,0.14791146,1.2356722,1.237259,-0.36058608,1.1610545,-1.3181992,0.021314703,0.4654085,1.0012398,-0.493078
-0.2,-0.2,0.7999999999999999,-0.5235987755982988,0.5235987755982988,0,-0.36128506,1.3716125,-0.0687261,-0.06749011,0.029017376,1.2231625,0.31842425,-0.36043188,1.1620995,-1.3178635,0.021102248,0.45349455,1.0008857,0.60797435
-0.2,-0.2,0.7999999999999999,-0.5235987755982988,0.5235987755982988,0,0.25633156,1.3173655,-0.013970295,-0.096627936,0.023149017,1.2380437,0.41694087,-0.3612854,1.1623217,-1.319437,0.02014782,0.47925586,0.9916904,0.37274787
-0.2,-0.2,0.7999999999999999,-0.5235987755982988,0.5235987755982988,0,-0.962001,1.3437114,-0.13955589,-0.10814881,0.046979286,1.2856755,0.4686297,-0.3603305,1.1619945,-1.3170085,0.020941777,0.46836755,0.9991649,0.7135802
-0.2,-0.2,0.7999999999999999,-0.5235987755982988,0.5235987755982988,0,0.22195874,1.3215133,-0.11974747,-0.075143345,-0.088319585,1.2251774,-0.23879105,-0.36025196,1.1629602,-1.3203926,0.021199662,0.46225262,0.9963248,0.9386147
-0.2,-0.2,0.7999999999999999,-0.5235987755982988,0.5235987755982988,0,-0.83101135,1.3430055,0.23549314,-0.060756363,0.05023942,1.2910776,-0.22718254,-0.36068532,1.1610749,-1.3138479,0.020690061,0.47424108,1.003658,1.334014
-0.2,-0.2,0.7999999999999999,-0.5235987755982988,0.5235987755982988,0,-0.021986682,1.2762411,-0.013147198,-0.0687203,0.03844313,1.2821928,-0.021235498,-0.36062604,1.1623216,-1.3197695,0.021452658,0.45375887,0.99577606,0.62904793
-0.2,-0.2,0.7999999999999999,-0.5235987755982988,0.5235987755982988,0,-0.82988787,1.322523,-0.118804544,-0.07053402,0.2647372,1.3258758,0.59638405,-0.35949343,1.162856,-1.3161483,0.021172762,0.45416668,0.99740523,0.24763805
-0.2,-0.2,0.7999999999999999,-0.5235987755982988,0.5235987755982988,0,-0.031042324,1.320303,0.003363308,-0.120957226,0.1156994,1.215687,-0.62292904,-0.36105105,1.1622641,-1.3177081,0.020745859,0.4651818,1.0005915,0.515876
-0.2,-0.2,0.7999999999999999,-0.5235987755982988,0.5235987755982988,0,-0.3588869,1.3262907,-0.2002664,-0.055236068,-0.06774602,1.2636788,-1.3631519,-0.36059725,1.1619796,-1.3204756,0.021161107,0.4717306,0.99274856,-0.37693596
-0.2,-0.2,0.7999999999999999,-0.5235987755982988,0.5235987755982988,0,-1.0191841,1.3252738,-0.018497122,-0.0418287,-0.09295431,1.2000314,-1.1622732,-0.360815,1.1616249,-1.3184437,0.021330329,0.4675226,0.9927012,0.7987673
-0.2,-0.2,0.7999999999999999,-0.5235987755982988,0.5235987755982988,0,-1.2261806,1.2846925,-0.22868448,-0.014867454,-0.12973309,1.275752,-0.45639196,-0.36121157,1.1619519,-1.3183451,0.020897733,0.45174283,0.99916995,0.6190878
-0.2,-0.2,0.7999999999999999,-0.5235987755982988,0.5235987755982988,0,0.07956676,1.3130549,-0.070747524,-0.07713833,-0.109557,1.2118958,0.86764395,-0.36063308,1.1616148,-1.3197405,0.021585297,0.47055852,1.0021027,1.8821284
-0.2,-0.2,0.7999999999999999,-0.5235987755982988,0.5235987755982988,0,-0.25781867,1.3327037,-0.36345714,-0.051637135,0.040286943,1.2551774,0.92452884,-0.3600776,1.1614524,-1.313787,0.021681592,0.4254421,1.0077285,0.29708079
-0.2,-0.2,0.7999999999999999,-0.5235987755982988,0.5235987755982988,0,-0.8626201,1.2937205,-0.05174341,-0.05179005,-0.037154727,1.3361446,-0.6980212,-0.36059418,1.16191,-1.3177645,0.021296106,0.4836442,0.9970562,2.1747935
-0.2,-0.2,0.7999999999999999,-0.5235987755982988,0.5235987755982988,0,-0.01131045,1.3070052,-0.10252909,-0.052443635,0.037878565,1.237218,1.1391364,-0.360362,1.1620361,-1.317012,0.02112922,0.4783421,0.99492466,0.22976723
-0.2,-0.2,0.7999999999999999,-0.5235987755982988,0.5235987755982988,0,-0.564227,1.2992909,0.003169361,-0.09133713,0.015250167,1.3229587,0.045817927,-0.36080313,1.1617686,-1.3178941,0.021256672,0.45434076,1.0094268,-1.2128786
-0.2,-0.2,0.7999999999999999,-0.5235987755982988,0.5235987755982988,0,-0.09151061,1.2948618,-0.17390746,-0.019533,0.1443649,1.1965913,-0.49304882,-0.3614616,1.1620724,-1.3201125,0.021462576,0.4696996,0.99824506,0.33917463
-0.2,-0.2,0.7999999999999999,-0.5235987755982988,0.5235987755982988,0,-0.033040922,1.3626792,-0.06030041,-0.075538285,-0.08648151,1.2511938,1.066327,-0.3606459,1.162022,-1.316919,0.020907711,0.4590435,0.9956631,-0.20173639
-0.2,-0.2,0.7999999999999999,-0.5235987755982988,0.5235987755982988,0,0.031031609,1.2898668,-0.001402389,-0.07888282,-0.008624153,1.3179338,-0.015117155,-0.36018485,1.1622493,-1.3160399,0.020239422,0.4686492,0.9974679,0.829154
-0.2,-0.2,0.7999999999999999,-0.5235987755982988,0.5235987755982988,0,0.16007333,1.321696,-0.02977025,-0.11811653,0.10840017,1.2717886,0.84094554,-0.36062074,1.1606568,-1.313517,0.02068357,0.47102138,1.0011849,0.5884547
-0.2,-0.2,0.7999999999999999,-0.5235987755982988,0.5235987755982988,0,-0.2915157,1.3150986,-0.29040894,-0.06862127,-0.1832026,1.261904,0.059323687,-0.36151505,1.1608627,-1.3158145,0.021555733,0.46174508,1.0015513,-0.21079497
-0.2,-0.2,0.7999999999999999,-0.5235987755982988,0.5235987755982988,0,-0.53743404,1.3164414,-0.13717033,-0.06735345,-0.18721095,1.1959319,0.44280565,-0.36091912,1.1614871,-1.3157551,0.020863174,0.44642514,1.0031922,0.8088149
-0.2,-0.2,0.7999999999999999,-0.5235987755982988,0.5235987755982988,0,-1.0880625,1.3147893,-0.08844994,-0.118415855,-0.12732996,1.2002351,-0.6703881,-0.3606834,1.1632408,-1.3225554,0.021134667,0.46245217,0.9981774,0.5361378
-0.2,-0.2,0.7999999999999999,-0.5235987755982988,0.5235987755982988,0,-0.93806756,1.2699416,-0.1642949,-0.089314476,-0.03996918,1.3358439,1.4011613,-0.36030257,1.1619259,-1.3155482,0.020784,0.477015,0.9995316,0.7069705
-0.2,-0.2,0.7999999999999999,-0.5235987755982988,0.5235987755982988,0,-0.5207056,1.3389338,-0.1423521,-0.0814657,0.017775364,1.209598,0.32287684,-0.36128706,1.1616305,-1.3181342,0.021026043,0.4890853,1.0022376,0.99366504
-0.2,-0.2,0.7999999999999999,-0.5235987755982988,0.5235987755982988,0,-0.78043,1.3487561,0.016736992,-0.12229367,-0.18486828,1.2587217,-0.24766593,-0.3605906,1.1613908,-1.3169441,0.021111162,0.47843337,0.9920257,1.7332393
-0.2,-0.2,0.7999999999999999,-0.5235987755982988,0.5235987755982988,0,-0.019777274,1.2879515,-0.006096849,-0.08897623,-0.19627541,1.2572378,0.9407363,-0.36182725,1.1614621,-1.3193105,0.02022116,0.4677102,1.0020969,1.6178539
-0.2,-0.2,0.7999999999999999,-0.5235987755982988,0.5235987755982988,0,-0.13492818,1.3016603,-0.15540594,-0.020668441,0.01765658,1.2310909,0.6991253,-0.36061242,1.1631777,-1.3218261,0.020633005,0.44971326,0.99341166,1.3175845
-0.2,-0.2,0.7999999999999999,-0.5235987755982988,0.5235987755982988,0,-0.84921825,1.3216176,0.117721036,-0.08341449,-0.071865395,1.3075548,0.7319647,-0.3607409,1.1619798,-1.3192085,0.02158694,0.44711846,0.999418,1.2563652
-0.2,-0.2,0.7999999999999999,-0.5235987755982988,0.5235987755982988,0,-0.050971813,1.3596187,-0.17809917,-0.09354145,-0.051208336,1.2428358,0.4572617,-0.36135045,1.1619724,-1.3196459,0.021328766,0.44799122,0.9944345,0.27860796
-0.2,-0.2,0.7999999999999999,-0.5235987755982988,0.5235987755982988,0,-0.19105564,1.3259389,-0.03715084,-0.1068839,-0.07956996,1.2837703,0.34761268,-0.36071548,1.162374,-1.318296,0.020051915,0.4638068,0.99832445,1.657362
-0.2,-0.2,0.7999999999999999,-0.5235987755982988,0.5235987755982988,0,-0.7074803,1.3177128,-0.22299145,-0.04679298,0.14883178,1.1602118,1.1434861,-0.36019766,1.1623826,-1.3185663,0.020932687,0.44956815,0.99563813,0.46940225
-0.2,-0.2,0.7999999999999999,-0.5235987755982988,0.5235987755982988,0,-1.2510445,1.3654631,0.05009087,-0.12497761,0.053121816,1.232723,-0.93967515,-0.36126158,1.1610491,-1.3168458,0.02103915,0.44634452,1.0031273,0.9344603
-0.2,-0.2,0.7999999999999999,-0.5235987755982988,0.5235987755982988,0,-1.0361898,1.3040061,-0.029897125,-0.15529425,0.11028667,1.2582636,-0.20073207,-0.36154,1.161925,-1.3208479,0.020609627,0.45667186,1.000376,0.84391963
-0.2,-0.2,0.7999999999999999,-0.5235987755982988,0.5235987755982988,0,-0.87958276,1.24093,-0.22279692,-0.08536553,0.01708752,1.2010282,-0.30860767,-0.36140826,1.1611986,-1.3169295,0.020758482,0.46289384,1.0088495,1.0927037
-0.2,-0.2,0.7999999999999999,-0.5235987755982988,0.5235987755982988,0,-0.18491311,1.3035042,0.10066624,-0.037042476,-0.14301454,1.227008,0.30111575,-0.36104637,1.1617646,-1.3178549,0.020785242,0.47682753,0.99890995,0.4214338
-0.2,-0.2,0.7999999999999999,-0.5235987755982988,0.5235987755982988,0,-0.83372647,1.3400314,-0.17545146,-0.09354329,0.043494046,1.3302145,-0.53964674,-0.3608521,1.1608871,-1.3155968,0.021003308,0.46110034,1.005388,1.3344057
-0.2,-0.2,0.7999999999999999,-0.5235987755982988,0.5235987755982988,0,-0.4727662,1.2933664,-0.07011724,-0.11044421,-0.3366926,1.1821975,1.0179684,-0.36064112,1.1626697,-1.3200915,0.02110978,0.46349108,0.99638176,0.1068422
-0.2,-0.2,0.7999999999999999,-0.5235987755982988,0.5235987755982988,0,-0.27084252,1.3424042,-0.32814842,-0.123694874,0.0026050664,1.3366381,0.18908717,-0.3602207,1.1621925,-1.3207326,0.021274524,0.4579474,1.001711,0.18454345
-0.2,-0.2,0.7999999999999999,-0.5235987755982988,0.5235987755982988,0,-0.34860098,1.3632792,-0.31561363,-0.048456,0.1032869,1.2619832,-0.24206074,-0.36054423,1.162263,-1.3183582,0.021217061,0.443905,0.99929494,0.43434346
-0.2,-0.2,0.7999999999999999,-0.5235987755982988,0.5235987755982988,0,0.801142,1.3263816,0.053895265,-0.117822304,-0.0804786,1.238931,0.31657162,-0.36078742,1.1622721,-1.3185999,0.020982409,0.46892416,1.0005809,-0.5076548
-0.2,-0.2,0.7999999999999999,-0.5235987755982988,0.5235987755982988,0,-0.8383323,1.3283381,-0.106894605,-0.11931223,-0.13062923,1.2264422,1.0955937,-0.35997924,1.1630052,-1.3204119,0.020958435,0.4528545,0.99163187,0.32354537
-0.2,-0.2,0.7999999999999999,-0.5235987755982988,0.5235987755982988,0,-0.7643029,1.3312413,0.0028814443,-0.052569963,-0.052799772,1.2978379,-0.8114181,-0.36022478,1.1624254,-1.3167611,0.02107754,0.42698544,0.9865995,0.97952276
-0.2,-0.2,0.7999999999999999,-0.5235987755982988,0.5235987755982988,0,-0.3980633,1.3445871,0.11571637,-0.14760697,-0.091943026,1.2564548,-0.32058194,-0.36115935,1.1631302,-1.3226105,0.020468026,0.4389659,0.99692684,0.7856576
-0.2,-0.2,0.7999999999999999,-0.5235987755982988,0.5235987755982988,0,-0.6623303,1.3345351,-0.027233353,-0.11377122,-0.16273643,1.1963756,-0.06328421,-0.36082995,1.1621352,-1.317941,0.02063073,0.48197168,0.99268496,0.88578165
-0.2,-0.2,0.7999999999999999,-0.5235987755982988,0.5235987755982988,0,-0.7907932,1.3677304,-0.3340675,-0.071202934,-0.06219998,1.1950381,-0.44674128,-0.36040908,1.1621093,-1.3184493,0.021078855,0.4615002,0.99879915,0.65751487
-0.2,-0.2,0.7999999999999999,-0.5235987755982988,0.5235987755982988,0,-0.34622648,1.3234594,0.1563234,-0.08221308,-0.034749635,1.2901287,1.0530753,-0.36095783,1.163367,-1.3178976,0.020415818,0.45759743,0.9921444,0.39761803
-0.2,-0.2,0.7999999999999999,-0.5235987755982988,0.5235987755982988,0,-0.21750031,1.2810756,-0.18725681,-0.08583939,-0.2622638,1.2386957,-0.76671827,-0.36120564,1.1621213,-1.318989,0.020824375,0.4485213,0.99271786,0.3119744
-0.2,-0.2,0.7999999999999999,-0.5235987755982988,0.5235987755982988,0,-0.87272584,1.2699457,-0.34680057,-0.07071449,0.03597287,1.2168992,0.12859501,-0.36192226,1.1616663,-1.3184798,0.020457257,0.4713726,0.9951055,0.08432716
-0.2,-0.2,0.7999999999999999,-0.5235987755982988,0.5235987755982988,0,-0.8523328,1.3470432,-0.25307998,-0.106513694,0.024106516,1.2666311,-1.0147043,-0.3605295,1.1616246,-1.3145806,0.021475203,0.44619784,0.996154,0.0054111867
-0.2,-0.2,0.7999999999999999,-0.5235987755982988,0.5235987755982988,0,-0.6110336,1.3304387,-0.06747552,-0.10737062,0.21800208,1.2880061,-0.21797937,-0.36094627,1.1628622,-1.3183404,0.020678155,0.44999853,0.99571794,-0.01903575
-0.2,-0.2,0.7999999999999999,-0.5235987755982988,0.5235987755982988,0,-1.3750178,1.275652,0.1406804,-0.050888352,-0.020521903,1.2160153,-0.38478506,-0.3609971,1.1616815,-1.3168075,0.021200798,0.49154523,0.9931223,0.74096894
-0.2,-0.2,0.7999999999999999,-0.5235987755982988,0.5235987755982988,0,0.27576852,1.2752987,-0.0021549272,-0.08253078,0.018883985,1.201153,0.5451835,-0.3609032,1.1616043,-1.3170264,0.021409258,0.4672726,0.99924123,0.21233772
-0.2,-0.2,0.7999999999999999,-0.5235987755982988,0.5235987755982988,0,0.047682896,1.3544182,-0.06935621,-0.0934301,0.019149348,1.1973976,0.4287591,-0.36060396,1.1621011,-1.3186189,0.02077759,0.44934642,0.99422485,0.38887843
-0.2,-0.2,0.7999999999999999,-0.5235987755982988,0.5235987755982988,0,0.09353847,1.3222895,-0.17657273,-0.10817389,0.049845222,1.1792215,-0.21109389,-0.35974053,1.1627212,-1.317808,0.021668036,0.43824863,0.9987933,0.97855145
-0.2,-0.2,0.7999999999999999,-0.5235987755982988,0.5235987755982988,0,-0.088322,1.3423073,-0.30459487,-0.10396077,-0.010475073,1.2167072,-0.55588025,-0.36116326,1.1606554,-1.3165327,0.021728463,0.48383057,0.9978363,-0.27368593
-0.2,-0.2,0.7999999999999999,-0.5235987755982988,0.5235987755982988,0,-0.723588,1.3578949,-0.087113105,-0.107418396,-0.15667988,1.1911056,1.1186934,-0.36164817,1.1616915,-1.3159776,0.021075321,0.45278817,0.99940884,-0.007220606
-0.2,-0.2,0.7999999999999999,-0.5235987755982988,0.5235987755982988,0,-0.26547647,1.362241,-0.13690028,-0.04386951,0.038174435,1.2494135,-0.15251009,-0.3609671,1.1619339,-1.3190138,0.0208727,0.46459746,0.9941361,0.9689548
-0.2,-0.2,0.7999999999999999,-0.5235987755982988,0.5235987755982988,0,-0.46127796,1.3090588,-0.3702688,-0.05358527,0.07861413,1.2978653,-0.21913996,-0.36082485,1.1613747,-1.3180376,0.02109598,0.44884917,1.0037241,0.8317738
-0.2,-0.2,0.7999999999999999,-0.5235987755982988,0.5235987755982988,0,-0.67789453,1.3141279,0.070386924,-0.08349967,0.0061272904,1.2459589,-0.3152004,-0.36098844,1.1619976,-1.3168293,0.021020869,0.44163173,0.9977233,-0.008063665
-0.2,-0.2,0.7999999999999999,-0.5235987755982988,0.5235987755982988,0,-0.37421554,1.2984173,0.13751721,-0.016161041,-0.0075352276,1.2037945,0.27086833,-0.36094752,1.1632491,-1.3215594,0.020671127,0.41847733,0.9977554,0.29847628
-0.2,-0.2,0.7999999999999999,-0.5235987755982988,0.5235987755982988,0,0.17985855,1.335208,-0.17146038,-0.102381274,0.06260198,1.222235,0.72122884,-0.3605895,1.1621838,-1.3192847,0.021601714,0.46605614,0.9991637,1.4148153
-0.2,-0.2,0.7999999999999999,-0.5235987755982988,0.5235987755982988,0,0.17629668,1.2871897,-0.1099267,-0.082087964,-0.0105588045,1.232268,0.3882548,-0.36013007,1.1625803,-1.3188077,0.021080583,0.4563611,0.99781364,-0.17213082
-0.2,-0.2,0.7999999999999999,-0.5235987755982988,0.5235987755982988,0,-1.6372449,1.3075018,-0.16652426,-0.07827241,0.100043334,1.2362052,-1.3886322,-0.3608381,1.1618111,-1.3153576,0.021233376,0.4323287,0.99695534,1.0102084
-0.2,-0.2,0.7999999999999999,-0.5235987755982988,0.5235987755982988,0,0.5125914,1.3556724,-0.2927482,-0.13058478,-0.03319403,1.3215858,-0.2120378,-0.36072934,1.1617085,-1.3187882,0.021275545,0.46542722,0.99773365,-0.33421293
-0.2,-0.2,0.7999999999999999,-0.5235987755982988,0.5235987755982988,0,-0.79789275,1.3153934,-0.12935615,-0.042943917,0.08128432,1.2741998,0.45850238,-0.36077562,1.1617025,-1.3166971,0.021159215,0.4567115,0.9996535,0.028128603
-0.2,-0.2,0.7999999999999999,-0.5235987755982988,0.5235987755982988,0,-0.46823487,1.2631686,-0.13359115,-0.040075358,0.032578185,1.1939712,0.2897881,-0.36106533,1.1630349,-1.3196564,0.020537853,0.4264053,0.9997199,0.77682143
-0.2,-0.2,0.7999999999999999,-0.5235987755982988,0.5235987755982988,0,-0.2729326,1.3220205,-0.32658377,-0.09050961,-0.21711846,1.2549018,1.6147075,-0.36066756,1.1633599,-1.3200321,0.020489281,0.4518814,1.0039644,0.4017032
-0.2,-0.2,0.7999999999999999,-0.5235987755982988,0.5235987755982988,0,-0.5755409,1.2772235,0.030913237,-0.045074474,-0.0216864,1.2521544,0.31449747,-0.36139148,1.1598619,-1.3158422,0.021310424,0.47376925,1.0013976,0.22624473
-0.2,-0.2,0.7999999999999999,-0.5235987755982988,0.5235987755982988,0,0.35512403,1.338174,-0.29792652,-0.117729634,-0.029117877,1.2519361,1.330823,-0.3605186,1.1619363,-1.318658,0.021025725,0.44998208,0.9952211,0.46992284
-0.2,-0.2,0.7999999999999999,-0.5235987755982988,0.5235987755982988,0,0.66111,1.3152317,-0.28206027,-0.08413967,-0.046216212,1.1877704,-0.15917441,-0.3613328,1.1600446,-1.3159014,0.021831242,0.48266053,1.0022027,0.13793328
-0.2,-0.2,0.7999999999999999,-0.5235987755982988,0.5235987755982988,0,-0.34761783,1.3610142,-0.25123143,-0.04627748,-0.20339054,1.2106113,0.37291133,-0.3607687,1.161567,-1.316118,0.020850493,0.4561485,0.99732375,0.65335804
-0.2,-0.2,0.7999999999999999,-0.5235987755982988,0.5235987755982988,0,-0.7770407,1.3382555,-0.13906027,-0.049270697,0.21017908,1.2269584,1.1419413,-0.36109337,1.1624174,-1.3202382,0.021395303,0.440115,0.99766946,0.13659956
-0.2,-0.2,0.7999999999999999,-0.5235987755982988,0.5235987755982988,0,-0.3720766,1.2927898,-0.17708558,-0.07555693,-0.057421904,1.1920929,-0.34751332,-0.3605673,1.1616683,-1.3176987,0.020978468,0.45199972,1.0061159,-0.04094983
-0.2,-0.2,0.7999999999999999,-0.5235987755982988,0.5235987755982988,0,0.7067562,1.2977535,-0.11494097,-0.09541588,-0.150649,1.2292519,-0.17116782,-0.36083367,1.1623236,-1.319267,0.020976672,0.45489314,0.99863404,-0.24506438
-0.2,-0.2,0.7999999999999999,-0.5235987755982988,0.5235987755982988,0,-0.6321096,1.2711368,-0.11402054,-0.091644,0.050734658,1.3214539,-0.1260287,-0.36086246,1.1627176,-1.3187673,0.019906165,0.4743555,0.99964064,-0.27213994
-0.2,-0.2,0.7999999999999999,-0.5235987755982988,0.5235987755982988,0,-0.10618504,1.3386606,-0.09224904,-0.09055184,-0.04651103,1.2359035,-0.22092706,-0.36112675,1.161016,-1.3185023,0.022012847,0.48390976,1.0049632,0.57943773
-0.2,-0.2,0.7999999999999999,-0.5235987755982988,0.5235987755982988,0,-0.18096842,1.2817469,-0.3761074,-0.08724286,-0.050773773,1.2497488,-0.1364439,-0.35984623,1.1622968,-1.3187428,0.02121783,0.4433934,0.9977378,0.32183266
-0.2,-0.2,0.7999999999999999,-0.5235987755982988,0.5235987755982988,0,0.1432425,1.3603013,-0.19358703,-0.11379436,-0.007518617,1.2573915,-0.5624546,-0.36014262,1.1626554,-1.3184423,0.021337936,0.45239815,0.99005425,1.1117399
-0.2,-0.2,0.7999999999999999,-0.5235987755982988,0.5235987755982988,0,0.17932196,1.2840364,0.09117787,-0.040218834,-0.13095702,1.2393607,0.6484661,-0.3608854,1.1618766,-1.3178235,0.020936372,0.46962166,1.001878,-0.22569095
-0.2,-0.2,0.7999999999999999,-0.5235987755982988,0.5235987755982988,0,0.0117844045,1.3206825,-0.03148351,-0.09754666,-0.022035569,1.2318779,1.5218939,-0.36123595,1.161775,-1.3184253,0.021198666,0.45258316,0.99771225,-0.8991136
-0.2,-0.2,0.7999999999999999,-0.5235987755982988,0.5235987755982988,0,0.19974849,1.3035825,-0.2614389,-0.08792989,-0.07383421,1.1928464,-0.105386466,-0.3614443,1.1610764,-1.3156233,0.020605963,0.4602052,1.0008723,0.8882549
-0.2,-0.2,0.7999999999999999,-0.5235987755982988,0.5235987755982988,0,-1.0497812,1.3328038,-0.11146136,-0.062394783,-0.12414118,1.2827508,0.02148887,-0.36039153,1.1621878,-1.3145576,0.021383915,0.45501822,1.0005141,0.8733551
-0.2,-0.2,0.7999999999999999,-0.5235987755982988,0.5235987755982988,0,0.1321861,1.3042748,-0.060177952,-0.068648145,-0.11112622,1.2173694,-0.32094088,-0.35994893,1.1625307,-1.3183414,0.020753806,0.43721715,1.0018407,0.33846134
-0.2,-0.2,0.7999999999999999,-0.5235987755982988,0.5235987755982988,0,-0.8149195,1.3243569,-0.10396537,-0.11988888,-0.04037166,1.2102414,-0.41978523,-0.36113006,1.1619625,-1.3179473,0.021045225,0.47041014,1.0001984,-0.12174061
-0.2,-0.2,0.7999999999999999,-0.5235987755982988,0.5235987755982988,0,-0.9615131,1.3211254,-0.046306234,-0.035383563,0.013814535,1.294452,1.0878253,-0.36151016,1.1607794,-1.3149043,0.02122428,0.46864054,1.0013379,0.22417812
-0.2,-0.2,0.7999999999999999,-0.5235987755982988,0.5235987755982988,0,-1.4265866,1.3311065,0.0049451888,-0.12517193,-0.101398945,1.2989722,0.12316376,-0.36105186,1.1621262,-1.3185723,0.021725181,0.46425653,0.9983119,0.33037308
-0.2,-0.2,0.7999999999999999,-0.5235987755982988,0.5235987755982988,0,-1.0015844,1.311899,-0.21658093,-0.11708928,-0.17485255,1.2742361,-0.1862906,-0.3609481,1.1611791,-1.3153385,0.021271925,0.45831415,1.0023419,0.9979961
-0.2,-0.2,0.7999999999999999,-0.5235987755982988,0.5235987755982988,0,-0.790252,1.3409895,-0.19241582,-0.035367098,0.18236053,1.223408,0.7371193,-0.36044914,1.1632134,-1.3181584,0.020694872,0.45049602,1.0002422,-0.196622
-0.2,-0.2,0.7999999999999999,-0.5235987755982988,0.5235987755982988,0,-0.49004516,1.3845929,-0.24967201,-0.13993223,-0.00049762655,1.1720293,-0.38684362,-0.36058944,1.1624551,-1.3172253,0.020424172,0.42612314,0.9996159,0.9553492
-0.2,-0.2,0.7999999999999999,-0.5235987755982988,0.5235987755982988,0,-0.41268438,1.3391154,-0.06836486,-0.11264469,0.2520713,1.2502999,0.6952268,-0.36038077,1.1613914,-1.3151026,0.020843824,0.46852148,0.99925727,0.38890365
-0.2,-0.2,0.7999999999999999,-0.5235987755982988,0.5235987755982988,0,-0.7752561,1.3585759,-0.16972697,-0.064488776,0.015945522,1.2654642,1.0403019,-0.36008793,1.161897,-1.3146484,0.021242637,0.46963516,0.9980641,0.9782613
-0.2,-0.2,0.7999999999999999,-0.5235987755982988,0.5235987755982988,0,-0.6346009,1.3248233,-0.12977205,-0.01164465,-0.08321378,1.2572205,-1.1061503,-0.36006084,1.1621606,-1.3168434,0.021032441,0.44151708,0.99914455,0.92253476
-0.2,-0.2,0.7999999999999999,-0.5235987755982988,0.5235987755982988,0,-0.7581396,1.2986505,-0.11342746,-0.118930385,0.008552901,1.273517,1.1391557,-0.36129132,1.162762,-1.319271,0.021072078,0.43756336,0.9986404,1.388218
-0.2,-0.2,0.7999999999999999,-0.5235987755982988,0.5235987755982988,0,-0.4649058,1.2935157,-0.09047909,-0.09689226,0.02445166,1.2171626,-0.8183558,-0.3617244,1.1622276,-1.321277,0.021085689,0.46695617,0.9930937,0.99520737
-0.2,-0.2,0.7999999999999999,-0.5235987755982988,0.5235987755982988,0,-0.8102568,1.2932147,0.20730309,-0.12423427,-0.1996231,1.2504998,0.65974396,-0.3614725,1.1620066,-1.319075,0.020576693,0.44763428,0.9977091,0.44362402
-0.2,-0.2,0.7999999999999999,-0.5235987755982988,0.5235987755982988,0,-0.030159058,1.3817563,-0.1153375,-0.006152411,-0.06952472,1.2480092,-0.21115592,-0.36130577,1.162277,-1.3181401,0.020759199,0.45407674,0.9975774,0.45638356
-0.2,-0.2,0.7999999999999999,-0.5235987755982988,0.5235987755982988,0,-0.75511825,1.2788422,-0.24988511,-0.04476919,-0.17738444,1.2613153,-0.50041807,-0.36105037,1.1615219,-1.3162597,0.021233074,0.46712178,1.001881,0.22818321
-0.2,-0.2,0.7999999999999999,-0.5235987755982988,0.5235987755982988,0,-0.6932772,1.3225882,-0.20580482,-0.069501534,0.049986567,1.2272116,1.1567168,-0.36076,1.1630663,-1.3210055,0.021385653,0.448824,0.99548215,-0.42636716
-0.2,-0.2,0.7999999999999999,-0.5235987755982988,0.5235987755982988,0,0.12186699,1.3255594,-0.2593583,-0.047582377,0.17725296,1.3190589,0.3070028,-0.3616705,1.1615986,-1.3178979,0.020519378,0.45383188,1.0012351,0.39650705
-0.2,-0.2,0.7999999999999999,-0.5235987755982988,0.5235987755982988,0,-0.8662505,1.2847514,0.0035749169,-0.079870485,0.18479915,1.1754856,-0.52988523,-0.36042,1.1632756,-1.3188695,0.020168485,0.43902254,0.998577,0.18430579
-0.2,-0.2,0.7999999999999999,-0.5235987755982988,0.5235987755982988,0,-0.4767921,1.2955921,-0.039779473,-0.1090169,-0.012968005,1.1976916,0.5468897,-0.36036074,1.1628348,-1.3150662,0.020402515,0.43541953,1.0013304,1.166545
-0.2,-0.2,0.7999999999999999,-0.5235987755982988,0.5235987755982988,0,-0.27596524,1.3048154,-0.105669565,-0.0525391,-0.11425299,1.2759873,0.008732887,-0.36102983,1.1623236,-1.3195537,0.02049305,0.4663782,0.9903128,2.1458483
-0.2,-0.2,0.7999999999999999,-0.5235987755982988,0.5235987755982988,0,0.07855652,1.3032404,-0.23156567,-0.102974325,-0.2028589,1.329536,0.8672446,-0.36028153,1.1619104,-1.3162221,0.021616569,0.46155837,1.0011424,-0.03312676
-0.2,-0.2,0.7999999999999999,-0.5235987755982988,0.5235987755982988,0,-0.7319161,1.3315974,-0.013471262,-0.07520167,-0.16122496,1.2815777,0.39191294,-0.36102265,1.1620413,-1.3188483,0.020832611,0.466293,0.99249786,1.1645446
-0.2,-0.2,0.7999999999999999,-0.5235987755982988,0.5235987755982988,0,-0.2257734,1.3228211,-0.29898313,-0.08234618,-0.06924048,1.2790942,1.0670862,-0.3607407,1.161399,-1.3152286,0.02189861,0.4612044,0.9982356,-0.55117273
-0.2,-0.2,0.7999999999999999,-0.5235987755982988,0.5235987755982988,0,-0.20099382,1.309404,-0.08436763,-0.098316826,0.17492801,1.1603739,-0.8539625,-0.36100158,1.1624014,-1.3205324,0.020582478,0.46597454,0.98974127,0.35525745
-0.2,-0.2,0.7999999999999999,-0.5235987755982988,0.5235987755982988,0,-0.18147321,1.3057314,-0.32382885,-0.15601769,0.06618613,1.2081393,-0.20336615,-0.36006257,1.16194,-1.3177562,0.021954719,0.46596885,1.0004904,0.58966786
-0.2,-0.2,0.7999999999999999,-0.5235987755982988,0.5235987755982988,0,-0.032458693,1.306757,-0.14503053,-0.10480716,0.004601449,1.2358172,0.23338482,-0.36092213,1.1616975,-1.3180753,0.020796567,0.43515265,1.0028454,-0.051050544
-0.2,-0.2,0.7999999999999999,-0.5235987755982988,0.5235987755982988,0,-0.24283643,1.3103575,-0.22321363,-0.10539296,-0.06486897,1.210242,-0.07389907,-0.36099648,1.162014,-1.3175685,0.020842023,0.4405438,1.0015014,0.35719517
-0.2,-0.2,0.7999999999999999,-0.5235987755982988,0.5235987755982988,0,-0.6980139,1.3033079,-0.18467225,-0.09095349,0.3276662,1.2587953,0.19476224,-0.36090294,1.1618996,-1.3180223,0.021370724,0.45589414,0.99341345,0.96144176
-0.2,-0.2,0.7999999999999999,-0.5235987755982988,0.5235987755982988,0,-1.0851454,1.269952,0.02057025,-0.10997136,0.024790581,1.2298913,0.6407497,-0.36073944,1.1623678,-1.3208492,0.021395467,0.44706225,0.9883787,0.7871334
-0.2,-0.2,0.7999999999999999,-0.5235987755982988,0.5235987755982988,0,0.42008787,1.271747,-0.03414764,-0.09238886,-0.11895581,1.2557814,-0.045360062,-0.3603959,1.1613488,-1.3131431,0.02148744,0.48321453,0.9999706,0.34349725
-0.2,-0.2,0.7999999999999999,-0.5235987755982988,0.5235987755982988,0,-0.979513,1.3385472,-0.08374894,-0.079272285,-0.08753522,1.2306811,-0.06633167,-0.36080799,1.1613903,-1.3152267,0.02172205,0.46722078,0.9914136,0.27486533
-0.2,-0.2,0.7999999999999999,-0.5235987755982988,0.5235987755982988,0,-0.6669637,1.2898067,-0.045603387,-0.079222836,0.026164036,1.274091,0.016786693,-0.35984313,1.1626469,-1.3171576,0.021151215,0.45765457,1.0031859,0.6173173
-0.2,-0.2,0.7999999999999999,-0.5235987755982988,0.5235987755982988,0,0.19789594,1.3044829,-0.15249062,-0.102486074,-0.008618503,1.167831,1.5934317,-0.36033487,1.1623684,-1.3158623,0.021365797,0.4601038,1.0032971,-0.19139759
-0.2,-0.2,0.7999999999999999,-0.5235987755982988,0.5235987755982988,0,-0.8299199,1.3538595,-0.22425348,-0.109667696,-0.12529714,1.252525,1.4689666,-0.36028877,1.1628608,-1.3184235,0.020931635,0.46281207,0.9959843,1.1514589
-0.2,-0.2,0.7999999999999999,-0.5235987755982988,0.5235987755982988,0,-0.26518443,1.3229885,-0.37445185,-0.059326477,-0.050476328,1.1598107,0.73319095,-0.3604794,1.1624751,-1.3198346,0.021811277,0.4672925,1.0092455,1.6030234
-0.2,-0.2,0.7999999999999999,-0.5235987755982988,0.5235987755982988,0,-0.870608,1.328012,-0.15402766,-0.06903827,0.06230734,1.2811294,-2.2523038,-0.36074114,1.1625866,-1.3196789,0.020878805,0.45052096,1.0015098,0.50077885
-0.2,-0.2,0.7999999999999999,-0.5235987755982988,0.5235987755982988,0,0.45526436,1.2969081,-0.0789145,-0.06421027,-0.10864201,1.2526841,0.15887159,-0.36120287,1.1632088,-1.3177748,0.020854548,0.44031903,0.99875396,-0.21113531
-0.2,-0.2,0.7999999999999999,-0.5235987755982988,0.5235987755982988,0,0.27080172,1.3614687,0.048361886,-0.081633866,-0.06389254,1.3458964,-0.34667808,-0.36090505,1.1628125,-1.3192401,0.020795967,0.44647568,0.99904037,0.5300455
-0.2,-0.2,0.7999999999999999,-0.5235987755982988,0.5235987755982988,0,-1.5371296,1.3077741,0.048131675,-0.012418157,-0.2445805,1.1825391,0.63672036,-0.3610506,1.1618601,-1.3168192,0.021073727,0.4550847,1.0015613,0.28729287
-0.2,-0.2,0.7999999999999999,-0.5235987755982988,0.5235987755982988,0,-1.0090731,1.3683921,-0.077222854,-0.124087855,-0.16679911,1.2820607,-0.23789711,-0.3605618,1.1624314,-1.3177361,0.021285998,0.44139504,1.0029523,1.9013042
-0.2,-0.2,0.7999999999999999,-0.5235987755982988,0.5235987755982988,0,-0.4100304,1.3189406,-0.19147536,-0.1282428,0.0031798342,1.2634026,1.354004,-0.36017478,1.1617001,-1.3159785,0.021563636,0.452633,1.0024619,0.13461788
-0.2,-0.2,0.7999999999999999,-0.5235987755982988,0.5235987755982988,0,-0.16079232,1.3200284,-0.21886031,-0.112121135,-0.07686913,1.2470231,0.0030270643,-0.3612996,1.161591,-1.3174359,0.020919653,0.47875068,0.9935626,0.0872373
-0.2,-0.2,0.7999999999999999,-0.5235987755982988,0.5235987755982988,0,0.2893221,1.3110163,-0.21535377,-0.09371768,0.029751828,1.2774673,-0.4623126,-0.36071607,1.1619116,-1.3176061,0.021255648,0.44897816,0.9955973,0.40264404
-0.2,-0.2,0.7999999999999999,-0.5235987755982988,0.5235987755982988,0,-0.6723838,1.3129884,-0.10693805,-0.09708087,0.33044246,1.2148945,-0.26736534,-0.36035752,1.1618656,-1.3186522,0.022131542,0.4631339,1.003118,0.31125736
-0.2,-0.2,0.7999999999999999,-0.5235987755982988,0.5235987755982988,0,-0.39643723,1.3471606,-0.07693416,-0.10694691,-0.04288052,1.2716541,-0.16540292,-0.36074257,1.1612815,-1.3152378,0.020962447,0.47068644,1.0051324,1.2301357
-0.2,-0.2,0.7999999999999999,-0.5235987755982988,0.5235987755982988,0,-0.16779031,1.3068302,-0.262447,-0.08697791,-0.04459496,1.2395208,0.62257695,-0.36105043,1.1624191,-1.3181295,0.020873241,0.45335338,0.99181503,1.292233
-0.2,-0.2,0.7999999999999999,-0.5235987755982988,0.5235987755982988,0,-0.8788692,1.3535823,-0.1488946,-0.11563879,-0.30138245,1.2280408,-1.195757,-0.3608634,1.1625004,-1.316155,0.020427616,0.47571972,0.9955309,1.6786813
-0.2,-0.2,0.7999999999999999,-0.5235987755982988,0.5235987755982988,0,-1.2088534,1.3144743,-0.11967558,-0.06284704,0.059121627,1.2744439,-0.8491854,-0.36031342,1.1617376,-1.3175949,0.02142812,0.46205404,1.0023988,-0.19315074
-0.2,-0.2,0.7999999999999999,-0.5235987755982988,0.5235987755982988,0,-0.43552172,1.3101274,-0.12518775,-0.094099335,-0.124231994,1.2390648,-0.32346272,-0.36043203,1.1632366,-1.318796,0.02019363,0.43464097,0.99727106,1.1304975
-0.2,-0.2,0.7999999999999999,-0.5235987755982988,0.5235987755982988,0,-0.015286784,1.2871033,-0.3148721,-0.14919952,-0.11644674,1.2049015,-0.16305095,-0.36116514,1.161821,-1.3169328,0.021777755,0.49371654,0.9982498,2.4907813
-0.2,-0.2,0.7999999999999999,-0.5235987755982988,0.5235987755982988,0,-0.32535964,1.3504177,-0.0772161,-0.060566116,-0.1231759,1.2782449,-0.62723607,-0.36027834,1.1625017,-1.3199416,0.021185944,0.44566223,1.004585,0.17162691
-0.2,-0.2,0.7999999999999999,-0.5235987755982988,0.5235987755982988,0,-1.1197666,1.3507475,-0.114093,-0.0901032,0.02488072,1.2341467,-0.82304007,-0.36025172,1.1607515,-1.3139015,0.021937495,0.4888303,1.0006651,-1.0606933
-0.2,-0.2,0.7999999999999999,-0.5235987755982988,0.5235987755982988,0,0.91100645,1.3292931,-0.037714556,-0.11391544,0.30878705,1.2613705,-0.38491145,-0.36013663,1.163561,-1.3188577,0.021063333,0.46164283,1.0006928,0.38977134
-0.2,-0.2,0.7999999999999999,-0.5235987755982988,0.5235987755982988,0,-0.7357435,1.3359765,-0.113038614,-0.047896277,0.16209425,1.2400699,0.729161,-0.3607558,1.1629578,-1.3145211,0.020486126,0.45428687,0.9931808,0.87559384
-0.2,-0.2,0.7999999999999999,-0.5235987755982988,0.5235987755982988,0,-0.29415137,1.3008109,-0.1150279,-0.10565173,-0.009054104,1.2800913,1.9649413,-0.3608753,1.1613944,-1.3151695,0.02133461,0.45341116,1.0071017,0.9044244
-0.2,-0.2,0.7999999999999999,-0.5235987755982988,0.5235987755982988,0,-0.57087374,1.3381091,-0.19305725,-0.054801106,-0.098387726,1.227472,0.5388608,-0.36049896,1.1619463,-1.3186514,0.021429032,0.44451243,1.003265,1.8502632
-0.2,-0.2,0.7999999999999999,-0.5235987755982988,0.5235987755982988,0,-0.36039126,1.3291376,-0.016015803,-0.053978764,-0.025589855,1.3033628,0.24641499,-0.3610271,1.1613733,-1.317659,0.021692155,0.4642659,0.99781626,0.38356712
-0.2,-0.2,0.7999999999999999,-0.5235987755982988,0.5235987755982988,0,-0.43478888,1.3470609,-0.2853032,-0.07580726,-0.31154865,1.2406499,-1.1125504,-0.36052248,1.1621526,-1.3182532,0.021336721,0.45718065,1.0047349,1.065884
-0.2,-0.2,0.7999999999999999,-0.5235987755982988,0.5235987755982988,0,-0.75245285,1.2627758,-0.2009849,-0.09141735,-0.18011287,1.2558094,0.64320356,-0.36102384,1.1621637,-1.3185344,0.02126637,0.44307926,0.9976487,1.7430966
-0.2,-0.2,0.7999999999999999,-0.5235987755982988,0.5235987755982988,0,-0.17395155,1.3109636,0.119253814,-0.11510639,-0.09752257,1.2434092,1.0580181,-0.360702,1.1616095,-1.3182638,0.021162549,0.4592634,0.9958694,0.11299789
-0.2,-0.2,0.7999999999999999,-0.5235987755982988,0.5235987755982988,0,-0.56063133,1.390948,-0.23631516,-0.09609732,0.083958544,1.2696766,-0.024450585,-0.36064473,1.1624081,-1.3194011,0.02120364,0.47069645,0.9961471,-1.384447
-0.2,-0.2,0.7999999999999999,-0.5235987755982988,0.5235987755982988,0,0.01948982,1.3228981,-0.1308144,-0.08132033,-0.0669619,1.2543772,-0.14633253,-0.36027297,1.1636456,-1.3178885,0.020122964,0.44608355,1.0037166,-0.21059805
-0.2,-0.2,0.7999999999999999,-0.5235987755982988,0.5235987755982988,0,-0.76300657,1.296557,-0.19754948,-0.103906855,0.0938559,1.2687095,0.8120328,-0.35985515,1.1622163,-1.3170966,0.021076152,0.451975,0.99844414,0.31192374
-0.2,-0.2,0.7999999999999999,-0.5235987755982988,0.5235987755982988,0,-0.7566951,1.3617386,-0.028629124,-0.09216238,-0.05792894,1.2715663,0.3731965,-0.36061352,1.1619959,-1.3154339,0.020620592,0.4640212,1.0008525,0.4328748
-0.2,-0.2,0.7999999999999999,-0.5235987755982988,0.5235987755982988,0,-0.8796428,1.3364602,-0.1719023,-0.025090955,-0.2166738,1.2586954,-1.1880893,-0.36094642,1.1618754,-1.3150125,0.020844014,0.44560155,1.0015092,0.60026824
-0.2,-0.2,0.7999999999999999,-0.5235987755982988,0.5235987755982988,0,-0.3610588,1.3042308,-0.009977432,-0.031142788,-0.019378526,1.1835643,0.87060994,-0.36020786,1.162042,-1.3191539,0.021674374,0.4470971,0.99694246,-0.26319563
-0.2,-0.2,0.7999999999999999,-0.5235987755982988,0.5235987755982988,0,-0.55310094,1.3319564,-0.07551691,-0.06430704,-0.17707516,1.2358277,0.7242455,-0.36019558,1.1627669,-1.3183774,0.021772567,0.44600913,0.9921497,1.5357537
-0.2,-0.2,0.7999999999999999,-0.5235987755982988,0.5235987755982988,0,-0.81990635,1.308042,0.06533517,-0.09704252,-0.010679511,1.2207603,-0.6938822,-0.3615019,1.1619923,-1.3161159,0.02174607,0.4794872,0.99857885,-0.06460156
-0.2,-0.2,0.7999999999999999,-0.5235987755982988,0.5235987755982988,0,-0.47821057,1.327881,-0.43209758,-0.09662725,0.028930718,1.2261859,-0.09729998,-0.36028185,1.1625068,-1.3182945,0.0208083,0.47343603,0.9949625,0.3039544
-0.2,-0.2,0.7999999999999999,-0.5235987755982988,0.5235987755982988,0,0.17998368,1.2492472,-0.12516652,-0.05629643,0.0552088,1.3353868,2.4666014,-0.3608013,1.1622759,-1.3179996,0.020776682,0.4778712,0.99698526,1.381153
-0.2,-0.2,0.7999999999999999,-0.5235987755982988,0.5235987755982988,0,-0.4782126,1.3226099,-0.16992413,-0.072935216,0.047886375,1.2812246,1.4093183,-0.3610672,1.161894,-1.316849,0.021032393,0.47950867,0.99618614,0.47170982
-0.2,-0.2,0.7999999999999999,-0.5235987755982988,0.5235987755982988,0,-0.055506207,1.3447818,-0.26498717,-0.07135354,-0.09602761,1.2062826,-0.2737988,-0.36108777,1.1627386,-1.3183078,0.020575961,0.46708763,0.9924059,1.4782275
-0.2,-0.2,0.7999999999999999,-0.5235987755982988,0.5235987755982988,0,-0.19198453,1.2915654,-0.19209087,-0.022863263,0.12905441,1.2552018,1.396462,-0.36116132,1.161858,-1.313488,0.020528728,0.44043934,1.0000466,0.21139185
-0.2,-0.2,0.7999999999999999,-0.5235987755982988,0.5235987755982988,0,-0.5753377,1.3063357,0.033467367,-0.096041925,0.1502218,1.2462307,0.23755959,-0.36046743,1.1616524,-1.3140614,0.021218877,0.4490331,1.0006098,0.19726913
-0.2,-0.2,0.7999999999999999,-0.5235987755982988,0.5235987755982988,0,-0.5936334,1.2878733,0.003317986,-0.14202122,-0.0791264,1.2899139,0.26690534,-0.360333,1.1628032,-1.3166397,0.020797214,0.45026645,1.0030053,-0.207021
-0.2,-0.2,0.7999999999999999,-0.5235987755982988,0.5235987755982988,0,-0.6564392,1.3678079,0.009250594,-0.08900432,-0.13160889,1.2551719,1.2378508,-0.36131674,1.1612418,-1.3173367,0.021430459,0.45296463,1.0027492,1.318095
-0.2,-0.2,0.7999999999999999,-0.5235987755982988,0.5235987755982988,0,-0.6808173,1.3024236,-0.18163612,-0.057075493,-0.10384806,1.2520872,-0.6488885,-0.36137736,1.1613504,-1.3150238,0.020586397,0.4782884,1.0007335,0.6037955
-0.2,-0.2,0.7999999999999999,-0.5235987755982988,0.5235987755982988,0,-0.22708973,1.3158373,-0.04303107,-0.086608484,0.11662519,1.2231113,-0.4192216,-0.36087817,1.1622844,-1.3191328,0.021793416,0.4493081,0.99859214,1.1055912
-0.2,-0.2,0.7999999999999999,-0.5235987755982988,0.5235987755982988,0,-0.16479124,1.3218281,-0.24188237,-0.028132427,-0.07459536,1.2738975,0.54275507,-0.36062235,1.1637926,-1.3190682,0.02028344,0.44002375,0.9949773,1.1288098
-0.2,-0.2,0.7999999999999999,-0.5235987755982988,0.5235987755982988,0,-1.2661157,1.2717341,-0.084395245,-0.03966649,-0.04510192,1.2798913,-0.08014893,-0.36140928,1.1623464,-1.318676,0.021323627,0.45126072,0.99787223,-0.3894096
-0.2,-0.2,0.7999999999999999,-0.5235987755982988,0.5235987755982988,0,-0.18839265,1.3055415,-0.24399868,-0.08903276,0.122461885,1.2972515,-0.47157934,-0.36030814,1.1638862,-1.3225555,0.021393213,0.4389261,0.99506396,0.19332546
-0.2,-0.2,0.7999999999999999,-0.5235987755982988,0.5235987755982988,0,-0.78164196,1.3321218,-0.19474623,-0.13714379,0.16380516,1.3146173,-0.77792704,-0.3605431,1.1629766,-1.318989,0.02144829,0.44877556,1.0001886,0.4929054
-0.2,-0.2,0.7999999999999999,-0.5235987755982988,0.5235987755982988,0,-0.062965624,1.2799296,-0.25786927,-0.058225118,0.03318533,1.2575862,0.7327091,-0.36136338,1.162056,-1.3181069,0.021080978,0.46367905,1.0011578,-0.21000277
-0.2,-0.2,0.7999999999999999,-0.5235987755982988,0.5235987755982988,0,-0.53414005,1.3055787,0.013103617,-0.07628862,0.076471694,1.2248714,0.7779333,-0.3607566,1.1620485,-1.3162813,0.020571243,0.46135914,0.99529696,0.43932092
-0.2,-0.2,0.7999999999999999,-0.5235987755982988,0.5235987755982988,0,-0.41406786,1.389137,-0.058114205,-0.04211975,-0.0866454,1.2620139,1.0303991,-0.36112234,1.1617072,-1.3150508,0.0212172,0.47363055,0.9954137,0.02723102
-0.2,-0.2,0.7999999999999999,-0.5235987755982988,0.5235987755982988,0,-0.31522337,1.3188454,-0.25785512,-0.1223512,0.1207293,1.3074739,-1.1498524,-0.360581,1.1626507,-1.317023,0.020679751,0.44540602,1.0008026,1.1860828
-0.2,-0.2,0.7999999999999999,-0.5235987755982988,0.5235987755982988,0,-0.81224567,1.2824303,-0.29668304,-0.08568898,0.018368041,1.207288,1.1187686,-0.36080986,1.1621643,-1.3189173,0.02137027,0.43754077,0.99958014,0.6952996
-0.2,-0.2,0.7999999999999999,-0.5235987755982988,0.5235987755982988,0,-0.29289302,1.3350558,-0.14202183,-0.07516096,-0.04635149,1.2230889,0.5640086,-0.3608953,1.1619937,-1.3168851,0.021034608,0.46612245,0.9915749,1.5721287
-0.2,-0.2,0.7999999999999999,-0.5235987755982988,0.5235987755982988,0,0.0168723,1.3304439,-0.0055094883,-0.067670256,0.00473195,1.3004619,1.42342,-0.36121643,1.1619368,-1.3150705,0.021081548,0.4667589,0.9952718,0.8851855
-0.2,-0.2,0.7999999999999999,-0.5235987755982988,0.5235987755982988,0,0.033472784,1.2938399,-0.29363748,-0.11471324,-0.0051300414,1.274165,-1.5660871,-0.3608215,1.1628251,-1.3172672,0.020547142,0.4630351,0.99660295,1.9111407
-0.2,-0.2,0.7999999999999999,-0.5235987755982988,0.5235987755982988,0,-0.036283128,1.294787,-0.11185297,-0.093560226,-0.23380187,1.2285421,0.6688834,-0.3613543,1.1612148,-1.3147945,0.020756673,0.44766116,0.9978146,0.24829707
-0.2,-0.2,0.7999999999999999,-0.5235987755982988,0.5235987755982988,0,-0.35136104,1.2685069,-0.079530045,-0.07043406,-0.038814656,1.2045339,0.15084212,-0.36120835,1.1621406,-1.3171189,0.02120654,0.45409408,0.9999114,0.32217064
-0.2,-0.2,0.7999999999999999,-0.5235987755982988,0.5235987755982988,0,-0.39779124,1.2936163,-0.11420738,-0.06362907,-0.011630633,1.2816921,0.733169,-0.36149576,1.1614794,-1.3172833,0.021347625,0.46747738,0.99695545,0.59269804
-0.2,-0.2,0.7999999999999999,-0.5235987755982988,0.5235987755982988,0,-0.28490502,1.3045374,-0.28004578,-0.08601832,-0.15899494,1.3028185,0.3275579,-0.36097938,1.1623237,-1.3171874,0.021290446,0.46580857,0.99928355,0.121612154
-0.2,-0.2,0.7999999999999999,-0.5235987755982988,0.5235987755982988,0,-0.5476646,1.3278631,-0.28507861,-0.07896353,0.08397606,1.1639618,0.5520755,-0.36044213,1.163511,-1.3176872,0.020695768,0.45579132,0.99815977,0.61828524
-0.2,-0.2,0.7999999999999999,-0.5235987755982988,0.5235987755982988,0,0.4010649,1.2890886,-0.18912672,-0.069288604,0.09118698,1.199403,-0.1243978,-0.36101633,1.1626579,-1.31896,0.020644741,0.4583236,0.99601185,0.65760577
-0.2,-0.2,0.7999999999999999,-0.5235987755982988,0.5235987755982988,0,-0.22817004,1.3234951,-0.045435663,-0.06810656,0.07012249,1.208167,0.42308834,-0.36113498,1.1622895,-1.3165606,0.020754624,0.46055868,0.9945804,-0.11575974
-0.2,-0.2,0.7999999999999999,-0.5235987755982988,0.5235987755982988,0,-0.01706986,1.3091164,-0.27990225,-0.09414416,0.07159051,1.2315403,0.25629544,-0.36006647,1.161846,-1.3162863,0.021727363,0.46754423,0.9989043,0.91763467
-0.2,-0.2,0.7999999999999999,-0.5235987755982988,0.5235987755982988,0,-0.8071357,1.3182865,-0.26952568,-0.071592405,-0.06892157,1.2585505,-0.044842955,-0.36079302,1.1627108,-1.3167019,0.020690983,0.46408048,1.0004125,-0.18715012
-0.2,-0.2,0.7999999999999999,-0.5235987755982988,0.5235987755982988,0,-0.3137244,1.3302408,-0.07290713,-0.0996535,-0.096461535,1.2591159,-0.32501656,-0.36014718,1.1630131,-1.321081,0.021498915,0.4738536,0.99356747,1.9578562
-0.2,-0.2,0.7999999999999999,-0.5235987755982988,0.5235987755982988,0,-0.33474976,1.2580895,-0.11568754,-0.054216895,-0.049542487,1.2029126,0.22846964,-0.36091447,1.1635127,-1.3180777,0.021404853,0.4409598,1.0053697,0.9488194
-0.2,-0.2,0.7999999999999999,-0.5235987755982988,0.5235987755982988,0,0.84762836,1.3401647,-0.2708013,-0.071683995,0.0015369138,1.2712482,0.20373255,-0.36011383,1.1626309,-1.3167363,0.021084968,0.4505972,0.99775314,0.6778944
-0.2,-0.2,0.7999999999999999,-0.5235987755982988,0.5235987755982988,0,-0.77899253,1.3034174,-0.060746204,-0.08910193,0.066776745,1.2244267,0.43518746,-0.3604325,1.1624346,-1.312878,0.020805033,0.46436626,1.0000808,0.19533443
-0.2,-0.2,0.7999999999999999,-0.5235987755982988,0.5235987755982988,0,-0.66635185,1.3392057,-0.15458,-0.050720997,-0.040326286,1.3035519,-0.025746234,-0.36077762,1.1640369,-1.3193215,0.021069897,0.41758767,1.0018281,0.08711066
-0.2,-0.2,0.7999999999999999,-0.5235987755982988,0.5235987755982988,0,-0.50394505,1.2844685,-0.14231989,-0.097753346,0.003662538,1.3105687,0.21326992,-0.36052048,1.1623471,-1.3185097,0.021377968,0.45581815,1.0001245,-0.035804622
-0.2,-0.2,0.7999999999999999,-0.5235987755982988,0.5235987755982988,0,-0.51780826,1.3262146,0.062227916,-0.083611846,0.13679975,1.2814889,-0.005243832,-0.35981193,1.1634654,-1.3175199,0.021297049,0.4615344,0.99506426,-0.5588176
-0.2,-0.2,0.7999999999999999,-0.5235987755982988,0.5235987755982988,0,-0.790321,1.3148118,-0.17512149,-0.1266832,0.090157725,1.1910652,-0.028868627,-0.36053544,1.1631573,-1.31922,0.02053246,0.44708216,0.9974747,0.7325805
-0.2,-0.2,0.7999999999999999,-0.5235987755982988,0.5235987755982988,0,-0.4164004,1.3065295,0.18292513,-0.038676128,0.021327421,1.2916121,0.10112617,-0.3606254,1.1622993,-1.3177023,0.02146761,0.47089556,0.9971636,-0.4425683
-0.2,-0.2,0.7999999999999999,-0.5235987755982988,0.5235987755982988,0,-0.42266402,1.2789625,-0.08538009,-0.064465925,0.15481175,1.267592,0.35923743,-0.36042237,1.1630552,-1.3162057,0.02134851,0.4323948,0.99522,-0.0459746
-0.2,-0.2,0.7999999999999999,-0.5235987755982988,0.5235987755982988,0,-0.4761053,1.3271333,-0.30669424,-0.08663105,0.09981187,1.2419585,1.2425867,-0.36124605,1.1619262,-1.3204528,0.020912262,0.43039688,0.9979379,1.0246162
-0.2,-0.2,0.7999999999999999,-0.5235987755982988,0.5235987755982988,0,-0.22523966,1.3102663,-0.0644372,-0.062045824,0.09644386,1.2786626,-0.7800287,-0.3605623,1.1615729,-1.3177135,0.020501966,0.4530164,0.98953176,-0.17278852
-0.2,-0.2,0.7999999999999999,-0.5235987755982988,0.5235987755982988,0,-0.7459395,1.3176112,-0.059967726,-0.044733275,0.082859255,1.2688239,0.26609036,-0.36057112,1.1617162,-1.3150189,0.021154845,0.45357153,1.0009769,0.9560427
-0.2,-0.2,0.7999999999999999,-0.5235987755982988,0.5235987755982988,0,-0.25710392,1.3080121,-0.15793718,-0.07164681,-0.12764493,1.1894556,-0.61744744,-0.36077544,1.1614321,-1.3159821,0.021095127,0.4794292,1.002125,0.9430806
-0.2,-0.2,0.7999999999999999,-0.5235987755982988,0.5235987755982988,0,0.08437793,1.3449005,0.000548331,-0.10001823,-0.18139295,1.2564193,0.13567331,-0.36049956,1.1615285,-1.3164192,0.02161348,0.4658301,0.9967448,0.14796357
-0.2,-0.2,0.7999999999999999,-0.5235987755982988,0.5235987755982988,0,-0.23981774,1.2779361,-0.19044036,-0.06381191,-0.2410797,1.1713918,0.14394255,-0.3616325,1.1622752,-1.3184415,0.021961886,0.45608643,0.98879695,1.748492
-0.2,-0.2,0.7999999999999999,-0.5235987755982988,0.5235987755982988,0,-0.7602303,1.2779676,-0.29930902,-0.026752671,0.032816045,1.2711926,0.5399265,-0.3599675,1.1625634,-1.3170514,0.021102525,0.46566993,1.0015973,1.283483
-0.2,-0.2,0.7999999999999999,-0.5235987755982988,0.5235987755982988,0,0.32435277,1.2744936,-0.40839174,-0.08991206,0.1857435,1.2470233,-0.027917167,-0.3607637,1.1600658,-1.3220376,0.021337805,0.46966878,0.99659514,1.1148505
-0.2,-0.2,0.7999999999999999,-0.5235987755982988,0.5235987755982988,0,0.23223662,1.2793392,-0.055945016,-0.06555252,0.03758821,1.2102963,-0.88900286,-0.3605443,1.1611252,-1.3195554,0.020195415,0.47103786,0.9964588,0.95245415
-0.2,-0.2,0.7999999999999999,-0.5235987755982988,0.5235987755982988,0,-0.35369363,1.3318759,-0.08283538,-0.0705862,0.0046196897,1.2660542,0.21830921,-0.36114782,1.1619247,-1.3189918,0.020845834,0.47922355,0.9963743,1.1208658
-0.2,-0.2,0.7999999999999999,-0.5235987755982988,0.5235987755982988,0,-0.68890035,1.3649352,-0.13425037,-0.061776876,-0.19211555,1.3047734,-0.35283625,-0.36041227,1.1617882,-1.3169736,0.020750087,0.44804862,0.9902636,0.9988324
-0.2,-0.2,0.7999999999999999,-0.5235987755982988,0.5235987755982988,0,-0.9842396,1.3569146,-0.115395725,-0.11750615,-0.061082058,1.2753638,-1.5442535,-0.36102206,1.1615112,-1.3235416,0.020411767,0.4569238,0.9970154,1.475153
-0.2,-0.2,0.7999999999999999,-0.5235987755982988,0.5235987755982988,0,-0.6383945,1.3051816,-0.051701996,-0.029408073,0.009243317,1.2804402,-0.7860038,-0.35986412,1.1615506,-1.3191187,0.021204885,0.4601524,0.9963463,-0.3700779
-0.2,-0.2,0.7999999999999999,-0.5235987755982988,0.5235987755982988,0,-0.35468578,1.3431479,0.12990043,-0.10131483,-0.19147725,1.2582265,0.55207235,-0.36007103,1.160877,-1.319499,0.021049656,0.46372682,0.9936108,0.8254974
-0.2,-0.2,0.7999999999999999,-0.5235987755982988,0.5235987755982988,0,-0.23983131,1.3456852,-0.25606054,-0.09763333,0.099983,1.2826464,-0.52725726,-0.36064598,1.1612834,-1.3177423,0.020904418,0.4882617,0.99567676,0.4950746
-0.2,-0.2,0.7999999999999999,-0.5235987755982988,0.5235987755982988,0,-0.0954995,1.3088684,-0.0931061,-0.07991314,0.10250242,1.3209617,0.14650121,-0.36054972,1.1612108,-1.3191174,0.021708978,0.49181125,1.0009941,0.04809324
-0.2,-0.2,0.7999999999999999,-0.5235987755982988,0.5235987755982988,0,-0.85907006,1.2976927,0.096684515,-0.07329602,0.07695319,1.2250983,0.7425869,-0.36014155,1.1617898,-1.3211008,0.02056794,0.45768386,0.9978152,-1.3558843
-0.2,-0.2,0.7999999999999999,-0.5235987755982988,0.5235987755982988,0,-0.9632074,1.352362,-0.22534321,-0.0824818,-0.0935854,1.2467983,-0.84736395,-0.3611856,1.1609777,-1.32117,0.020957576,0.46389714,0.9977315,1.8378165
-0.2,-0.2,0.7999999999999999,-0.5235987755982988,0.5235987755982988,0,0.09228133,1.3339107,-0.26601803,-0.09734263,-0.080516614,1.2696248,0.4075537,-0.36052367,1.162849,-1.319001,0.02050775,0.45049083,0.9920049,0.3467474
-0.2,-0.2,0.7999999999999999,-0.5235987755982988,0.5235987755982988,0,-0.022483528,1.2784617,0.08368952,-0.10728056,-0.12900387,1.2522519,-0.927807,-0.3611211,1.1624899,-1.3216945,0.020238008,0.45324397,1.0006692,0.87895775
-0.2,-0.2,0.7999999999999999,-0.5235987755982988,0.5235987755982988,0,-0.21875067,1.350065,-0.029397497,-0.061577633,0.12073906,1.2251214,0.561563,-0.35983863,1.1611304,-1.3193457,0.020778345,0.4611034,0.9995587,0.35218322
-0.2,-0.2,0.7999999999999999,-0.5235987755982988,0.5235987755982988,0,-0.65461445,1.2678213,0.022280846,-0.09019108,-0.20682327,1.3305439,-0.55334324,-0.3608857,1.1612546,-1.3202896,0.02148943,0.46655697,0.997623,0.37859872
-0.2,-0.2,0.7999999999999999,-0.5235987755982988,0.5235987755982988,0,-0.47202432,1.3060454,-0.18231425,-0.09112163,-0.120674916,1.2880309,-1.1051321,-0.36088735,1.1618801,-1.3193381,0.021083044,0.4711422,0.991774,0.786511
-0.2,-0.2,0.7999999999999999,-0.5235987755982988,0.5235987755982988,0,-0.6584453,1.3215388,0.012822385,-0.104170926,0.2637789,1.2134093,-0.6453893,-0.36113626,1.1606778,-1.317833,0.020582512,0.4770211,0.99807256,1.5637407
-0.2,-0.2,0.7999999999999999,-0.5235987755982988,0.5235987755982988,0,-0.3845183,1.3360054,-0.168226,-0.06328416,0.07849809,1.2787201,0.63977146,-0.3607333,1.1615912,-1.3174648,0.0211396,0.46100545,0.99211437,0.23974721
-0.2,-0.2,0.7999999999999999,-0.5235987755982988,0.5235987755982988,0,-0.91553444,1.3231828,-0.005765737,-0.053123794,0.24242328,1.2727041,0.81159633,-0.3602695,1.1621723,-1.3186809,0.02079539,0.45110634,1.0015385,0.31616163
-0.2,-0.2,0.7999999999999999,-0.5235987755982988,0.5235987755982988,0,-0.7287241,1.3137133,-0.11141404,-0.096003644,0.14329489,1.2537802,1.2501827,-0.36085343,1.1608951,-1.3199396,0.020721609,0.46841004,0.99576414,0.18126915
-0.2,-0.2,0.7999999999999999,-0.5235987755982988,0.5235987755982988,0,-0.44213957,1.3144476,-0.35602823,-0.087265395,-0.024598744,1.3541304,-0.32744884,-0.36106414,1.1614778,-1.3216667,0.021272846,0.46725777,0.9979661,0.48639244
-0.2,-0.2,0.7999999999999999,-0.5235987755982988,0.5235987755982988,0,-0.82996356,1.3027378,-0.08048671,-0.090544626,0.04895253,1.3293046,0.06717107,-0.3607009,1.1620766,-1.318822,0.021201821,0.4683168,1.001612,1.4207592
-0.2,-0.2,0.7999999999999999,-0.5235987755982988,0.5235987755982988,0,-0.1776989,1.3040363,-0.08457855,-0.05013399,0.066329814,1.2064855,1.4960197,-0.36031902,1.1615338,-1.3168622,0.02103353,0.44925517,1.0041004,1.2139477
-0.2,-0.2,0.7999999999999999,-0.5235987755982988,0.5235987755982988,0,-0.6208123,1.3386164,-0.18826522,-0.08285593,-0.04995924,1.298058,-0.25413102,-0.359042,1.1620078,-1.3195614,0.021012057,0.45770046,1.0077255,0.66104865
-0.2,-0.2,0.7999999999999999,-0.5235987755982988,0.5235987755982988,0,-0.86416095,1.3383478,-0.1644952,-0.123544976,-0.14847402,1.220317,-0.3259462,-0.36057276,1.1618463,-1.320492,0.020792255,0.46660736,1.0034393,0.06195252
-0.2,-0.2,0.7999999999999999,-0.5235987755982988,0.5235987755982988,0,-0.20320193,1.284865,0.05505261,-0.10838985,0.02416409,1.2447764,-0.5392649,-0.3600331,1.1622233,-1.3184991,0.020947026,0.46759734,1.0035586,0.54213685
-0.2,-0.2,0.7999999999999999,-0.5235987755982988,0.5235987755982988,0,0.4000326,1.3428575,-0.099865355,-0.054007083,-0.014889193,1.1995897,-0.60090303,-0.36099237,1.1612905,-1.3191067,0.0205133,0.4595788,0.99970084,0.79354817
-0.2,-0.2,0.7999999999999999,-0.5235987755982988,0.5235987755982988,0,-0.15586245,1.3888925,-0.10498188,-0.095899634,0.08559333,1.2036675,-0.43177527,-0.36083215,1.1613591,-1.3173149,0.020734932,0.4505506,1.0027015,0.66734135
-0.2,-0.2,0.7999999999999999,-0.5235987755982988,0.5235987755982988,0,-0.3384397,1.3298151,-0.11170193,-0.094063014,0.022009002,1.2657901,0.12450208,-0.36077708,1.1609637,-1.3158134,0.02073279,0.45108682,1.0013818,0.25849697
-0.2,-0.2,0.7999999999999999,-0.5235987755982988,0.5235987755982988,0,-0.12457045,1.3825912,-0.14291768,-0.05133635,-0.07044613,1.1850272,-1.1909325,-0.3606841,1.1617134,-1.320471,0.021075133,0.47454545,0.9861769,-0.23815697
-0.2,-0.2,0.7999999999999999,-0.5235987755982988,0.5235987755982988,0,0.23666136,1.3563994,-0.27639258,-0.07629485,0.07054652,1.2300729,-0.02888791,-0.3606751,1.1611998,-1.318017,0.02132383,0.47052354,0.99074936,1.2088764
-0.2,-0.2,0.7999999999999999,-0.5235987755982988,0.5235987755982988,0,0.057983182,1.3493882,-0.15953812,-0.06445177,-0.11018443,1.2716703,-0.23905614,-0.36055434,1.1619323,-1.319246,0.021165524,0.4725378,0.9935848,0.7595817
-0.2,-0.2,0.7999999999999999,-0.5235987755982988,0.5235987755982988,0,-0.41262537,1.3227926,-0.022211656,-0.13746218,-0.16115789,1.1969643,-0.7927392,-0.3603571,1.1632439,-1.3223624,0.020409022,0.4238759,0.99733174,0.6698111
-0.2,-0.2,0.7999999999999999,-0.5235987755982988,0.5235987755982988,0,0.185354,1.3632058,-0.34326357,-0.07185601,-0.06459175,1.1793258,0.45855615,-0.36021107,1.162007,-1.3187013,0.020865828,0.4917018,0.9951302,0.31017914
-0.2,-0.2,0.7999999999999999,-0.5235987755982988,0.5235987755982988,0,-0.7547375,1.2573228,-0.10558731,-0.06857651,-0.05241106,1.2064713,-0.2965729,-0.36127603,1.1606798,-1.3178049,0.021478651,0.4836662,1.0011852,1.4782668
-0.2,-0.2,0.7999999999999999,-0.5235987755982988,0.5235987755982988,0,-0.58269954,1.2946028,-0.07351201,-0.11604541,0.093159325,1.1823823,0.44245452,-0.36043602,1.161772,-1.3192589,0.02117867,0.4783273,0.99397516,0.57968515
-0.2,-0.2,0.7999999999999999,-0.5235987755982988,0.5235987755982988,0,-0.7206355,1.25364,-0.05797921,-0.0921838,-0.12395012,1.198867,-0.10069348,-0.3609824,1.1617571,-1.3178726,0.02078313,0.4654569,0.9931388,0.79401517
-0.2,-0.2,0.7999999999999999,-0.5235987755982988,0.5235987755982988,0,-0.022338912,1.3572251,-0.1676914,-0.092767544,-0.05203328,1.207776,1.6364601,-0.36088422,1.1625481,-1.3197411,0.020720562,0.45506105,0.99768066,0.15695447
-0.2,-0.2,0.7999999999999999,-0.5235987755982988,0.5235987755982988,0,-0.3985462,1.3409616,0.15336865,-0.060769908,-0.24952447,1.3386302,0.43487006,-0.36080626,1.162268,-1.3165983,0.020358028,0.45421526,0.9988018,0.7607776
-0.2,-0.2,0.7999999999999999,-0.5235987755982988,0.5235987755982988,0,-0.19056754,1.3030726,-0.07553009,-0.11078549,0.020355342,1.2221823,-0.54402137,-0.36039105,1.161971,-1.3173493,0.020675838,0.46076804,0.9966764,-0.3029431
-0.2,-0.2,0.7999999999999999,-0.5235987755982988,0.5235987755982988,0,-0.43405807,1.3247697,-0.14527036,-0.08060174,-0.016569514,1.2476885,0.4830318,-0.3596297,1.1630538,-1.320567,0.021580705,0.45537984,0.9954206,0.65806794
-0.2,-0.2,0.7999999999999999,-0.5235987755982988,0.5235987755982988,0,-0.94494945,1.280518,-0.106330656,-0.103265144,-0.017022986,1.2247206,-0.28528252,-0.3600991,1.1627142,-1.3193196,0.020739252,0.4637398,0.9968911,0.7062289
-0.2,-0.2,0.7999999999999999,-0.5235987755982988,0.5235987755982988,0,-0.63855696,1.3162102,-0.25036535,-0.09898432,0.0071492894,1.2406021,1.0484103,-0.36105892,1.161124,-1.3149006,0.020879751,0.4528997,0.9921599,-0.4527285
-0.2,-0.2,0.7999999999999999,-0.5235987755982988,0.5235987755982988,0,-1.1245915,1.3745267,0.027475115,-0.017874083,-0.059416287,1.1788472,0.30107746,-0.3618054,1.1607667,-1.3174284,0.020997059,0.47706753,0.9977338,0.9864683
-0.2,-0.2,0.7999999999999999,-0.5235987755982988,0.5235987755982988,0,-0.6958009,1.3277447,-0.16640814,-0.06832029,-0.103433676,1.2341119,-0.28602988,-0.36061314,1.1624734,-1.3147688,0.020981023,0.4549782,0.99154335,0.6554283
-0.2,-0.2,0.7999999999999999,-0.5235987755982988,0.5235987755982988,0,-0.512291,1.3100622,-0.087188944,-0.09336663,-0.061834645,1.2446606,-0.095504574,-0.3602972,1.1631461,-1.3161471,0.020173384,0.45783612,0.9999378,1.7529771
-0.2,-0.2,0.7999999999999999,-0.5235987755982988,0.5235987755982988,0,0.13886629,1.3078171,0.04889651,-0.0725769,0.010709351,1.2319777,0.71735543,-0.36105764,1.1630784,-1.3203492,0.020995231,0.4371196,0.99764794,1.0693897
-0.2,-0.2,0.7999999999999999,-0.5235987755982988,0.5235987755982988,0,-0.28046045,1.3283994,-0.22013742,-0.13021573,0.2089714,1.1979942,0.39130238,-0.3598539,1.1626266,-1.3171953,0.021359302,0.4549933,0.9941359,-0.58758485
-0.2,-0.2,0.7999999999999999,-0.5235987755982988,0.5235987755982988,0,0.09534983,1.2948314,-0.22968458,-0.08938713,0.04007274,1.2744539,0.34661314,-0.35960147,1.1632917,-1.3168901,0.020489156,0.41416347,0.9937045,1.082711
-0.2,-0.2,0.7999999999999999,-0.5235987755982988,0.5235987755982988,0,-0.24541903,1.2850614,-0.1716741,-0.06527916,-0.06620671,1.2052577,0.64899343,-0.36068615,1.1626654,-1.3183624,0.021051116,0.44720292,0.9967151,-0.9602592
