sanky1234/BimanualDexCatch/isaacgymenvs/cem_results/football_pose_-0.1_0.0_1.4_0.0_0.0_0_2025-05-25.csv
x,y,z,roll,pitch,yaw,robot1/joint1,robot1/joint2,robot1/joint3,robot1/joint4,robot1/joint5,robot1/joint6,robot1/joint7,robot2/joint1,robot2/joint2,robot2/joint3,robot2/joint4,robot2/joint5,robot2/joint6,robot2/joint7
-0.1,0.0,1.4,0.0,0.0,0,-0.9853944,-1.4329932,1.5441937,-0.27343392,-0.010594671,1.2113845,-0.26375148,1.7597922,-1.5083293,-1.4697199,-0.005453722,0.19960067,1.1365045,0.01526981
-0.1,0.0,1.4,0.0,0.0,0,-0.98559856,-1.4337871,1.5438131,-0.32266912,-0.008453751,1.1999727,0.44638422,1.7466022,-1.5365367,-1.2038376,-0.07560116,-0.24215731,1.0616153,1.6887618
-0.1,0.0,1.4,0.0,0.0,0,-0.9867675,-1.4336497,1.5441551,-0.33343223,-0.10133783,1.2202821,-0.18168393,1.8059028,-1.5030317,-2.2344,-0.03977174,-0.26618722,1.2255725,0.22015245
-0.1,0.0,1.4,0.0,0.0,0,-0.98508114,-1.4328158,1.5461096,-0.31129214,0.06840612,1.0717857,-0.21030462,1.7280138,-1.4980547,-1.6299738,-0.07337276,-0.3139312,1.1686108,1.0159642
-0.1,0.0,1.4,0.0,0.0,0,-0.9865575,-1.4332191,1.5452625,-0.28578797,0.04280703,1.1092438,0.106265426,1.8040222,-1.4533526,-1.7089337,-0.0011837268,-0.43649915,1.1284407,-0.36596507
-0.1,0.0,1.4,0.0,0.0,0,-0.98565656,-1.4337461,1.5451812,-0.19280538,0.011723185,1.1445427,0.47179696,1.7392633,-1.5096033,-1.4774283,-0.09190343,-0.24559332,1.0802248,-1.735168
-0.1,0.0,1.4,0.0,0.0,0,-0.98635435,-1.433577,1.544825,-0.33634084,-0.10319389,1.1816018,0.6385261,1.7576985,-1.3891356,-1.6493752,-0.04978489,-0.15021512,1.1959575,-1.4283063
-0.1,0.0,1.4,0.0,0.0,0,-0.9854898,-1.43362,1.5463294,-0.24821877,0.06250895,1.2419696,0.56360304,1.7389983,-1.5143015,-2.3416746,-0.0755976,-0.30009785,1.2292943,0.18312839
-0.1,0.0,1.4,0.0,0.0,0,-0.98592186,-1.4324328,1.5436084,-0.240968,0.002205313,1.0787135,-0.580939,1.7359717,-1.4761041,-1.4984183,0.0069525978,-0.07128612,1.2426522,0.7622962
-0.1,0.0,1.4,0.0,0.0,0,-0.98532933,-1.4326607,1.5446523,-0.21332912,-0.14970994,1.1718835,0.46947512,1.7658124,-1.4280541,-1.5603552,-0.054111954,-0.02206072,1.154689,-0.8764962
-0.1,0.0,1.4,0.0,0.0,0,-0.98555213,-1.4349501,1.5417202,-0.18840946,0.027939133,1.1191708,0.11046843,1.7653065,-1.463347,-1.5230397,-0.12842248,-0.076844394,1.0680472,-0.41164333
-0.1,0.0,1.4,0.0,0.0,0,-0.9856685,-1.4328257,1.5439289,-0.29560792,-0.09771504,1.1214378,-0.1903774,1.7336369,-1.491259,-1.1475123,-0.10911891,0.096618675,1.1580343,-0.3743885
-0.1,0.0,1.4,0.0,0.0,0,-0.98543334,-1.4331392,1.5439988,-0.23675556,0.13122594,1.2108991,-0.18152648,1.7507046,-1.4580668,-0.5503388,-0.18759494,-0.28620058,1.0840064,0.80574197
-0.1,0.0,1.4,0.0,0.0,0,-0.9860836,-1.4327239,1.543989,-0.3175758,0.021463921,1.2406298,0.49596155,1.7373074,-1.5205086,-0.5675013,-0.124171466,-0.105923496,1.1342776,-0.16881503
-0.1,0.0,1.4,0.0,0.0,0,-0.98561037,-1.4327995,1.5448267,-0.27567145,0.008533655,1.2399272,-0.105766386,1.7616374,-1.439521,-1.8097112,-0.045921396,-0.45365015,1.0521295,-0.15471944
-0.1,0.0,1.4,0.0,0.0,0,-0.98589545,-1.4332868,1.546052,-0.35322946,0.083290815,1.0395997,0.45641932,1.7660332,-1.4147378,-1.032738,-0.100932166,-0.02790549,1.1654648,-0.48678342
-0.1,0.0,1.4,0.0,0.0,0,-0.985723,-1.4325206,1.5439122,-0.25143254,-0.18714216,1.2260804,-0.596969,1.7702587,-1.5186526,-1.4669832,-0.14397703,-0.022266526,1.0809473,0.4004363
-0.1,0.0,1.4,0.0,0.0,0,-0.98521453,-1.4333578,1.5446702,-0.2998046,0.0016281881,1.1063364,0.71075636,1.7523558,-1.5274588,-1.0288032,-0.10239339,0.3221132,1.155925,0.19777404
-0.1,0.0,1.4,0.0,0.0,0,-0.9858662,-1.4317445,1.5430651,-0.20617221,0.0076664835,1.0775499,0.13565902,1.7240696,-1.5006219,-1.4991425,-0.013475218,-0.023832748,1.2062154,-0.42494413
-0.1,0.0,1.4,0.0,0.0,0,-0.985844,-1.4332463,1.5458463,-0.20441742,0.007091323,1.027729,0.17227314,1.731501,-1.4814366,-1.9727839,0.027573062,-0.33614433,1.1910625,-0.24569182
-0.1,0.0,1.4,0.0,0.0,0,-0.98524356,-1.4327757,1.5432179,-0.30920017,0.06643459,1.3308085,-0.59007657,1.743906,-1.528876,-1.584526,0.10511933,-0.10206866,1.2699491,-1.0679754
-0.1,0.0,1.4,0.0,0.0,0,-0.9847891,-1.4334034,1.5456645,-0.23895568,-0.023259519,1.2214422,-0.1008143,1.7498274,-1.4557631,-2.2172997,-0.07725089,-0.17858683,1.1029369,-0.43206707
-0.1,0.0,1.4,0.0,0.0,0,-0.98510796,-1.432378,1.5449418,-0.28336373,0.020836437,1.0294695,0.5823863,1.7718529,-1.4562575,-1.1235679,0.020911595,-0.39222178,1.178481,-0.7502895
-0.1,0.0,1.4,0.0,0.0,0,-0.98554575,-1.4333593,1.5445954,-0.24226485,0.024274537,1.0618445,0.19471739,1.7348115,-1.4626476,-1.8307002,-0.077513665,-0.21293364,1.1413187,-0.46666616
-0.1,0.0,1.4,0.0,0.0,0,-0.9855295,-1.4328842,1.5450246,-0.31824782,-0.03059546,1.1996062,0.1289409,1.740958,-1.4372623,-1.0758486,-0.034051314,0.01781922,1.0170945,-1.0075003
-0.1,0.0,1.4,0.0,0.0,0,-0.9858009,-1.4333899,1.5458891,-0.24877477,-0.09150062,1.1684891,-0.56408495,1.8341113,-1.4361764,-1.0688313,-0.07959692,-0.15957509,1.1252227,1.1880583
-0.1,0.0,1.4,0.0,0.0,0,-0.98558825,-1.4328971,1.54558,-0.26322082,-0.078555904,1.1170287,-0.09873783,1.7670926,-1.4357653,-1.449102,0.015517539,-0.1321578,1.0870584,-0.23139851
-0.1,0.0,1.4,0.0,0.0,0,-0.98599786,-1.4334354,1.5450965,-0.29449877,0.0014547938,1.0468973,-1.0806965,1.7620356,-1.5178777,-2.0578856,-0.07069089,-0.075645626,1.0597239,0.64778674
-0.1,0.0,1.4,0.0,0.0,0,-0.9848429,-1.4349834,1.5443195,-0.30850065,-0.16191842,1.1817136,0.57196677,1.76311,-1.5074173,-1.6602812,-0.1452575,-0.0626773,1.1875875,-0.106074795
-0.1,0.0,1.4,0.0,0.0,0,-0.986816,-1.4339468,1.5467165,-0.2469979,-0.14578341,1.2145532,-0.1564537,1.7773744,-1.4716923,-1.3848941,-0.110376246,-0.24327888,1.1117191,1.0485107
-0.1,0.0,1.4,0.0,0.0,0,-0.9854463,-1.4342164,1.5458086,-0.23551585,0.04306231,1.1098251,0.36981648,1.7580034,-1.4926617,-1.2590824,-0.03292274,-0.052671663,1.1282437,-0.23327096
-0.1,0.0,1.4,0.0,0.0,0,-0.9851431,-1.43432,1.5452513,-0.35710067,-0.06733647,1.0968331,0.19293867,1.7514367,-1.5265298,-1.1317421,-0.07462674,-0.23294815,1.164177,-0.8044627
-0.1,0.0,1.4,0.0,0.0,0,-0.9865574,-1.4334965,1.544428,-0.2900099,-0.1377789,1.1912827,-0.15567243,1.7698357,-1.4178141,-1.3920165,-0.07863916,-0.26133698,1.1219244,0.72691053
-0.1,0.0,1.4,0.0,0.0,0,-0.9859299,-1.4352552,1.5442717,-0.23284827,0.05706787,1.159096,0.05192293,1.7919712,-1.5407146,-1.1659243,-0.034980725,0.07690546,1.1370305,0.3345623
-0.1,0.0,1.4,0.0,0.0,0,-0.9852763,-1.4332006,1.54592,-0.33205235,-0.06184983,1.1978571,0.20937742,1.799172,-1.5673333,-0.3985643,-0.0073360023,0.17170517,1.0213779,-0.25266016
-0.1,0.0,1.4,0.0,0.0,0,-0.98590845,-1.433101,1.5438348,-0.28621843,0.14879234,1.1748775,0.7411522,1.7512845,-1.4337355,-1.1596061,-0.037018027,0.08481104,0.97551,-1.5324485
-0.1,0.0,1.4,0.0,0.0,0,-0.98602,-1.4339842,1.5474952,-0.24951984,0.041215073,1.1735605,-0.48646975,1.7540505,-1.4935306,-1.082098,-0.012562389,-0.47452977,1.1285989,-1.0293891
-0.1,0.0,1.4,0.0,0.0,0,-0.986269,-1.4320116,1.5442739,-0.23978797,0.080807745,1.1482229,0.4193556,1.7527733,-1.4631277,-1.3621049,-0.06019782,-0.0666242,1.1929467,-0.61927587
-0.1,0.0,1.4,0.0,0.0,0,-0.9859456,-1.4338117,1.5454648,-0.18266556,0.18897939,1.3416181,-0.040228095,1.7859381,-1.3550936,-0.50724953,-0.084838025,-0.389218,1.0885882,-1.106292
-0.1,0.0,1.4,0.0,0.0,0,-0.98512805,-1.4347208,1.5445278,-0.2710216,0.09740194,1.1532223,0.37453952,1.7939608,-1.468841,-0.5985076,-0.060397476,-0.496871,1.0585953,-0.49015024
-0.1,0.0,1.4,0.0,0.0,0,-0.9850439,-1.4335867,1.5474776,-0.30683425,0.06716287,1.1898997,-0.57974213,1.782146,-1.4547309,-0.45489103,0.01179788,-0.22371301,1.1233186,0.66572624
-0.1,0.0,1.4,0.0,0.0,0,-0.98572546,-1.4327562,1.545064,-0.23233558,-0.0699187,1.1876652,-0.68162066,1.7632905,-1.4405832,-1.6749244,-0.038669046,0.24253584,1.1284777,0.016737739
-0.1,0.0,1.4,0.0,0.0,0,-0.9853642,-1.4344103,1.5428417,-0.20520389,-0.087324284,1.2401667,-0.03868324,1.7350122,-1.543004,-1.9970338,-0.09955898,-0.13570052,1.1824645,0.58440197
-0.1,0.0,1.4,0.0,0.0,0,-0.98647475,-1.4336438,1.5463225,-0.2987048,0.011432577,0.99778575,-0.6312842,1.7834753,-1.4445983,-1.449196,-0.16540803,0.053024225,1.1935726,0.43452522
-0.1,0.0,1.4,0.0,0.0,0,-0.9860537,-1.433033,1.544078,-0.22002818,0.044791482,1.3270106,-0.6530838,1.7942576,-1.5065932,-1.478448,-0.09477527,-0.30027223,1.2183906,-0.14510049
-0.1,0.0,1.4,0.0,0.0,0,-0.9858195,-1.4332728,1.545569,-0.32591513,0.1441975,1.0969864,1.6942453,1.7680439,-1.4297615,-1.8848814,-0.097511314,0.10301927,0.9806893,1.6979859
-0.1,0.0,1.4,0.0,0.0,0,-0.98501015,-1.4329091,1.5450399,-0.1711585,-0.01498295,1.0723389,-0.35459223,1.7490504,-1.4681016,-1.0335189,-0.07068232,0.08694245,1.1944124,0.37250084
-0.1,0.0,1.4,0.0,0.0,0,-0.9854065,-1.4325355,1.5449407,-0.24670474,-0.015056249,1.1450267,-0.13035503,1.7695013,-1.536288,-1.935595,-0.025809065,-0.43175888,1.2036893,-0.13389042
-0.1,0.0,1.4,0.0,0.0,0,-0.98554474,-1.4345192,1.5455718,-0.30411234,-0.07183687,1.0760223,-0.6255153,1.7470254,-1.4884968,-1.9104722,-0.038970537,-0.10207894,1.1681322,0.42825347
-0.1,0.0,1.4,0.0,0.0,0,-0.98537934,-1.4335016,1.5449158,-0.20986423,-0.11072907,1.1879319,-0.25558645,1.7117888,-1.4534069,-1.9577124,-0.01307143,0.2544162,1.1212032,0.21293738
-0.1,0.0,1.4,0.0,0.0,0,-0.98537815,-1.433106,1.5456352,-0.26325965,-0.003854934,1.2957479,0.18210673,1.7588066,-1.5090754,-1.2767917,-0.067875445,-0.056662902,1.0475782,-1.3988501
-0.1,0.0,1.4,0.0,0.0,0,-0.9855846,-1.4332824,1.544398,-0.2949555,-0.062320687,1.127812,0.7540424,1.7492446,-1.4898398,-1.1335692,-0.08781169,0.08434039,1.2158,0.14866635
-0.1,0.0,1.4,0.0,0.0,0,-0.9859082,-1.4350169,1.5456172,-0.23333518,0.06392311,1.1684254,0.86307925,1.7547075,-1.4477415,-0.336485,-0.10411704,-0.3723025,1.2176086,-0.51200855
-0.1,0.0,1.4,0.0,0.0,0,-0.9865184,-1.4336952,1.5458796,-0.28715545,-0.05103519,1.2007594,0.18637303,1.7528634,-1.4700013,-0.7532375,-0.06345877,0.16150087,1.1832142,0.3598832
-0.1,0.0,1.4,0.0,0.0,0,-0.9859535,-1.4328752,1.5453297,-0.28589028,0.05602615,1.1623231,-0.35484612,1.8118632,-1.4633422,-1.8241067,-0.08565958,0.25915343,1.1610266,0.049399085
-0.1,0.0,1.4,0.0,0.0,0,-0.98510027,-1.434278,1.5481185,-0.34110117,-0.013113684,1.311242,-0.31356764,1.7744179,-1.4437592,-0.5470148,-0.1553584,-0.19072235,1.1437114,-0.63145995
-0.1,0.0,1.4,0.0,0.0,0,-0.98569787,-1.433673,1.5456268,-0.22960518,-0.092050806,1.1091073,0.8283904,1.8129718,-1.4255555,-1.3690784,-0.09524746,-0.15080814,1.1667855,-0.21133885
-0.1,0.0,1.4,0.0,0.0,0,-0.9859508,-1.4335978,1.5464293,-0.31798965,-0.039423797,1.1798067,-0.092262805,1.7642803,-1.5004817,-1.4639803,-0.0808411,-0.05846384,1.1688324,0.4662317
-0.1,0.0,1.4,0.0,0.0,0,-0.98665476,-1.4339553,1.5438601,-0.29063264,0.06555062,1.2551615,0.10678398,1.7613455,-1.4897418,-1.126879,-0.115266435,-0.16992296,1.0659618,-0.1506139
-0.1,0.0,1.4,0.0,0.0,0,-0.98582923,-1.4338101,1.5461948,-0.23808044,-0.039654866,1.1169055,-0.68216866,1.710654,-1.4690977,-1.5279645,-0.118868254,-0.24843536,1.2036016,1.0448923
-0.1,0.0,1.4,0.0,0.0,0,-0.9850134,-1.4336321,1.5455043,-0.31340402,-0.04139324,1.1154711,-0.13718858,1.7508487,-1.5187026,-0.46085748,-0.041435506,0.049671613,1.0707715,-0.07202655
-0.1,0.0,1.4,0.0,0.0,0,-0.98545814,-1.4333962,1.544858,-0.2334024,0.023918891,1.3144248,0.20150594,1.7925327,-1.4556054,-0.7161961,-0.078979224,-0.10608324,1.1069368,0.64566016
-0.1,0.0,1.4,0.0,0.0,0,-0.98599535,-1.4334629,1.546331,-0.29348698,-0.050807644,1.189795,-0.31608352,1.7921914,-1.4554911,-1.140058,-0.1439696,-0.12776682,1.1177915,-1.4854262
-0.1,0.0,1.4,0.0,0.0,0,-0.9862901,-1.4333673,1.5469308,-0.2173672,-0.040034086,1.1773279,-0.099197924,1.7609534,-1.5449266,-1.7926499,-0.023563333,0.21148473,1.1668742,1.6638317
-0.1,0.0,1.4,0.0,0.0,0,-0.9862174,-1.4333781,1.5454861,-0.27443552,-0.09440009,1.2379475,0.43376425,1.7577982,-1.4725589,-1.0400242,-0.06870548,-0.0098575475,1.3081176,1.524965
-0.1,0.0,1.4,0.0,0.0,0,-0.9854799,-1.4355446,1.5436912,-0.22120917,0.17929605,1.1813455,0.17737836,1.7535944,-1.4486092,-1.3676405,-0.06434897,-0.013632567,1.0574778,0.6846613
-0.1,0.0,1.4,0.0,0.0,0,-0.9851845,-1.434717,1.5466495,-0.31597903,-0.050046775,1.1976202,1.8057921,1.7472568,-1.4533808,-2.1285613,-0.04415446,-0.29042968,1.0804136,-0.7321112
-0.1,0.0,1.4,0.0,0.0,0,-0.9859228,-1.4333601,1.5467052,-0.23618674,0.030310946,1.0160666,-0.37015396,1.7606448,-1.4870323,-1.7827852,-0.11571157,0.082507215,1.2771367,0.7209471
-0.1,0.0,1.4,0.0,0.0,0,-0.98625064,-1.4332873,1.5458788,-0.24942556,0.011971437,1.0712343,0.776803,1.7250524,-1.4633092,-2.1590893,-0.03865231,-0.23238917,1.0652175,0.26589638
-0.1,0.0,1.4,0.0,0.0,0,-0.985854,-1.4332392,1.5418965,-0.3387382,0.10894825,1.154516,0.56639385,1.7405267,-1.483965,-0.9446717,-0.07478042,0.1438589,1.1896411,-0.9525749
-0.1,0.0,1.4,0.0,0.0,0,-0.985667,-1.433425,1.5471535,-0.22049503,-0.05039066,1.2091774,0.3252174,1.757598,-1.4206177,-0.2845832,-0.059758805,-0.032161493,1.1329114,0.36654156
-0.1,0.0,1.4,0.0,0.0,0,-0.98543376,-1.4338783,1.5447162,-0.30627158,0.06152032,1.0996275,0.40338728,1.7219117,-1.4970826,-1.530341,-0.11921294,-0.2088293,1.0133269,-0.49168926
-0.1,0.0,1.4,0.0,0.0,0,-0.98521954,-1.4323461,1.5450668,-0.26979238,-0.02491912,0.99950004,0.5261402,1.7418479,-1.4735594,-1.6327268,-0.13554074,0.16441308,1.1606809,-2.648556
-0.1,0.0,1.4,0.0,0.0,0,-0.9858401,-1.4335169,1.5438203,-0.27557003,0.040753182,1.0924828,0.5428117,1.7536607,-1.4829363,-0.06451544,-0.118344344,-0.1607701,1.0366516,1.694142
-0.1,0.0,1.4,0.0,0.0,0,-0.98509717,-1.434366,1.5460223,-0.3026884,0.05658397,1.0222546,-0.4249211,1.7712346,-1.529759,-1.157386,0.08311207,-0.24195673,1.1101562,-0.4520631
-0.1,0.0,1.4,0.0,0.0,0,-0.98546076,-1.4330635,1.546482,-0.20213957,0.019360665,1.0953377,-0.30203357,1.7841673,-1.5199113,-1.9596102,-0.11917919,-0.074539036,1.2051586,-0.5080706
-0.1,0.0,1.4,0.0,0.0,0,-0.9866512,-1.4331836,1.545149,-0.26452124,0.04600761,1.0489634,0.9940858,1.7350436,-1.5621446,-1.0242138,-0.022693103,-0.21358423,1.0853969,0.072543405
-0.1,0.0,1.4,0.0,0.0,0,-0.98639476,-1.434228,1.5450958,-0.25756553,0.02103376,1.0758848,-0.028874196,1.7465478,-1.4395422,-1.091817,-0.059461806,0.34256336,0.9832957,0.80258095
-0.1,0.0,1.4,0.0,0.0,0,-0.9856532,-1.4334104,1.5444796,-0.31573305,-0.09330952,1.1466644,-0.030290525,1.7680097,-1.4732018,-1.5479431,-0.0363652,-0.02074264,1.1945214,0.5513961
-0.1,0.0,1.4,0.0,0.0,0,-0.9855114,-1.4326506,1.5474248,-0.20478824,0.023970334,1.1085677,0.37531808,1.7444402,-1.4762926,-1.38004,-0.09173322,-0.24498762,1.0619541,0.08526916
-0.1,0.0,1.4,0.0,0.0,0,-0.98550516,-1.4331176,1.5458467,-0.25506696,-0.07392135,1.0215793,-0.05258247,1.7507894,-1.4276135,-0.9602005,-0.07042131,-0.065131314,1.2165647,-0.892412
-0.1,0.0,1.4,0.0,0.0,0,-0.98574066,-1.4329625,1.5448759,-0.24154644,0.0024036854,1.2001014,-0.8182473,1.7765042,-1.4669447,-1.6080173,0.026487874,0.29030144,0.9401824,-0.2579663
-0.1,0.0,1.4,0.0,0.0,0,-0.9859397,-1.4341471,1.5460203,-0.2985104,-0.17038077,1.0587001,0.64244366,1.7650077,-1.4689066,-1.5223044,-0.079375066,-0.373955,1.05093,-0.46734813
-0.1,0.0,1.4,0.0,0.0,0,-0.98553044,-1.432848,1.544552,-0.31598547,0.028397474,1.1380634,1.5501424,1.7633811,-1.5169888,-0.6673639,-0.09825213,0.026192538,1.0949721,-0.31375328
-0.1,0.0,1.4,0.0,0.0,0,-0.9865024,-1.4331181,1.5439342,-0.25122628,-0.0476029,0.9863824,-0.020206457,1.7018647,-1.5136963,-1.496196,-0.050869744,0.27146533,1.0080327,-0.17797579
-0.1,0.0,1.4,0.0,0.0,0,-0.98496896,-1.4336308,1.5461038,-0.34307066,0.017945316,1.1032451,-0.56171536,1.8026844,-1.4046557,-1.3235854,-0.19407742,0.0808174,1.1501043,0.5715388
-0.1,0.0,1.4,0.0,0.0,0,-0.98554856,-1.4330876,1.5449713,-0.26924577,0.066905,1.305401,-0.68173146,1.7554706,-1.4914572,-0.7752477,-0.054408826,-0.119750656,1.1878874,0.13537283
-0.1,0.0,1.4,0.0,0.0,0,-0.9845146,-1.4345561,1.5433366,-0.28231478,-0.08521846,1.1176797,0.3113182,1.7365052,-1.5611157,-1.028938,-0.09268144,0.17141129,1.0101544,1.101875
-0.1,0.0,1.4,0.0,0.0,0,-0.98595595,-1.4330862,1.5455143,-0.3012513,-0.013307757,1.1031876,-0.5673779,1.7914503,-1.5342771,-1.2505994,-0.06566664,-0.09463862,1.1046356,0.116720304
-0.1,0.0,1.4,0.0,0.0,0,-0.98553336,-1.4347178,1.5457627,-0.2768722,0.054181896,1.1533879,-0.7886582,1.7579671,-1.4966356,-1.4503062,-0.040945113,0.08131728,1.1387314,0.38204423
-0.1,0.0,1.4,0.0,0.0,0,-0.9859344,-1.433536,1.5474892,-0.245556,-0.10641017,1.1136936,0.15713261,1.7399206,-1.4222665,-1.7193964,0.002009476,0.15436493,1.0911471,-0.0009759419
-0.1,0.0,1.4,0.0,0.0,0,-0.9857448,-1.4341776,1.5477473,-0.28206208,-0.001524013,1.0448278,0.1547113,1.7581713,-1.5086532,-1.371595,-0.09698348,-0.2937389,0.97888637,-0.09540867
-0.1,0.0,1.4,0.0,0.0,0,-0.9857622,-1.4344345,1.5434589,-0.19629915,0.15018046,1.1624545,0.079139836,1.7888823,-1.3975406,-1.1092918,-0.051584657,0.093501575,1.1661317,1.4715657
-0.1,0.0,1.4,0.0,0.0,0,-0.9859588,-1.4329586,1.5437492,-0.30600175,-0.12650932,1.2105337,0.96242017,1.787426,-1.4428393,-1.0516244,-0.028765993,-0.26466003,1.1615244,-0.62685996
-0.1,0.0,1.4,0.0,0.0,0,-0.98564136,-1.4325074,1.5445229,-0.25598916,-0.107789904,1.2499511,-1.5215118,1.7445223,-1.5049528,-1.7093338,-0.09699557,-0.33768156,1.2416487,-1.407712
-0.1,0.0,1.4,0.0,0.0,0,-0.98564684,-1.4328833,1.5435747,-0.31369957,0.0097089475,1.2135042,-0.30030832,1.7659771,-1.4496417,-1.1969328,-0.083688594,0.03842788,1.1270745,0.011222088
-0.1,0.0,1.4,0.0,0.0,0,-0.9857156,-1.4337188,1.5457264,-0.336648,-0.11713601,1.0884234,0.7392723,1.760482,-1.4183197,-0.6805268,-0.050340608,-0.017989887,1.0981638,-0.28268063
-0.1,0.0,1.4,0.0,0.0,0,-0.9851284,-1.4340296,1.5473123,-0.21083002,-0.12439003,1.1185433,-1.1606913,1.7883515,-1.423644,-2.0336742,-0.10825581,0.08143783,1.2536368,-1.5895842
-0.1,0.0,1.4,0.0,0.0,0,-0.9854599,-1.4333055,1.5459327,-0.29576552,-0.07145134,1.1850791,-0.8737659,1.7646061,-1.4335897,-1.6084374,-0.06711047,-0.09555619,1.1600221,1.2700025
-0.1,0.0,1.4,0.0,0.0,0,-0.985693,-1.4343573,1.5464472,-0.27840078,0.05699119,1.1193902,-0.10067207,1.7997774,-1.4077086,-1.6376188,-0.014851874,0.32945257,1.0878165,-0.7594409
-0.1,0.0,1.4,0.0,0.0,0,-0.9857811,-1.4334782,1.5472292,-0.22067775,-0.07026697,1.0688527,-0.4737208,1.772895,-1.453855,-1.4041595,-0.0770673,-0.2285963,1.1124879,0.36343712
-0.1,0.0,1.4,0.0,0.0,0,-0.9861341,-1.434455,1.5449989,-0.26000652,-0.123617895,1.0869339,0.88237774,1.7429565,-1.5009397,-1.1678636,-0.07306437,-0.3976731,1.1989574,-0.34879193
-0.1,0.0,1.4,0.0,0.0,0,-0.98575634,-1.4331894,1.5462607,-0.2137877,-0.09978342,1.0937797,-0.1411789,1.768579,-1.482064,-0.3680207,-0.09191669,-0.030436598,1.1634101,-0.4135799
-0.1,0.0,1.4,0.0,0.0,0,-0.98605597,-1.4333144,1.543804,-0.2909347,-0.012730132,1.0410624,0.5636904,1.763976,-1.4966915,-1.1906928,-0.0819905,-0.33433145,1.1064363,-0.6855108
-0.1,0.0,1.4,0.0,0.0,0,-0.9858175,-1.433426,1.5446546,-0.3211622,0.048280127,1.1028832,0.30791372,1.7450984,-1.4667916,-1.856121,-0.05844685,-0.14089644,0.9426714,0.73811716
-0.1,0.0,1.4,0.0,0.0,0,-0.9858466,-1.4347715,1.5464475,-0.31401852,-0.039227836,1.2120246,0.09925411,1.7585264,-1.4546427,-1.978423,-0.009188599,0.054408014,1.0785931,-0.13532747
-0.1,0.0,1.4,0.0,0.0,0,-0.9862279,-1.4329867,1.5432881,-0.30240318,-0.025848975,1.1063713,0.5181818,1.7719516,-1.5347564,-1.4608008,-0.043831896,-0.31479117,0.98305154,-1.5607449
-0.1,0.0,1.4,0.0,0.0,0,-0.9856655,-1.4331366,1.5431134,-0.28792533,-0.009804162,1.0937507,1.0786746,1.7490736,-1.489468,-1.7338667,-0.0072607035,-0.4269382,1.2163643,0.1560454
-0.1,0.0,1.4,0.0,0.0,0,-0.98541653,-1.4346616,1.546841,-0.2946422,-0.09385391,1.0963153,0.3322245,1.7910494,-1.4066135,-0.21203807,0.0105224885,0.031108566,1.1073271,0.31800914
-0.1,0.0,1.4,0.0,0.0,0,-0.9851744,-1.4347265,1.5446515,-0.21502158,-0.04688761,1.1635821,0.14299248,1.7346393,-1.5203367,-1.1496409,-0.085264795,-0.24764752,1.173586,0.3136035
-0.1,0.0,1.4,0.0,0.0,0,-0.98601294,-1.4328679,1.5446478,-0.23349985,-0.054490414,1.0690953,-0.34838837,1.7350601,-1.5046984,-1.0967314,-0.08985514,-0.1160585,1.1924736,-0.8872068
-0.1,0.0,1.4,0.0,0.0,0,-0.985157,-1.4340439,1.5458409,-0.19776408,-0.07762764,1.2060043,-0.020905605,1.7725079,-1.5212685,-1.4439908,0.019217854,-0.18147242,1.173895,0.15678677
-0.1,0.0,1.4,0.0,0.0,0,-0.9869268,-1.4345242,1.5445008,-0.29582888,0.01755193,1.3087305,0.36696932,1.7560031,-1.5191517,-2.051892,-0.06342454,-0.060532007,1.17137,-0.27652538
-0.1,0.0,1.4,0.0,0.0,0,-0.98520654,-1.4342693,1.5462769,-0.2637043,0.076285005,1.0902259,0.89474446,1.7809274,-1.4942836,-0.99818206,-0.08129634,0.06487997,1.2000178,-0.805803
-0.1,0.0,1.4,0.0,0.0,0,-0.9856028,-1.4341937,1.5442741,-0.29754114,-0.09922689,1.0859983,-0.98747075,1.7464458,-1.4572024,-0.7006089,-0.10018865,0.12115209,1.1195142,-0.6778992
-0.1,0.0,1.4,0.0,0.0,0,-0.9863359,-1.4325029,1.5456561,-0.23151444,0.0014363596,1.1521275,0.7108171,1.7363029,-1.5049479,-1.9387794,-0.045023184,0.033180114,1.1071236,0.019854385
-0.1,0.0,1.4,0.0,0.0,0,-0.98580825,-1.4334508,1.5454264,-0.18522233,-0.16472909,1.1521772,0.26009306,1.7304764,-1.4920328,-1.5860713,-0.055810764,-0.18963082,1.3233749,0.28667057
-0.1,0.0,1.4,0.0,0.0,0,-0.98564976,-1.4338793,1.5434681,-0.23039682,-0.09698017,1.2361802,0.43290782,1.7549199,-1.5247324,-2.3241718,-0.10179421,0.036744278,1.0975285,1.1907804
-0.1,0.0,1.4,0.0,0.0,0,-0.9858922,-1.4329271,1.5451262,-0.17536141,0.06588294,1.2124363,0.47690168,1.7637699,-1.475423,-0.7683995,-0.12013255,-0.24014242,1.1630566,0.48948646
-0.1,0.0,1.4,0.0,0.0,0,-0.98611397,-1.4338486,1.5432081,-0.31463513,0.01283038,1.1060247,-0.16961332,1.7912086,-1.4493287,-1.2605636,-0.0974251,-0.052646566,1.1937758,0.28498098
-0.1,0.0,1.4,0.0,0.0,0,-0.98577243,-1.4331627,1.5443568,-0.274485,-0.10330589,1.1675172,-0.47282737,1.8204535,-1.4664108,-1.7212187,-0.11135764,-0.021092363,0.9170637,-0.5903234
-0.1,0.0,1.4,0.0,0.0,0,-0.98613554,-1.43251,1.5422789,-0.23042105,-0.004707814,1.1395456,-0.46527568,1.7526193,-1.5006272,-1.9582796,-0.09754801,-0.08567898,1.1920228,0.40927714
-0.1,0.0,1.4,0.0,0.0,0,-0.9856928,-1.434474,1.5431157,-0.32630205,-0.14856851,1.1642637,-0.40265954,1.7843018,-1.4804789,-1.2012495,-0.12338218,-0.16486245,1.241031,-0.17829312
-0.1,0.0,1.4,0.0,0.0,0,-0.9856217,-1.4337665,1.542879,-0.29537708,0.0033824802,0.9704665,0.17340808,1.7506009,-1.4329176,-0.8357542,-0.094850995,-0.27224353,1.1193691,-0.059194334
-0.1,0.0,1.4,0.0,0.0,0,-0.9855066,-1.4326069,1.5454339,-0.2757335,0.00473052,1.1468003,0.30931467,1.7390887,-1.4556193,-1.3505147,-0.05072948,-0.2933389,1.2689289,0.6494295
-0.1,0.0,1.4,0.0,0.0,0,-0.9860801,-1.4329717,1.5433333,-0.22365618,-0.03097674,1.3755581,-0.65891767,1.7299649,-1.4861053,-2.545028,-0.042800136,0.08182071,1.0577967,-0.6734733
-0.1,0.0,1.4,0.0,0.0,0,-0.9861888,-1.433693,1.5444913,-0.33393514,0.10678998,1.2192566,-0.28036737,1.7562592,-1.433899,-2.2338395,-0.048124038,-0.11552705,1.2318965,-0.3893535
-0.1,0.0,1.4,0.0,0.0,0,-0.985971,-1.4328676,1.5446001,-0.24077016,-0.08809833,1.1337085,0.20215656,1.7421905,-1.5062174,-1.8891602,-0.069906294,0.06753904,1.0949112,-0.85129887
-0.1,0.0,1.4,0.0,0.0,0,-0.9857437,-1.4343776,1.5470364,-0.33506262,-0.06489418,1.270995,0.18298732,1.7868837,-1.5043805,-0.8186847,-0.0050682058,-0.30813393,0.98702675,0.80580777
-0.1,0.0,1.4,0.0,0.0,0,-0.9861944,-1.4339992,1.5453184,-0.33038476,0.10171556,1.1612152,0.19374181,1.7943336,-1.4443381,-1.8592473,-0.026997827,0.17681156,1.2103554,0.8709338
-0.1,0.0,1.4,0.0,0.0,0,-0.9850289,-1.4334841,1.5452284,-0.27674595,-0.021130709,1.0852735,0.19718233,1.7597842,-1.5291356,-0.8108394,0.051135425,0.277078,1.0326033,-1.2703378
-0.1,0.0,1.4,0.0,0.0,0,-0.9857859,-1.4327579,1.546274,-0.24703965,-0.030331476,1.1138694,-0.8443984,1.7193503,-1.4930204,-0.91893655,-0.03735394,-0.38524148,1.1547436,-0.079061106
-0.1,0.0,1.4,0.0,0.0,0,-0.9859013,-1.4330319,1.545367,-0.2063313,-0.008695557,1.0494075,0.2085702,1.711602,-1.49233,-0.60831463,-0.059836894,-0.14383978,1.0462594,-1.1161968
-0.1,0.0,1.4,0.0,0.0,0,-0.9861136,-1.4337883,1.5449781,-0.2530644,0.03871428,1.2060206,-1.1662036,1.798237,-1.5149112,-1.8408815,-0.114182755,-0.4423016,1.0912799,0.39613703
-0.1,0.0,1.4,0.0,0.0,0,-0.98537934,-1.4342012,1.5449749,-0.26064065,0.0781299,1.290588,-0.58009326,1.7622424,-1.502077,-1.9314642,-0.031451724,-0.22396336,1.0892375,-0.5563185
-0.1,0.0,1.4,0.0,0.0,0,-0.98603076,-1.434076,1.5467167,-0.23361857,-0.21282953,1.1639073,0.12983994,1.7750723,-1.4867095,-1.7917322,-0.08568073,-0.032472976,1.1155492,0.79863286
-0.1,0.0,1.4,0.0,0.0,0,-0.9857364,-1.4346352,1.5449191,-0.33195683,-0.20723042,0.98657477,-0.66418666,1.8020804,-1.4881473,-0.95222425,-0.004062656,0.51006514,1.2304001,-0.27967286
-0.1,0.0,1.4,0.0,0.0,0,-0.9855861,-1.4337856,1.5462841,-0.34144783,-0.08448049,1.1875509,-0.74319494,1.7200481,-1.5002608,-0.87196624,-0.0044908687,-0.012533253,1.0821865,0.82692
-0.1,0.0,1.4,0.0,0.0,0,-0.98591226,-1.4337274,1.545678,-0.2906339,-0.09793741,1.1174334,0.30355266,1.7525998,-1.4861236,-0.7688591,-0.09946875,-0.35884014,1.150823,-0.42951354
-0.1,0.0,1.4,0.0,0.0,0,-0.98586506,-1.4323984,1.5446093,-0.23303281,-0.028499316,1.1799452,0.4163713,1.7226474,-1.4812597,-1.2956998,-0.072424434,-0.119386986,1.1362413,0.40493155
-0.1,0.0,1.4,0.0,0.0,0,-0.98550224,-1.4339627,1.543597,-0.21770328,0.056879792,1.324942,0.2841178,1.7653148,-1.5073092,-0.9741886,-0.03290145,0.38817444,1.0486611,-0.38421527
-0.1,0.0,1.4,0.0,0.0,0,-0.986718,-1.434666,1.5468984,-0.23862647,-0.012119822,1.1968571,0.20496312,1.8018262,-1.5207001,-1.8888255,-0.08333275,-0.005323764,1.1403354,0.22412904
-0.1,0.0,1.4,0.0,0.0,0,-0.98563415,-1.4332241,1.5438884,-0.22863738,-0.1419544,1.2238,0.87537163,1.7582952,-1.5295104,-1.798323,-0.07806833,-0.5728866,1.108598,-1.1157048
-0.1,0.0,1.4,0.0,0.0,0,-0.9856813,-1.4335251,1.5440875,-0.34166396,-0.15439163,1.1226445,-0.09282706,1.7524352,-1.498058,-2.106566,-0.060250852,0.1680657,1.116012,0.7666642
-0.1,0.0,1.4,0.0,0.0,0,-0.98603576,-1.4337709,1.5465604,-0.2422106,0.044105068,1.2112657,-0.17797053,1.8104495,-1.5309964,-2.0483193,-0.022348946,0.12383509,1.0031788,-0.16152135
-0.1,0.0,1.4,0.0,0.0,0,-0.98591226,-1.4337947,1.5447332,-0.28573447,0.018069163,1.077906,-0.78403395,1.7770624,-1.4716583,-0.9896765,-0.056946184,0.028638538,1.1579494,1.2574916
-0.1,0.0,1.4,0.0,0.0,0,-0.98579055,-1.4333993,1.5454677,-0.22441296,0.017937342,1.1158488,0.21639456,1.7394915,-1.4794937,-1.0848287,-0.089362994,0.09682652,1.127335,0.65240514
-0.1,0.0,1.4,0.0,0.0,0,-0.98580027,-1.4342319,1.5463197,-0.31720787,0.027191343,0.99325967,0.7533679,1.7766999,-1.5473012,-2.0691316,0.035318673,-0.22797936,1.2054974,0.13584453
-0.1,0.0,1.4,0.0,0.0,0,-0.9852655,-1.434316,1.5458969,-0.24243294,-0.009885153,1.1995256,-0.14460549,1.7912242,-1.5158424,-0.43061024,-0.10878279,-0.34809026,1.0420468,0.5257819
-0.1,0.0,1.4,0.0,0.0,0,-0.9856401,-1.4336743,1.5458547,-0.22983088,-0.15892665,1.2118407,1.1003741,1.7342227,-1.5129961,-1.3890115,-0.08502372,-0.2443048,1.2080407,-0.8400595
-0.1,0.0,1.4,0.0,0.0,0,-0.9863663,-1.4345258,1.546733,-0.2337883,-0.095390625,1.0442942,-0.051300675,1.7360092,-1.4925367,-1.7786214,-0.06266575,-0.23821223,0.9902713,0.62519586
-0.1,0.0,1.4,0.0,0.0,0,-0.9864026,-1.4339473,1.547431,-0.23561832,-0.105744645,1.1726345,-0.10045522,1.7845963,-1.4120076,-1.3244035,-0.10373766,-0.0911274,1.0561224,1.2640878
-0.1,0.0,1.4,0.0,0.0,0,-0.9852177,-1.4341371,1.5461141,-0.2601084,0.033873368,1.1876833,-0.22349718,1.768496,-1.4896288,-2.1985555,-0.060219366,-0.14620793,1.0724663,-0.17028043
-0.1,0.0,1.4,0.0,0.0,0,-0.9866674,-1.4346521,1.5456825,-0.21912207,0.044170894,1.1979156,0.05437942,1.7923096,-1.5423563,-1.4673965,-0.097456254,-0.02062194,1.1213006,0.78489816
-0.1,0.0,1.4,0.0,0.0,0,-0.98564875,-1.4339335,1.5452863,-0.25429162,-0.11850398,1.2471787,0.99562246,1.7305719,-1.4721516,-0.85845184,-0.061962787,-0.30306163,1.10725,0.5882451
-0.1,0.0,1.4,0.0,0.0,0,-0.9858597,-1.4340616,1.5455441,-0.21209024,-0.21685524,1.1841376,0.26208305,1.7578527,-1.528086,-1.0360988,-0.02600103,-0.20702416,1.1247355,0.66224486
-0.1,0.0,1.4,0.0,0.0,0,-0.98556566,-1.4343599,1.5446999,-0.36154455,0.029812261,1.0502229,0.22944948,1.7727896,-1.5239459,-1.6278093,-0.023173658,0.21849814,1.1046821,-0.351068
-0.1,0.0,1.4,0.0,0.0,0,-0.98562473,-1.4327773,1.5457776,-0.2805656,-0.032972,1.1461225,0.15477422,1.7425408,-1.46565,-1.9698739,-0.06994541,-0.25019917,1.1631204,0.21577074
-0.1,0.0,1.4,0.0,0.0,0,-0.98615247,-1.4342517,1.5475346,-0.22992192,-0.10094499,1.1754873,-0.29404685,1.7900056,-1.532353,-0.9702819,-0.05777806,0.22629595,1.1654872,-0.12223825
-0.1,0.0,1.4,0.0,0.0,0,-0.98636156,-1.4343326,1.5463823,-0.27481994,-0.026827127,1.1707753,-0.6784744,1.8057134,-1.4439615,-1.0361863,-0.060103573,0.10835131,1.1736467,0.6245275
-0.1,0.0,1.4,0.0,0.0,0,-0.9861089,-1.433845,1.5452747,-0.30197987,0.06925832,1.0771971,1.0458108,1.8111212,-1.4833493,-1.6498314,-0.049149957,-0.06738032,1.2977579,-1.2612218
-0.1,0.0,1.4,0.0,0.0,0,-0.9857376,-1.4342248,1.5453122,-0.2740968,0.033672053,1.1577837,0.117143795,1.7753567,-1.5669827,-1.7134839,-0.07956689,-0.2678392,0.9786891,-0.19299592
-0.1,0.0,1.4,0.0,0.0,0,-0.9852799,-1.4337296,1.5438423,-0.36647916,-0.0050070216,1.1390159,0.79760057,1.7793142,-1.457007,-1.4140804,-0.069450654,-0.1745204,1.2066705,0.43269446
-0.1,0.0,1.4,0.0,0.0,0,-0.98500097,-1.4350612,1.5446688,-0.27425313,-0.04728979,1.1551611,0.9912889,1.8249978,-1.4251281,-0.15365222,-0.08171231,0.02393045,1.0410935,-0.9472047
-0.1,0.0,1.4,0.0,0.0,0,-0.9857599,-1.4329154,1.5460103,-0.1777275,0.08323834,1.0349356,0.20997785,1.7683028,-1.4819578,-0.7197177,-0.034669682,-0.4692889,1.0853857,0.23156512
-0.1,0.0,1.4,0.0,0.0,0,-0.9861603,-1.433102,1.5450993,-0.22167207,0.053092696,0.98542947,-0.023570938,1.7252535,-1.4647261,-1.5608549,-0.07424122,-0.1491914,0.98952025,-0.83553785
-0.1,0.0,1.4,0.0,0.0,0,-0.98664004,-1.4337649,1.544473,-0.3132135,-0.1827762,1.0163219,0.16392812,1.8029845,-1.5077108,-1.543526,0.015500814,0.22408532,1.135919,0.35216603
-0.1,0.0,1.4,0.0,0.0,0,-0.9858313,-1.4339753,1.5466875,-0.22792946,-0.03152222,1.2395437,0.20811059,1.754385,-1.4615022,-2.8042643,-0.087390356,-0.16214848,1.1672612,-0.5811401
-0.1,0.0,1.4,0.0,0.0,0,-0.9857217,-1.4337425,1.5454056,-0.21247771,0.036492325,1.2407568,1.1466974,1.740181,-1.4936553,-1.976174,-0.06989074,0.20267215,1.1407381,-0.2435855
-0.1,0.0,1.4,0.0,0.0,0,-0.9854709,-1.4341052,1.545725,-0.26994598,0.008423206,1.1617955,-0.3219237,1.7652735,-1.4454787,-1.1848085,-0.040724065,0.24243,1.0856376,0.7823379
-0.1,0.0,1.4,0.0,0.0,0,-0.98596096,-1.4328815,1.5429158,-0.30007514,-0.0067675416,1.1822587,-0.27968383,1.7898363,-1.4542924,-0.95866704,-0.028841266,-0.06659388,1.0563123,-0.67235184
-0.1,0.0,1.4,0.0,0.0,0,-0.986068,-1.4338417,1.5437814,-0.24966349,-0.079252236,1.1988373,-0.20623954,1.7981918,-1.4391454,-2.2942631,-0.05692275,0.18731949,0.966742,-0.014630491
-0.1,0.0,1.4,0.0,0.0,0,-0.98669386,-1.4338746,1.5428734,-0.29095072,-0.057018306,1.1094995,0.9487973,1.7875174,-1.4707787,-0.5407716,0.006105667,0.1128654,1.1323916,0.5640828
-0.1,0.0,1.4,0.0,0.0,0,-0.9857799,-1.4344431,1.5453342,-0.26339057,-0.005791698,1.1135559,-0.28543672,1.7639191,-1.4444729,-0.7114794,-0.06860839,-0.12907752,1.228016,0.76599276
-0.1,0.0,1.4,0.0,0.0,0,-0.9863347,-1.4336843,1.5424566,-0.2510656,-0.03997512,1.3376883,0.29102156,1.739156,-1.5164636,-1.1303693,-0.1427337,-0.26066175,1.1575382,-0.0037551057
-0.1,0.0,1.4,0.0,0.0,0,-0.98589665,-1.4333457,1.5419375,-0.26128182,-0.02144668,1.2214994,0.14106958,1.7682672,-1.5193467,-1.2466238,-0.06044931,0.43561122,1.2217406,-1.03573
-0.1,0.0,1.4,0.0,0.0,0,-0.9855506,-1.434063,1.5439782,-0.27330005,0.025082912,1.0797018,0.6638672,1.7402554,-1.418025,-1.4401917,-0.140109,-0.15817581,1.1616336,-0.2564369
-0.1,0.0,1.4,0.0,0.0,0,-0.98593485,-1.4339336,1.5468718,-0.22757462,0.1028611,1.1139584,-0.2821489,1.7560092,-1.4896379,-1.4981555,-0.075255245,-0.45936897,1.0597767,1.5840323
-0.1,0.0,1.4,0.0,0.0,0,-0.9865754,-1.4344933,1.545228,-0.23717949,0.10800633,1.1501997,0.13855448,1.7677971,-1.4922906,-0.90164775,-0.040742658,0.15546416,1.1435747,-0.047464162
-0.1,0.0,1.4,0.0,0.0,0,-0.98604816,-1.4336586,1.5442604,-0.30883855,-0.0447217,1.1701959,-0.7933421,1.7963831,-1.43112,-1.1350269,-0.102076374,0.02457466,1.2318612,0.492436
-0.1,0.0,1.4,0.0,0.0,0,-0.98577017,-1.4342159,1.546127,-0.28104112,-0.08077103,1.19648,0.98219466,1.7639132,-1.4953032,-1.2635242,-0.12488196,-0.03869353,1.1942681,1.4743181
-0.1,0.0,1.4,0.0,0.0,0,-0.98612934,-1.4342601,1.5449845,-0.25214282,-0.09286613,1.0519247,0.113322675,1.7308601,-1.4816635,-0.6974193,-0.12561624,0.36345696,1.2141147,0.76172495
-0.1,0.0,1.4,0.0,0.0,0,-0.98569185,-1.4345576,1.545383,-0.27544606,0.01989294,1.1836501,0.72465146,1.7814943,-1.5004286,-1.4095544,-0.016693085,-0.27753806,1.2687339,-1.5075066
-0.1,0.0,1.4,0.0,0.0,0,-0.9856561,-1.4344302,1.5448538,-0.22743018,0.058470875,1.1985543,0.31264332,1.7741157,-1.4749233,-1.4048377,-0.14924511,-0.22803403,1.0589174,0.9580357
-0.1,0.0,1.4,0.0,0.0,0,-0.98617387,-1.4336147,1.5442928,-0.2469986,-0.024334364,1.1729994,-0.49532664,1.7960706,-1.470327,-1.8777778,-0.1091423,-0.20258296,1.2266182,-0.1678164
-0.1,0.0,1.4,0.0,0.0,0,-0.9855612,-1.433799,1.5457371,-0.26790172,0.03871396,1.1288189,-0.66233927,1.7904872,-1.5511256,-1.6997654,-0.07197943,-0.0032166555,1.1047902,0.310435
-0.1,0.0,1.4,0.0,0.0,0,-0.98526007,-1.4340847,1.5465381,-0.221488,-0.043628853,1.2478913,-0.23159951,1.7305286,-1.5034219,-0.82011414,-0.071028024,-0.22003907,1.311522,-0.79394966
-0.1,0.0,1.4,0.0,0.0,0,-0.9859022,-1.4332911,1.545554,-0.21207845,0.0118230665,1.1583294,-0.33382437,1.7937123,-1.5007998,-1.2851257,-0.172804,-0.003762954,1.0484556,0.1746293
-0.1,0.0,1.4,0.0,0.0,0,-0.9862585,-1.4339612,1.5437728,-0.18743256,0.11673022,1.1869417,-0.3925699,1.7651485,-1.4853269,-2.395625,-0.11502111,0.14895461,1.0793849,-0.7482721
-0.1,0.0,1.4,0.0,0.0,0,-0.9860556,-1.4345686,1.5448108,-0.26334864,0.11808701,1.2729298,-0.6936559,1.7684042,-1.4727176,-1.2544217,-0.0025468832,0.030764293,1.1032563,0.74599326
-0.1,0.0,1.4,0.0,0.0,0,-0.98583055,-1.4336146,1.5449222,-0.2335137,-0.028961422,1.2349494,0.38469687,1.7828856,-1.535365,-2.4164114,-0.010715828,-0.10379279,1.052224,-0.82088476
-0.1,0.0,1.4,0.0,0.0,0,-0.9858044,-1.4335334,1.5459826,-0.19075996,0.11141185,1.2520317,0.726799,1.8113202,-1.4684795,-0.08726885,-0.123117626,0.08858978,1.0385456,-0.17089395
-0.1,0.0,1.4,0.0,0.0,0,-0.9857423,-1.432719,1.5435627,-0.2395091,-0.13190986,1.2279246,0.1333687,1.794545,-1.4610242,-1.7489358,-0.14781977,-0.38611275,1.2566699,-1.0800868
-0.1,0.0,1.4,0.0,0.0,0,-0.9868211,-1.4344386,1.5476677,-0.1893774,0.00088813377,1.1840521,-0.35384572,1.765204,-1.4850365,-2.1135237,-0.0372542,-0.30715877,1.1440035,-1.0022732
-0.1,0.0,1.4,0.0,0.0,0,-0.9857662,-1.4333391,1.5431224,-0.3379276,0.094908305,0.9825762,-0.4124372,1.7332649,-1.4918759,-2.1766613,-0.08033439,-0.0008381743,1.1054933,-0.75309736
-0.1,0.0,1.4,0.0,0.0,0,-0.9854236,-1.4341811,1.5448334,-0.2587275,-0.056584008,1.0562092,-0.5279939,1.777894,-1.501004,-2.0052843,-0.0077389493,0.19056293,1.1873047,0.22755772
-0.1,0.0,1.4,0.0,0.0,0,-0.9860921,-1.4336873,1.544144,-0.20404933,-0.0418898,1.166493,-0.44102845,1.743235,-1.4909911,-0.3189339,0.011965938,0.039364025,1.2001337,0.2890686
-0.1,0.0,1.4,0.0,0.0,0,-0.9856084,-1.4342711,1.5471117,-0.21768527,-0.062462885,1.2506163,0.61766154,1.7293434,-1.4516413,-1.4396724,-0.06841566,0.30823746,1.2137283,-1.0170825
-0.1,0.0,1.4,0.0,0.0,0,-0.98580515,-1.4334545,1.544801,-0.20255,-0.04180296,1.1802888,1.0716393,1.7756344,-1.4112399,-2.174269,-0.007045473,-0.020886788,1.1797441,-1.516782
-0.1,0.0,1.4,0.0,0.0,0,-0.9854178,-1.4344008,1.5462207,-0.28764278,0.0053102197,1.1150991,-0.044444438,1.7653536,-1.4027078,-0.92489254,-0.14778377,-0.07706471,1.1364911,0.8938763
-0.1,0.0,1.4,0.0,0.0,0,-0.98537743,-1.4336704,1.54689,-0.31884995,0.01961756,1.2262965,-0.03723966,1.7605301,-1.4912068,-1.5557034,-0.016762232,-0.06778855,1.1786023,-0.19622746
-0.1,0.0,1.4,0.0,0.0,0,-0.9855414,-1.4336914,1.5458148,-0.2772967,0.02013116,1.1020315,0.5701562,1.7813002,-1.514164,-1.9825436,-0.08621286,0.012948271,1.1378075,-1.3429599
-0.1,0.0,1.4,0.0,0.0,0,-0.9860369,-1.4335105,1.5461895,-0.24740712,0.086353555,1.1515293,0.704012,1.8163004,-1.5048345,-1.1433296,0.095326565,-0.16803509,1.0344676,1.3447604
-0.1,0.0,1.4,0.0,0.0,0,-0.9857827,-1.4333042,1.5432868,-0.27967855,-0.08610718,1.1976019,0.31273592,1.7554947,-1.4941726,-0.40183386,-0.034390267,-0.13951787,0.97337776,-0.5053548
-0.1,0.0,1.4,0.0,0.0,0,-0.9854592,-1.4333302,1.5450761,-0.25763792,0.06591352,1.0327708,0.79827464,1.7907109,-1.437158,-0.17496055,-0.0671772,0.32962513,1.1072705,0.2968506
-0.1,0.0,1.4,0.0,0.0,0,-0.9851482,-1.433093,1.5455946,-0.24387626,-0.08140557,1.0426123,0.9470389,1.7868565,-1.438696,-0.63896567,-0.050435107,0.041694816,1.2065691,0.8581921
-0.1,0.0,1.4,0.0,0.0,0,-0.98589146,-1.4333243,1.5452089,-0.22426242,-0.018889152,1.1883466,1.2732363,1.7688683,-1.4456888,-0.9387363,-0.14646406,0.1516006,1.0650856,1.3071682
-0.1,0.0,1.4,0.0,0.0,0,-0.98621255,-1.4353068,1.5463184,-0.23452403,-0.026099272,1.2321463,0.5553291,1.7608324,-1.4753417,-0.59672517,0.0145011665,-0.12766884,1.1148688,-1.1009604
-0.1,0.0,1.4,0.0,0.0,0,-0.98435915,-1.4332087,1.5461698,-0.26477566,-0.06874828,1.0578983,-0.049236085,1.8160052,-1.494036,-1.1085865,-0.030669207,-0.11322658,1.1571645,1.2285459
-0.1,0.0,1.4,0.0,0.0,0,-0.9856146,-1.4331007,1.5448532,-0.2076329,-0.012713369,1.1214534,0.47123128,1.7873536,-1.5019366,-1.1197913,-0.0001787402,-0.19462937,1.1771307,0.5045598
-0.1,0.0,1.4,0.0,0.0,0,-0.98654884,-1.4331934,1.5445241,-0.28184855,-0.046882458,1.3227376,0.071857646,1.7601886,-1.4204711,-2.368195,-0.124509156,0.061341476,1.2294325,-1.2095549
-0.1,0.0,1.4,0.0,0.0,0,-0.98523796,-1.4333222,1.544243,-0.24366657,0.09989031,1.1994585,-0.12911375,1.7591288,-1.4589725,-1.9447937,-0.03972075,0.105434895,1.1439178,-0.34470892
-0.1,0.0,1.4,0.0,0.0,0,-0.985724,-1.4341837,1.5430743,-0.27299732,0.15780416,1.1363386,-0.45257527,1.7351454,-1.5320998,-1.123087,-0.04890241,-0.12304672,1.1595412,-0.59538573
-0.1,0.0,1.4,0.0,0.0,0,-0.98528826,-1.4337739,1.5443177,-0.23534785,-0.0073103746,1.1600035,-0.9486945,1.7271694,-1.5322559,-1.4611043,-0.022681067,0.25649363,1.0870531,0.54707754
-0.1,0.0,1.4,0.0,0.0,0,-0.9856088,-1.4339936,1.5470027,-0.2527361,-0.15838242,1.1674541,-0.79665774,1.8321173,-1.3584881,-1.2413124,-0.12874553,-0.25348958,1.0519847,-0.55992573
-0.1,0.0,1.4,0.0,0.0,0,-0.9856509,-1.4338146,1.5444219,-0.319481,0.14479275,1.1220868,0.4195926,1.7920734,-1.4818997,-2.8172166,0.07980663,0.012695022,1.0439926,0.23022409
-0.1,0.0,1.4,0.0,0.0,0,-0.9861992,-1.4347872,1.5430871,-0.23855563,-0.06926964,1.1799362,-1.0260011,1.7138598,-1.4668986,-1.0625112,-0.07217325,-0.26729393,1.2432276,1.4277046
-0.1,0.0,1.4,0.0,0.0,0,-0.98587185,-1.4344736,1.5454245,-0.22647516,0.071926385,1.146894,0.239246,1.7834605,-1.4637032,-1.1864737,-0.07686336,-0.24647813,1.134085,1.3650005
-0.1,0.0,1.4,0.0,0.0,0,-0.9861902,-1.4345809,1.5448667,-0.16031325,-0.026116839,1.2264458,0.47150347,1.7665023,-1.4246864,-0.9981675,0.016353253,-0.32554471,1.2040485,-0.46681097
-0.1,0.0,1.4,0.0,0.0,0,-0.9864331,-1.4323331,1.5441426,-0.20313899,-0.038671833,1.3565301,-0.80854505,1.775962,-1.4335765,-1.606351,-0.111450374,-0.2638776,1.1497369,-0.11328782
-0.1,0.0,1.4,0.0,0.0,0,-0.98567104,-1.4346504,1.5451108,-0.21571212,-0.026593432,1.178469,-0.67474866,1.7918202,-1.5095946,-1.2492684,-0.032091476,-0.04865283,1.1399819,0.7458171
-0.1,0.0,1.4,0.0,0.0,0,-0.98571056,-1.4347984,1.5461923,-0.22439103,0.110144526,1.1871831,-0.15119049,1.7381155,-1.4814373,-1.8338981,-0.13861682,0.094988815,1.2138454,0.4225862
-0.1,0.0,1.4,0.0,0.0,0,-0.9855267,-1.4342607,1.5445321,-0.2308436,0.07099037,1.2202808,0.24191637,1.7511551,-1.4324508,-1.6973077,-0.18120196,-0.23407222,1.2013172,0.5709148
-0.1,0.0,1.4,0.0,0.0,0,-0.98581713,-1.4324253,1.5444739,-0.319719,-0.059197824,1.2118311,0.32903576,1.7277533,-1.4747452,-0.9464383,0.027687952,0.3650597,1.1300906,0.20852426
-0.1,0.0,1.4,0.0,0.0,0,-0.9856044,-1.4331979,1.544725,-0.33194312,0.022531973,1.1856269,1.0431074,1.7214098,-1.4634871,-1.4710839,-0.066494815,0.009659941,1.10301,-1.1875789
-0.1,0.0,1.4,0.0,0.0,0,-0.9858219,-1.4325675,1.5445886,-0.33423287,-0.07027833,1.1102027,-0.9007811,1.7789439,-1.4622134,-0.9110208,-0.02180377,-0.08975792,1.0697607,0.07658373
-0.1,0.0,1.4,0.0,0.0,0,-0.9862178,-1.4337876,1.5471736,-0.25085503,0.039978005,1.0913177,0.50957257,1.7854556,-1.5186915,-1.6293808,0.003235347,-0.22993864,1.2299635,-0.091789186
-0.1,0.0,1.4,0.0,0.0,0,-0.98608947,-1.4330126,1.544013,-0.2835842,0.011006212,1.1189682,0.20559064,1.7421442,-1.4358572,-2.0470073,-0.09107816,-0.09155444,0.9934462,-0.84667933
-0.1,0.0,1.4,0.0,0.0,0,-0.98645616,-1.4340912,1.5434834,-0.24992228,-0.06676717,1.100674,0.32644507,1.7286906,-1.4249576,-1.2833089,-0.14852978,-0.35978803,1.1867933,0.89679396
-0.1,0.0,1.4,0.0,0.0,0,-0.9850605,-1.4346931,1.5438571,-0.2061547,-0.1334634,1.1100531,0.44140312,1.7879833,-1.4787749,-1.0157627,-0.16084673,0.17896035,1.0672655,-0.6319989
-0.1,0.0,1.4,0.0,0.0,0,-0.9849029,-1.4338351,1.5445086,-0.24546222,0.08075546,1.196086,-0.25962988,1.7678963,-1.5130666,-1.1235341,-0.04111418,-0.3317913,1.1299206,-0.5997463
-0.1,0.0,1.4,0.0,0.0,0,-0.9863164,-1.4334505,1.546737,-0.31208238,0.04545903,1.1500822,0.47356343,1.779662,-1.4670637,-1.6798655,-0.026819915,-0.2536827,1.1546526,-0.7255576
-0.1,0.0,1.4,0.0,0.0,0,-0.9855841,-1.4345245,1.544979,-0.28765994,-0.059248287,1.1445031,0.03253982,1.8227009,-1.4236987,-1.3699886,0.015464044,0.23228674,1.1572181,-1.1451392
-0.1,0.0,1.4,0.0,0.0,0,-0.9861151,-1.4346889,1.5455749,-0.16015801,0.13372913,1.1556265,-0.19440345,1.7909741,-1.4459336,-1.1634184,0.01627527,0.015987925,1.2110748,0.1348419
-0.1,0.0,1.4,0.0,0.0,0,-0.98512655,-1.433119,1.5457094,-0.26632288,0.0718064,1.057143,-0.5974934,1.7646388,-1.4961898,-0.9443989,-0.045849357,-0.11536969,1.0276273,0.027730387
-0.1,0.0,1.4,0.0,0.0,0,-0.98538345,-1.4335968,1.5456102,-0.14026064,-0.048422907,1.2284925,-0.39071226,1.7581294,-1.488919,-0.4615708,-0.010165869,0.21274002,1.1564906,0.22238614
-0.1,0.0,1.4,0.0,0.0,0,-0.98594517,-1.432744,1.5435368,-0.2756097,-0.04975497,1.1800659,-0.2686238,1.7890066,-1.4767781,-0.96562576,-0.08704949,0.13722056,1.1180975,1.2314703
-0.1,0.0,1.4,0.0,0.0,0,-0.9863533,-1.4337066,1.5460769,-0.25314298,-0.111392975,1.1753097,-0.7823013,1.743969,-1.4393094,-1.0038705,-0.118222766,-0.27219,1.1312058,-0.5414304
-0.1,0.0,1.4,0.0,0.0,0,-0.98501635,-1.434134,1.5454599,-0.31586537,0.0020300257,1.208911,0.31225023,1.7545251,-1.5420862,-1.4844261,-0.19065584,0.13644838,1.0795643,0.17225198
-0.1,0.0,1.4,0.0,0.0,0,-0.98588365,-1.4331062,1.544177,-0.29599786,-0.024841733,1.1018759,0.05270991,1.7812332,-1.47121,-1.4578241,-0.061008774,-0.18951674,0.9901216,0.81359607
-0.1,0.0,1.4,0.0,0.0,0,-0.98620117,-1.4331781,1.5454788,-0.16905354,0.09180692,1.0983564,0.087174095,1.7735039,-1.4691077,-1.8806896,0.07979383,-0.163082,1.277963,0.14230217
-0.1,0.0,1.4,0.0,0.0,0,-0.9863961,-1.4333826,1.5437167,-0.24882562,-0.06251742,1.2599884,-0.018109817,1.7331638,-1.4704468,-2.1284752,-0.0983012,-0.3628756,1.1482097,0.12996739
-0.1,0.0,1.4,0.0,0.0,0,-0.9860682,-1.4330884,1.5440967,-0.3034931,0.15597655,1.2008631,1.380952,1.7541021,-1.5203505,-1.7358485,-0.047706787,0.14496832,1.1278144,-0.3731844
-0.1,0.0,1.4,0.0,0.0,0,-0.9859634,-1.4343299,1.5461111,-0.26098084,-0.06528595,1.155473,-0.065911084,1.7255336,-1.4876373,-0.50769174,-0.05032935,0.32944542,1.1807697,-0.6103674
-0.1,0.0,1.4,0.0,0.0,0,-0.98562723,-1.4325039,1.5429786,-0.25731757,-0.089970656,1.2050114,0.7213839,1.7748749,-1.463733,-1.1082517,-0.017416138,-0.35779247,1.113119,-0.8355594
-0.1,0.0,1.4,0.0,0.0,0,-0.9856134,-1.4335873,1.5454391,-0.28504777,-0.09351579,1.0377084,-0.81736606,1.7687994,-1.5603528,-0.892603,-0.08892743,-0.090273514,0.9240572,-0.7100484
-0.1,0.0,1.4,0.0,0.0,0,-0.98564714,-1.4340806,1.5442975,-0.26086035,-0.033993207,1.2018826,0.4195199,1.7520006,-1.5097026,-1.8143265,-0.16614231,-0.24766335,1.1239663,-0.4897292
-0.1,0.0,1.4,0.0,0.0,0,-0.9856715,-1.433586,1.5442951,-0.24992163,-0.080579,1.1031269,0.39318517,1.7568513,-1.4633778,-1.3608695,-0.055189405,-0.29113272,1.1089971,-0.7601981
-0.1,0.0,1.4,0.0,0.0,0,-0.9863387,-1.4345255,1.5461102,-0.23154992,-0.0498151,1.1475623,-0.9222536,1.7879822,-1.4941361,-0.7089909,-0.108090736,-0.020914594,1.1874955,0.0145992255
-0.1,0.0,1.4,0.0,0.0,0,-0.9855231,-1.4340497,1.5461287,-0.22171241,0.018706704,1.0865546,0.6216972,1.7636966,-1.4625484,-1.796733,0.040743675,0.15027829,1.2580068,0.86080766
-0.1,0.0,1.4,0.0,0.0,0,-0.98595864,-1.4341489,1.5465072,-0.24441685,0.020142278,1.1707313,-0.14690827,1.7923329,-1.4699873,-1.347275,-0.11479318,0.079034835,1.1216398,0.40170866
-0.1,0.0,1.4,0.0,0.0,0,-0.98568875,-1.4332571,1.5440661,-0.17684561,-0.05233147,1.1665306,0.11460067,1.7879293,-1.4867173,-1.3900176,0.009697324,-0.09434914,1.1234515,0.32943338
-0.1,0.0,1.4,0.0,0.0,0,-0.9860424,-1.4343951,1.5438896,-0.3682835,-0.066613965,1.2394718,0.15000978,1.7567682,-1.4407632,-1.4778215,-0.069328025,0.01507799,1.074309,-0.4266792
-0.1,0.0,1.4,0.0,0.0,0,-0.9856882,-1.4334584,1.5440276,-0.23875672,-0.05988315,1.0387611,1.0031244,1.7784781,-1.5278305,-0.7352589,-0.07555048,-0.025180524,1.0960395,1.2898414
-0.1,0.0,1.4,0.0,0.0,0,-0.9855531,-1.4335032,1.5447335,-0.28724718,0.0709605,1.0445242,0.16910164,1.7345712,-1.5274453,-1.6830744,-0.020661369,0.4129502,1.0511737,-1.712793
-0.1,0.0,1.4,0.0,0.0,0,-0.9848106,-1.432927,1.5462872,-0.22580314,-0.007200996,1.1804388,-0.6815457,1.7937471,-1.4994608,-0.79385495,0.021290554,0.0020323463,1.26794,0.34613377
