sanky1234/BimanualDexCatch/isaacgymenvs/cem_results/football_pose_-0.1_-0.2_0.7_0.0_0.0_0_2025-05-25.csv
x,y,z,roll,pitch,yaw,robot1/joint1,robot1/joint2,robot1/joint3,robot1/joint4,robot1/joint5,robot1/joint6,robot1/joint7,robot2/joint1,robot2/joint2,robot2/joint3,robot2/joint4,robot2/joint5,robot2/joint6,robot2/joint7
-0.1,-0.2,0.7,0.0,0.0,0,0.24629301,-1.7303507,-0.32539824,-0.1042362,0.118997045,1.1819302,0.1368078,-0.21160762,1.2457149,-0.5809918,0.13564117,0.10226565,1.2272158,-0.88439536
-0.1,-0.2,0.7,0.0,0.0,0,0.4448685,-1.7077178,0.047979645,-0.061332677,-0.034391068,1.136794,0.04628618,-0.21802719,1.2454686,-0.58403516,0.13560136,0.0014066749,1.2315302,0.2927267
-0.1,-0.2,0.7,0.0,0.0,0,0.0402319,-1.7943325,0.5180392,-0.05743157,0.047622714,1.1973931,1.7666957,-0.20912513,1.2454305,-0.5790085,0.1459286,-0.016330484,1.1795367,0.52589077
-0.1,-0.2,0.7,0.0,0.0,0,0.39828563,-1.7368892,0.017620282,-0.015111298,-0.09337325,1.2221253,-0.6881198,-0.20726512,1.2458358,-0.58791995,0.1432961,0.0232831,1.2362018,-0.9661109
-0.1,-0.2,0.7,0.0,0.0,0,-2.194546,-1.6776313,0.053241875,-0.06017431,0.17066936,1.1809618,-0.17262977,-0.21173063,1.247584,-0.59350044,0.13584083,0.08386033,1.2143259,-0.35078686
-0.1,-0.2,0.7,0.0,0.0,0,0.39678785,-1.6848223,0.055638224,-0.081540056,-0.047868673,1.1755524,0.4900988,-0.21792378,1.2445078,-0.5794513,0.13198137,-0.042041507,1.1927142,-0.46603683
-0.1,-0.2,0.7,0.0,0.0,0,0.74824506,-1.7421113,0.061827067,-0.076975785,0.10936558,1.1615399,0.7158757,-0.21579555,1.247402,-0.5897994,0.13561423,-0.1228784,1.2684882,-0.21287574
-0.1,-0.2,0.7,0.0,0.0,0,-0.7823267,-1.7127262,-0.1266573,-0.061811008,0.12793015,1.1451907,-0.46666422,-0.21504264,1.2468867,-0.5849874,0.14357235,0.043749627,1.2628539,-1.0755575
-0.1,-0.2,0.7,0.0,0.0,0,-0.42482108,-1.6170745,0.6784299,-0.060365323,0.14101972,1.2106376,0.6961871,-0.2093163,1.2473392,-0.5831254,0.14007506,0.0033465596,1.2121341,-0.41835088
-0.1,-0.2,0.7,0.0,0.0,0,-0.77445924,-1.6556244,0.26508042,-0.082067,-0.1784797,1.1812657,-0.23114318,-0.19330195,1.2461747,-0.59559256,0.15095639,0.13778149,1.2384548,0.18023393
-0.1,-0.2,0.7,0.0,0.0,0,-1.3617761,-1.7151,-0.7834729,-0.03133769,0.14336726,1.1144977,-1.1732967,-0.22121963,1.2446069,-0.5829614,0.13351701,-0.003269633,1.2447567,1.3380878
-0.1,-0.2,0.7,0.0,0.0,0,0.089316614,-1.6792345,-0.13869625,-0.096541405,-0.018945353,1.1541064,-0.86439896,-0.21343188,1.2429701,-0.60428905,0.14100145,0.040242556,1.2032477,-0.65771085
-0.1,-0.2,0.7,0.0,0.0,0,0.3131024,-1.7319621,-0.04886014,-0.10706795,-0.0690359,1.1635607,1.3696748,-0.21580613,1.2472278,-0.58866405,0.13124712,-0.09389715,1.252336,0.35638833
-0.1,-0.2,0.7,0.0,0.0,0,-0.2757119,-1.6863705,-0.30298254,-0.052101832,0.110852845,1.2055892,-0.60904694,-0.20969422,1.2491838,-0.5893676,0.14391682,0.035101123,1.1830628,0.07740814
-0.1,-0.2,0.7,0.0,0.0,0,0.6747098,-1.8710566,-1.2662493,-0.06045443,-0.1936857,1.2400061,-0.041353952,-0.20886026,1.2495931,-0.5801569,0.13946617,0.047999203,1.2565203,-0.5352105
-0.1,-0.2,0.7,0.0,0.0,0,1.1434363,-1.7721382,0.42385933,-0.058019195,0.20642029,1.2452282,-0.73546064,-0.21303834,1.2464914,-0.5816269,0.13329762,0.0295454,1.1605481,0.567386
-0.1,-0.2,0.7,0.0,0.0,0,-0.80491865,-1.7175682,-0.7122873,-0.12795754,0.10477529,1.1502802,0.6544073,-0.21151827,1.2466049,-0.5868329,0.13736919,-0.12301845,1.2295358,0.17533737
-0.1,-0.2,0.7,0.0,0.0,0,-0.9669166,-1.7965825,0.02818639,-0.041090745,-0.012280277,1.194872,-0.39262503,-0.20846839,1.2456058,-0.5983093,0.13959269,0.08984847,1.2489593,-0.38916823
-0.1,-0.2,0.7,0.0,0.0,0,-0.44485953,-1.7561053,-0.21865821,-0.06364748,0.17004272,1.2360034,-0.7598918,-0.21519953,1.2499746,-0.5723148,0.13109423,-0.17794032,1.1819099,0.8446311
-0.1,-0.2,0.7,0.0,0.0,0,0.5917991,-1.7328367,-0.18701108,-0.033592537,-0.08288798,1.2128934,-0.5290452,-0.21066274,1.2470354,-0.58557624,0.1325461,-0.02338706,1.2052203,-2.0632956
-0.1,-0.2,0.7,0.0,0.0,0,-0.10491124,-1.7910944,0.36772376,-0.069742106,0.1544734,1.1777571,-0.59588665,-0.20934908,1.2447472,-0.5757808,0.13701682,0.046509292,1.1975003,-1.0603633
-0.1,-0.2,0.7,0.0,0.0,0,-0.26689854,-1.6941055,0.068539806,-0.045006417,0.04560193,1.1749997,-1.3619287,-0.21288696,1.2455735,-0.57962024,0.14335372,0.120717645,1.2628208,1.2128447
-0.1,-0.2,0.7,0.0,0.0,0,0.37532505,-1.7996176,0.14880088,-0.037350427,-0.15446334,1.1538604,0.1865511,-0.20961285,1.2449713,-0.5914766,0.14213613,0.008555978,1.2089144,-0.531114
-0.1,-0.2,0.7,0.0,0.0,0,-0.15092854,-1.724892,-0.22990131,-0.12803559,0.29549003,1.1772592,0.67825013,-0.19897316,1.2480918,-0.5910923,0.14404565,-0.015560907,1.249449,-0.5889887
-0.1,-0.2,0.7,0.0,0.0,0,0.61187494,-1.8127804,0.5946922,-0.055515684,-0.004045453,1.2132393,-0.62970936,-0.21449918,1.2482708,-0.5872261,0.13935277,0.04419411,1.2134284,0.18664292
-0.1,-0.2,0.7,0.0,0.0,0,0.79508346,-1.6067424,0.068318136,-0.057017174,0.09897913,1.2240442,0.4706702,-0.21164821,1.2479752,-0.58408153,0.14054796,-0.019313069,1.1740903,0.6561649
-0.1,-0.2,0.7,0.0,0.0,0,-1.8671876,-1.6885109,0.07424113,-0.07478406,-0.036222234,1.1304785,-2.0282063,-0.21682319,1.2461339,-0.5990221,0.13510847,0.052500043,1.1958581,0.75547814
-0.1,-0.2,0.7,0.0,0.0,0,0.25808638,-1.7191844,0.05043147,-0.07250332,-0.21570541,1.2063612,-0.25610554,-0.21842681,1.2450984,-0.5806218,0.13442495,0.029760728,1.1836483,-0.18991818
-0.1,-0.2,0.7,0.0,0.0,0,0.72949743,-1.7294282,-0.062189493,-0.08102327,0.3502794,1.2021276,-0.90353817,-0.21543871,1.248432,-0.58338976,0.14059268,-0.013438488,1.2379643,-0.21935555
-0.1,-0.2,0.7,0.0,0.0,0,-0.32754344,-1.6883419,0.21344046,-0.057409402,-0.15792607,1.2243416,-0.19781591,-0.21879719,1.250224,-0.5873619,0.12731947,0.13242975,1.1683571,-0.114843175
-0.1,-0.2,0.7,0.0,0.0,0,0.30270427,-1.7313703,-0.12498221,-0.06692104,-0.14182442,1.1732731,-0.91735464,-0.21705134,1.2456121,-0.57681334,0.13194758,-0.010865996,1.1773386,0.69989455
-0.1,-0.2,0.7,0.0,0.0,0,0.41839647,-1.7029959,-0.18665913,-0.029775383,0.060318585,1.1906768,1.0518777,-0.21367453,1.2463626,-0.5869807,0.1400779,0.026568346,1.2569184,-0.7439657
-0.1,-0.2,0.7,0.0,0.0,0,0.68460727,-1.696847,-0.34711352,-0.06846403,-0.07284378,1.1612622,0.8329481,-0.212414,1.2453045,-0.59148204,0.146335,0.070256226,1.1953444,0.4001668
-0.1,-0.2,0.7,0.0,0.0,0,0.28843328,-1.7409296,0.22657518,-0.11436583,-0.015771704,1.2279674,1.1611403,-0.2215496,1.248354,-0.5817466,0.13249995,-0.0013850931,1.2303542,0.89270717
-0.1,-0.2,0.7,0.0,0.0,0,-0.09490864,-1.6697803,0.27009144,-0.08585677,0.26338997,1.1767577,0.3877764,-0.21663713,1.2485262,-0.58007777,0.1381957,0.0111273425,1.1995755,-0.32080984
-0.1,-0.2,0.7,0.0,0.0,0,0.6111337,-1.7205861,0.31096202,-0.108072765,-0.01505981,1.1921353,0.4987674,-0.21894637,1.2461371,-0.5852033,0.1366424,0.039698564,1.2126933,-0.7992949
-0.1,-0.2,0.7,0.0,0.0,0,0.046801597,-1.6664766,0.22201559,-0.08747339,-0.27953887,1.200067,-0.43516064,-0.21141545,1.2507149,-0.57400554,0.13395381,0.11770025,1.2409102,1.8485358
-0.1,-0.2,0.7,0.0,0.0,0,-0.43145776,-1.6406606,-0.10389779,-0.044402543,0.055484127,1.1993264,-1.5132797,-0.21114378,1.2474738,-0.5886097,0.13858828,-0.025276897,1.2428719,0.98591036
-0.1,-0.2,0.7,0.0,0.0,0,-0.39373147,-1.771303,0.18686813,-0.10308504,-0.10578641,1.1758288,-1.3858277,-0.21441112,1.2461019,-0.58920634,0.13578437,0.1134991,1.2054702,0.26755464
-0.1,-0.2,0.7,0.0,0.0,0,0.040984724,-1.742052,-0.41236374,-0.08557488,0.026651237,1.1933591,-1.1245953,-0.21462195,1.2476286,-0.58158946,0.14145866,0.07898318,1.23346,-0.162582
-0.1,-0.2,0.7,0.0,0.0,0,-0.11529846,-1.6977932,-0.3316557,-0.04100785,0.12507492,1.1576287,-1.2567428,-0.21697603,1.2471659,-0.59489894,0.13237965,0.0601976,1.2247188,0.6771594
-0.1,-0.2,0.7,0.0,0.0,0,-0.9192581,-1.7910948,-0.12617849,-0.107053526,-0.02377772,1.1627547,1.1876379,-0.21309373,1.2470832,-0.5959963,0.1338254,-0.009040903,1.2380856,0.73324955
-0.1,-0.2,0.7,0.0,0.0,0,-0.19323565,-1.7381792,-0.19506013,-0.06693571,-0.12863447,1.2035308,-1.6517417,-0.2151037,1.2472748,-0.5888491,0.13738051,-0.047292836,1.2565191,-0.21724635
-0.1,-0.2,0.7,0.0,0.0,0,-1.3156099,-1.6969782,-0.18696946,-0.04239394,0.11173896,1.1886221,-0.41734383,-0.21349268,1.247976,-0.5960914,0.13476597,0.04054413,1.2180625,-1.0142007
-0.1,-0.2,0.7,0.0,0.0,0,-0.7380218,-1.7091457,0.2797576,-0.08225601,0.1925612,1.1584283,-0.73411775,-0.21636741,1.2445948,-0.5696467,0.14102428,0.072297916,1.2051694,-0.38597962
-0.1,-0.2,0.7,0.0,0.0,0,-0.6447544,-1.6593406,-0.30299827,-0.112124294,0.33399197,1.1182451,0.64310676,-0.21585812,1.2487711,-0.5989908,0.13429743,-0.028167695,1.2379326,0.37098935
-0.1,-0.2,0.7,0.0,0.0,0,0.6140954,-1.677037,-0.540152,-0.052016456,-0.15623659,1.2152023,0.096595876,-0.20856096,1.2464861,-0.59162253,0.14283077,0.09482053,1.2475466,-0.12654264
-0.1,-0.2,0.7,0.0,0.0,0,0.20602229,-1.6400707,-0.18169142,-0.057232425,0.20852736,1.146586,1.1686326,-0.21894881,1.243927,-0.5822759,0.13516325,-0.048225593,1.208654,-0.31720516
-0.1,-0.2,0.7,0.0,0.0,0,-0.5764031,-1.7943926,-0.1379306,-0.036889803,-0.046977296,1.1370606,-0.19680294,-0.2211998,1.245885,-0.6003732,0.13810776,-0.012272129,1.2623909,1.2441741
-0.1,-0.2,0.7,0.0,0.0,0,0.15121469,-1.6813655,-0.24515402,-0.10025486,0.16644257,1.1772583,-0.6063646,-0.20370582,1.2487074,-0.58441824,0.14418332,-0.09746747,1.2208734,-0.68863755
-0.1,-0.2,0.7,0.0,0.0,0,0.06391119,-1.6907419,-0.026274582,-0.11206804,-0.15699778,1.1722758,-1.706722,-0.21198098,1.2466166,-0.58397853,0.13769788,0.051158246,1.3004094,-0.0033584307
-0.1,-0.2,0.7,0.0,0.0,0,0.44877928,-1.5539936,-0.12764414,-0.06355373,-0.07283907,1.2829868,-1.0645796,-0.21185307,1.2459974,-0.59039295,0.1406822,0.006552715,1.1328499,-0.19511808
-0.1,-0.2,0.7,0.0,0.0,0,0.16301341,-1.7961643,-0.2363484,-0.047823202,0.060290486,1.1720906,-0.011346772,-0.21454701,1.2443341,-0.5874642,0.14124553,0.057307843,1.2023054,-0.5561274
-0.1,-0.2,0.7,0.0,0.0,0,0.6134445,-1.7224497,-0.06075646,-0.10754582,0.19586281,1.1138493,-0.14754605,-0.21210602,1.2489548,-0.5839544,0.1367424,0.09092225,1.2754799,0.32844952
-0.1,-0.2,0.7,0.0,0.0,0,-0.46158302,-1.7303041,-0.6665455,-0.123525016,-0.09103511,1.2599214,1.5384268,-0.21343137,1.2457445,-0.57868624,0.13914484,-0.013930072,1.2097831,-1.0178001
-0.1,-0.2,0.7,0.0,0.0,0,1.483277,-1.7403268,-0.26463848,-0.061104093,0.0043157465,1.1417757,-0.44596472,-0.20023224,1.2485493,-0.5947719,0.14897268,0.11234569,1.1890696,0.020936806
-0.1,-0.2,0.7,0.0,0.0,0,-0.36157724,-1.7067287,-0.3644439,-0.102240324,-0.10881956,1.2400346,-0.58292264,-0.21208598,1.2475005,-0.5874305,0.13664189,0.06693979,1.2252326,1.208353
-0.1,-0.2,0.7,0.0,0.0,0,0.35986036,-1.7693416,-0.2907484,-0.01601557,0.20380981,1.2223368,-0.32270598,-0.2145452,1.2492981,-0.5839936,0.13843904,0.047216248,1.2420071,0.3732694
-0.1,-0.2,0.7,0.0,0.0,0,0.13955003,-1.7890763,0.38713607,-0.06200656,0.19721785,1.1515477,0.21400352,-0.21462533,1.2501727,-0.5710427,0.13294022,0.124167025,1.2551409,-0.12749672
-0.1,-0.2,0.7,0.0,0.0,0,1.1230724,-1.6077824,-0.39371026,-0.06752252,0.43062344,1.1439091,-0.4550951,-0.21789564,1.2457873,-0.58862656,0.14149635,0.00079995795,1.2094113,0.1733678
-0.1,-0.2,0.7,0.0,0.0,0,-0.35572648,-1.7211003,-0.044661295,-0.022073785,0.016477453,1.2214453,-0.32297242,-0.20959908,1.2503633,-0.58539325,0.13770822,0.020944623,1.1594424,0.17757064
-0.1,-0.2,0.7,0.0,0.0,0,0.36010724,-1.7229489,0.16268487,-0.07420007,-0.24099733,1.1575207,0.012376634,-0.2112542,1.2466966,-0.5836336,0.13986266,-0.020137174,1.1674777,0.5515897
-0.1,-0.2,0.7,0.0,0.0,0,0.39906576,-1.8401287,-0.26022342,-0.079070285,-0.173926,1.1166508,-0.11474706,-0.21675713,1.2485296,-0.5777602,0.13602649,0.078409486,1.2530787,-0.4468686
-0.1,-0.2,0.7,0.0,0.0,0,-0.093276106,-1.5701905,-0.33272514,-0.10881293,0.01591669,1.1821928,-0.39097095,-0.21284918,1.2495571,-0.584435,0.13664913,0.07013921,1.1616343,0.5626022
-0.1,-0.2,0.7,0.0,0.0,0,0.80096436,-1.7460687,-0.061636686,-0.037698284,0.1325019,1.1736243,-0.41147122,-0.21987289,1.2444609,-0.59259737,0.137806,0.025218714,1.2385709,-0.33648875
-0.1,-0.2,0.7,0.0,0.0,0,0.6103166,-1.6838497,0.75883865,-0.0038379822,0.21318026,1.196469,-1.013205,-0.21026622,1.2513332,-0.5926614,0.14951,0.09767914,1.2111155,1.0007184
-0.1,-0.2,0.7,0.0,0.0,0,0.5843124,-1.7310568,0.1779487,-0.048763383,0.15597115,1.1876069,-0.7829886,-0.21040715,1.2476413,-0.59082615,0.13815297,0.0868039,1.1947274,1.3732303
-0.1,-0.2,0.7,0.0,0.0,0,-0.057318326,-1.7535442,-0.18158442,-0.060963,-0.045255844,1.2042524,1.1760881,-0.21281771,1.2480419,-0.5972629,0.13730812,-0.034064185,1.2378625,-0.16438884
-0.1,-0.2,0.7,0.0,0.0,0,-0.26821285,-1.657319,-0.57875425,-0.07908244,0.1941091,1.207504,0.48686257,-0.2210246,1.2465892,-0.58820796,0.13593476,-0.018023489,1.2536728,-0.0647358
-0.1,-0.2,0.7,0.0,0.0,0,0.092102684,-1.6977047,-0.4000089,-0.048406944,-0.09361495,1.2131552,-0.3581529,-0.20851704,1.2456582,-0.5854914,0.14049532,0.07123643,1.2258085,0.055610232
-0.1,-0.2,0.7,0.0,0.0,0,0.4634791,-1.7031955,0.749773,-0.09735612,-0.055780835,1.2324443,0.78758395,-0.21851185,1.247074,-0.59123385,0.13644682,0.09936431,1.2262018,0.7176931
-0.1,-0.2,0.7,0.0,0.0,0,-0.8940358,-1.7136511,0.10512199,-0.07769798,-0.0114049455,1.191195,-0.16662592,-0.21294764,1.2458576,-0.58176214,0.14001745,0.19686697,1.2217004,-0.8740204
-0.1,-0.2,0.7,0.0,0.0,0,0.34877354,-1.6878415,0.23972,-0.05829337,0.26968327,1.193281,-0.22868812,-0.21229951,1.2481503,-0.58617574,0.14097324,-0.014268722,1.2746835,0.0015547972
-0.1,-0.2,0.7,0.0,0.0,0,0.9965009,-1.8042885,0.62335926,-0.0505045,0.117368504,1.1942991,0.03099381,-0.21425301,1.2474284,-0.58482194,0.13694668,-0.058552176,1.2086215,0.68743795
-0.1,-0.2,0.7,0.0,0.0,0,1.8725448,-1.6843834,0.19324392,-0.08851627,0.37431362,1.21117,0.7096169,-0.21639672,1.2462898,-0.59798527,0.13570675,0.085969344,1.2327074,0.20371217
-0.1,-0.2,0.7,0.0,0.0,0,-0.20625415,-1.7266855,0.508478,-0.08571182,0.11481829,1.0863184,0.3105569,-0.2201499,1.247723,-0.5885496,0.13343982,0.06750824,1.1869385,0.73639935
-0.1,-0.2,0.7,0.0,0.0,0,-0.20372973,-1.7433221,0.27343452,-0.12807795,0.08515982,1.1962223,0.3388299,-0.21721695,1.2471771,-0.57633436,0.1320125,0.016845565,1.1994487,0.30797535
-0.1,-0.2,0.7,0.0,0.0,0,0.60068715,-1.7285402,-0.026593111,-0.07064272,0.0830713,1.2697302,0.6533408,-0.21055838,1.2466178,-0.5802024,0.13903855,0.08979163,1.2351468,-0.14683637
-0.1,-0.2,0.7,0.0,0.0,0,-1.3855362,-1.542019,-0.021448053,-0.05084958,-0.08719727,1.1999131,1.0237583,-0.21529335,1.248264,-0.59461445,0.1343765,-0.004637256,1.248608,-0.39141124
-0.1,-0.2,0.7,0.0,0.0,0,0.5991344,-1.7232323,-0.019839983,-0.0867172,0.16914171,1.2217443,0.019033326,-0.20843844,1.245801,-0.5840769,0.14611755,0.07550759,1.2447933,-0.2089897
-0.1,-0.2,0.7,0.0,0.0,0,1.316813,-1.7835109,-0.025708985,-0.05402387,0.15527864,1.1739453,0.98566717,-0.19714878,1.2485131,-0.58613735,0.14903118,0.1312557,1.2292833,0.47456232
-0.1,-0.2,0.7,0.0,0.0,0,-0.2674751,-1.7194958,-0.030392181,-0.062676154,-0.1682764,1.1477968,-0.31182665,-0.21755306,1.248015,-0.598279,0.13538586,0.03600384,1.1882132,0.32119322
-0.1,-0.2,0.7,0.0,0.0,0,-0.48905846,-1.6330167,-0.13244839,-0.11388556,-0.05729952,1.1416824,-1.4139104,-0.21482663,1.2441283,-0.5940681,0.14319909,0.1190155,1.2088933,-0.11487738
-0.1,-0.2,0.7,0.0,0.0,0,-0.07104268,-1.7693255,0.19967474,-0.093575954,-0.12023978,1.2106391,-1.3562464,-0.20829803,1.2505457,-0.586457,0.1389205,0.12900205,1.2214448,-0.5387488
-0.1,-0.2,0.7,0.0,0.0,0,0.9665916,-1.7595495,0.59821427,-0.08256918,0.095210105,1.2904876,-0.9787551,-0.21146078,1.2446535,-0.59035057,0.13956752,-0.091511175,1.2455528,-0.18069436
-0.1,-0.2,0.7,0.0,0.0,0,0.3786315,-1.7650937,-0.30048737,-0.09784064,0.35416943,1.1220194,0.8090339,-0.2144327,1.245486,-0.5849391,0.13899454,0.081679724,1.1730478,0.5230619
-0.1,-0.2,0.7,0.0,0.0,0,0.809489,-1.7258054,-0.09938739,-0.095492676,-0.06899805,1.2073995,-0.7426148,-0.21402906,1.2478856,-0.5935274,0.14565703,-0.006584219,1.2152905,0.56702954
-0.1,-0.2,0.7,0.0,0.0,0,0.44556138,-1.7638191,-0.051642742,-0.057712838,0.08362222,1.2060819,-0.091202766,-0.21383347,1.2452619,-0.579022,0.14122936,-0.02546663,1.2819201,-0.49682707
-0.1,-0.2,0.7,0.0,0.0,0,0.39606214,-1.7234595,0.22144341,-0.04778846,0.04463685,1.1747277,-0.796002,-0.21549056,1.2446787,-0.5916146,0.13651153,0.009919342,1.2422,-1.0887808
-0.1,-0.2,0.7,0.0,0.0,0,1.0518959,-1.6996244,-0.36306152,-0.11530146,0.040664587,1.2009176,-0.8135054,-0.2140293,1.2489637,-0.5812617,0.13823864,0.20838955,1.2023087,1.0803248
-0.1,-0.2,0.7,0.0,0.0,0,-0.06243201,-1.7555814,0.29351845,-0.05151964,0.0348701,1.1789087,0.24359974,-0.210511,1.2444147,-0.5859107,0.1463001,-0.015345313,1.2271861,-1.6564395
-0.1,-0.2,0.7,0.0,0.0,0,0.52602625,-1.7961824,0.082195535,-0.05534791,-0.007012507,1.16958,1.4169748,-0.21059334,1.2473696,-0.5842638,0.14109403,0.006021713,1.1549181,0.36988568
-0.1,-0.2,0.7,0.0,0.0,0,0.27692345,-1.6978093,-0.07859361,-0.06343539,0.0055718347,1.2154952,-0.60860205,-0.21815766,1.2472937,-0.5882314,0.13594212,-0.06551027,1.2697314,0.9384635
-0.1,-0.2,0.7,0.0,0.0,0,0.06768168,-1.6536447,0.03009352,-0.08480216,0.14288141,1.2020906,1.3260888,-0.21411559,1.244924,-0.5860277,0.14171425,0.055603176,1.2363914,0.8471594
-0.1,-0.2,0.7,0.0,0.0,0,0.02880872,-1.8034375,0.37619996,-0.06804409,0.085960664,1.1917336,-1.8637722,-0.20800243,1.2473102,-0.5870831,0.14082398,-0.1115154,1.1813405,1.0121619
-0.1,-0.2,0.7,0.0,0.0,0,-0.042158175,-1.5849749,-0.5323905,-0.07705349,-0.13808891,1.2195024,-1.293193,-0.20996964,1.2496701,-0.59536695,0.1423046,0.03148832,1.2119862,-0.30911916
-0.1,-0.2,0.7,0.0,0.0,0,-0.06238884,-1.6927791,0.47254938,-0.073655434,-0.11983215,1.2371107,-0.26791066,-0.21852142,1.2471769,-0.57162815,0.13852362,0.19432367,1.1978885,-0.6438491
-0.1,-0.2,0.7,0.0,0.0,0,0.6037943,-1.7336278,-0.4645039,-0.051679194,-0.041619457,1.2558459,-0.10015136,-0.21356301,1.2505594,-0.57923824,0.13638505,0.11024085,1.2508355,-0.97893596
-0.1,-0.2,0.7,0.0,0.0,0,0.18063293,-1.6555995,0.14201859,-0.08414292,-0.23830688,1.106837,-0.19931619,-0.20967853,1.2483975,-0.5862069,0.14239757,0.05968744,1.2582586,0.021615354
-0.1,-0.2,0.7,0.0,0.0,0,-0.7759945,-1.7765783,0.68168855,-0.089064166,-0.03903089,1.1565027,1.7256963,-0.21175463,1.2473315,-0.6011687,0.13792168,-0.048107717,1.2100945,1.1898837
-0.1,-0.2,0.7,0.0,0.0,0,0.1955379,-1.6576194,0.98534936,-0.06330725,0.24677648,1.1163149,-1.9019798,-0.21115421,1.2445765,-0.5824055,0.14300291,-0.034690138,1.1998928,0.042216387
-0.1,-0.2,0.7,0.0,0.0,0,0.42533258,-1.6755881,0.05582256,-0.061955616,0.15144815,1.2378211,-1.4012041,-0.20891634,1.2512705,-0.5976179,0.14164735,0.009327588,1.2139497,-0.11692184
-0.1,-0.2,0.7,0.0,0.0,0,0.7565793,-1.7758677,0.6862274,-0.030916234,-0.2489429,1.1394403,0.4494795,-0.2161723,1.2488604,-0.59553665,0.13741197,-0.0138807995,1.2157189,0.48840058
-0.1,-0.2,0.7,0.0,0.0,0,-1.0610151,-1.7413517,0.10270122,-0.07897769,0.08498422,1.1820518,-1.1899642,-0.2144256,1.2463579,-0.5793696,0.14203627,0.06696815,1.2141464,0.1827183
-0.1,-0.2,0.7,0.0,0.0,0,-0.8965799,-1.7708552,-0.08116151,-0.04619451,-0.34771088,1.1690848,0.8966564,-0.20844127,1.2496269,-0.5910672,0.14238997,0.011545577,1.1961937,0.29643452
-0.1,-0.2,0.7,0.0,0.0,0,0.83911633,-1.6547725,-0.25225127,-0.066504866,0.09609734,1.1690758,-0.02932033,-0.21804042,1.2488663,-0.5963654,0.14657234,0.047553297,1.2650701,-0.04461296
-0.1,-0.2,0.7,0.0,0.0,0,0.5600701,-1.7211689,-0.20625487,-0.050327275,-0.08960522,1.2069721,1.1498623,-0.21184334,1.2485781,-0.5888021,0.14649831,0.043660782,1.2226415,0.21999581
-0.1,-0.2,0.7,0.0,0.0,0,0.1742629,-1.7668709,-0.014299205,-0.050674573,-0.20072812,1.1552,0.021752749,-0.20796548,1.2481213,-0.5841972,0.13449667,0.028476939,1.2235892,0.8556497
-0.1,-0.2,0.7,0.0,0.0,0,0.6647341,-1.7270234,0.066775724,0.0125038875,-0.09912108,1.220296,-1.2756505,-0.21427295,1.2429537,-0.5855792,0.14798546,-0.019377861,1.2230341,1.3575877
-0.1,-0.2,0.7,0.0,0.0,0,-0.679678,-1.6188515,-0.013744021,-0.04641154,0.08516865,1.2038916,0.462384,-0.21604662,1.2468594,-0.5894248,0.1419155,0.0014284708,1.2535142,-1.234035
-0.1,-0.2,0.7,0.0,0.0,0,-0.57128376,-1.6545969,-0.0693219,-0.0712547,0.04392459,1.1561927,0.7004359,-0.2174378,1.2444085,-0.58474565,0.1381391,0.0910893,1.2471555,0.23377018
-0.1,-0.2,0.7,0.0,0.0,0,-0.0946215,-1.7688336,0.02108124,-0.062761486,0.014911978,1.1859338,-0.25723428,-0.21027045,1.2506146,-0.5893823,0.13578257,-0.049018916,1.1940597,1.3042592
-0.1,-0.2,0.7,0.0,0.0,0,0.07904963,-1.7625545,0.35408762,-0.0771575,0.12575671,1.25781,-0.4032355,-0.21478382,1.2496824,-0.5712619,0.13220318,0.042003363,1.2019413,0.62955517
-0.1,-0.2,0.7,0.0,0.0,0,-0.47731343,-1.7303876,0.13364437,-0.07714555,0.12937473,1.2064731,-0.41902566,-0.22019672,1.2487313,-0.59245986,0.13650924,-0.11024801,1.2522328,-0.22387223
-0.1,-0.2,0.7,0.0,0.0,0,0.84876186,-1.700117,-0.3269205,-0.07357457,-0.06191176,1.2059622,0.5664084,-0.21784548,1.2453805,-0.58442914,0.13983582,0.025771897,1.2374465,-0.41763848
-0.1,-0.2,0.7,0.0,0.0,0,-1.1092243,-1.6834364,0.5832083,-0.09029096,0.25094995,1.1936678,-0.786212,-0.21424027,1.2524054,-0.58635813,0.13681474,-0.07556902,1.2407355,-1.2097405
-0.1,-0.2,0.7,0.0,0.0,0,-1.2496881,-1.7122811,0.36771724,-0.051998522,0.3073706,1.1833906,-0.12243758,-0.21351188,1.2500526,-0.59353423,0.13746533,0.1822945,1.2370398,-0.0035374477
-0.1,-0.2,0.7,0.0,0.0,0,-1.0023583,-1.7913997,0.6648128,-0.08748679,-0.106359,1.1849232,0.24476601,-0.21604888,1.2466356,-0.5895274,0.14600462,0.15684211,1.2122902,-1.1629604
-0.1,-0.2,0.7,0.0,0.0,0,0.76916313,-1.7228335,0.391718,-0.10301301,0.114616044,1.2142533,0.6490334,-0.21824948,1.2467488,-0.5851679,0.13790105,-0.055904865,1.2658505,-1.2647165
-0.1,-0.2,0.7,0.0,0.0,0,1.6208388,-1.6853771,-0.18738683,-0.07589951,-0.1097966,1.2053969,0.28359598,-0.2145243,1.2481674,-0.5760767,0.13853854,0.035808533,1.2365458,-1.3839028
-0.1,-0.2,0.7,0.0,0.0,0,-0.5947579,-1.7781867,0.40773886,-0.071389936,0.09248988,1.2137294,-0.27017018,-0.21779896,1.2457638,-0.5849347,0.14431794,-0.025081202,1.2285203,0.31368667
-0.1,-0.2,0.7,0.0,0.0,0,0.9400811,-1.6493771,0.37896737,-0.09136789,0.44877982,1.1891826,-0.67762893,-0.21155442,1.2459905,-0.58661395,0.14958674,0.09659693,1.2018837,0.15924768
-0.1,-0.2,0.7,0.0,0.0,0,-0.037339788,-1.7273619,0.18542276,-0.05910475,0.032536864,1.1888837,-0.5738796,-0.21182792,1.2490424,-0.57849014,0.13760927,-0.020617165,1.2692945,0.06701928
-0.1,-0.2,0.7,0.0,0.0,0,0.7946386,-1.7418404,0.09495473,-0.09025411,0.02349005,1.1464707,-0.44052565,-0.21086492,1.2452278,-0.58125335,0.14482452,0.051632978,1.179723,0.60477424
-0.1,-0.2,0.7,0.0,0.0,0,0.14085673,-1.7561356,-0.7246947,-0.043362234,-0.1764642,1.2063463,-0.18191665,-0.21262924,1.2508074,-0.5814827,0.1417276,-0.027993431,1.2217929,1.9587041
-0.1,-0.2,0.7,0.0,0.0,0,0.17293027,-1.7335113,-0.29915258,-0.10641161,0.08100972,1.2535365,-0.6755245,-0.21610427,1.2469501,-0.57122785,0.13760924,0.10262413,1.2091082,0.5562897
-0.1,-0.2,0.7,0.0,0.0,0,-0.5104538,-1.7268922,0.5144783,-0.06206216,-0.15574504,1.166999,0.08827482,-0.20941274,1.2446462,-0.5935494,0.14315207,0.08922254,1.1518601,0.7643546
-0.1,-0.2,0.7,0.0,0.0,0,-0.43323797,-1.769037,0.03378866,-0.06356371,-0.22235456,1.1921467,-0.40008596,-0.20745443,1.2526736,-0.5773905,0.13886572,0.07135895,1.195521,-0.026569765
-0.1,-0.2,0.7,0.0,0.0,0,0.39581588,-1.7101223,0.5400029,-0.06517225,-0.09024874,1.1811026,-0.26332083,-0.21112324,1.248573,-0.5961432,0.14597107,0.00211984,1.2081951,-0.06518244
-0.1,-0.2,0.7,0.0,0.0,0,-0.2665865,-1.6825472,-0.17686291,-0.059925355,0.16106938,1.2740719,0.14638798,-0.21348761,1.2467453,-0.5892645,0.14506787,0.08646908,1.2276753,-0.19179107
-0.1,-0.2,0.7,0.0,0.0,0,-0.8893731,-1.665612,0.70907724,-0.1197146,0.03527321,1.1869953,-1.5763333,-0.21600384,1.2468933,-0.59151787,0.14227013,0.20748729,1.2483984,0.5648246
-0.1,-0.2,0.7,0.0,0.0,0,0.7323134,-1.6270459,0.22197549,-0.059387743,-0.094041206,1.176845,-0.63830715,-0.21364401,1.2450603,-0.58753616,0.1369561,-0.039455328,1.2306887,0.9157771
-0.1,-0.2,0.7,0.0,0.0,0,0.5479438,-1.7440255,0.20802654,-0.060156737,-0.062024035,1.1673028,-1.6104951,-0.21107675,1.2504262,-0.5952811,0.14337024,0.14722027,1.2325743,-0.061314736
-0.1,-0.2,0.7,0.0,0.0,0,0.50116706,-1.7335229,0.17549138,-0.060276352,-0.08046404,1.1435905,0.7045023,-0.21647571,1.2469774,-0.5811224,0.13852069,0.11579175,1.2631826,0.3048258
-0.1,-0.2,0.7,0.0,0.0,0,1.3573155,-1.7240155,0.5839477,-0.05659726,0.098402016,1.144727,0.63989866,-0.22444968,1.2504039,-0.59365207,0.13196252,-0.05281478,1.2038175,0.7002119
-0.1,-0.2,0.7,0.0,0.0,0,-0.7673863,-1.750042,-0.2946595,-0.09446372,0.039622966,1.1876141,-0.79821634,-0.2180201,1.2479912,-0.5712103,0.13692392,0.045813363,1.199664,0.13914816
-0.1,-0.2,0.7,0.0,0.0,0,0.762065,-1.7495968,0.034553684,-0.08185964,-0.17872038,1.214246,0.54991055,-0.21687725,1.2468178,-0.5845978,0.14026871,0.07661698,1.2323802,0.82972413
-0.1,-0.2,0.7,0.0,0.0,0,0.2958714,-1.6824613,-0.5495759,-0.08330197,0.05001228,1.1721401,-0.42408815,-0.21760823,1.2443382,-0.59514284,0.14542402,0.03772881,1.2709752,0.05278163
-0.1,-0.2,0.7,0.0,0.0,0,-0.3114945,-1.6466814,0.12554286,-0.053274125,-0.24126138,1.2192034,-1.6224513,-0.21157551,1.2486608,-0.58605945,0.14038116,0.004589518,1.227008,-0.8143505
-0.1,-0.2,0.7,0.0,0.0,0,-0.6737321,-1.7069794,0.4944314,-0.09512265,0.29004335,1.2101187,-1.0650358,-0.2096351,1.2513707,-0.59304875,0.1435375,0.02709958,1.2767507,0.32525384
-0.1,-0.2,0.7,0.0,0.0,0,-0.55078214,-1.6615207,0.33643532,-0.0701929,0.007088249,1.194063,-0.36924112,-0.21214642,1.2506372,-0.58455503,0.13939631,0.0018787496,1.2324041,-0.38177845
-0.1,-0.2,0.7,0.0,0.0,0,-0.697201,-1.737549,0.21241969,-0.08989,-0.17362972,1.1899195,-1.9431927,-0.21752523,1.2503508,-0.58065784,0.13636863,-0.04935595,1.2028688,-0.96683294
-0.1,-0.2,0.7,0.0,0.0,0,-0.032281686,-1.7428794,0.36726415,-0.07536814,0.04778612,1.2000341,-0.34786233,-0.21456271,1.246834,-0.60014284,0.1443042,-0.059221406,1.2342442,0.7327757
-0.1,-0.2,0.7,0.0,0.0,0,0.1254386,-1.6948177,0.387455,-0.061414614,0.050916143,1.2399652,-0.24949001,-0.21582834,1.2474234,-0.58672106,0.14295694,-0.023337211,1.2219673,0.85660887
-0.1,-0.2,0.7,0.0,0.0,0,0.44008338,-1.7657183,-0.27030703,-0.12719665,0.12862715,1.1984087,-0.69431925,-0.21277915,1.2438322,-0.58368516,0.14598307,0.09201232,1.18479,-0.5141876
-0.1,-0.2,0.7,0.0,0.0,0,0.020640723,-1.7474579,-0.09094224,-0.11910887,-0.039821044,1.1854864,-2.749065,-0.20904613,1.2467326,-0.58842754,0.14681633,0.058361672,1.2560804,-0.5764913
-0.1,-0.2,0.7,0.0,0.0,0,0.3340064,-1.701783,-0.012524039,-0.08916755,0.10495751,1.1844063,0.12824029,-0.21586312,1.246505,-0.5928199,0.1395172,0.062112514,1.1855129,-0.004509213
-0.1,-0.2,0.7,0.0,0.0,0,-0.06958334,-1.6859753,0.3647037,-0.096768916,-0.04592713,1.2272869,-1.6861691,-0.2218662,1.2463812,-0.5898398,0.13751473,0.123015314,1.26274,0.26314095
-0.1,-0.2,0.7,0.0,0.0,0,-0.22835685,-1.7235394,0.13676459,-0.107823156,0.1082866,1.205821,-0.5972611,-0.21544813,1.2505238,-0.5915492,0.1361946,0.0449367,1.2990764,-0.14062928
-0.1,-0.2,0.7,0.0,0.0,0,0.26189053,-1.705615,-0.23642802,-0.07779314,-0.13446678,1.150319,0.017122215,-0.20818925,1.2476449,-0.58483,0.14157829,0.04041719,1.2242385,-0.12823297
-0.1,-0.2,0.7,0.0,0.0,0,-1.1256832,-1.717985,-0.082098775,-0.06481924,0.14088131,1.1614016,1.2445484,-0.21169198,1.2471147,-0.5771247,0.1467509,0.16865472,1.2640779,1.383558
-0.1,-0.2,0.7,0.0,0.0,0,-0.7848094,-1.6340593,0.66027707,-0.029041538,-0.033695307,1.2138844,0.0016716081,-0.21876922,1.2486455,-0.5771276,0.14700294,0.082352646,1.2474368,-0.60152113
-0.1,-0.2,0.7,0.0,0.0,0,0.27874753,-1.7137916,0.17042384,-0.063131705,-0.018044319,1.2287081,0.058001835,-0.2141252,1.2452567,-0.58473927,0.14747825,-0.0053641982,1.2367717,-0.8478556
-0.1,-0.2,0.7,0.0,0.0,0,-0.99332136,-1.6201631,0.56291014,-0.074483134,-0.102141485,1.1841316,0.64392143,-0.21161436,1.2498609,-0.58663756,0.1417979,0.09966574,1.201409,-0.412128
-0.1,-0.2,0.7,0.0,0.0,0,0.83948904,-1.7450187,-0.1938118,-0.060566828,0.17639972,1.1694505,-1.3216287,-0.2133426,1.2488451,-0.57781285,0.14467312,-0.0035771767,1.2583338,-0.74339396
-0.1,-0.2,0.7,0.0,0.0,0,-0.4597005,-1.6575788,-0.17143628,-0.06712985,-0.032268584,1.2282673,0.6511474,-0.21512261,1.2519572,-0.58044595,0.13806629,0.005996306,1.3333757,0.020980688
-0.1,-0.2,0.7,0.0,0.0,0,-0.23108,-1.7093806,0.49423116,-0.08437918,0.1353892,1.2270538,0.5600467,-0.21867363,1.249681,-0.5843626,0.13800722,-0.0975364,1.2367247,-0.028298814
-0.1,-0.2,0.7,0.0,0.0,0,1.0096675,-1.749228,0.24159113,-0.08641571,0.13518958,1.1421558,-0.7839801,-0.20996548,1.2484754,-0.59296244,0.14449005,0.04390485,1.2246071,-0.050484143
-0.1,-0.2,0.7,0.0,0.0,0,1.157571,-1.7991321,0.3373665,-0.07966879,-0.09444332,1.1709286,-1.2778604,-0.2126768,1.2477334,-0.58498174,0.14782527,0.086811356,1.1908913,-0.69803745
-0.1,-0.2,0.7,0.0,0.0,0,0.12034288,-1.6865672,0.36783174,-0.049939826,0.010318011,1.2048438,0.30818924,-0.22047964,1.245236,-0.58110833,0.14389472,0.07749882,1.26556,-0.31824026
-0.1,-0.2,0.7,0.0,0.0,0,0.49976176,-1.7900711,0.15819538,-0.10423188,0.13125518,1.1553729,-0.018801343,-0.21711253,1.2476797,-0.59328514,0.14042978,-0.025445165,1.2248437,0.13870385
-0.1,-0.2,0.7,0.0,0.0,0,-0.18500777,-1.8030072,-0.5906865,-0.11229837,-0.20961846,1.1694772,-0.40665478,-0.21479413,1.2501551,-0.58563983,0.14580125,-0.03139084,1.2123673,-0.31085363
-0.1,-0.2,0.7,0.0,0.0,0,0.37100333,-1.8544676,-0.12609775,-0.04099113,-0.09778425,1.1873292,-0.54569906,-0.21588142,1.2511946,-0.585964,0.14027855,0.024244387,1.2402974,-0.16204119
-0.1,-0.2,0.7,0.0,0.0,0,0.6136734,-1.6465808,0.063964374,-0.08649468,0.09629733,1.1984166,-1.4711813,-0.21467072,1.248138,-0.57542765,0.14467621,-0.05253654,1.1986831,0.25097692
-0.1,-0.2,0.7,0.0,0.0,0,0.5226926,-1.7950417,-0.3622698,-0.080130644,-0.3332844,1.2125033,0.42731994,-0.2173982,1.250465,-0.5827121,0.13795047,0.023990665,1.2345291,-1.2225851
-0.1,-0.2,0.7,0.0,0.0,0,0.113325834,-1.7698169,0.1925665,-0.03194817,0.23230395,1.1660266,-0.3627381,-0.21494797,1.2479227,-0.58531976,0.1420794,-0.0502573,1.2737341,0.5423273
-0.1,-0.2,0.7,0.0,0.0,0,1.0828943,-1.8359492,0.45395637,-0.0678669,0.19178393,1.2185639,0.2527095,-0.21332535,1.2446672,-0.59286153,0.14983687,-0.015920725,1.2148331,-0.2609601
-0.1,-0.2,0.7,0.0,0.0,0,0.42400968,-1.6922596,0.34781328,-0.07715201,-0.02601853,1.1995218,1.7440875,-0.2184995,1.2506675,-0.5872093,0.14016232,-0.03875522,1.1596828,-0.21657634
-0.1,-0.2,0.7,0.0,0.0,0,0.9022626,-1.703836,0.021712689,-0.07208827,-0.030609708,1.2441256,-1.0689908,-0.21120843,1.2500072,-0.57934946,0.14504327,0.02217435,1.2305646,0.58574086
-0.1,-0.2,0.7,0.0,0.0,0,-0.79601425,-1.6974524,-0.109978385,-0.07224657,0.1507182,1.2053683,0.04669776,-0.21490978,1.2487907,-0.5753156,0.14155966,-0.030806057,1.2002877,0.004505928
-0.1,-0.2,0.7,0.0,0.0,0,0.08372725,-1.7390913,0.1996868,-0.10040994,-0.033874255,1.1106266,-1.4835857,-0.21293418,1.24864,-0.5941923,0.14740159,-0.0661101,1.167924,-0.33097583
-0.1,-0.2,0.7,0.0,0.0,0,0.24580057,-1.7725759,0.066373564,-0.04438533,0.009353324,1.201795,-3.1098213,-0.21616772,1.2481809,-0.5896615,0.14557894,0.14026949,1.2456987,-0.2663289
-0.1,-0.2,0.7,0.0,0.0,0,0.3218746,-1.7173396,0.05543216,-0.062441323,-0.16100417,1.1673352,-0.78182256,-0.21444297,1.2462751,-0.5736932,0.14568861,-0.013294288,1.2213603,0.006330062
-0.1,-0.2,0.7,0.0,0.0,0,-0.5905434,-1.700126,0.4164997,-0.063389264,0.029904906,1.157621,-1.2676289,-0.2141668,1.2491555,-0.5829354,0.14566429,0.11069777,1.1823437,0.39196593
-0.1,-0.2,0.7,0.0,0.0,0,-0.06132697,-1.710065,0.26314354,-0.031832628,0.1272001,1.2440901,-0.08961122,-0.22034147,1.2435219,-0.5807026,0.14866343,0.19098133,1.1699477,-0.06835971
-0.1,-0.2,0.7,0.0,0.0,0,0.56254226,-1.7001873,0.12260093,-0.066646494,-0.1598409,1.150742,-0.9876004,-0.21828423,1.2479342,-0.5770631,0.14581068,-0.11334934,1.2194434,0.44217038
-0.1,-0.2,0.7,0.0,0.0,0,-0.15847301,-1.7889024,-0.48957402,-0.10915546,-0.0742544,1.2627027,0.9410531,-0.21653093,1.2467583,-0.5839168,0.13330081,0.04627287,1.1708698,-0.041971143
-0.1,-0.2,0.7,0.0,0.0,0,1.4514865,-1.755487,-0.23440433,-0.07919651,-0.25478807,1.1502622,-0.694508,-0.21684226,1.2463233,-0.5935411,0.11628727,-0.033213213,1.2112583,-0.14605458
-0.1,-0.2,0.7,0.0,0.0,0,1.0011303,-1.7844826,0.06935623,-0.04326251,-0.073710576,1.1477119,-1.377743,-0.21581878,1.2444235,-0.57695454,0.13420525,0.004821982,1.2032247,-0.029930808
-0.1,-0.2,0.7,0.0,0.0,0,-0.51853746,-1.7113582,0.37482017,-0.07702856,0.14256422,1.1625609,-0.81955934,-0.20222427,1.2464303,-0.58852416,0.11206211,0.023725897,1.1897299,-0.8285804
-0.1,-0.2,0.7,0.0,0.0,0,0.30306578,-1.722755,0.35703465,-0.10093165,-0.1706138,1.2052879,1.312297,-0.21506701,1.2463076,-0.577533,0.13063502,0.042706627,1.1738818,-0.28089744
-0.1,-0.2,0.7,0.0,0.0,0,-1.2250962,-1.6470814,-0.07902318,-0.053088486,-0.0025689749,1.1864939,-0.79699945,-0.21463093,1.2472748,-0.5809464,0.13706541,-0.14378923,1.179836,0.043501154
-0.1,-0.2,0.7,0.0,0.0,0,-0.33778486,-1.7385099,-0.29691538,-0.06083411,0.035045065,1.1975583,-1.0551218,-0.218304,1.2490854,-0.5973622,0.1173872,0.0021207323,1.2437347,-0.7651801
-0.1,-0.2,0.7,0.0,0.0,0,-1.0449439,-1.7472188,-0.16167998,-0.05144036,0.12530635,1.1527932,-0.24313422,-0.2153169,1.2464136,-0.586501,0.14540848,0.014996871,1.2595108,-0.1349454
-0.1,-0.2,0.7,0.0,0.0,0,0.087963134,-1.6116083,0.17664157,-0.103613235,0.0646884,1.1787422,0.14306757,-0.22431733,1.2498728,-0.58519477,0.13658798,0.014731974,1.2467208,-0.40377507
-0.1,-0.2,0.7,0.0,0.0,0,0.98441434,-1.7079177,-0.21043594,-0.09676803,0.19200376,1.150996,0.5595206,-0.21851982,1.2479335,-0.5901189,0.1427013,0.02149739,1.211598,0.3007655
-0.1,-0.2,0.7,0.0,0.0,0,-0.5412906,-1.7455114,0.061895963,-0.07074721,-0.11979779,1.1507916,0.07286343,-0.21639304,1.2520717,-0.5888311,0.121879786,0.13222905,1.2041005,-0.42049214
-0.1,-0.2,0.7,0.0,0.0,0,0.7228966,-1.6384426,0.26937306,-0.06625792,-0.2670254,1.2151593,-0.48281476,-0.20987019,1.2487859,-0.581806,0.13084568,0.13784046,1.2015909,-0.42582005
-0.1,-0.2,0.7,0.0,0.0,0,-0.6243443,-1.7866296,0.1882105,-0.111259624,-0.07967517,1.1597022,-1.2413565,-0.21265292,1.2450179,-0.6007341,0.13316852,0.06934822,1.2040894,0.16938467
-0.1,-0.2,0.7,0.0,0.0,0,0.45851728,-1.7293302,-0.13578396,-0.072296634,-0.11150756,1.1847439,-0.40022102,-0.21455853,1.2443208,-0.5865885,0.13802168,0.060948193,1.2404985,-0.123094514
-0.1,-0.2,0.7,0.0,0.0,0,0.22251186,-1.7378479,0.13137937,-0.06122161,0.031520028,1.1963637,-0.9175577,-0.21193998,1.243913,-0.58666635,0.13657725,-0.056336522,1.219593,-1.0081975
-0.1,-0.2,0.7,0.0,0.0,0,0.16858976,-1.7054716,0.6303855,-0.08540687,0.043208275,1.2087748,-0.19059834,-0.21579407,1.2440314,-0.5887881,0.13944708,0.014162472,1.1621374,-0.26237535
-0.1,-0.2,0.7,0.0,0.0,0,0.719607,-1.6092138,-0.07542376,-0.090904675,-0.12992051,1.2203325,-0.54061234,-0.20755273,1.2497369,-0.5927948,0.15455659,-0.041685544,1.2270561,-0.08594763
-0.1,-0.2,0.7,0.0,0.0,0,0.6309082,-1.705296,0.16135095,-0.1398571,0.005842512,1.1569799,-0.059920106,-0.21679984,1.2503781,-0.58380145,0.13399707,-0.011984008,1.2770984,0.5767937
-0.1,-0.2,0.7,0.0,0.0,0,0.22131084,-1.7171952,-0.18043113,-0.087981485,-0.2130741,1.1484715,-0.6849334,-0.2180117,1.2457952,-0.57790333,0.1395015,0.09152365,1.2762754,0.9859905
-0.1,-0.2,0.7,0.0,0.0,0,0.1538003,-1.6915258,-0.39415592,-0.095459834,0.057717927,1.1166347,-0.103678055,-0.21641709,1.2452503,-0.58755285,0.1336972,0.11316422,1.231587,-0.20349376
-0.1,-0.2,0.7,0.0,0.0,0,1.1673831,-1.7003074,-0.13963217,-0.0892475,-0.06942096,1.208889,-0.33102542,-0.20945945,1.2449777,-0.5903488,0.1337402,-0.020291334,1.1849349,-0.31384617
-0.1,-0.2,0.7,0.0,0.0,0,0.18828136,-1.7529974,-0.22871591,-0.10937172,0.21611294,1.2091947,0.02082375,-0.21765448,1.2482476,-0.582189,0.13062403,0.115013994,1.2389531,0.8254135
-0.1,-0.2,0.7,0.0,0.0,0,-0.5928165,-1.6846441,0.34729862,-0.0053915465,-0.17835027,1.2304748,-0.37860134,-0.21783936,1.2465552,-0.5825128,0.12715596,-0.038026206,1.2377255,-0.3756846
-0.1,-0.2,0.7,0.0,0.0,0,1.6848837,-1.7144772,0.2925363,-0.06355146,-0.0110668335,1.1662886,-0.8651675,-0.2038153,1.2498661,-0.58661216,0.13994731,0.020448094,1.2118131,0.72163767
-0.1,-0.2,0.7,0.0,0.0,0,0.1867894,-1.6975415,-0.1718563,-0.07682673,0.13350305,1.1168237,-0.108367875,-0.22483647,1.247518,-0.58792716,0.11898919,-0.060686223,1.1696206,-0.6952529
-0.1,-0.2,0.7,0.0,0.0,0,0.004432813,-1.7857282,0.054485545,-0.033923656,-0.0015017792,1.1989809,-0.5702797,-0.20753713,1.2453092,-0.59076023,0.13454166,0.0015284813,1.2349204,0.36544743
-0.1,-0.2,0.7,0.0,0.0,0,0.4462531,-1.7157023,0.015753465,-0.042137384,0.074127086,1.2213011,0.06227193,-0.21669309,1.2424943,-0.5895554,0.1483776,-0.044267166,1.2025098,-1.1195792
-0.1,-0.2,0.7,0.0,0.0,0,0.7513983,-1.7752104,0.8683778,-0.09491323,0.020471457,1.2430942,0.045275815,-0.22103396,1.2428981,-0.5794643,0.12897252,-0.011846568,1.2601732,1.3042638
-0.1,-0.2,0.7,0.0,0.0,0,-0.022050986,-1.7727785,-0.45730034,-0.0873984,0.02731091,1.2005315,-0.48789945,-0.20892787,1.247876,-0.59176546,0.14485186,0.025275555,1.1808194,0.70307714
-0.1,-0.2,0.7,0.0,0.0,0,-0.97139317,-1.7057712,0.31214154,-0.10050601,0.09741701,1.1536094,0.47985545,-0.21181683,1.2439909,-0.58224016,0.13565092,-0.13749664,1.2832284,0.8863371
-0.1,-0.2,0.7,0.0,0.0,0,-0.28811866,-1.7144761,0.15569235,-0.102168456,-0.04843306,1.183187,0.7057814,-0.2065154,1.2483549,-0.5911627,0.13182105,-0.0119432025,1.1994845,0.6224107
-0.1,-0.2,0.7,0.0,0.0,0,0.12145431,-1.7747438,-0.0042005186,-0.10464164,0.048585422,1.2400606,0.18460469,-0.21159068,1.2456828,-0.57857007,0.14228915,0.10553221,1.2256985,0.48229766
-0.1,-0.2,0.7,0.0,0.0,0,-0.53266835,-1.6247605,0.5229247,-0.040455773,0.07341746,1.2355267,0.9245511,-0.21193595,1.2487998,-0.5875007,0.1344805,-0.047903273,1.2807637,0.07627898
-0.1,-0.2,0.7,0.0,0.0,0,0.9904491,-1.765192,0.080609754,-0.083223425,-0.059594672,1.2091522,-0.07713129,-0.21495578,1.2489955,-0.5837886,0.13896233,-0.0016410259,1.2881538,-0.48583713
-0.1,-0.2,0.7,0.0,0.0,0,1.0893894,-1.7776054,0.6040679,-0.103697635,0.027170496,1.1667966,-0.90552354,-0.21800314,1.2468702,-0.59142816,0.13359332,0.049133644,1.204846,-0.23895754
-0.1,-0.2,0.7,0.0,0.0,0,0.5006256,-1.7401714,-0.31398678,-0.08004445,-0.0552208,1.2468617,-0.40964496,-0.21659754,1.2481788,-0.575332,0.13818687,-0.013563492,1.2411184,-0.60377455
-0.1,-0.2,0.7,0.0,0.0,0,-0.38870755,-1.7085826,0.21058215,-0.06771904,-0.03725452,1.1352895,-1.694933,-0.21492209,1.2441113,-0.5844496,0.1301719,0.015300118,1.1424034,-1.19618
-0.1,-0.2,0.7,0.0,0.0,0,-0.36089498,-1.6473461,-0.15201777,-0.072393715,-0.04613687,1.2028484,-0.40030384,-0.20359536,1.2508175,-0.5761327,0.13765873,-0.031638674,1.1925441,0.5689565
-0.1,-0.2,0.7,0.0,0.0,0,1.3749416,-1.6784245,-0.20724706,-0.08927685,-0.0036969911,1.169019,0.30770847,-0.21589138,1.2473916,-0.5811951,0.1324998,0.0059765554,1.1452934,-0.43240783
-0.1,-0.2,0.7,0.0,0.0,0,0.1054975,-1.745955,-0.020009661,-0.1306469,-0.04473318,1.1962014,-1.3412966,-0.21593858,1.2470587,-0.58845204,0.12521403,0.061722573,1.1973593,0.17947407
-0.1,-0.2,0.7,0.0,0.0,0,0.24716261,-1.7935373,-0.57571656,-0.040152285,0.17318262,1.1913104,-0.010762918,-0.21751058,1.2469867,-0.59273434,0.1288482,0.016089384,1.2331729,1.1145949
-0.1,-0.2,0.7,0.0,0.0,0,-0.28356072,-1.6841226,0.12238309,-0.1011157,0.2326653,1.1649885,0.74757093,-0.21479502,1.2500176,-0.58950233,0.13145666,0.042028245,1.1684641,-0.10370825
-0.1,-0.2,0.7,0.0,0.0,0,-1.0427386,-1.6376057,-0.16579442,-0.055793434,0.09610036,1.1842294,1.5166669,-0.21304677,1.245825,-0.58425385,0.1347348,-0.0467173,1.1996074,0.15154201
-0.1,-0.2,0.7,0.0,0.0,0,-1.470024,-1.676256,0.30136463,-0.11064337,0.038610667,1.1938195,-1.1952173,-0.20664892,1.246819,-0.58634406,0.13174029,0.12579453,1.203054,0.48061043
-0.1,-0.2,0.7,0.0,0.0,0,-1.028389,-1.7452085,-0.024495834,-0.08339968,-0.18291587,1.1959238,0.23468256,-0.2102181,1.2468215,-0.59867924,0.13777927,-0.052395377,1.2089226,0.6136031
-0.1,-0.2,0.7,0.0,0.0,0,-0.9173765,-1.7633468,-0.077105165,-0.075148046,-0.26517394,1.1553004,-0.21341753,-0.21145716,1.2479844,-0.58711904,0.13160343,-0.025298608,1.19404,-0.97603136
-0.1,-0.2,0.7,0.0,0.0,0,-0.33741128,-1.7733175,-0.5926159,-0.050280668,0.08420604,1.3087963,1.1462882,-0.214078,1.2481413,-0.5973311,0.13131629,-0.05983078,1.2317665,-0.971548
-0.1,-0.2,0.7,0.0,0.0,0,0.3873465,-1.8077201,0.43634775,-0.06279805,0.09241871,1.2288086,-0.15864827,-0.2131868,1.2486608,-0.5879153,0.12933257,-0.03037766,1.1467894,0.2777703
-0.1,-0.2,0.7,0.0,0.0,0,0.8558055,-1.7338529,0.078351155,-0.07126106,-0.18156388,1.1502533,-0.49425876,-0.2147751,1.2463801,-0.5920933,0.14214164,-0.05390512,1.2039855,-0.6422961
-0.1,-0.2,0.7,0.0,0.0,0,0.10554599,-1.7340784,0.26632896,-0.042840056,0.12358962,1.1530273,-0.5242321,-0.21531568,1.2475964,-0.5860923,0.13150246,-0.079181574,1.2390405,1.3966091
-0.1,-0.2,0.7,0.0,0.0,0,-0.22540353,-1.7258404,0.083301775,-0.09731875,0.054263435,1.204113,-1.4863584,-0.21137694,1.2456708,-0.5940502,0.13176142,-0.07550169,1.2642778,0.13755785
-0.1,-0.2,0.7,0.0,0.0,0,-0.22113676,-1.7911236,0.06864351,-0.095504425,0.10463483,1.1788137,-0.23861153,-0.22422005,1.2491928,-0.5790697,0.14058778,0.0057297456,1.2400296,-0.18366142
-0.1,-0.2,0.7,0.0,0.0,0,-0.32296523,-1.7472999,-0.5883431,-0.079394825,0.0058171675,1.2371384,-0.83982414,-0.21545625,1.2428367,-0.57833415,0.13486011,0.028951747,1.1367952,-0.5461338
-0.1,-0.2,0.7,0.0,0.0,0,0.08929504,-1.7436712,-0.11717505,-0.1027675,-0.028638743,1.2097496,-2.457492,-0.2055929,1.2509295,-0.6038097,0.13924764,-0.024725122,1.2163775,0.5034583
-0.1,-0.2,0.7,0.0,0.0,0,1.2360365,-1.6778313,-0.19002376,-0.043519646,0.17363825,1.2103231,-0.807834,-0.20558797,1.2458025,-0.57956356,0.14098956,-0.04515639,1.2114748,0.29220247
-0.1,-0.2,0.7,0.0,0.0,0,-1.0050386,-1.718379,0.116399564,-0.08832778,-0.00397595,1.2146708,-0.43421704,-0.21761991,1.249484,-0.58567435,0.12515974,0.077512965,1.1940391,-0.64319974
-0.1,-0.2,0.7,0.0,0.0,0,0.1984113,-1.7102257,0.014061148,-0.09834591,0.018940976,1.1364763,-0.06822555,-0.2119561,1.2486025,-0.58510953,0.13001801,0.04097477,1.2153674,-0.6594962
-0.1,-0.2,0.7,0.0,0.0,0,-0.67361206,-1.7020267,-0.044717766,-0.11987577,0.0060152793,1.2047408,-0.33495525,-0.20885041,1.24781,-0.59626454,0.14470726,0.009366913,1.2454494,-0.5863383
-0.1,-0.2,0.7,0.0,0.0,0,0.19135867,-1.723337,-0.14510669,-0.059999846,0.094962575,1.1177905,0.044420306,-0.20983073,1.2506938,-0.5843011,0.13491209,0.013046547,1.2380304,-0.32950142
-0.1,-0.2,0.7,0.0,0.0,0,0.49198738,-1.7695332,0.037984516,-0.093362756,-0.06621332,1.1908958,-0.7538191,-0.21479787,1.2461934,-0.5989241,0.13765357,-0.07960849,1.1561697,-0.7162976
-0.1,-0.2,0.7,0.0,0.0,0,1.2170364,-1.7215009,-0.37301353,-0.12258007,0.07874739,1.2442441,-0.25151023,-0.21500802,1.2430991,-0.59591585,0.14867546,0.099924035,1.1982827,-0.2625802
-0.1,-0.2,0.7,0.0,0.0,0,-0.2882255,-1.7658061,0.026974969,-0.07425938,-0.22426686,1.1954888,-1.1717868,-0.2104003,1.2473122,-0.58625686,0.14095047,-0.033857994,1.1968192,-1.1599787
-0.1,-0.2,0.7,0.0,0.0,0,0.8402692,-1.7752756,0.29349986,-0.07081561,0.2940482,1.2058955,-0.75376904,-0.2195248,1.2456454,-0.58800286,0.13838428,0.014427073,1.1824701,1.0584852
-0.1,-0.2,0.7,0.0,0.0,0,-0.30644134,-1.6850861,-0.059471004,-0.035460234,-0.13074768,1.2642714,-0.20135437,-0.2165131,1.2476103,-0.5945683,0.13791868,0.08086379,1.2776004,0.8794695
-0.1,-0.2,0.7,0.0,0.0,0,-1.3498838,-1.7550702,-0.22592895,-0.08840372,-0.011991078,1.1774331,-0.4861172,-0.21321066,1.2465382,-0.59043676,0.13953865,0.09043764,1.2679337,-0.86988455
-0.1,-0.2,0.7,0.0,0.0,0,0.025125196,-1.7402637,-0.0629289,-0.07610109,-0.055949368,1.2174722,0.5826906,-0.21904346,1.2485408,-0.5831391,0.13999277,-0.07020387,1.2737638,0.044523343
-0.1,-0.2,0.7,0.0,0.0,0,0.5832872,-1.688632,0.09811681,-0.080585726,0.0969564,1.1591378,-0.51238334,-0.21900478,1.243915,-0.58992213,0.14238015,-0.0729341,1.2726207,-0.17630449
-0.1,-0.2,0.7,0.0,0.0,0,-0.5154028,-1.6396146,0.2056009,-0.112178646,-0.16969955,1.2635521,0.513638,-0.21482156,1.2481549,-0.5841813,0.13564107,0.083488025,1.1470823,0.075923376
-0.1,-0.2,0.7,0.0,0.0,0,1.6706182,-1.6590939,0.11490206,-0.030914515,0.10506907,1.1967646,0.46488824,-0.21961863,1.2447758,-0.5808236,0.1376999,0.025986016,1.3005391,0.9671184
-0.1,-0.2,0.7,0.0,0.0,0,0.4783956,-1.7107909,0.11974085,-0.07335812,0.14125003,1.2062354,-0.45283014,-0.2165096,1.2490512,-0.5759843,0.1409021,-0.0023142651,1.2086428,-0.35868222
-0.1,-0.2,0.7,0.0,0.0,0,-0.43952167,-1.70482,0.15512912,-0.08288702,-0.10464031,1.1809324,-0.9872025,-0.21296467,1.2457306,-0.5842653,0.14117311,0.038672846,1.25701,0.5897883
-0.1,-0.2,0.7,0.0,0.0,0,0.58374536,-1.6895556,-0.36080998,-0.050845057,-0.034838255,1.1765046,-0.7093462,-0.21636489,1.2510883,-0.58959347,0.13928552,0.040750217,1.1953067,0.8145189
-0.1,-0.2,0.7,0.0,0.0,0,-0.41387075,-1.7724116,0.049903847,-0.036701955,-0.02865976,1.2150578,0.31119463,-0.21313623,1.2494396,-0.58323264,0.14119846,0.083561964,1.1594038,-0.86275136
-0.1,-0.2,0.7,0.0,0.0,0,0.26248372,-1.6289489,-0.26208997,-0.07898196,-0.032219235,1.1773717,1.2156262,-0.21870136,1.2488208,-0.58439726,0.14427046,0.091253564,1.3037413,-0.7494038
-0.1,-0.2,0.7,0.0,0.0,0,-0.63687825,-1.7206317,-0.18776837,-0.06512232,0.08398474,1.1668204,1.0281671,-0.21294266,1.2508264,-0.582061,0.14594173,0.23567133,1.2415086,-0.2553556
-0.1,-0.2,0.7,0.0,0.0,0,-1.2531908,-1.6917499,-0.02476204,-0.073943146,0.013771173,1.1583465,0.017202273,-0.2144238,1.2482811,-0.58889323,0.13684492,0.081997074,1.221541,-1.2350584
-0.1,-0.2,0.7,0.0,0.0,0,0.9674926,-1.6867293,0.16874206,-0.08919184,-0.085879706,1.1876031,-0.41550654,-0.20950164,1.2490245,-0.59530467,0.13405228,0.007420899,1.2383634,-0.9450065
-0.1,-0.2,0.7,0.0,0.0,0,-0.14302646,-1.7477474,0.071947955,-0.06076077,-0.104792185,1.1453797,0.30457142,-0.21246018,1.2467892,-0.5936825,0.13252957,0.06532042,1.2615306,0.47196403
-0.1,-0.2,0.7,0.0,0.0,0,0.040914614,-1.6574862,0.36432615,-0.05208239,0.19387233,1.1924886,-1.33242,-0.21966764,1.2467142,-0.58358765,0.14257388,-0.072051354,1.1765827,0.02708991
-0.1,-0.2,0.7,0.0,0.0,0,0.002006237,-1.690392,-0.43714383,-0.0612297,0.17921926,1.1543593,0.3056328,-0.21998604,1.2468897,-0.57350445,0.1353286,0.035954434,1.2378995,-0.24732313
