sanky1234/BimanualDexCatch/isaacgymenvs/cem_results/football_pose_0.1_-0.1_1.1999999999999997_-0.5235987755982988_0.5235987755982988_0_2025-05-26.csv
x,y,z,roll,pitch,yaw,robot1/joint1,robot1/joint2,robot1/joint3,robot1/joint4,robot1/joint5,robot1/joint6,robot1/joint7,robot2/joint1,robot2/joint2,robot2/joint3,robot2/joint4,robot2/joint5,robot2/joint6,robot2/joint7
0.1,-0.1,1.1999999999999997,-0.5235987755982988,0.5235987755982988,0,-0.6381007,1.5471919,-0.6782438,0.022223169,0.10299141,1.2161167,0.32564583,-0.44129908,-1.1090149,2.2222266,0.28987402,0.0020570147,1.2267379,-0.7359726
0.1,-0.1,1.1999999999999997,-0.5235987755982988,0.5235987755982988,0,-0.6331628,1.5571526,-0.6986002,0.04510997,0.1079612,1.3290542,0.51608497,-0.44090685,-1.1143304,2.2281451,0.30680776,-0.015936961,1.1660054,-0.64768773
0.1,-0.1,1.1999999999999997,-0.5235987755982988,0.5235987755982988,0,-0.6413912,1.5001667,-0.5346893,-0.07779195,0.2601823,1.0548232,1.219068,-0.44124463,-1.1104609,2.230481,0.3320769,-0.012856931,1.2101552,-0.20456478
0.1,-0.1,1.1999999999999997,-0.5235987755982988,0.5235987755982988,0,-0.64631575,1.5171056,-0.65811944,-0.045056544,0.12510431,1.1949868,1.1996555,-0.44142997,-1.1147681,2.2216218,0.32561982,0.31575608,1.2184677,-0.01798314
0.1,-0.1,1.1999999999999997,-0.5235987755982988,0.5235987755982988,0,-0.6358141,1.5362935,-0.5413318,-0.10488494,0.1431242,1.3551596,0.0344282,-0.44160098,-1.1118641,2.2150998,0.30304453,0.06477853,1.2034563,-0.13506767
0.1,-0.1,1.1999999999999997,-0.5235987755982988,0.5235987755982988,0,-0.6358477,1.5386854,-0.73211485,-0.09408298,-0.29494953,1.1498778,-0.693595,-0.4423229,-1.1126436,2.2293398,0.29724386,0.07216819,1.1829323,-0.1699913
0.1,-0.1,1.1999999999999997,-0.5235987755982988,0.5235987755982988,0,-0.6340607,1.4923409,-0.531413,-0.016892066,-0.064062476,1.2051561,0.092634596,-0.44201356,-1.1124029,2.2261498,0.27594578,-0.07196187,1.1231887,-0.35551134
0.1,-0.1,1.1999999999999997,-0.5235987755982988,0.5235987755982988,0,-0.6330317,1.5039222,-0.6970751,0.021735426,-0.09991877,1.0535489,0.03927396,-0.44146377,-1.114041,2.222828,0.2671194,0.03592478,1.1387526,-0.10032145
0.1,-0.1,1.1999999999999997,-0.5235987755982988,0.5235987755982988,0,-0.63092434,1.5344089,-0.59536856,-0.0060632965,0.1940237,1.1491594,-0.34685102,-0.43960994,-1.1125637,2.2188559,0.2765797,0.11001365,1.1140387,0.008662779
0.1,-0.1,1.1999999999999997,-0.5235987755982988,0.5235987755982988,0,-0.62502176,1.461446,-0.58299017,-0.100727655,0.08506384,1.0287715,0.522052,-0.44091484,-1.1100473,2.2239394,0.2913472,0.09182145,1.2822031,-0.21593541
0.1,-0.1,1.1999999999999997,-0.5235987755982988,0.5235987755982988,0,-0.634943,1.5454851,-0.5659013,0.053058743,-0.0010102428,1.301482,1.2709905,-0.4410612,-1.1143417,2.2354684,0.3210144,-0.08929235,1.1682076,0.22161913
0.1,-0.1,1.1999999999999997,-0.5235987755982988,0.5235987755982988,0,-0.63283795,1.4754909,-0.66613245,0.07145148,-0.13371368,1.1740414,2.0012586,-0.4404017,-1.113708,2.2281992,0.31606182,-0.056086138,1.2736909,0.51040876
0.1,-0.1,1.1999999999999997,-0.5235987755982988,0.5235987755982988,0,-0.63969636,1.551856,-0.7012409,0.063096784,0.06771896,1.1160517,-0.3309724,-0.4425628,-1.1146965,2.2227561,0.32061145,0.21597537,1.1816639,-0.15346716
0.1,-0.1,1.1999999999999997,-0.5235987755982988,0.5235987755982988,0,-0.6268149,1.4914628,-0.54917586,0.056400564,0.12603605,1.2870239,0.41713583,-0.44307348,-1.1130998,2.2273932,0.29004082,0.12915951,1.2931259,0.04781146
0.1,-0.1,1.1999999999999997,-0.5235987755982988,0.5235987755982988,0,-0.6355549,1.5502708,-0.710316,-0.14053991,-0.1034532,1.1279707,0.8241217,-0.44167784,-1.1151291,2.2194111,0.3108842,0.040808268,1.2237562,0.26819405
0.1,-0.1,1.1999999999999997,-0.5235987755982988,0.5235987755982988,0,-0.62190807,1.5274521,-0.69398195,0.016291382,-0.06789658,1.3170048,0.23812594,-0.4397571,-1.1130236,2.22474,0.3038064,0.13316727,1.2090626,-0.28947464
0.1,-0.1,1.1999999999999997,-0.5235987755982988,0.5235987755982988,0,-0.6311688,1.5072201,-0.6248639,0.0068830093,0.061957657,1.0067021,0.31923392,-0.44143304,-1.1130358,2.2293384,0.3195385,-0.034004346,1.2599008,1.2404902
0.1,-0.1,1.1999999999999997,-0.5235987755982988,0.5235987755982988,0,-0.6397453,1.4899291,-0.6854196,-0.085166775,-0.09301092,1.2366129,0.81092507,-0.44029915,-1.1115649,2.2297552,0.30871582,0.014761688,1.274722,-0.5184864
0.1,-0.1,1.1999999999999997,-0.5235987755982988,0.5235987755982988,0,-0.6309029,1.5486274,-0.63624054,-0.07755264,0.101509854,1.2191647,1.2821189,-0.43898594,-1.1143783,2.2259326,0.3149381,0.07294131,1.164433,-1.0897937
0.1,-0.1,1.1999999999999997,-0.5235987755982988,0.5235987755982988,0,-0.6246826,1.5463189,-0.6046229,0.046581537,0.11858639,1.1399086,-0.79397917,-0.44104388,-1.1121068,2.226905,0.315603,-0.05976019,1.1129663,0.20003293
0.1,-0.1,1.1999999999999997,-0.5235987755982988,0.5235987755982988,0,-0.6311279,1.4959196,-0.5602589,-0.0152578475,-0.015885992,1.1834174,0.33401102,-0.4404517,-1.114268,2.2279925,0.2957239,0.112419926,1.259991,0.3562734
0.1,-0.1,1.1999999999999997,-0.5235987755982988,0.5235987755982988,0,-0.62241966,1.4521388,-0.60949445,-0.0018707907,0.026200466,1.1349642,0.12698057,-0.44095474,-1.1120971,2.2173123,0.2877659,-0.002191208,1.2100532,-0.67591214
0.1,-0.1,1.1999999999999997,-0.5235987755982988,0.5235987755982988,0,-0.6353344,1.4900949,-0.62124884,0.060127914,0.25077558,1.112074,0.946345,-0.4424865,-1.11194,2.2331026,0.3300256,0.025659293,1.2180119,0.14966954
0.1,-0.1,1.1999999999999997,-0.5235987755982988,0.5235987755982988,0,-0.63902414,1.5215507,-0.7249787,0.0044987635,0.06308326,1.1067504,-1.3644885,-0.4409994,-1.1139787,2.2337627,0.33409184,0.059085328,1.338744,-0.4438693
0.1,-0.1,1.1999999999999997,-0.5235987755982988,0.5235987755982988,0,-0.6408345,1.5368291,-0.6793194,0.014801003,-0.20268352,1.2507771,0.8216674,-0.44121367,-1.1130251,2.2299278,0.26913676,0.13655145,1.1501409,0.32509264
0.1,-0.1,1.1999999999999997,-0.5235987755982988,0.5235987755982988,0,-0.6357299,1.5007848,-0.5877534,0.014709931,0.15477212,1.1366841,1.8344132,-0.43941098,-1.113871,2.2342148,0.31434882,-0.094116636,1.1982068,-0.82460856
0.1,-0.1,1.1999999999999997,-0.5235987755982988,0.5235987755982988,0,-0.6298787,1.4219773,-0.5508423,0.10735473,0.065262005,1.216368,-0.122082494,-0.44304454,-1.113382,2.2317286,0.30137032,-0.099482745,1.2511501,0.19068475
0.1,-0.1,1.1999999999999997,-0.5235987755982988,0.5235987755982988,0,-0.6317124,1.4406738,-0.7637989,0.0654056,-0.16361853,1.177522,-0.016524458,-0.44050944,-1.112767,2.2264194,0.3021269,0.266976,1.136893,-0.21470663
0.1,-0.1,1.1999999999999997,-0.5235987755982988,0.5235987755982988,0,-0.6235692,1.4598125,-0.64404947,0.040250737,0.04238602,1.1423641,0.28986722,-0.44027793,-1.1135582,2.2268794,0.27862018,0.09246045,1.215253,0.29444313
0.1,-0.1,1.1999999999999997,-0.5235987755982988,0.5235987755982988,0,-0.6332139,1.4941595,-0.6071584,-0.005055793,-0.008577105,1.2806047,1.2453091,-0.44190055,-1.1132613,2.225459,0.31012633,0.106722206,1.0892049,0.20555185
0.1,-0.1,1.1999999999999997,-0.5235987755982988,0.5235987755982988,0,-0.63694274,1.5504192,-0.6486089,-0.00623755,-0.032214016,1.169552,0.12239981,-0.44214323,-1.1124824,2.2286525,0.27783218,-0.14939705,1.2314587,-0.29383066
0.1,-0.1,1.1999999999999997,-0.5235987755982988,0.5235987755982988,0,-0.6274342,1.5450085,-0.7000482,-0.08380239,0.06451454,1.1413456,0.44369495,-0.4416419,-1.1115063,2.2204707,0.30649796,0.008057339,1.2039255,0.05234701
0.1,-0.1,1.1999999999999997,-0.5235987755982988,0.5235987755982988,0,-0.6324831,1.4864303,-0.7192201,-0.0019165084,0.19306643,1.0910648,1.0060582,-0.44230798,-1.1140381,2.2236457,0.3124499,-0.06541223,1.1146814,-0.13028683
0.1,-0.1,1.1999999999999997,-0.5235987755982988,0.5235987755982988,0,-0.6273696,1.4818063,-0.69300026,-0.029216535,-0.25674114,1.1110935,0.22074836,-0.4397664,-1.1117806,2.226754,0.2809175,-0.053264163,1.1388967,-0.92889583
0.1,-0.1,1.1999999999999997,-0.5235987755982988,0.5235987755982988,0,-0.64180326,1.4603857,-0.6369489,0.057337232,-0.08264532,1.2247174,0.049008872,-0.44308496,-1.1149402,2.229206,0.30056378,0.18639708,1.238951,-0.96080637
0.1,-0.1,1.1999999999999997,-0.5235987755982988,0.5235987755982988,0,-0.62298894,1.5177567,-0.6193727,-0.03671021,0.26253107,1.0088778,0.89219177,-0.44151023,-1.1103675,2.2224722,0.2805319,0.11072856,1.213913,-0.5403427
0.1,-0.1,1.1999999999999997,-0.5235987755982988,0.5235987755982988,0,-0.62948906,1.4954917,-0.7792611,0.038837086,-0.032893647,1.0092454,0.045190066,-0.44242653,-1.1127225,2.2221735,0.2841969,-0.06628089,1.2212899,-0.83445317
0.1,-0.1,1.1999999999999997,-0.5235987755982988,0.5235987755982988,0,-0.63399523,1.4938283,-0.5483475,-0.017331038,0.12295501,1.1596745,0.10056429,-0.44360232,-1.1119905,2.2288089,0.31624404,0.19720683,1.2045963,-1.4388037
0.1,-0.1,1.1999999999999997,-0.5235987755982988,0.5235987755982988,0,-0.62690043,1.4925077,-0.55654716,0.006679551,-0.06166953,1.4499351,-0.19232441,-0.44119152,-1.1141342,2.226714,0.31321633,0.06766435,1.168939,-0.20205714
0.1,-0.1,1.1999999999999997,-0.5235987755982988,0.5235987755982988,0,-0.64161384,1.5014153,-0.7164449,0.009358086,0.107879646,1.1554841,0.37016144,-0.44462618,-1.1127979,2.2223759,0.28722775,-0.13877839,1.1922182,-0.25208667
0.1,-0.1,1.1999999999999997,-0.5235987755982988,0.5235987755982988,0,-0.6317658,1.5153722,-0.5972642,0.031953372,0.0719089,1.2237518,0.9254717,-0.44093218,-1.1141042,2.228766,0.2952946,-0.091039576,1.1539824,-0.6601256
0.1,-0.1,1.1999999999999997,-0.5235987755982988,0.5235987755982988,0,-0.6288845,1.5155857,-0.84263176,-0.031677626,0.16160782,1.2447919,1.2251648,-0.44107097,-1.1133448,2.2290041,0.31640434,-0.097138606,1.1663545,1.2674346
0.1,-0.1,1.1999999999999997,-0.5235987755982988,0.5235987755982988,0,-0.6379889,1.4634725,-0.59794754,-0.014514338,0.19894749,1.2781663,0.83914655,-0.44114867,-1.1133063,2.233215,0.30929413,0.0019107264,1.2028983,-0.11830318
0.1,-0.1,1.1999999999999997,-0.5235987755982988,0.5235987755982988,0,-0.6328958,1.5211627,-0.6599274,0.0040997956,0.1842749,1.2366029,0.695399,-0.4407024,-1.114761,2.229889,0.3126873,0.13456511,1.1914092,-0.39015448
0.1,-0.1,1.1999999999999997,-0.5235987755982988,0.5235987755982988,0,-0.63916147,1.474255,-0.7678243,0.024356611,0.0016716702,1.1563921,1.0598456,-0.44103774,-1.1118703,2.23234,0.30067706,0.014459847,1.1800951,0.1397209
0.1,-0.1,1.1999999999999997,-0.5235987755982988,0.5235987755982988,0,-0.6328456,1.4886149,-0.69881713,-0.07299155,-0.15098439,1.2561188,1.0550017,-0.44291815,-1.1138731,2.2281613,0.3126471,-0.12427101,1.2158712,0.26161557
0.1,-0.1,1.1999999999999997,-0.5235987755982988,0.5235987755982988,0,-0.63301164,1.484503,-0.6476329,-0.049850646,-0.018953701,1.1383538,0.46042156,-0.44236454,-1.1138748,2.2244878,0.28005165,0.083963595,1.2388504,-0.120977096
0.1,-0.1,1.1999999999999997,-0.5235987755982988,0.5235987755982988,0,-0.6210092,1.4901298,-0.7638583,0.0463482,0.24068329,1.2810006,-0.1346876,-0.44161484,-1.1120061,2.221209,0.28341964,0.0948257,1.2053821,-0.077594206
0.1,-0.1,1.1999999999999997,-0.5235987755982988,0.5235987755982988,0,-0.6279533,1.5376139,-0.5507299,-0.0011021947,0.024354476,0.9939786,2.6128054,-0.4407735,-1.1151419,2.2230997,0.30063084,0.029166564,1.2261972,-0.30715093
0.1,-0.1,1.1999999999999997,-0.5235987755982988,0.5235987755982988,0,-0.6370977,1.5093272,-0.5567586,0.07850739,0.14393823,1.2744422,1.4772978,-0.4433621,-1.1152488,2.2268338,0.3246122,0.09674386,1.3077091,0.031103816
0.1,-0.1,1.1999999999999997,-0.5235987755982988,0.5235987755982988,0,-0.6245865,1.5203182,-0.7177283,-0.016836155,-0.04882368,1.2049863,0.12813407,-0.44003794,-1.1148686,2.2290564,0.280763,0.1331026,1.1269728,-0.118589245
0.1,-0.1,1.1999999999999997,-0.5235987755982988,0.5235987755982988,0,-0.63276917,1.5296745,-0.7744291,-0.09275261,0.12959804,1.1675929,0.5549147,-0.4395844,-1.1142592,2.233365,0.2806025,0.09269684,1.2037675,0.08713469
0.1,-0.1,1.1999999999999997,-0.5235987755982988,0.5235987755982988,0,-0.6261133,1.5314984,-0.6682397,-0.10846061,-0.08168821,1.2879989,0.28829488,-0.44098467,-1.1144474,2.2250447,0.31176442,-0.008280866,1.2188907,0.7777068
0.1,-0.1,1.1999999999999997,-0.5235987755982988,0.5235987755982988,0,-0.6391049,1.5782939,-0.6064746,0.0016481624,0.10836691,1.1761419,0.49855557,-0.4427069,-1.1122663,2.2179286,0.2893895,0.20981029,1.2324928,-0.27319437
0.1,-0.1,1.1999999999999997,-0.5235987755982988,0.5235987755982988,0,-0.627977,1.5691041,-0.70743096,0.0037127188,-0.23315005,1.0529432,0.13798541,-0.43991905,-1.1121958,2.2289808,0.26040867,-0.022239761,1.211347,-0.0542807
0.1,-0.1,1.1999999999999997,-0.5235987755982988,0.5235987755982988,0,-0.62740517,1.479081,-0.49321753,0.02487946,0.10408176,1.2284688,-0.22284637,-0.44046426,-1.1128938,2.230675,0.30283403,0.032428887,1.227508,-0.45733964
0.1,-0.1,1.1999999999999997,-0.5235987755982988,0.5235987755982988,0,-0.6319556,1.5185928,-0.76925164,-0.07575121,-0.15185809,1.2315302,0.33960196,-0.44212735,-1.1152138,2.2256424,0.31346714,0.17404234,1.2069542,-0.36260363
0.1,-0.1,1.1999999999999997,-0.5235987755982988,0.5235987755982988,0,-0.63079363,1.4995841,-0.625896,-0.011526464,0.021401456,1.241485,-0.09717025,-0.43916705,-1.1138076,2.229915,0.288916,0.22486508,1.1687839,-0.07500175
0.1,-0.1,1.1999999999999997,-0.5235987755982988,0.5235987755982988,0,-0.63013446,1.4877506,-0.64128053,-0.022361642,0.16995263,1.166575,-0.74544185,-0.4415901,-1.1149895,2.224988,0.32382017,0.046165094,1.2368764,0.31405786
0.1,-0.1,1.1999999999999997,-0.5235987755982988,0.5235987755982988,0,-0.6272152,1.4871007,-0.6361759,-0.03082599,0.21875997,1.0681949,0.485949,-0.4412118,-1.1144688,2.2232985,0.3055517,0.19740857,1.2930427,-0.8664556
0.1,-0.1,1.1999999999999997,-0.5235987755982988,0.5235987755982988,0,-0.6341908,1.4639672,-0.82370603,0.04674471,0.2673571,1.181266,-0.036130607,-0.4395482,-1.1112697,2.2200532,0.30069274,0.14505932,1.2017423,-0.33855912
0.1,-0.1,1.1999999999999997,-0.5235987755982988,0.5235987755982988,0,-0.63498336,1.4242,-0.5174547,0.08102389,0.04761003,1.1128025,0.8592494,-0.44165242,-1.1146659,2.2268353,0.35080618,0.12776048,1.2572552,-0.19919556
0.1,-0.1,1.1999999999999997,-0.5235987755982988,0.5235987755982988,0,-0.6333187,1.4259647,-0.74931467,0.14605667,-0.07444895,1.1219753,-1.2140832,-0.4409434,-1.1117805,2.2266943,0.2917366,-0.11693386,1.2570761,-0.4809095
0.1,-0.1,1.1999999999999997,-0.5235987755982988,0.5235987755982988,0,-0.64325833,1.5689375,-0.5435206,0.042606488,0.08203981,1.2428818,1.4878137,-0.44079724,-1.1121261,2.220758,0.32920206,0.05488423,1.2595041,-0.40932128
0.1,-0.1,1.1999999999999997,-0.5235987755982988,0.5235987755982988,0,-0.63802946,1.528728,-0.6686516,-0.016688751,0.11524759,1.4095306,1.5526524,-0.44173804,-1.1131628,2.2257547,0.3300214,0.19484606,1.2673753,-0.5491774
0.1,-0.1,1.1999999999999997,-0.5235987755982988,0.5235987755982988,0,-0.64120924,1.5167869,-0.6006039,-0.031575307,0.1643163,1.2554644,0.5139794,-0.43799192,-1.112817,2.2199528,0.30611703,0.26505956,1.1385078,-1.07621
0.1,-0.1,1.1999999999999997,-0.5235987755982988,0.5235987755982988,0,-0.63854706,1.4307146,-0.7249668,0.04846737,-0.07462271,1.2275529,0.6014104,-0.43949908,-1.1127799,2.228374,0.2944995,0.040002618,1.231182,-0.21894875
0.1,-0.1,1.1999999999999997,-0.5235987755982988,0.5235987755982988,0,-0.64248365,1.4724625,-0.670148,0.02366854,0.036040068,1.0738755,0.30842447,-0.44245347,-1.1117034,2.227204,0.30508015,-0.06700952,1.2166551,0.043731585
0.1,-0.1,1.1999999999999997,-0.5235987755982988,0.5235987755982988,0,-0.6444914,1.4844763,-0.5876432,0.024994606,-0.040732834,1.2708795,0.5193355,-0.44043735,-1.1100724,2.2255223,0.32167482,0.032481175,1.2347808,1.0407945
0.1,-0.1,1.1999999999999997,-0.5235987755982988,0.5235987755982988,0,-0.63683695,1.5009522,-0.6072209,-0.049324512,0.31402972,1.0928159,0.0034980995,-0.440537,-1.1114019,2.2234066,0.29423338,0.18764041,1.2969384,-0.50500906
0.1,-0.1,1.1999999999999997,-0.5235987755982988,0.5235987755982988,0,-0.6340852,1.4946078,-0.5894455,0.043728724,0.18789874,1.0662308,0.110479474,-0.44006765,-1.1142216,2.2215972,0.31119055,0.124550544,1.2200326,-0.19690786
0.1,-0.1,1.1999999999999997,-0.5235987755982988,0.5235987755982988,0,-0.6368555,1.5176501,-0.59236866,-0.035061594,0.20073669,1.0825763,1.1929122,-0.43864438,-1.1153431,2.2275083,0.29539448,0.021671811,1.1968051,-0.2039539
0.1,-0.1,1.1999999999999997,-0.5235987755982988,0.5235987755982988,0,-0.6423882,1.494305,-0.8108144,0.0017323827,0.032585863,1.2971598,-0.6512336,-0.44058788,-1.1141526,2.2218947,0.2988694,0.14062998,1.1017762,-0.1627881
0.1,-0.1,1.1999999999999997,-0.5235987755982988,0.5235987755982988,0,-0.6455998,1.5434188,-0.5984165,0.023803135,-0.0084317755,1.3131205,1.1019015,-0.4403551,-1.1130601,2.2339628,0.3100907,-0.057196643,1.3017992,-0.29978237
0.1,-0.1,1.1999999999999997,-0.5235987755982988,0.5235987755982988,0,-0.6389741,1.4958205,-0.89363134,-0.034087904,0.12717168,1.1714634,-0.14658773,-0.44106334,-1.1151676,2.2245998,0.288901,0.18175147,1.1778396,0.017551538
0.1,-0.1,1.1999999999999997,-0.5235987755982988,0.5235987755982988,0,-0.6454817,1.4758887,-0.78820544,-0.07415214,0.0076197297,1.0850501,-0.9123754,-0.44093943,-1.1144571,2.2254612,0.3143773,0.07323662,1.1607273,0.40022057
0.1,-0.1,1.1999999999999997,-0.5235987755982988,0.5235987755982988,0,-0.6321881,1.5045536,-0.8709202,-0.0102773495,0.014273908,1.3885331,-0.78832895,-0.44191536,-1.112277,2.2208195,0.29950798,0.006249969,1.207351,-0.30598968
0.1,-0.1,1.1999999999999997,-0.5235987755982988,0.5235987755982988,0,-0.64272004,1.4910167,-0.67019284,0.066493005,0.051419348,1.1775744,0.9139286,-0.44188267,-1.1141104,2.2282176,0.30887341,0.13074234,1.2948229,0.13587937
0.1,-0.1,1.1999999999999997,-0.5235987755982988,0.5235987755982988,0,-0.64334995,1.4846847,-0.66391015,0.0021737062,-0.027003188,1.1587771,0.28512773,-0.4414916,-1.1119654,2.2290134,0.2970271,0.036657553,1.1586287,-0.41194558
0.1,-0.1,1.1999999999999997,-0.5235987755982988,0.5235987755982988,0,-0.6363526,1.4278766,-0.72964346,0.016446292,-0.036108334,1.049737,1.0579426,-0.4406706,-1.1140019,2.235992,0.3130643,0.08193107,1.2650646,-0.009957012
0.1,-0.1,1.1999999999999997,-0.5235987755982988,0.5235987755982988,0,-0.63630193,1.5341119,-0.535565,-0.012654178,-0.046044055,1.2274135,0.6341573,-0.4402432,-1.1130155,2.2155411,0.27992555,0.10109112,1.2373589,-0.62103266
0.1,-0.1,1.1999999999999997,-0.5235987755982988,0.5235987755982988,0,-0.6422833,1.5248036,-0.5608168,-0.06916978,0.062843405,1.1538833,-0.74125296,-0.4416383,-1.113133,2.2253118,0.29379863,0.08006964,1.2596947,-0.08163802
0.1,-0.1,1.1999999999999997,-0.5235987755982988,0.5235987755982988,0,-0.63208175,1.4800371,-0.7816274,-0.09952295,-0.01901726,1.1745185,0.85130584,-0.43981826,-1.1135693,2.2242827,0.31428885,0.10071987,1.2288859,-0.945717
0.1,-0.1,1.1999999999999997,-0.5235987755982988,0.5235987755982988,0,-0.634489,1.521615,-0.6078283,-0.050080948,0.03549976,1.061513,-0.56065655,-0.44035244,-1.1139216,2.2328737,0.29739186,-0.08774244,1.2948372,0.3367524
0.1,-0.1,1.1999999999999997,-0.5235987755982988,0.5235987755982988,0,-0.6346372,1.513932,-0.5217296,-0.005389562,0.1277916,1.285098,0.9321835,-0.44114053,-1.1141582,2.2203462,0.2920306,0.240152,1.2030679,0.24066275
0.1,-0.1,1.1999999999999997,-0.5235987755982988,0.5235987755982988,0,-0.6297008,1.4380244,-0.60411525,-0.036525853,0.21329536,1.21069,1.4416716,-0.4411346,-1.1129564,2.2269132,0.28426027,-0.080001056,1.2766101,-0.57563066
0.1,-0.1,1.1999999999999997,-0.5235987755982988,0.5235987755982988,0,-0.62905824,1.5182364,-0.44811735,-0.01851461,0.01569496,1.1534518,1.0105202,-0.44382796,-1.1112196,2.2233636,0.31861588,0.14649275,1.3579671,-0.16165102
0.1,-0.1,1.1999999999999997,-0.5235987755982988,0.5235987755982988,0,-0.64115816,1.5237426,-0.5476479,-0.0044784844,0.08386363,1.2439619,-0.27554178,-0.43875667,-1.1121984,2.2269173,0.28765595,-0.05769749,1.1782254,-0.40909567
0.1,-0.1,1.1999999999999997,-0.5235987755982988,0.5235987755982988,0,-0.6442213,1.5002242,-0.7725302,0.018579496,-0.058988333,1.1738122,0.16209848,-0.4416944,-1.1154094,2.2230816,0.28034973,0.095013775,1.1923106,-0.23176846
0.1,-0.1,1.1999999999999997,-0.5235987755982988,0.5235987755982988,0,-0.6285245,1.5245813,-0.698917,-0.024860043,-0.07538145,1.2760125,1.0636557,-0.44078228,-1.1139483,2.2204437,0.294495,0.011426962,1.3749051,-0.24697378
0.1,-0.1,1.1999999999999997,-0.5235987755982988,0.5235987755982988,0,-0.6287123,1.5288436,-0.5728546,-0.048888102,0.05439138,1.3090003,0.12926666,-0.4409756,-1.1137124,2.2193048,0.31533074,-0.051725276,1.2126051,-0.46811792
0.1,-0.1,1.1999999999999997,-0.5235987755982988,0.5235987755982988,0,-0.6363065,1.4324567,-0.6996149,-0.069598556,-0.102434,1.195978,-0.43880668,-0.44167218,-1.114014,2.2259142,0.30692184,0.10545157,1.2173531,-0.035085514
0.1,-0.1,1.1999999999999997,-0.5235987755982988,0.5235987755982988,0,-0.629767,1.5438585,-0.7103694,-0.023181317,0.049134452,1.1974354,-0.25101218,-0.44094613,-1.112501,2.2210217,0.30751076,0.031805668,1.1974368,-0.2776272
0.1,-0.1,1.1999999999999997,-0.5235987755982988,0.5235987755982988,0,-0.6351106,1.5296857,-0.74528396,0.025848918,0.16725527,1.1903973,0.6743621,-0.4428774,-1.1108252,2.2257192,0.283034,0.06754996,1.1313875,0.42268026
0.1,-0.1,1.1999999999999997,-0.5235987755982988,0.5235987755982988,0,-0.6322915,1.5400193,-0.7500637,-0.07378378,0.050344672,1.1307883,1.0132364,-0.44018167,-1.111938,2.2220814,0.2707152,0.027418632,1.237583,0.844077
0.1,-0.1,1.1999999999999997,-0.5235987755982988,0.5235987755982988,0,-0.6229537,1.4992831,-0.76909834,0.005331922,0.25059664,1.0776198,0.6255848,-0.44042745,-1.1125888,2.2194192,0.29588678,0.033438426,1.257929,-0.5698177
0.1,-0.1,1.1999999999999997,-0.5235987755982988,0.5235987755982988,0,-0.6284338,1.5099571,-0.7164309,-0.07502168,-0.12870541,1.2896026,-0.9080602,-0.44241437,-1.1132448,2.2194371,0.3149141,0.07992976,1.2926701,-0.6850488
0.1,-0.1,1.1999999999999997,-0.5235987755982988,0.5235987755982988,0,-0.6315095,1.5488825,-0.71675843,0.10894359,0.061325498,1.2067747,-0.015693989,-0.44293904,-1.1125134,2.2242858,0.28896463,-0.05617538,1.2283921,-0.8941263
0.1,-0.1,1.1999999999999997,-0.5235987755982988,0.5235987755982988,0,-0.64227086,1.4942483,-0.62617123,-0.02660093,0.16626346,1.1906408,0.5110196,-0.44211167,-1.1148461,2.222771,0.28405252,-0.10761134,1.1556022,0.11216251
0.1,-0.1,1.1999999999999997,-0.5235987755982988,0.5235987755982988,0,-0.6283089,1.4858687,-0.6538334,-0.017883662,0.0015026148,1.1103462,-0.14748955,-0.44019717,-1.1125633,2.2251067,0.28942305,0.14658038,1.2290173,0.73173136
0.1,-0.1,1.1999999999999997,-0.5235987755982988,0.5235987755982988,0,-0.6330667,1.4903898,-0.7705687,-0.027138261,0.019437043,1.2749269,-0.040985398,-0.4395524,-1.113055,2.2293713,0.2893818,0.14922851,1.1374947,-0.98270714
0.1,-0.1,1.1999999999999997,-0.5235987755982988,0.5235987755982988,0,-0.63507056,1.519165,-0.6984449,0.053407297,-0.027614972,1.2053294,-0.50279385,-0.44300237,-1.1135222,2.2321954,0.27709883,-0.027057558,1.1422291,-0.48181537
0.1,-0.1,1.1999999999999997,-0.5235987755982988,0.5235987755982988,0,-0.6322174,1.4894826,-0.9251884,-0.022631546,0.13936633,1.1550206,0.2040605,-0.44142422,-1.1157526,2.2250943,0.32553592,0.122880675,1.2626789,-0.7085239
0.1,-0.1,1.1999999999999997,-0.5235987755982988,0.5235987755982988,0,-0.62561196,1.5141357,-0.65414006,-0.03657254,0.13533755,1.0182805,1.1962994,-0.43983728,-1.1129004,2.2284536,0.3221782,0.047503304,1.160866,-0.7160925
0.1,-0.1,1.1999999999999997,-0.5235987755982988,0.5235987755982988,0,-0.6402311,1.4884733,-0.7613799,-0.015689066,0.21351008,1.2552856,0.07820422,-0.44140488,-1.1147385,2.2310681,0.2886154,-0.076136604,1.1344848,-0.2583514
0.1,-0.1,1.1999999999999997,-0.5235987755982988,0.5235987755982988,0,-0.6260142,1.4951897,-0.7090232,-0.06504707,-0.032429937,1.2886667,0.3063161,-0.44135153,-1.1131588,2.2172554,0.27730498,-0.020100506,1.2524673,-0.64167875
0.1,-0.1,1.1999999999999997,-0.5235987755982988,0.5235987755982988,0,-0.62485516,1.521822,-0.58319825,-0.08109258,-0.059620205,1.2461578,-0.8970976,-0.4409837,-1.1113745,2.2274528,0.31089553,-0.1864945,1.2657979,-0.7683449
0.1,-0.1,1.1999999999999997,-0.5235987755982988,0.5235987755982988,0,-0.63364345,1.4992038,-0.5087116,-0.102943875,-0.17701136,1.0342911,-0.12424592,-0.43996108,-1.1137073,2.2271206,0.29535934,0.07429921,1.2502457,0.65178144
0.1,-0.1,1.1999999999999997,-0.5235987755982988,0.5235987755982988,0,-0.63569814,1.5454115,-0.60713696,0.06174094,-0.102990955,1.1952965,0.66188383,-0.4395353,-1.114714,2.2261717,0.27712983,0.03428952,1.2519084,-0.28073916
0.1,-0.1,1.1999999999999997,-0.5235987755982988,0.5235987755982988,0,-0.63707685,1.5388868,-0.5358623,-0.0710586,0.010164382,1.235497,-0.91283435,-0.43912202,-1.1132545,2.2247345,0.3456186,0.025727632,1.2338862,0.23679869
0.1,-0.1,1.1999999999999997,-0.5235987755982988,0.5235987755982988,0,-0.63427,1.4547253,-0.54460317,-0.0046423133,-0.0042600427,1.2119557,0.1416915,-0.44129357,-1.1144638,2.2134502,0.3345184,-0.043539923,1.1765078,0.39953384
0.1,-0.1,1.1999999999999997,-0.5235987755982988,0.5235987755982988,0,-0.6323067,1.5335658,-0.68896645,0.08050683,0.025369411,1.226172,0.15233508,-0.4410996,-1.1112992,2.2212884,0.31008464,0.0919879,1.213575,0.059567887
0.1,-0.1,1.1999999999999997,-0.5235987755982988,0.5235987755982988,0,-0.6408885,1.4998704,-0.6368952,0.033477,-0.07100403,1.3728915,0.08613221,-0.44286582,-1.1129909,2.2285018,0.2866687,0.0781537,1.2084373,0.41153085
0.1,-0.1,1.1999999999999997,-0.5235987755982988,0.5235987755982988,0,-0.62929595,1.4777832,-0.65455323,0.012442177,0.40419737,1.1846989,-0.9295333,-0.44166157,-1.1127766,2.2228243,0.33188084,0.07040017,1.2461841,0.2860013
0.1,-0.1,1.1999999999999997,-0.5235987755982988,0.5235987755982988,0,-0.63623524,1.4386172,-0.7460945,-0.031569462,0.27817634,1.0945412,-0.3983394,-0.44202766,-1.1126707,2.223222,0.27253783,0.09950726,1.163606,-0.71851856
0.1,-0.1,1.1999999999999997,-0.5235987755982988,0.5235987755982988,0,-0.6442181,1.5121683,-0.48153472,-0.05129852,0.23313785,1.1559523,0.054374356,-0.44040048,-1.1151227,2.2195249,0.29745778,0.1383908,1.2504591,0.42398274
0.1,-0.1,1.1999999999999997,-0.5235987755982988,0.5235987755982988,0,-0.6245298,1.4935615,-0.69584846,0.022565959,-0.054283325,1.2645591,0.0044860984,-0.44183585,-1.1127009,2.2222881,0.3177292,0.18080442,1.3084719,-0.26053724
0.1,-0.1,1.1999999999999997,-0.5235987755982988,0.5235987755982988,0,-0.63042605,1.4880105,-0.68154866,-0.0763411,-0.08339176,1.1509987,1.0014242,-0.44147578,-1.1143066,2.223496,0.27832508,0.10157843,1.1688061,-0.3805848
0.1,-0.1,1.1999999999999997,-0.5235987755982988,0.5235987755982988,0,-0.6309513,1.4681517,-0.7107903,-0.041474592,0.14350875,1.1715957,-0.125241,-0.44077623,-1.1134197,2.2313032,0.29227182,0.0871668,1.2213913,0.08175497
0.1,-0.1,1.1999999999999997,-0.5235987755982988,0.5235987755982988,0,-0.6350308,1.5002863,-0.6087953,0.04549317,0.12649919,1.0278454,0.27398667,-0.44041836,-1.113537,2.2372234,0.2761764,0.09459163,1.2456225,-1.0441501
0.1,-0.1,1.1999999999999997,-0.5235987755982988,0.5235987755982988,0,-0.63382953,1.5257498,-0.64940715,-0.022708813,0.1795985,1.1936501,-0.9593974,-0.44134355,-1.1123421,2.2347798,0.30428827,0.15091735,1.2652037,0.44888866
0.1,-0.1,1.1999999999999997,-0.5235987755982988,0.5235987755982988,0,-0.63664687,1.5639194,-0.5969324,-0.053158954,0.13728324,1.1356002,0.44625047,-0.44111952,-1.1126208,2.2202237,0.29617274,-0.041026954,1.1936781,-0.27097937
0.1,-0.1,1.1999999999999997,-0.5235987755982988,0.5235987755982988,0,-0.63349044,1.5148605,-0.8447684,-0.10840538,0.21008243,1.1914626,1.2000587,-0.44267944,-1.1150129,2.212314,0.29622203,-0.008573259,1.2169482,-0.5233052
0.1,-0.1,1.1999999999999997,-0.5235987755982988,0.5235987755982988,0,-0.6387511,1.4797499,-0.6378278,-0.015503661,-0.07167792,1.0914842,0.72855705,-0.44145626,-1.1096146,2.2214918,0.29763716,0.24102955,1.2179917,-0.12340048
0.1,-0.1,1.1999999999999997,-0.5235987755982988,0.5235987755982988,0,-0.6362823,1.4569051,-0.57474124,-0.05542256,0.03988002,1.2386628,1.0605146,-0.44199887,-1.1132014,2.224762,0.30937666,0.20149043,1.2371155,-0.35918915
0.1,-0.1,1.1999999999999997,-0.5235987755982988,0.5235987755982988,0,-0.6366496,1.4120823,-0.64530927,-0.07629388,-0.06303111,1.166543,0.4649051,-0.44097427,-1.1141815,2.2246337,0.31902897,0.057103,1.1293988,0.0028711795
0.1,-0.1,1.1999999999999997,-0.5235987755982988,0.5235987755982988,0,-0.6399964,1.448927,-0.5903915,0.013805435,-0.027039979,1.2180592,-0.2503377,-0.44096187,-1.1131839,2.2232645,0.32519552,-0.10577466,1.2661476,-0.90055007
0.1,-0.1,1.1999999999999997,-0.5235987755982988,0.5235987755982988,0,-0.63094723,1.4948694,-0.6020397,0.03746361,0.21679251,1.0903581,1.0844569,-0.44253248,-1.1089895,2.2157094,0.321895,0.068193324,1.1820304,-0.38229114
0.1,-0.1,1.1999999999999997,-0.5235987755982988,0.5235987755982988,0,-0.6340724,1.4903878,-0.54329956,0.012994211,0.083832316,1.2592974,0.9690335,-0.43954036,-1.112943,2.2255962,0.31968626,0.010158047,1.3111327,-1.0457847
0.1,-0.1,1.1999999999999997,-0.5235987755982988,0.5235987755982988,0,-0.64037734,1.4982952,-0.6856491,-0.09880705,0.05113384,1.2248226,-0.38133144,-0.44159883,-1.1149932,2.2235012,0.30820376,0.128764,1.2947298,-0.39047918
0.1,-0.1,1.1999999999999997,-0.5235987755982988,0.5235987755982988,0,-0.6384532,1.4880211,-0.7600281,0.015314868,0.06196124,1.2446053,0.10140407,-0.43960997,-1.1127884,2.23142,0.29805025,-0.00871772,1.0957876,0.06641577
0.1,-0.1,1.1999999999999997,-0.5235987755982988,0.5235987755982988,0,-0.6394091,1.453749,-0.6529794,-0.042662736,0.15100317,1.2066184,0.8728733,-0.4409383,-1.1144916,2.218963,0.33566874,0.029056992,1.1072669,-0.27360818
0.1,-0.1,1.1999999999999997,-0.5235987755982988,0.5235987755982988,0,-0.62634796,1.5407953,-0.60863113,0.06646224,0.12563434,1.228475,0.45082772,-0.43990123,-1.1125811,2.226791,0.31240687,0.101665266,1.1953195,0.29577738
0.1,-0.1,1.1999999999999997,-0.5235987755982988,0.5235987755982988,0,-0.6299327,1.4234682,-0.56046593,0.021428173,-0.0340697,1.2546465,1.3004397,-0.43982038,-1.1120234,2.230435,0.346427,0.080086105,1.053143,-0.9841771
0.1,-0.1,1.1999999999999997,-0.5235987755982988,0.5235987755982988,0,-0.62844855,1.4359789,-0.6220832,0.111529864,0.042311877,1.019756,-0.39268646,-0.43990436,-1.1130706,2.2275536,0.30718803,0.0043364833,1.228534,-0.07606502
0.1,-0.1,1.1999999999999997,-0.5235987755982988,0.5235987755982988,0,-0.62719107,1.5095068,-0.66774106,-0.013170107,0.0037281893,1.2204847,-1.7730931,-0.44242465,-1.1119837,2.2230475,0.3074632,0.20030244,1.2834773,-0.32990342
0.1,-0.1,1.1999999999999997,-0.5235987755982988,0.5235987755982988,0,-0.63597566,1.5581638,-0.7361175,-0.019916022,-0.057438955,1.2530555,0.46221632,-0.4397002,-1.1140641,2.2298691,0.31169358,0.3019314,1.2507759,0.07679421
0.1,-0.1,1.1999999999999997,-0.5235987755982988,0.5235987755982988,0,-0.6336405,1.4679297,-0.44804174,0.061950058,-0.017872438,1.2045884,0.8710496,-0.439449,-1.1138414,2.2300107,0.24823248,0.11125628,1.3070635,-0.3107522
0.1,-0.1,1.1999999999999997,-0.5235987755982988,0.5235987755982988,0,-0.6328737,1.5301156,-0.6648717,0.031045362,0.0871253,1.1557325,0.9278609,-0.44257697,-1.114224,2.2366376,0.28556624,0.104704835,1.2901499,-0.0046584303
0.1,-0.1,1.1999999999999997,-0.5235987755982988,0.5235987755982988,0,-0.622958,1.515254,-0.55896014,0.13116232,0.030910458,1.2108778,0.846495,-0.44217575,-1.1137844,2.2263684,0.2991248,-0.036827568,1.1652588,-0.7844096
0.1,-0.1,1.1999999999999997,-0.5235987755982988,0.5235987755982988,0,-0.6419588,1.4899306,-0.90177894,0.03830827,0.039630827,1.0331388,-0.8838299,-0.44050616,-1.1108679,2.2179012,0.28917983,-0.04725206,1.1680487,0.5381593
0.1,-0.1,1.1999999999999997,-0.5235987755982988,0.5235987755982988,0,-0.6341999,1.5476716,-0.69343877,0.0060507273,0.26755908,1.0575858,2.189789,-0.4425116,-1.1117733,2.2205276,0.28722617,0.0704679,1.1766224,-0.16454326
0.1,-0.1,1.1999999999999997,-0.5235987755982988,0.5235987755982988,0,-0.63189626,1.5146667,-0.53071594,-0.07386093,0.3413919,1.1168321,0.39507663,-0.44186375,-1.1115594,2.2242427,0.2809475,-0.18445788,1.2253755,-0.4083618
0.1,-0.1,1.1999999999999997,-0.5235987755982988,0.5235987755982988,0,-0.62507254,1.4578404,-0.6182918,0.07897661,-0.10204435,1.166025,0.6544603,-0.44130844,-1.1112916,2.2237308,0.2747545,-0.048203625,1.2305245,-1.3510857
0.1,-0.1,1.1999999999999997,-0.5235987755982988,0.5235987755982988,0,-0.63091433,1.4923491,-0.61019695,-0.038777485,0.10484169,1.2577393,-0.8507628,-0.44104365,-1.1146325,2.2143488,0.29474574,0.012682251,1.2327065,-0.15640283
0.1,-0.1,1.1999999999999997,-0.5235987755982988,0.5235987755982988,0,-0.6371845,1.4674888,-0.6125758,0.0875258,0.12204314,1.1644158,0.83957446,-0.44138232,-1.114085,2.226301,0.30689856,-0.06690941,1.208919,-0.13944854
0.1,-0.1,1.1999999999999997,-0.5235987755982988,0.5235987755982988,0,-0.6283836,1.5113783,-0.64190614,-0.048572794,0.21849898,1.1766039,-0.2494315,-0.4419668,-1.1127285,2.2270668,0.31585672,0.1354256,1.2152492,0.196939
0.1,-0.1,1.1999999999999997,-0.5235987755982988,0.5235987755982988,0,-0.63735086,1.5903265,-0.65779465,0.008400836,-0.08415132,1.2170287,-0.17068121,-0.44142744,-1.1147436,2.221708,0.30076796,0.06833216,1.300465,-0.27324098
0.1,-0.1,1.1999999999999997,-0.5235987755982988,0.5235987755982988,0,-0.631632,1.4862815,-0.36588332,0.055263106,0.18001406,1.1501935,0.6901412,-0.44286412,-1.1126502,2.2250068,0.30714902,0.048311155,1.3218756,-1.5299138
0.1,-0.1,1.1999999999999997,-0.5235987755982988,0.5235987755982988,0,-0.6240354,1.4768472,-0.8356126,-0.021313602,0.057192553,1.0925205,-0.18098815,-0.44157252,-1.113679,2.223733,0.28461087,-0.18533203,1.1348901,0.3435183
0.1,-0.1,1.1999999999999997,-0.5235987755982988,0.5235987755982988,0,-0.6313661,1.5294813,-0.70722467,0.09595575,-0.0029604216,1.2178867,0.43169352,-0.43887112,-1.114798,2.2194011,0.27930355,0.14865954,1.1064354,-0.57581294
0.1,-0.1,1.1999999999999997,-0.5235987755982988,0.5235987755982988,0,-0.63531184,1.5209814,-0.6927642,-0.008667191,0.3290235,1.2426878,0.9267644,-0.44208622,-1.1101177,2.2283666,0.30931827,0.0109539395,1.2857323,-1.5067458
0.1,-0.1,1.1999999999999997,-0.5235987755982988,0.5235987755982988,0,-0.6396009,1.4665836,-0.6415931,-0.036290843,0.1877401,1.0479956,-0.41619107,-0.4408329,-1.1130565,2.2238553,0.32453203,0.16021815,1.1508312,-0.82437146
0.1,-0.1,1.1999999999999997,-0.5235987755982988,0.5235987755982988,0,-0.6399078,1.4802972,-0.8559948,0.025916917,0.2657548,1.1900895,-0.85048085,-0.44278032,-1.1122388,2.219069,0.2916414,0.22874703,1.2205845,-0.18852173
0.1,-0.1,1.1999999999999997,-0.5235987755982988,0.5235987755982988,0,-0.6317972,1.5017537,-0.6857083,-0.106975466,0.18078445,1.2535813,0.62351584,-0.44137844,-1.1143891,2.2277985,0.30845296,0.06645037,1.1760615,-0.7873761
0.1,-0.1,1.1999999999999997,-0.5235987755982988,0.5235987755982988,0,-0.6398104,1.5044738,-0.6118928,0.016986383,0.1583073,1.220442,0.14707996,-0.44173387,-1.1142063,2.2174945,0.30862072,0.07189729,1.2048228,0.05607166
0.1,-0.1,1.1999999999999997,-0.5235987755982988,0.5235987755982988,0,-0.6415193,1.5223944,-0.76499385,-0.16079368,-0.0040259087,1.1774514,-0.43414393,-0.44288316,-1.1124015,2.2259345,0.32628012,-0.05183541,1.2743579,1.0441213
0.1,-0.1,1.1999999999999997,-0.5235987755982988,0.5235987755982988,0,-0.6430537,1.5278078,-0.53154486,-0.050441265,0.23909001,1.245515,0.30632538,-0.44229445,-1.1143564,2.2251787,0.3386037,-0.0065794257,1.2500397,-0.15909593
0.1,-0.1,1.1999999999999997,-0.5235987755982988,0.5235987755982988,0,-0.6263942,1.4924624,-0.70274127,-0.08436172,-0.14382388,1.1030306,-1.0763427,-0.44013736,-1.1109053,2.2230766,0.29910123,0.097494826,1.1963958,0.1806526
0.1,-0.1,1.1999999999999997,-0.5235987755982988,0.5235987755982988,0,-0.63612425,1.4739332,-0.8041761,-0.002446947,0.053981826,1.1088258,0.48030773,-0.4437423,-1.1127853,2.2208133,0.2986599,0.036783822,1.1940324,-0.6786258
0.1,-0.1,1.1999999999999997,-0.5235987755982988,0.5235987755982988,0,-0.63411105,1.4466978,-0.5437851,0.0507151,0.08184163,1.1480324,0.59153014,-0.44135672,-1.1126984,2.225666,0.28646484,0.0963401,1.1695383,-0.24950778
0.1,-0.1,1.1999999999999997,-0.5235987755982988,0.5235987755982988,0,-0.6458755,1.5071056,-0.6522832,-0.015210057,0.0070129368,1.3568758,-0.8753246,-0.44245413,-1.1133163,2.2357316,0.31205618,0.12973744,1.363362,-0.35801288
0.1,-0.1,1.1999999999999997,-0.5235987755982988,0.5235987755982988,0,-0.646825,1.4485567,-0.6323997,0.033536647,-0.0032226657,1.1488309,-1.0910573,-0.441017,-1.1151739,2.2196887,0.3340856,0.14059763,1.2791651,-0.5976775
0.1,-0.1,1.1999999999999997,-0.5235987755982988,0.5235987755982988,0,-0.64186114,1.5240815,-0.63885796,0.06477778,-0.0038708826,1.2542611,1.2874055,-0.44006202,-1.1150703,2.225977,0.31699744,0.15022655,1.2488655,0.48710296
0.1,-0.1,1.1999999999999997,-0.5235987755982988,0.5235987755982988,0,-0.6272147,1.5020757,-0.7768514,-0.073476784,-0.058305588,1.119813,-1.32461,-0.4418051,-1.1140908,2.2309053,0.3113807,-0.034339294,1.17917,-0.027801245
0.1,-0.1,1.1999999999999997,-0.5235987755982988,0.5235987755982988,0,-0.6304754,1.4779538,-0.70867693,0.01934516,0.0014271163,1.1845226,1.3147844,-0.44250086,-1.1156492,2.2269228,0.28152695,0.18315874,1.2201326,1.040295
0.1,-0.1,1.1999999999999997,-0.5235987755982988,0.5235987755982988,0,-0.6389954,1.3901579,-0.7169121,0.10182451,0.046631027,1.1751966,1.5582341,-0.44083074,-1.1127987,2.223725,0.2993528,0.025552856,1.1813674,-0.3727846
0.1,-0.1,1.1999999999999997,-0.5235987755982988,0.5235987755982988,0,-0.63775533,1.5421911,-0.7147502,0.050423227,0.027596513,1.0260893,-0.65519345,-0.44135478,-1.1138304,2.2238128,0.3236347,0.021291424,1.2120619,-0.90847844
0.1,-0.1,1.1999999999999997,-0.5235987755982988,0.5235987755982988,0,-0.6322349,1.4980046,-0.8547552,0.030284863,0.01822825,1.102682,-0.8518643,-0.44226834,-1.1114606,2.2270925,0.3261404,-0.026319042,1.1909629,0.28687945
0.1,-0.1,1.1999999999999997,-0.5235987755982988,0.5235987755982988,0,-0.6432282,1.4598246,-0.7293833,-0.012933481,0.11478422,1.1733305,0.67136484,-0.44216082,-1.1143568,2.2206118,0.3080033,0.041716542,1.1734955,0.2146895
0.1,-0.1,1.1999999999999997,-0.5235987755982988,0.5235987755982988,0,-0.6365675,1.5335926,-0.611477,0.053947907,0.009738835,1.2845691,1.9807826,-0.44076794,-1.1107665,2.2195106,0.28833336,0.1625628,1.1020534,-0.20072523
0.1,-0.1,1.1999999999999997,-0.5235987755982988,0.5235987755982988,0,-0.6446545,1.4983126,-0.6873063,-0.040323276,0.21879074,1.0061731,0.06919976,-0.44140166,-1.112878,2.2281966,0.3319657,-0.08456159,1.113147,0.35376602
0.1,-0.1,1.1999999999999997,-0.5235987755982988,0.5235987755982988,0,-0.6382172,1.5203364,-0.6525597,-0.074017145,0.27370235,1.2536501,-0.86021656,-0.44156405,-1.1117039,2.2251327,0.29549766,0.13083203,1.1992885,-1.2588643
0.1,-0.1,1.1999999999999997,-0.5235987755982988,0.5235987755982988,0,-0.6322591,1.5059888,-0.5030453,-0.06574178,0.07270087,1.2249563,1.3969804,-0.4441712,-1.1126231,2.2290742,0.3074507,0.09388248,1.2808094,-0.0870846
0.1,-0.1,1.1999999999999997,-0.5235987755982988,0.5235987755982988,0,-0.63139886,1.4667788,-0.61788845,-0.013279828,0.050805643,1.0906025,0.5863226,-0.44003126,-1.1128638,2.2196643,0.2819663,-0.10398802,1.2913234,-0.5190849
0.1,-0.1,1.1999999999999997,-0.5235987755982988,0.5235987755982988,0,-0.63457906,1.4734296,-0.79428715,-0.025763925,0.021005573,1.1401649,1.2633384,-0.4415824,-1.1139188,2.221797,0.3136391,0.054178428,1.2126819,-0.29711005
0.1,-0.1,1.1999999999999997,-0.5235987755982988,0.5235987755982988,0,-0.63169783,1.4558157,-0.7377714,-0.04003693,-0.09014117,1.1623764,-0.41900602,-0.4411943,-1.1137516,2.2266142,0.31606695,-0.1548094,1.2186161,-1.0394331
0.1,-0.1,1.1999999999999997,-0.5235987755982988,0.5235987755982988,0,-0.62628657,1.5071617,-0.5595416,-0.03596017,0.18912728,1.1785467,0.6108591,-0.44123974,-1.1135848,2.2217977,0.35520637,0.10166162,1.1481551,0.49517387
0.1,-0.1,1.1999999999999997,-0.5235987755982988,0.5235987755982988,0,-0.62215495,1.434262,-0.69873846,-0.053148203,-0.03172113,1.3226852,0.13893443,-0.44156218,-1.1156912,2.2230482,0.30658883,0.14859742,1.1834186,-0.7377848
0.1,-0.1,1.1999999999999997,-0.5235987755982988,0.5235987755982988,0,-0.63307446,1.5343406,-0.65787244,-0.065047555,0.2014633,1.0292971,-0.14636935,-0.44269145,-1.1127174,2.2256162,0.30257377,-0.13047959,1.2010971,0.10516251
0.1,-0.1,1.1999999999999997,-0.5235987755982988,0.5235987755982988,0,-0.6282692,1.5020951,-0.6433675,-0.044264585,0.16667701,1.0583216,0.6333634,-0.44247118,-1.1126734,2.224217,0.315601,0.052445512,1.113208,0.20666046
0.1,-0.1,1.1999999999999997,-0.5235987755982988,0.5235987755982988,0,-0.6309686,1.4965976,-0.6570025,0.033352822,-0.08818007,0.9896218,0.18390235,-0.43957007,-1.1114485,2.22523,0.28837758,0.2690527,1.1789372,-0.5477385
0.1,-0.1,1.1999999999999997,-0.5235987755982988,0.5235987755982988,0,-0.6235282,1.4878944,-0.5867275,-0.005572742,-0.08059874,1.140925,0.21386126,-0.44218934,-1.115496,2.223591,0.2883615,0.056020916,1.1495376,0.015615225
0.1,-0.1,1.1999999999999997,-0.5235987755982988,0.5235987755982988,0,-0.63285947,1.4779046,-0.4779704,0.0076814387,-0.035763074,1.0091474,-0.45093492,-0.44067794,-1.110758,2.2294326,0.3397196,0.027831206,1.2225498,-0.013655735
0.1,-0.1,1.1999999999999997,-0.5235987755982988,0.5235987755982988,0,-0.6225214,1.5772263,-0.6839671,-0.06995174,0.12119562,1.004518,0.45179057,-0.44080228,-1.1140046,2.2254221,0.29457602,0.12921293,1.109841,0.20605868
0.1,-0.1,1.1999999999999997,-0.5235987755982988,0.5235987755982988,0,-0.63238394,1.4481753,-0.64084595,-0.024188576,0.05648711,1.0985497,1.2299773,-0.44050154,-1.1126539,2.222228,0.29982814,-0.005419239,1.2457088,-1.2154186
0.1,-0.1,1.1999999999999997,-0.5235987755982988,0.5235987755982988,0,-0.6310839,1.4564041,-0.68348247,-0.020194326,0.14658868,1.2176846,-0.5272763,-0.44159886,-1.1143374,2.2289968,0.3166875,0.07497531,1.2734869,0.09339943
0.1,-0.1,1.1999999999999997,-0.5235987755982988,0.5235987755982988,0,-0.63201374,1.4695679,-0.765302,-0.04416715,-0.004052477,1.1836394,0.021010676,-0.44148043,-1.1114906,2.222713,0.2871115,0.037491724,1.2540193,-0.15901424
0.1,-0.1,1.1999999999999997,-0.5235987755982988,0.5235987755982988,0,-0.62808126,1.5276126,-0.64455634,-0.032534905,0.10791016,1.1746906,-0.12605724,-0.4412407,-1.112378,2.2239003,0.34367523,-0.018469526,1.340628,-0.7717099
0.1,-0.1,1.1999999999999997,-0.5235987755982988,0.5235987755982988,0,-0.6206163,1.5447245,-0.6794706,0.042651843,0.17169489,1.1569592,0.0638891,-0.4403381,-1.1140641,2.221335,0.30089897,-0.055130735,1.265351,-0.4294026
0.1,-0.1,1.1999999999999997,-0.5235987755982988,0.5235987755982988,0,-0.6297477,1.5238773,-0.8470699,-0.017877618,0.14702514,1.1210461,1.5370973,-0.44080138,-1.1151258,2.216365,0.31998122,0.042509135,1.2387233,-0.13927828
0.1,-0.1,1.1999999999999997,-0.5235987755982988,0.5235987755982988,0,-0.63289547,1.5594969,-0.6763147,-0.05741679,-0.09987234,1.2081112,1.482475,-0.4408671,-1.1130145,2.2210548,0.3254741,-0.104389906,1.3491971,-0.16036502
0.1,-0.1,1.1999999999999997,-0.5235987755982988,0.5235987755982988,0,-0.62910855,1.5157006,-0.68994117,0.08571706,0.096860014,1.2284254,0.078881495,-0.44150314,-1.1116946,2.2320065,0.31046283,-0.10545967,1.1540469,0.10709249
0.1,-0.1,1.1999999999999997,-0.5235987755982988,0.5235987755982988,0,-0.63277745,1.4840986,-0.720779,-0.036377016,0.27791962,1.2610687,0.41040215,-0.4427549,-1.1110163,2.2303493,0.3431839,-0.059924018,1.0894406,0.5437211
0.1,-0.1,1.1999999999999997,-0.5235987755982988,0.5235987755982988,0,-0.6335981,1.5237249,-0.86751527,-0.059656806,0.018827178,1.2270417,0.22928654,-0.44189218,-1.1125784,2.2216198,0.30519852,-0.10908225,1.2184564,-0.86240584
0.1,-0.1,1.1999999999999997,-0.5235987755982988,0.5235987755982988,0,-0.62684387,1.4671282,-0.5326983,0.03922084,0.028193444,1.0935497,-0.35049444,-0.4427346,-1.1135437,2.2174532,0.3149492,0.0040315078,1.1957887,0.15312928
0.1,-0.1,1.1999999999999997,-0.5235987755982988,0.5235987755982988,0,-0.63868505,1.4532402,-0.8288871,-0.0026611027,-0.014098193,1.1123023,1.272713,-0.4414637,-1.1093241,2.2160163,0.31775928,0.15985584,1.1466258,-1.3677783
0.1,-0.1,1.1999999999999997,-0.5235987755982988,0.5235987755982988,0,-0.63060486,1.4904987,-0.5914413,0.0071553253,-0.031681873,1.1847275,0.15774536,-0.4417153,-1.1133511,2.2283115,0.29431975,0.054735057,1.1652299,0.08633696
0.1,-0.1,1.1999999999999997,-0.5235987755982988,0.5235987755982988,0,-0.6359644,1.4539385,-0.5772403,0.027692618,-0.101960085,1.0983213,0.9171606,-0.44141564,-1.1126273,2.2233982,0.32131884,0.051687393,1.2980242,-0.8709644
0.1,-0.1,1.1999999999999997,-0.5235987755982988,0.5235987755982988,0,-0.6264761,1.4584407,-0.6299382,0.050913736,0.15700196,1.2536153,0.7162008,-0.44127738,-1.1121652,2.2218363,0.29975718,0.108154,1.2711222,-1.2433387
0.1,-0.1,1.1999999999999997,-0.5235987755982988,0.5235987755982988,0,-0.6373617,1.5317296,-0.53764606,0.05865829,0.15127684,1.1218585,0.017464349,-0.441219,-1.1118803,2.2285104,0.28941756,0.04725049,1.1697907,-0.47387263
0.1,-0.1,1.1999999999999997,-0.5235987755982988,0.5235987755982988,0,-0.63425404,1.4850512,-0.6382017,0.07039399,0.28921163,1.0596576,0.7229829,-0.4408841,-1.1113276,2.2216082,0.28777453,-0.012535191,1.2072899,-0.2097886
0.1,-0.1,1.1999999999999997,-0.5235987755982988,0.5235987755982988,0,-0.63436496,1.4732491,-0.69633037,0.019661065,0.21479578,1.1208868,-0.3467582,-0.44196764,-1.1150868,2.2151468,0.3209902,0.06740658,1.2364879,-0.007875664
0.1,-0.1,1.1999999999999997,-0.5235987755982988,0.5235987755982988,0,-0.62777007,1.4685359,-0.67143226,-0.04329526,0.02967725,1.2959944,0.63867915,-0.4408466,-1.1105176,2.2190697,0.33601356,-0.029288175,1.2520062,-0.33062312
0.1,-0.1,1.1999999999999997,-0.5235987755982988,0.5235987755982988,0,-0.6283903,1.5373423,-0.8238602,0.10043502,0.08422047,1.3275765,-0.06459453,-0.44143596,-1.1112515,2.2225876,0.27064577,0.035236172,1.0987825,-0.73896194
0.1,-0.1,1.1999999999999997,-0.5235987755982988,0.5235987755982988,0,-0.6336242,1.4757227,-0.74533236,0.0027597628,0.010966579,1.1272284,0.9482718,-0.4411269,-1.1131229,2.2232394,0.30871177,0.07243222,1.280125,0.6663606
0.1,-0.1,1.1999999999999997,-0.5235987755982988,0.5235987755982988,0,-0.6414198,1.4734764,-0.80726796,-0.14085929,0.12625891,1.3201106,-0.19255838,-0.44236353,-1.1113559,2.2224433,0.31077173,0.07198057,1.2234169,-0.26108685
0.1,-0.1,1.1999999999999997,-0.5235987755982988,0.5235987755982988,0,-0.63852656,1.5159167,-0.7909706,0.05115355,-0.10418613,1.2864559,0.7518942,-0.44240317,-1.114052,2.2208962,0.32995322,0.16919543,1.2416567,0.24537234
0.1,-0.1,1.1999999999999997,-0.5235987755982988,0.5235987755982988,0,-0.6419133,1.4802628,-0.63483673,0.045796722,0.21041438,1.1915522,-0.036466185,-0.440866,-1.1130738,2.2251492,0.3321271,0.102792256,1.1177547,0.09615867
0.1,-0.1,1.1999999999999997,-0.5235987755982988,0.5235987755982988,0,-0.6286588,1.5380795,-0.85624146,0.01180891,0.15641113,1.1221582,0.29683828,-0.4417549,-1.1129316,2.2305586,0.304411,0.09199131,1.2601634,-0.9300432
0.1,-0.1,1.1999999999999997,-0.5235987755982988,0.5235987755982988,0,-0.63451165,1.4862772,-0.673116,-0.065746434,-0.013651601,1.2331998,-0.015313168,-0.44072038,-1.1121639,2.225479,0.3153384,-0.015986426,1.2727431,-0.94019043
0.1,-0.1,1.1999999999999997,-0.5235987755982988,0.5235987755982988,0,-0.6311954,1.4596565,-0.7354216,0.01628529,0.13548535,1.1063304,0.7488604,-0.4426527,-1.1120149,2.2239187,0.3250608,-0.14559963,1.244115,0.33671194
0.1,-0.1,1.1999999999999997,-0.5235987755982988,0.5235987755982988,0,-0.64340717,1.554509,-0.638217,0.0006558019,0.27410826,1.1406063,1.8218547,-0.4422762,-1.1128027,2.2190015,0.28993684,0.14268883,1.2075279,0.30679232
0.1,-0.1,1.1999999999999997,-0.5235987755982988,0.5235987755982988,0,-0.6312376,1.4962877,-0.6529773,0.08292382,-0.05105754,1.261018,0.23434032,-0.44166726,-1.1117866,2.223101,0.35445523,0.150489,1.1488997,-0.14644428
0.1,-0.1,1.1999999999999997,-0.5235987755982988,0.5235987755982988,0,-0.64732,1.4551995,-0.82431823,-0.016627098,0.016269678,1.2037653,1.0279008,-0.44227305,-1.1125231,2.2226572,0.3151961,0.07931828,1.3236854,-0.46953335
0.1,-0.1,1.1999999999999997,-0.5235987755982988,0.5235987755982988,0,-0.64012027,1.4938366,-0.6145747,-0.09276265,0.040844705,1.1574161,-0.2807113,-0.44149956,-1.1112431,2.2196002,0.31853276,0.013123179,1.086421,-1.2384627
0.1,-0.1,1.1999999999999997,-0.5235987755982988,0.5235987755982988,0,-0.64334923,1.5170139,-0.78061414,0.10140225,0.14179066,1.2711679,0.73861104,-0.4414492,-1.1137645,2.2232022,0.29340225,-0.031578552,1.1932726,-0.40661666
0.1,-0.1,1.1999999999999997,-0.5235987755982988,0.5235987755982988,0,-0.6389255,1.5304518,-0.9300022,0.017658958,0.23256363,1.0997987,-0.117708005,-0.4429931,-1.1141311,2.2281199,0.35679767,-0.10350179,1.2407568,0.51069295
0.1,-0.1,1.1999999999999997,-0.5235987755982988,0.5235987755982988,0,-0.64137036,1.55917,-0.59737504,0.10081725,0.118486814,1.1547133,0.48833147,-0.44121802,-1.1138572,2.2251508,0.3079587,0.0036966838,1.2127165,-0.16681696
0.1,-0.1,1.1999999999999997,-0.5235987755982988,0.5235987755982988,0,-0.64135844,1.5156602,-0.64787674,-0.06431834,0.15301774,1.091014,-1.1479688,-0.44075373,-1.1112939,2.2269695,0.23986353,0.011101614,1.1617321,-1.1202407
0.1,-0.1,1.1999999999999997,-0.5235987755982988,0.5235987755982988,0,-0.6362493,1.4351614,-0.7204668,0.08561157,-0.14933293,1.093535,1.1094116,-0.44217634,-1.1135631,2.226325,0.3294098,0.06543541,1.2126101,0.03788426
0.1,-0.1,1.1999999999999997,-0.5235987755982988,0.5235987755982988,0,-0.6351888,1.4658006,-0.7733588,0.026948111,-0.087291025,1.2663989,-0.75612146,-0.4412662,-1.1137846,2.2204933,0.30976617,0.08195324,1.0896034,-0.66741705
0.1,-0.1,1.1999999999999997,-0.5235987755982988,0.5235987755982988,0,-0.63729674,1.5745387,-0.6351674,0.03706415,0.036736514,1.1401911,-1.1486347,-0.44174162,-1.112345,2.2289932,0.29328674,-0.27037317,1.1420686,0.30039462
0.1,-0.1,1.1999999999999997,-0.5235987755982988,0.5235987755982988,0,-0.63818824,1.5098547,-0.6511426,0.05136706,0.095487855,1.3695534,-0.39142454,-0.4406842,-1.1142333,2.2238965,0.31803268,0.03742673,1.2499079,-0.1886372
0.1,-0.1,1.1999999999999997,-0.5235987755982988,0.5235987755982988,0,-0.6358936,1.4855804,-0.57078856,-0.03657504,0.08422204,1.258101,0.9936313,-0.44280928,-1.1110272,2.2125938,0.32679203,0.17905606,1.2230694,-0.95610136
0.1,-0.1,1.1999999999999997,-0.5235987755982988,0.5235987755982988,0,-0.6300944,1.5146577,-0.74470747,0.05221181,0.18624163,1.3675041,-0.15322462,-0.4413552,-1.1120533,2.2237031,0.30673176,-0.11367938,1.1475016,-0.6945002
0.1,-0.1,1.1999999999999997,-0.5235987755982988,0.5235987755982988,0,-0.6493584,1.5059083,-0.69609714,-0.035433006,-0.06743043,1.077568,-0.95320517,-0.44339335,-1.1135633,2.2277992,0.27591825,-0.065625824,1.1737118,-0.5999374
0.1,-0.1,1.1999999999999997,-0.5235987755982988,0.5235987755982988,0,-0.63798475,1.4774123,-0.79492956,-0.08841019,0.20358206,1.2917559,1.4323173,-0.44147316,-1.1110226,2.2163568,0.32141,-0.053346347,1.2843932,0.072170146
0.1,-0.1,1.1999999999999997,-0.5235987755982988,0.5235987755982988,0,-0.6413638,1.4688886,-0.7104555,-0.0012318123,-0.061989725,1.1731879,-0.86229926,-0.44025743,-1.1121607,2.218026,0.34135786,-0.12531312,1.1747165,-0.65241694
0.1,-0.1,1.1999999999999997,-0.5235987755982988,0.5235987755982988,0,-0.63925326,1.4658934,-0.7700695,0.007544731,0.0010259358,1.2327843,-0.5565849,-0.44130293,-1.1135116,2.2286775,0.27232817,0.032597587,1.1352366,-1.193073
0.1,-0.1,1.1999999999999997,-0.5235987755982988,0.5235987755982988,0,-0.64379925,1.5578719,-0.6367292,-0.060760785,0.16015922,1.3044175,1.560038,-0.44198108,-1.1138061,2.2140477,0.32600686,0.1735897,1.147152,0.033852953
0.1,-0.1,1.1999999999999997,-0.5235987755982988,0.5235987755982988,0,-0.6401852,1.5327685,-0.6947047,-0.02331371,0.19863153,1.1126688,0.86879176,-0.44063514,-1.1140581,2.2178054,0.30791017,0.007065426,1.1874377,-0.9255467
0.1,-0.1,1.1999999999999997,-0.5235987755982988,0.5235987755982988,0,-0.6347114,1.4933187,-0.6734676,0.054156747,0.039042145,1.2273517,0.89523053,-0.44058385,-1.11231,2.227186,0.30432552,-0.14984158,1.1558245,0.38608828
0.1,-0.1,1.1999999999999997,-0.5235987755982988,0.5235987755982988,0,-0.6329997,1.552397,-0.6406855,0.009765538,0.06457657,1.2180619,0.33757815,-0.44191015,-1.1143893,2.2241468,0.3129183,0.14663818,1.2273127,-1.3790942
0.1,-0.1,1.1999999999999997,-0.5235987755982988,0.5235987755982988,0,-0.63534766,1.5176275,-0.66369724,-0.057471864,0.092958786,1.2013364,0.8209588,-0.440533,-1.1106377,2.2278173,0.30263034,-0.0577545,1.2266641,-0.8381253
0.1,-0.1,1.1999999999999997,-0.5235987755982988,0.5235987755982988,0,-0.6396381,1.4441265,-0.6535864,-0.0018261009,-0.002381584,1.2144634,-0.81664777,-0.44189525,-1.1138864,2.217931,0.317463,0.0032922248,1.2122953,-0.3053505
0.1,-0.1,1.1999999999999997,-0.5235987755982988,0.5235987755982988,0,-0.6342812,1.5081981,-0.6021572,-0.02911834,-0.12696166,1.202059,0.65627235,-0.4410696,-1.1143821,2.2266428,0.25750983,-0.040046923,1.2311527,-0.84590447
0.1,-0.1,1.1999999999999997,-0.5235987755982988,0.5235987755982988,0,-0.6263,1.496387,-0.59036773,-0.013883175,0.084676616,1.1575323,1.2164159,-0.44148445,-1.1137391,2.2223735,0.3053626,0.009882647,1.1784316,-0.19872157
0.1,-0.1,1.1999999999999997,-0.5235987755982988,0.5235987755982988,0,-0.64315826,1.457018,-0.54987633,0.10064671,-0.004608015,1.1073356,0.64330834,-0.44133642,-1.1142138,2.2201889,0.33399147,-0.031930152,1.309596,-0.09596029
0.1,-0.1,1.1999999999999997,-0.5235987755982988,0.5235987755982988,0,-0.63086694,1.479016,-0.62932587,-0.019488495,0.10955805,1.2398406,0.056471877,-0.44235817,-1.1144326,2.2275574,0.2820277,-0.011668079,1.252109,-0.6250936
0.1,-0.1,1.1999999999999997,-0.5235987755982988,0.5235987755982988,0,-0.63239795,1.5095588,-0.8381686,0.05066524,0.030129796,1.3168122,0.087329134,-0.44152236,-1.1134471,2.2236314,0.31275848,0.011485376,1.2143631,-1.1191627
0.1,-0.1,1.1999999999999997,-0.5235987755982988,0.5235987755982988,0,-0.6215936,1.5038753,-0.6858442,0.01839136,0.15278606,1.3365728,-0.9455293,-0.43956313,-1.113156,2.2200124,0.30432084,0.08502979,1.181205,0.2294745
0.1,-0.1,1.1999999999999997,-0.5235987755982988,0.5235987755982988,0,-0.63377166,1.4779199,-0.6607481,0.035454124,-0.012631462,1.1844922,0.480719,-0.4427375,-1.1124618,2.2263808,0.3043993,0.05931869,1.2874677,-0.28028873
0.1,-0.1,1.1999999999999997,-0.5235987755982988,0.5235987755982988,0,-0.6406977,1.4800663,-0.6364454,0.018978555,0.0031320613,1.3095853,0.77401376,-0.44150475,-1.1123602,2.2281897,0.30520546,0.11847938,1.2406664,0.109744996
0.1,-0.1,1.1999999999999997,-0.5235987755982988,0.5235987755982988,0,-0.6326399,1.509602,-0.72729045,0.07428265,-0.19037448,1.1449481,-0.5139812,-0.44175205,-1.1123062,2.2266457,0.33872297,0.056350358,1.2486734,-0.19796538
0.1,-0.1,1.1999999999999997,-0.5235987755982988,0.5235987755982988,0,-0.63242936,1.5136096,-0.6169571,0.023099516,0.09608895,1.2583294,0.8445198,-0.4401258,-1.112528,2.221402,0.30185688,0.03412823,1.242761,-0.4454799
0.1,-0.1,1.1999999999999997,-0.5235987755982988,0.5235987755982988,0,-0.6177512,1.5237141,-0.7565084,0.10326847,-0.024897594,1.0789945,-2.032724,-0.44195396,-1.1118759,2.230108,0.3015475,0.08873041,1.2957937,-0.6210946
0.1,-0.1,1.1999999999999997,-0.5235987755982988,0.5235987755982988,0,-0.6317537,1.5052499,-0.74560565,0.06699716,0.014627113,1.1051601,-0.2517655,-0.43989044,-1.1079973,2.2158277,0.32882532,-0.11107592,1.2247019,-0.18280779
0.1,-0.1,1.1999999999999997,-0.5235987755982988,0.5235987755982988,0,-0.64081204,1.5736233,-0.6461151,0.053394783,0.031815153,1.1741431,0.44839242,-0.44138724,-1.1115524,2.2291539,0.30115694,-0.051116616,1.3070241,0.089746356
0.1,-0.1,1.1999999999999997,-0.5235987755982988,0.5235987755982988,0,-0.641496,1.5519754,-0.72278684,0.06310081,0.04929116,1.1650951,1.1978178,-0.44093916,-1.1119972,2.2258828,0.29707366,0.050959803,1.3069961,0.006733407
0.1,-0.1,1.1999999999999997,-0.5235987755982988,0.5235987755982988,0,-0.6316323,1.4836841,-0.78606427,0.030605873,0.06372801,1.151923,0.77142674,-0.43990794,-1.1128081,2.221257,0.3126211,0.018266667,1.2491126,-0.35286778
0.1,-0.1,1.1999999999999997,-0.5235987755982988,0.5235987755982988,0,-0.64101595,1.4722457,-0.7178838,-0.018633295,0.21052521,1.1398726,-0.89396316,-0.44093162,-1.1148947,2.227857,0.31765708,0.14973444,1.126993,-0.6821983
0.1,-0.1,1.1999999999999997,-0.5235987755982988,0.5235987755982988,0,-0.6426085,1.4849087,-0.65943307,0.011889317,-0.12389757,1.2489369,-0.68610466,-0.44064698,-1.1102463,2.228015,0.30730784,-0.016513642,1.2449716,0.5246989
0.1,-0.1,1.1999999999999997,-0.5235987755982988,0.5235987755982988,0,-0.63842064,1.5143512,-0.80996764,-0.008009153,0.09863797,1.2261479,1.5938809,-0.44118327,-1.113888,2.2229025,0.30914068,0.06892935,1.2371099,-0.21422578
0.1,-0.1,1.1999999999999997,-0.5235987755982988,0.5235987755982988,0,-0.63579726,1.6103997,-0.62053263,0.00170154,0.12718847,1.2512624,1.5208501,-0.44265208,-1.1100432,2.225916,0.27999297,-0.008375742,1.2110891,-0.32755867
0.1,-0.1,1.1999999999999997,-0.5235987755982988,0.5235987755982988,0,-0.6404776,1.5488386,-0.6899756,0.09574003,0.016379653,1.1171634,0.18150942,-0.44142824,-1.1115062,2.2305856,0.29959723,0.016014295,1.1248431,-0.06699383
