sanky1234/BimanualDexCatch/isaacgymenvs/cem_results/football_pose_-0.2_0.0_0.7_-0.5235987755982988_-0.5235987755982988_0_2025-05-24.csv
x,y,z,roll,pitch,yaw,robot1/joint1,robot1/joint2,robot1/joint3,robot1/joint4,robot1/joint5,robot1/joint6,robot1/joint7,robot2/joint1,robot2/joint2,robot2/joint3,robot2/joint4,robot2/joint5,robot2/joint6,robot2/joint7
-0.2,0.0,0.7,-0.5235987755982988,-0.5235987755982988,0,0.5953508,1.9792942,0.20185712,-1.0869713,0.5040657,1.5500408,-2.459902,-0.7979455,1.316848,-0.06184457,-0.3400783,0.04371314,1.2129009,1.8826114
-0.2,0.0,0.7,-0.5235987755982988,-0.5235987755982988,0,0.59750336,1.9803588,0.20403269,-1.0781239,0.5016143,1.5464637,-2.4663436,-0.78796995,1.3092035,-0.067260385,-0.33507177,0.036289815,1.2153411,2.1924894
-0.2,0.0,0.7,-0.5235987755982988,-0.5235987755982988,0,0.595844,1.9800572,0.19445385,-1.0778537,0.50350654,1.5507414,-2.446784,-0.7985456,1.315787,-0.055062626,-0.3330013,0.037228934,1.2208393,2.1287873
-0.2,0.0,0.7,-0.5235987755982988,-0.5235987755982988,0,0.5986298,1.9755999,0.20340788,-1.0848272,0.5005209,1.5460165,-2.4605033,-0.7875923,1.314758,-0.054610055,-0.32979044,0.030657059,1.2210785,2.0225296
-0.2,0.0,0.7,-0.5235987755982988,-0.5235987755982988,0,0.600582,1.9735811,0.19504689,-1.0829102,0.49559495,1.5468785,-2.444249,-0.8026477,1.3155804,-0.056010965,-0.3396512,0.039848756,1.2223829,1.9572754
-0.2,0.0,0.7,-0.5235987755982988,-0.5235987755982988,0,0.59850377,1.9806392,0.19362167,-1.0760975,0.50060976,1.5443573,-2.4406223,-0.80192256,1.320368,-0.05961317,-0.32795295,0.050171528,1.2242149,2.1346292
-0.2,0.0,0.7,-0.5235987755982988,-0.5235987755982988,0,0.5963695,1.9769819,0.20389232,-1.0836549,0.49611068,1.5496861,-2.4467587,-0.7923289,1.3247299,-0.06718162,-0.34158346,0.0436575,1.2322811,1.9392649
-0.2,0.0,0.7,-0.5235987755982988,-0.5235987755982988,0,0.5988712,1.978042,0.20270912,-1.0762318,0.50004274,1.5428462,-2.4575493,-0.80191773,1.3148519,-0.06414067,-0.3340408,0.046961367,1.2160295,2.1587808
-0.2,0.0,0.7,-0.5235987755982988,-0.5235987755982988,0,0.5976968,1.9830248,0.20973194,-1.0893409,0.49257985,1.5500854,-2.458236,-0.7909647,1.3155515,-0.05582744,-0.33365017,0.043939017,1.2077628,2.0055912
-0.2,0.0,0.7,-0.5235987755982988,-0.5235987755982988,0,0.5960547,1.9761233,0.20546375,-1.0810741,0.49305177,1.5448064,-2.4697373,-0.8023076,1.3170301,-0.05896502,-0.33225664,0.042720847,1.2403644,2.082581
-0.2,0.0,0.7,-0.5235987755982988,-0.5235987755982988,0,0.60108113,1.9775423,0.20340827,-1.0819923,0.5050426,1.5471879,-2.4567883,-0.79430133,1.3116672,-0.043498233,-0.3338534,0.053952325,1.2170691,2.1407762
-0.2,0.0,0.7,-0.5235987755982988,-0.5235987755982988,0,0.59692425,1.9792732,0.20793633,-1.0828648,0.50112545,1.5472974,-2.4425497,-0.8035459,1.3148844,-0.06469877,-0.32915127,0.03384109,1.2161156,2.1473591
-0.2,0.0,0.7,-0.5235987755982988,-0.5235987755982988,0,0.5945925,1.9759834,0.19874668,-1.082241,0.502851,1.547406,-2.4395587,-0.78015625,1.322337,-0.0535901,-0.33827055,0.031238573,1.2367052,2.1583545
-0.2,0.0,0.7,-0.5235987755982988,-0.5235987755982988,0,0.5943975,1.9781893,0.21266958,-1.0763972,0.500826,1.547966,-2.4452972,-0.8040031,1.3137745,-0.064477935,-0.34420264,0.020068595,1.2191817,2.2087016
-0.2,0.0,0.7,-0.5235987755982988,-0.5235987755982988,0,0.59700733,1.9812222,0.20156078,-1.0805933,0.5020451,1.5465616,-2.4387233,-0.79487514,1.3145449,-0.057188943,-0.32405543,0.035181493,1.2143224,2.2506886
-0.2,0.0,0.7,-0.5235987755982988,-0.5235987755982988,0,0.59563476,1.9751565,0.20031045,-1.0783234,0.49253002,1.5512248,-2.4813528,-0.7940643,1.3202128,-0.06456295,-0.3286746,0.04123226,1.1881431,2.074857
-0.2,0.0,0.7,-0.5235987755982988,-0.5235987755982988,0,0.59654206,1.9791607,0.20670143,-1.0843542,0.5008676,1.5425123,-2.4409897,-0.7862929,1.3109945,-0.058974244,-0.33545703,0.038908433,1.2166053,2.064634
-0.2,0.0,0.7,-0.5235987755982988,-0.5235987755982988,0,0.6001389,1.9784021,0.19957526,-1.0787525,0.49845454,1.5491997,-2.458159,-0.79576236,1.3188666,-0.061064903,-0.3307223,0.041533813,1.2179942,2.02553
-0.2,0.0,0.7,-0.5235987755982988,-0.5235987755982988,0,0.59512264,1.9768541,0.20469446,-1.0764904,0.5074733,1.545615,-2.4403603,-0.7959887,1.3130692,-0.061343342,-0.33159304,0.04871309,1.2281418,2.063092
-0.2,0.0,0.7,-0.5235987755982988,-0.5235987755982988,0,0.5973496,1.9741141,0.20200844,-1.0756506,0.5081563,1.5494125,-2.4182563,-0.7993591,1.3187853,-0.05388188,-0.33187228,0.03593159,1.233853,2.0833602
-0.2,0.0,0.7,-0.5235987755982988,-0.5235987755982988,0,0.5968378,1.9795051,0.20029978,-1.0795472,0.5062932,1.5439783,-2.4718394,-0.80951697,1.311824,-0.055116422,-0.32502484,0.030256242,1.2240939,2.2235594
-0.2,0.0,0.7,-0.5235987755982988,-0.5235987755982988,0,0.5969144,1.9791192,0.20405261,-1.0816135,0.50235367,1.5458668,-2.4563625,-0.79727066,1.3170832,-0.06432703,-0.3350474,0.028545089,1.2314144,2.0662613
-0.2,0.0,0.7,-0.5235987755982988,-0.5235987755982988,0,0.599819,1.977857,0.200974,-1.0767989,0.49705854,1.5460126,-2.438982,-0.78863794,1.3117342,-0.062361814,-0.33912826,0.03532487,1.2320172,2.0419886
-0.2,0.0,0.7,-0.5235987755982988,-0.5235987755982988,0,0.5947924,1.979968,0.2108971,-1.0768403,0.5017359,1.5496036,-2.4256082,-0.8072832,1.3163819,-0.05499368,-0.3347559,0.029373307,1.2217159,2.176554
-0.2,0.0,0.7,-0.5235987755982988,-0.5235987755982988,0,0.5992321,1.9823463,0.19317213,-1.0748678,0.5067362,1.5427026,-2.430189,-0.7927458,1.3183975,-0.06824851,-0.3318682,0.04973736,1.2171912,2.029501
-0.2,0.0,0.7,-0.5235987755982988,-0.5235987755982988,0,0.59394133,1.9776996,0.20620945,-1.0748816,0.4925446,1.5442983,-2.469881,-0.8037372,1.3106139,-0.06404605,-0.32993102,0.037655342,1.2258275,2.1059606
-0.2,0.0,0.7,-0.5235987755982988,-0.5235987755982988,0,0.59731066,1.9827741,0.20050418,-1.0803131,0.5035903,1.5459744,-2.4579005,-0.8019296,1.3233128,-0.049655803,-0.32991123,0.044484355,1.2252432,2.1670434
-0.2,0.0,0.7,-0.5235987755982988,-0.5235987755982988,0,0.59233963,1.9816874,0.20755741,-1.0816194,0.50031805,1.5481087,-2.437356,-0.8054145,1.318688,-0.06914436,-0.33529568,0.045512114,1.2139573,2.008705
-0.2,0.0,0.7,-0.5235987755982988,-0.5235987755982988,0,0.5941626,1.9765667,0.2016973,-1.0680436,0.5046906,1.546641,-2.4905725,-0.7903847,1.3157072,-0.067019746,-0.34420273,0.030058691,1.2216065,2.158598
-0.2,0.0,0.7,-0.5235987755982988,-0.5235987755982988,0,0.59959817,1.97331,0.19832036,-1.0783904,0.503072,1.5415956,-2.4454107,-0.7971776,1.3135178,-0.0598519,-0.339157,0.056499913,1.2129743,2.136554
-0.2,0.0,0.7,-0.5235987755982988,-0.5235987755982988,0,0.599573,1.9794497,0.19826666,-1.0823432,0.50141096,1.55284,-2.4557397,-0.79717237,1.3186656,-0.058455788,-0.32916552,0.048971828,1.2022709,1.9131144
-0.2,0.0,0.7,-0.5235987755982988,-0.5235987755982988,0,0.59860075,1.9768313,0.19933023,-1.0777696,0.49043125,1.5471835,-2.4336288,-0.79953545,1.3171425,-0.05692086,-0.34097278,0.052513596,1.2492918,2.1671357
-0.2,0.0,0.7,-0.5235987755982988,-0.5235987755982988,0,0.5945899,1.9835,0.1979146,-1.0751178,0.51181215,1.546347,-2.4807875,-0.7993009,1.321602,-0.055360615,-0.33517894,0.035045747,1.21852,2.148016
-0.2,0.0,0.7,-0.5235987755982988,-0.5235987755982988,0,0.5980625,1.9777352,0.19769658,-1.0829164,0.4975723,1.5466005,-2.4557889,-0.78255224,1.3173102,-0.06030124,-0.33197567,0.046623096,1.2338594,1.9884927
-0.2,0.0,0.7,-0.5235987755982988,-0.5235987755982988,0,0.5978787,1.9779664,0.20395546,-1.0824959,0.5070819,1.5481668,-2.4656918,-0.8028782,1.3158312,-0.054476213,-0.32743943,0.043951377,1.2308182,2.1125128
-0.2,0.0,0.7,-0.5235987755982988,-0.5235987755982988,0,0.59472,1.9811531,0.19423087,-1.0768347,0.4956278,1.5489523,-2.4673798,-0.7962579,1.3119736,-0.053995516,-0.3331854,0.04020975,1.2139268,2.0970695
-0.2,0.0,0.7,-0.5235987755982988,-0.5235987755982988,0,0.59721446,1.9795067,0.19226621,-1.0745926,0.5033893,1.5482671,-2.4458725,-0.796468,1.3153939,-0.065940745,-0.33356428,0.043524664,1.2228632,2.0900936
-0.2,0.0,0.7,-0.5235987755982988,-0.5235987755982988,0,0.5971246,1.9772391,0.20177846,-1.0776691,0.4913584,1.5488731,-2.480087,-0.80252564,1.3216252,-0.05682937,-0.335737,0.03192007,1.2199386,2.1963751
-0.2,0.0,0.7,-0.5235987755982988,-0.5235987755982988,0,0.59921694,1.9799742,0.2057783,-1.080275,0.5017118,1.5460198,-2.4627848,-0.7934096,1.3125167,-0.06155637,-0.33167133,0.038884345,1.2308437,2.0678117
-0.2,0.0,0.7,-0.5235987755982988,-0.5235987755982988,0,0.5959049,1.9753498,0.19512933,-1.0858098,0.49935934,1.5485817,-2.4304397,-0.78802556,1.3198097,-0.05183686,-0.33352232,0.043776568,1.235326,2.0147913
-0.2,0.0,0.7,-0.5235987755982988,-0.5235987755982988,0,0.5946956,1.9751887,0.2021319,-1.0832211,0.49401197,1.5513493,-2.4634557,-0.7854986,1.3231906,-0.05904297,-0.33341536,0.045343008,1.2156075,2.022224
-0.2,0.0,0.7,-0.5235987755982988,-0.5235987755982988,0,0.59643203,1.978545,0.2060874,-1.0792823,0.50058997,1.5478191,-2.479082,-0.7947775,1.3184738,-0.058803856,-0.33031797,0.048802484,1.2217168,2.2315452
-0.2,0.0,0.7,-0.5235987755982988,-0.5235987755982988,0,0.5988294,1.9775186,0.20930037,-1.0785741,0.49948594,1.551175,-2.4554782,-0.8052156,1.314504,-0.06321281,-0.33598948,0.029495977,1.2280892,2.1247942
-0.2,0.0,0.7,-0.5235987755982988,-0.5235987755982988,0,0.59316,1.9741976,0.20022278,-1.0774593,0.50375694,1.547928,-2.4572024,-0.7928389,1.3185787,-0.06393213,-0.34373787,0.033800557,1.2102076,2.1060424
-0.2,0.0,0.7,-0.5235987755982988,-0.5235987755982988,0,0.5980148,1.9768658,0.19672896,-1.0760436,0.5013903,1.547233,-2.436145,-0.80454975,1.3141806,-0.053246208,-0.3278496,0.03337546,1.2263727,2.1478026
-0.2,0.0,0.7,-0.5235987755982988,-0.5235987755982988,0,0.5961726,1.9786063,0.19580534,-1.0769202,0.49366876,1.5502484,-2.4369092,-0.79394215,1.3174858,-0.062478624,-0.33764428,0.021591544,1.2166508,2.0449858
-0.2,0.0,0.7,-0.5235987755982988,-0.5235987755982988,0,0.59388053,1.9804311,0.20320563,-1.0821619,0.49746224,1.5492693,-2.4417338,-0.8036299,1.3209465,-0.05335514,-0.33203182,0.05608337,1.2029592,2.087083
-0.2,0.0,0.7,-0.5235987755982988,-0.5235987755982988,0,0.5963984,1.9788128,0.20224343,-1.081956,0.5041934,1.5477428,-2.452044,-0.78555924,1.3140651,-0.06360242,-0.336775,0.033083964,1.2176642,2.1446683
-0.2,0.0,0.7,-0.5235987755982988,-0.5235987755982988,0,0.5965601,1.9755809,0.20346048,-1.0780878,0.50013405,1.5472256,-2.444993,-0.8153489,1.3178484,-0.063713595,-0.3296815,0.04955502,1.2053658,2.0115535
-0.2,0.0,0.7,-0.5235987755982988,-0.5235987755982988,0,0.6006937,1.9763448,0.1991381,-1.0761136,0.4940417,1.5487176,-2.4399045,-0.7944763,1.3170172,-0.064137585,-0.33210492,0.035698246,1.228384,2.0287318
-0.2,0.0,0.7,-0.5235987755982988,-0.5235987755982988,0,0.5963985,1.9787744,0.1973372,-1.0865867,0.5102555,1.5506985,-2.4247208,-0.79284996,1.3142118,-0.05779051,-0.33737394,0.03875441,1.2215247,1.99681
-0.2,0.0,0.7,-0.5235987755982988,-0.5235987755982988,0,0.5973034,1.9790157,0.20514546,-1.0785304,0.50330156,1.5431318,-2.4345217,-0.8084679,1.3134383,-0.060387142,-0.33675838,0.047624063,1.2157296,1.9906597
-0.2,0.0,0.7,-0.5235987755982988,-0.5235987755982988,0,0.59760517,1.9819134,0.20417799,-1.0805544,0.5020261,1.5527076,-2.4555755,-0.8112446,1.3143085,-0.0641778,-0.3451635,0.036690287,1.237394,2.1119277
-0.2,0.0,0.7,-0.5235987755982988,-0.5235987755982988,0,0.5979469,1.9794666,0.19814162,-1.073441,0.49272695,1.5464159,-2.4594748,-0.7966604,1.3121725,-0.059879538,-0.33743846,0.03719194,1.2168603,1.9554868
-0.2,0.0,0.7,-0.5235987755982988,-0.5235987755982988,0,0.5957453,1.9791508,0.19663194,-1.0729823,0.5003576,1.5495403,-2.46107,-0.8003353,1.3156364,-0.055494297,-0.33042437,0.047967248,1.2248387,2.2784495
-0.2,0.0,0.7,-0.5235987755982988,-0.5235987755982988,0,0.5949429,1.9794049,0.19749044,-1.0771949,0.49858454,1.546761,-2.45081,-0.7869887,1.3134527,-0.06604164,-0.33388442,0.04029465,1.2128954,2.1996963
-0.2,0.0,0.7,-0.5235987755982988,-0.5235987755982988,0,0.5979477,1.9812529,0.19659863,-1.079514,0.5095759,1.5466181,-2.4222794,-0.80224943,1.3181816,-0.057743814,-0.3375325,0.032520942,1.2258267,2.0561786
-0.2,0.0,0.7,-0.5235987755982988,-0.5235987755982988,0,0.5934728,1.9771367,0.20579392,-1.0748895,0.50696796,1.5471865,-2.461174,-0.79071265,1.3167443,-0.058617536,-0.337632,0.052383788,1.2446369,1.9902604
-0.2,0.0,0.7,-0.5235987755982988,-0.5235987755982988,0,0.59875673,1.9741058,0.19382885,-1.0803025,0.49511006,1.5459151,-2.4328055,-0.78976953,1.3135322,-0.060059164,-0.33710265,0.03306117,1.2173544,2.1073778
-0.2,0.0,0.7,-0.5235987755982988,-0.5235987755982988,0,0.5966585,1.9783235,0.20189367,-1.0808783,0.50600666,1.5466866,-2.4547434,-0.79239357,1.3193365,-0.050267477,-0.33167225,0.03548807,1.2148334,2.1791613
-0.2,0.0,0.7,-0.5235987755982988,-0.5235987755982988,0,0.59769255,1.9754341,0.20718156,-1.0765673,0.48927605,1.5521774,-2.4512382,-0.7984224,1.3156023,-0.060286257,-0.33124867,0.03472462,1.2100465,2.1058648
-0.2,0.0,0.7,-0.5235987755982988,-0.5235987755982988,0,0.59522617,1.9812552,0.19938889,-1.080993,0.4993106,1.5495192,-2.4655824,-0.7951318,1.3117974,-0.05305316,-0.33652085,0.030295275,1.2251589,2.0100663
-0.2,0.0,0.7,-0.5235987755982988,-0.5235987755982988,0,0.59545213,1.9787014,0.19558585,-1.0776052,0.49753407,1.550357,-2.4294412,-0.81150115,1.3096957,-0.059999682,-0.32858363,0.040243138,1.2359599,2.1335363
-0.2,0.0,0.7,-0.5235987755982988,-0.5235987755982988,0,0.5973979,1.9794774,0.20920593,-1.0766226,0.5030794,1.5412076,-2.4450912,-0.7946846,1.3165348,-0.062230878,-0.34534013,0.037654515,1.1996182,2.012192
-0.2,0.0,0.7,-0.5235987755982988,-0.5235987755982988,0,0.59402627,1.9750675,0.20258148,-1.0790415,0.49669445,1.5542345,-2.4393137,-0.78651726,1.313306,-0.06027936,-0.33035076,0.041458156,1.2362599,2.0659783
-0.2,0.0,0.7,-0.5235987755982988,-0.5235987755982988,0,0.5971873,1.9775591,0.20108189,-1.0777216,0.4985475,1.5489734,-2.4417462,-0.78797424,1.3117182,-0.06308194,-0.3286803,0.016472902,1.2097964,2.1841435
-0.2,0.0,0.7,-0.5235987755982988,-0.5235987755982988,0,0.5985486,1.9791057,0.19470844,-1.0791839,0.49545658,1.5477054,-2.4569812,-0.7997763,1.3157438,-0.050068483,-0.32450503,0.02772696,1.229153,1.987882
-0.2,0.0,0.7,-0.5235987755982988,-0.5235987755982988,0,0.59643614,1.9762948,0.19655113,-1.075926,0.50775486,1.546845,-2.4559605,-0.78905904,1.3109506,-0.060423587,-0.33071673,0.03137157,1.2255536,2.0298824
-0.2,0.0,0.7,-0.5235987755982988,-0.5235987755982988,0,0.5944542,1.979169,0.20592679,-1.0794858,0.5088938,1.5472265,-2.4188051,-0.7948452,1.3085608,-0.05880776,-0.3308107,0.038127355,1.2259687,2.1563802
-0.2,0.0,0.7,-0.5235987755982988,-0.5235987755982988,0,0.5959375,1.9788214,0.20414813,-1.0795989,0.50120836,1.5504377,-2.4330666,-0.7898047,1.3155636,-0.06438891,-0.33029717,0.034851994,1.2134994,2.1283953
-0.2,0.0,0.7,-0.5235987755982988,-0.5235987755982988,0,0.5955359,1.9795014,0.19288966,-1.0842488,0.5038684,1.5534934,-2.4508274,-0.7962945,1.3140824,-0.060723264,-0.34403253,0.037546825,1.2147056,2.0304716
-0.2,0.0,0.7,-0.5235987755982988,-0.5235987755982988,0,0.59507704,1.9802295,0.20103951,-1.080369,0.50491273,1.5506381,-2.4537845,-0.8064098,1.3195509,-0.055353314,-0.32780436,0.034503162,1.2153449,2.1141765
-0.2,0.0,0.7,-0.5235987755982988,-0.5235987755982988,0,0.5949575,1.9801254,0.1976542,-1.0720664,0.5086437,1.5470388,-2.4498992,-0.8159971,1.3188602,-0.059011824,-0.33453536,0.039838854,1.1996349,2.0750866
-0.2,0.0,0.7,-0.5235987755982988,-0.5235987755982988,0,0.5966192,1.9780236,0.20213087,-1.0845302,0.49672282,1.5493411,-2.4473047,-0.7965854,1.314455,-0.057463866,-0.3254068,0.041636866,1.2274492,1.9719348
-0.2,0.0,0.7,-0.5235987755982988,-0.5235987755982988,0,0.5951218,1.9775565,0.20514756,-1.0777385,0.4949113,1.5480146,-2.431307,-0.80973965,1.3183973,-0.060944304,-0.33533615,0.022131091,1.2135185,2.129287
-0.2,0.0,0.7,-0.5235987755982988,-0.5235987755982988,0,0.6007786,1.9752152,0.20380056,-1.0687901,0.49876836,1.5446892,-2.4343145,-0.7902957,1.3171097,-0.05660056,-0.33520836,0.032075822,1.2222992,2.125855
-0.2,0.0,0.7,-0.5235987755982988,-0.5235987755982988,0,0.59263283,1.978188,0.207174,-1.0759774,0.49428976,1.5496778,-2.4702005,-0.8022972,1.312898,-0.06797833,-0.33412725,0.06188501,1.238149,2.0864592
-0.2,0.0,0.7,-0.5235987755982988,-0.5235987755982988,0,0.6010286,1.9811674,0.19901451,-1.0785915,0.51459855,1.5514327,-2.4433656,-0.800288,1.3146696,-0.058351297,-0.32897872,0.02932605,1.2158672,2.1327612
-0.2,0.0,0.7,-0.5235987755982988,-0.5235987755982988,0,0.6003154,1.9771385,0.20246653,-1.0845045,0.49621913,1.5492218,-2.4397538,-0.79667807,1.3197039,-0.057577338,-0.34278944,0.038214553,1.2219418,1.9117979
-0.2,0.0,0.7,-0.5235987755982988,-0.5235987755982988,0,0.5946618,1.9811481,0.18974061,-1.0705398,0.49580833,1.5505186,-2.438602,-0.7975479,1.3130202,-0.06442822,-0.3359831,0.029837228,1.2247312,2.0489078
-0.2,0.0,0.7,-0.5235987755982988,-0.5235987755982988,0,0.6002886,1.9824548,0.2046775,-1.0903997,0.5058881,1.5492591,-2.4603891,-0.7882402,1.320689,-0.058312185,-0.33955532,0.040010385,1.2125652,2.096117
-0.2,0.0,0.7,-0.5235987755982988,-0.5235987755982988,0,0.5974494,1.9749413,0.20427921,-1.076718,0.503169,1.551266,-2.457458,-0.8011571,1.3199435,-0.06280972,-0.33237892,0.026518311,1.2265431,2.203708
-0.2,0.0,0.7,-0.5235987755982988,-0.5235987755982988,0,0.59844404,1.9769949,0.20249623,-1.0804785,0.49721012,1.5493225,-2.4540277,-0.8009523,1.3171612,-0.06498545,-0.33113658,0.043307137,1.2297125,2.0417266
-0.2,0.0,0.7,-0.5235987755982988,-0.5235987755982988,0,0.59633446,1.9819331,0.19295524,-1.0810317,0.49949834,1.5520736,-2.4702961,-0.7903648,1.3153398,-0.059655078,-0.32330626,0.045746174,1.2006842,2.222856
-0.2,0.0,0.7,-0.5235987755982988,-0.5235987755982988,0,0.59672874,1.9758356,0.2013546,-1.0746894,0.49845633,1.5447757,-2.454839,-0.80155057,1.3228619,-0.05826007,-0.3335674,0.043176346,1.2148741,2.0490093
-0.2,0.0,0.7,-0.5235987755982988,-0.5235987755982988,0,0.59766716,1.9816138,0.20537344,-1.0735441,0.49945745,1.5462996,-2.4685938,-0.8078971,1.3180592,-0.05877897,-0.33690014,0.025666878,1.2039695,2.1440086
-0.2,0.0,0.7,-0.5235987755982988,-0.5235987755982988,0,0.5967395,1.9763165,0.19551463,-1.0708315,0.50243413,1.5447307,-2.422914,-0.7994308,1.3142372,-0.064858176,-0.33248523,0.044129297,1.2171063,2.0941591
-0.2,0.0,0.7,-0.5235987755982988,-0.5235987755982988,0,0.6018494,1.9767107,0.20017225,-1.0820895,0.49770156,1.5515748,-2.4384687,-0.80167943,1.3148687,-0.05961308,-0.33083817,0.039034486,1.2215657,2.0196478
-0.2,0.0,0.7,-0.5235987755982988,-0.5235987755982988,0,0.59504485,1.9771304,0.20510127,-1.0850923,0.49479195,1.5494654,-2.4393268,-0.8069197,1.3154519,-0.05949828,-0.3339734,0.03922567,1.2132117,1.9819621
-0.2,0.0,0.7,-0.5235987755982988,-0.5235987755982988,0,0.5983711,1.9752057,0.19707114,-1.079845,0.50896484,1.5465081,-2.4423535,-0.79856676,1.3175266,-0.051875647,-0.3386922,0.04258023,1.2183977,2.2038503
-0.2,0.0,0.7,-0.5235987755982988,-0.5235987755982988,0,0.5945653,1.9769433,0.20193744,-1.0774958,0.502174,1.5504338,-2.4726214,-0.7904417,1.317204,-0.056520276,-0.33060017,0.03959152,1.2115341,2.170537
-0.2,0.0,0.7,-0.5235987755982988,-0.5235987755982988,0,0.6013575,1.9755862,0.20442465,-1.0797065,0.49870646,1.5498022,-2.4467785,-0.806534,1.3165009,-0.060429756,-0.3334018,0.049658973,1.2302085,2.2041762
-0.2,0.0,0.7,-0.5235987755982988,-0.5235987755982988,0,0.59688795,1.9762954,0.20806032,-1.0809089,0.49095833,1.5526992,-2.4598956,-0.8002375,1.3151685,-0.058769435,-0.34066856,0.04608809,1.2341819,2.118312
-0.2,0.0,0.7,-0.5235987755982988,-0.5235987755982988,0,0.5972713,1.9807366,0.20830913,-1.0788052,0.5015984,1.5491534,-2.445659,-0.80144113,1.3175716,-0.06036712,-0.3378285,0.04055435,1.2154734,2.03187
-0.2,0.0,0.7,-0.5235987755982988,-0.5235987755982988,0,0.5936756,1.982804,0.20732078,-1.0808575,0.50378597,1.54598,-2.4562464,-0.79417986,1.3196827,-0.06906437,-0.33814266,0.052771926,1.2283803,2.2593284
-0.2,0.0,0.7,-0.5235987755982988,-0.5235987755982988,0,0.59617513,1.9784611,0.19978471,-1.0810044,0.5016853,1.5520705,-2.4516375,-0.80539244,1.3109789,-0.058745805,-0.33178937,0.034139503,1.2094504,1.9398557
-0.2,0.0,0.7,-0.5235987755982988,-0.5235987755982988,0,0.5943281,1.9741642,0.20483865,-1.0790429,0.5009535,1.5464236,-2.4482148,-0.7902134,1.3167562,-0.068387695,-0.33195734,0.042829927,1.1951848,2.1083589
-0.2,0.0,0.7,-0.5235987755982988,-0.5235987755982988,0,0.5985236,1.9772805,0.20032726,-1.0758345,0.4965343,1.5439355,-2.4573033,-0.7989209,1.3102808,-0.05707249,-0.3419999,0.041411094,1.2173731,1.9601396
-0.2,0.0,0.7,-0.5235987755982988,-0.5235987755982988,0,0.59769017,1.9742517,0.1973047,-1.075783,0.5021526,1.549728,-2.432519,-0.79799396,1.3177004,-0.050202727,-0.3299005,0.025170857,1.2307405,2.0970905
-0.2,0.0,0.7,-0.5235987755982988,-0.5235987755982988,0,0.5940018,1.9751233,0.20849288,-1.074888,0.5025837,1.5431281,-2.455073,-0.7930084,1.31665,-0.048360165,-0.33044487,0.020729788,1.2352309,2.1216624
-0.2,0.0,0.7,-0.5235987755982988,-0.5235987755982988,0,0.59441316,1.9785941,0.20458697,-1.0814966,0.5093015,1.5463454,-2.44416,-0.8178152,1.3182349,-0.05719894,-0.33989078,0.033231054,1.2354279,2.0711155
-0.2,0.0,0.7,-0.5235987755982988,-0.5235987755982988,0,0.60008276,1.975819,0.20254278,-1.0777338,0.4980672,1.5500181,-2.4360633,-0.7945664,1.3178821,-0.07105047,-0.33683842,0.040717665,1.2052152,2.1281745
-0.2,0.0,0.7,-0.5235987755982988,-0.5235987755982988,0,0.5972448,1.9748032,0.19944462,-1.0797395,0.50023454,1.5505152,-2.45751,-0.77763927,1.3175322,-0.05865996,-0.33144277,0.03281966,1.2180899,2.047396
-0.2,0.0,0.7,-0.5235987755982988,-0.5235987755982988,0,0.5971058,1.9782556,0.19593424,-1.0790225,0.5005506,1.5534767,-2.463899,-0.7936011,1.3161167,-0.063671716,-0.33528027,0.03907432,1.2207901,2.1411922
-0.2,0.0,0.7,-0.5235987755982988,-0.5235987755982988,0,0.59659386,1.9763404,0.20164458,-1.0783545,0.5066484,1.5469148,-2.4197598,-0.80038315,1.3199662,-0.055170905,-0.32809702,0.026892891,1.2212967,2.0654566
-0.2,0.0,0.7,-0.5235987755982988,-0.5235987755982988,0,0.59718376,1.9782138,0.20257384,-1.0808896,0.50332487,1.5458925,-2.431038,-0.8018537,1.3135821,-0.04941475,-0.34018424,0.049773604,1.2194139,2.181025
-0.2,0.0,0.7,-0.5235987755982988,-0.5235987755982988,0,0.5963813,1.9780195,0.19699168,-1.0810996,0.5007492,1.547306,-2.4348717,-0.78511256,1.3159881,-0.057031985,-0.33164677,0.029666537,1.2061946,2.0476363
-0.2,0.0,0.7,-0.5235987755982988,-0.5235987755982988,0,0.59646523,1.975438,0.20283629,-1.0724276,0.49652055,1.5508614,-2.459417,-0.8001044,1.3173105,-0.06410512,-0.33772781,0.026060551,1.2051542,2.098539
-0.2,0.0,0.7,-0.5235987755982988,-0.5235987755982988,0,0.59614694,1.981562,0.20056924,-1.0846864,0.5083972,1.5516372,-2.4665694,-0.7849712,1.3163177,-0.060680255,-0.33035004,0.05099167,1.203783,2.141176
-0.2,0.0,0.7,-0.5235987755982988,-0.5235987755982988,0,0.5991235,1.9785955,0.20506364,-1.0796365,0.49363947,1.5539548,-2.4840024,-0.80932295,1.3177605,-0.059261266,-0.33944494,0.04515047,1.2095304,2.1131933
-0.2,0.0,0.7,-0.5235987755982988,-0.5235987755982988,0,0.59465283,1.9754906,0.20721023,-1.0794868,0.4943528,1.5466708,-2.4496458,-0.7889548,1.3148963,-0.06137477,-0.3330969,0.03866093,1.198275,2.0645826
-0.2,0.0,0.7,-0.5235987755982988,-0.5235987755982988,0,0.5951896,1.9797877,0.20375644,-1.075189,0.5027022,1.5485628,-2.4480224,-0.8027867,1.3126019,-0.055244878,-0.33191586,0.03806998,1.2231025,2.058298
-0.2,0.0,0.7,-0.5235987755982988,-0.5235987755982988,0,0.6009355,1.9826993,0.19634587,-1.0805267,0.49947712,1.5443578,-2.454461,-0.7905012,1.3187186,-0.06251381,-0.33823788,0.03563747,1.2205462,1.8774444
-0.2,0.0,0.7,-0.5235987755982988,-0.5235987755982988,0,0.5989088,1.9749418,0.20141079,-1.0778929,0.49204576,1.5448644,-2.4488728,-0.8006724,1.3172542,-0.0602844,-0.32867128,0.044938948,1.1995676,1.9878548
-0.2,0.0,0.7,-0.5235987755982988,-0.5235987755982988,0,0.59607464,1.9760224,0.19600783,-1.0714518,0.49220052,1.5524824,-2.4658794,-0.8017646,1.3104221,-0.05402064,-0.32837734,0.0400586,1.230053,2.1320875
-0.2,0.0,0.7,-0.5235987755982988,-0.5235987755982988,0,0.5940537,1.9798968,0.20110922,-1.0758091,0.49717394,1.5525285,-2.462057,-0.8032649,1.3179576,-0.056789033,-0.33610436,0.054940578,1.2308887,1.9808933
-0.2,0.0,0.7,-0.5235987755982988,-0.5235987755982988,0,0.60051197,1.9789226,0.19892284,-1.0824572,0.50130045,1.5468628,-2.4318857,-0.8123513,1.3175142,-0.05384205,-0.33964688,0.048257202,1.2145972,2.015908
-0.2,0.0,0.7,-0.5235987755982988,-0.5235987755982988,0,0.5950292,1.9730303,0.20468564,-1.0739552,0.49761298,1.5482523,-2.4544032,-0.79714394,1.3131913,-0.04718138,-0.337439,0.04427143,1.2105693,2.1826258
-0.2,0.0,0.7,-0.5235987755982988,-0.5235987755982988,0,0.5964598,1.9732486,0.2064372,-1.0722739,0.49629998,1.5445323,-2.430346,-0.7933422,1.3208238,-0.067351,-0.33357307,0.044159967,1.2189373,2.077488
-0.2,0.0,0.7,-0.5235987755982988,-0.5235987755982988,0,0.5963286,1.9831444,0.20675541,-1.0870359,0.4972056,1.5520852,-2.435251,-0.7952428,1.3138634,-0.06502082,-0.32890603,0.050010473,1.2292689,2.0569987
-0.2,0.0,0.7,-0.5235987755982988,-0.5235987755982988,0,0.5952344,1.9801236,0.20249203,-1.0725418,0.5021011,1.5489494,-2.4440172,-0.8098985,1.311318,-0.05970336,-0.33691013,0.040017974,1.2215502,2.1477838
-0.2,0.0,0.7,-0.5235987755982988,-0.5235987755982988,0,0.59710366,1.9807527,0.20282765,-1.0811715,0.49421906,1.5459195,-2.4352105,-0.8011456,1.3170409,-0.06446201,-0.33023173,0.058468863,1.2116294,2.1697822
-0.2,0.0,0.7,-0.5235987755982988,-0.5235987755982988,0,0.5988396,1.9813504,0.19916543,-1.0836637,0.49948433,1.5477271,-2.4365647,-0.78623235,1.3257737,-0.06558069,-0.33961192,0.0539372,1.2287129,2.1616726
-0.2,0.0,0.7,-0.5235987755982988,-0.5235987755982988,0,0.59731954,1.9756957,0.21177325,-1.0762994,0.49675876,1.5501571,-2.4405754,-0.8015239,1.3131006,-0.066359,-0.31813848,0.042410914,1.2069867,2.2092228
-0.2,0.0,0.7,-0.5235987755982988,-0.5235987755982988,0,0.59632194,1.9841911,0.20677532,-1.0852872,0.500718,1.5498346,-2.4548893,-0.8013885,1.3156369,-0.053924333,-0.32789776,0.049429044,1.2163911,2.184941
-0.2,0.0,0.7,-0.5235987755982988,-0.5235987755982988,0,0.59491473,1.9783967,0.2005317,-1.0745084,0.5022958,1.5472655,-2.437937,-0.7875454,1.3146497,-0.06461943,-0.33015695,0.03641867,1.232363,2.055604
-0.2,0.0,0.7,-0.5235987755982988,-0.5235987755982988,0,0.6001326,1.9764496,0.19741811,-1.0833267,0.49833184,1.549496,-2.4346766,-0.7981054,1.3141774,-0.057721075,-0.3378839,0.04236912,1.2233986,2.1036494
-0.2,0.0,0.7,-0.5235987755982988,-0.5235987755982988,0,0.5975247,1.9812826,0.20076528,-1.0812886,0.49556834,1.5481676,-2.4580073,-0.7956878,1.313518,-0.055974957,-0.3266027,0.045996256,1.2085328,1.9922026
-0.2,0.0,0.7,-0.5235987755982988,-0.5235987755982988,0,0.59385175,1.979142,0.20577215,-1.0802023,0.50393844,1.5475928,-2.4569776,-0.7869972,1.3179494,-0.06554887,-0.33125722,0.048624054,1.2167474,2.1254125
-0.2,0.0,0.7,-0.5235987755982988,-0.5235987755982988,0,0.59718263,1.9822417,0.19967772,-1.0715793,0.500079,1.5482916,-2.4569187,-0.804284,1.3201334,-0.059316996,-0.34209934,0.03285896,1.2136055,2.2848918
-0.2,0.0,0.7,-0.5235987755982988,-0.5235987755982988,0,0.5963089,1.974425,0.20083085,-1.0723871,0.49988186,1.5491731,-2.453355,-0.80413264,1.3181529,-0.06497615,-0.32852805,0.052474022,1.1984476,2.0729415
-0.2,0.0,0.7,-0.5235987755982988,-0.5235987755982988,0,0.5937897,1.9755541,0.20669435,-1.076269,0.49526662,1.5491875,-2.468814,-0.7986346,1.3126057,-0.058488056,-0.3225119,0.044435535,1.2283264,2.0474598
-0.2,0.0,0.7,-0.5235987755982988,-0.5235987755982988,0,0.5996412,1.9804606,0.20408635,-1.0778488,0.49579513,1.5471511,-2.4406872,-0.79163134,1.3081543,-0.06365667,-0.33299586,0.034545135,1.2110559,2.0108707
-0.2,0.0,0.7,-0.5235987755982988,-0.5235987755982988,0,0.5995867,1.9784348,0.20120127,-1.0787967,0.4922353,1.5493718,-2.468452,-0.80072594,1.3205016,-0.05851025,-0.33312482,0.047842503,1.2355567,2.06671
-0.2,0.0,0.7,-0.5235987755982988,-0.5235987755982988,0,0.5983115,1.9833909,0.19911054,-1.0796992,0.50885165,1.5484608,-2.4397044,-0.7897007,1.322143,-0.058999594,-0.338258,0.024268705,1.2207052,2.0743477
-0.2,0.0,0.7,-0.5235987755982988,-0.5235987755982988,0,0.5960366,1.9781629,0.19877633,-1.0723257,0.51414764,1.5498284,-2.457239,-0.7919542,1.3151711,-0.06555885,-0.331957,0.03970029,1.2112936,2.0831783
-0.2,0.0,0.7,-0.5235987755982988,-0.5235987755982988,0,0.6002918,1.9778006,0.20435841,-1.0800759,0.4999204,1.5491086,-2.4645262,-0.79239553,1.3217889,-0.05835982,-0.330739,0.04152318,1.2284197,2.0981796
-0.2,0.0,0.7,-0.5235987755982988,-0.5235987755982988,0,0.60048515,1.9796973,0.1978029,-1.0849345,0.51063156,1.5474894,-2.4458961,-0.79272914,1.3141474,-0.06407266,-0.34611604,0.042603876,1.2218648,2.0254376
-0.2,0.0,0.7,-0.5235987755982988,-0.5235987755982988,0,0.59620625,1.9749699,0.2045421,-1.0791429,0.49859795,1.5498306,-2.4415221,-0.78981286,1.3159271,-0.060184687,-0.32836175,0.051085964,1.2294302,2.087295
-0.2,0.0,0.7,-0.5235987755982988,-0.5235987755982988,0,0.6000481,1.9766349,0.19669479,-1.0755728,0.51204103,1.5512992,-2.4513302,-0.7959,1.317259,-0.060862154,-0.33163553,0.03368145,1.2211908,2.1311874
-0.2,0.0,0.7,-0.5235987755982988,-0.5235987755982988,0,0.59835374,1.9751756,0.19563437,-1.0762666,0.5001915,1.5545726,-2.449941,-0.7987654,1.3183427,-0.060322996,-0.33409014,0.036659677,1.209828,2.0235946
-0.2,0.0,0.7,-0.5235987755982988,-0.5235987755982988,0,0.5985606,1.9838744,0.2041843,-1.0841776,0.49819186,1.5477488,-2.4239235,-0.8009822,1.3185616,-0.047827065,-0.31517062,0.037387606,1.2170008,2.2736473
-0.2,0.0,0.7,-0.5235987755982988,-0.5235987755982988,0,0.59283215,1.9814245,0.199554,-1.0748656,0.5058752,1.5448273,-2.4281566,-0.78248155,1.3133824,-0.0578336,-0.33272946,0.033737797,1.2405694,2.2680857
-0.2,0.0,0.7,-0.5235987755982988,-0.5235987755982988,0,0.60097545,1.9767432,0.20306258,-1.077286,0.4964601,1.543804,-2.4525666,-0.79976606,1.3187631,-0.04892374,-0.3307385,0.04737269,1.2112273,2.1466606
-0.2,0.0,0.7,-0.5235987755982988,-0.5235987755982988,0,0.59792364,1.9831114,0.19623582,-1.0850079,0.49404863,1.5499965,-2.4226303,-0.78110904,1.3164911,-0.06397038,-0.3276382,0.04614,1.2021984,2.0932305
-0.2,0.0,0.7,-0.5235987755982988,-0.5235987755982988,0,0.5953403,1.9800917,0.2024179,-1.0780791,0.49288827,1.5483757,-2.4538429,-0.7862794,1.317531,-0.06510099,-0.33590287,0.048440143,1.2110696,2.0451255
-0.2,0.0,0.7,-0.5235987755982988,-0.5235987755982988,0,0.6012161,1.9756042,0.19766004,-1.0745256,0.4972143,1.5476387,-2.4684663,-0.80252594,1.3143979,-0.05706591,-0.3323426,0.041480005,1.2230536,2.07427
-0.2,0.0,0.7,-0.5235987755982988,-0.5235987755982988,0,0.5981826,1.979518,0.19787139,-1.0746974,0.50236773,1.5471278,-2.4438555,-0.7963136,1.3154148,-0.060333386,-0.3350969,0.04281052,1.2151294,1.9887339
-0.2,0.0,0.7,-0.5235987755982988,-0.5235987755982988,0,0.59995085,1.979308,0.19990402,-1.0750484,0.5003476,1.550427,-2.4469175,-0.7946754,1.3123617,-0.061352216,-0.33620209,0.03650789,1.2219346,2.0779917
-0.2,0.0,0.7,-0.5235987755982988,-0.5235987755982988,0,0.59385103,1.97916,0.20283097,-1.0775006,0.5076529,1.5487915,-2.4429061,-0.7930086,1.3115728,-0.0690871,-0.32972002,0.054748498,1.2206796,2.1126728
-0.2,0.0,0.7,-0.5235987755982988,-0.5235987755982988,0,0.59578484,1.9762677,0.19923203,-1.0743763,0.494362,1.5504025,-2.458859,-0.78909665,1.3185406,-0.0631232,-0.33292592,0.033594888,1.209769,2.0704358
-0.2,0.0,0.7,-0.5235987755982988,-0.5235987755982988,0,0.5981286,1.9792459,0.1916662,-1.0776714,0.503261,1.5509146,-2.4434094,-0.7925525,1.321937,-0.06542849,-0.33188564,0.049793053,1.2147154,2.1644306
-0.2,0.0,0.7,-0.5235987755982988,-0.5235987755982988,0,0.5970477,1.9828578,0.1997818,-1.0806417,0.5025154,1.5518142,-2.4565256,-0.80510676,1.3131605,-0.056695025,-0.324211,0.039828442,1.2134053,2.1225324
-0.2,0.0,0.7,-0.5235987755982988,-0.5235987755982988,0,0.60046345,1.9789405,0.20075187,-1.0822195,0.50721693,1.5490593,-2.4390402,-0.8026377,1.315492,-0.056134243,-0.32780823,0.030952891,1.2248167,2.1765797
-0.2,0.0,0.7,-0.5235987755982988,-0.5235987755982988,0,0.59907866,1.9895415,0.19788684,-1.0820493,0.5010707,1.5513985,-2.427898,-0.79123616,1.3102194,-0.05938108,-0.33076203,0.0288725,1.213192,2.0515316
-0.2,0.0,0.7,-0.5235987755982988,-0.5235987755982988,0,0.59707594,1.9837452,0.20927656,-1.0824833,0.49688476,1.5501083,-2.4700499,-0.8016942,1.3224686,-0.05495236,-0.33116615,0.044767372,1.1956116,2.002619
-0.2,0.0,0.7,-0.5235987755982988,-0.5235987755982988,0,0.5956404,1.9785593,0.19829713,-1.0765386,0.49574408,1.5494471,-2.4196827,-0.79987395,1.313721,-0.053530708,-0.32130665,0.0403166,1.2377378,2.0755956
-0.2,0.0,0.7,-0.5235987755982988,-0.5235987755982988,0,0.6002658,1.9814755,0.20140277,-1.0899348,0.5077189,1.5510391,-2.4337223,-0.7783529,1.3195035,-0.062292516,-0.3337405,0.042271994,1.2222178,2.0992763
-0.2,0.0,0.7,-0.5235987755982988,-0.5235987755982988,0,0.5975399,1.9779989,0.20549545,-1.0770193,0.5032031,1.5508763,-2.4537709,-0.8054254,1.3164115,-0.05918087,-0.333379,0.041821383,1.2182217,1.9998497
-0.2,0.0,0.7,-0.5235987755982988,-0.5235987755982988,0,0.5988533,1.9782144,0.20359612,-1.0870562,0.4986145,1.5513929,-2.4420583,-0.79171544,1.3196487,-0.061370116,-0.33200034,0.049991794,1.2107035,2.0258791
-0.2,0.0,0.7,-0.5235987755982988,-0.5235987755982988,0,0.60027987,1.9780383,0.19896486,-1.075694,0.51142997,1.5487574,-2.4603455,-0.7962697,1.3151975,-0.05849976,-0.33207062,0.03967149,1.2216717,2.1562035
-0.2,0.0,0.7,-0.5235987755982988,-0.5235987755982988,0,0.5990418,1.9766223,0.19894046,-1.0753161,0.487604,1.5521601,-2.4639375,-0.80389845,1.3225429,-0.052823003,-0.33743924,0.029132599,1.225448,2.1100483
-0.2,0.0,0.7,-0.5235987755982988,-0.5235987755982988,0,0.59984285,1.9773679,0.20010361,-1.0743818,0.503476,1.5486665,-2.459198,-0.7937017,1.3163204,-0.05841626,-0.33168256,0.031846546,1.2154197,2.0744946
-0.2,0.0,0.7,-0.5235987755982988,-0.5235987755982988,0,0.59805965,1.9754263,0.20794131,-1.0704257,0.50058043,1.5548778,-2.4473906,-0.80124724,1.3145406,-0.066089034,-0.33615452,0.031492308,1.2271986,2.2520378
-0.2,0.0,0.7,-0.5235987755982988,-0.5235987755982988,0,0.5989,1.9839208,0.19712913,-1.0798554,0.5093096,1.5445206,-2.44868,-0.7866782,1.3210526,-0.05900262,-0.334771,0.04055656,1.2211505,2.0995123
-0.2,0.0,0.7,-0.5235987755982988,-0.5235987755982988,0,0.59456927,1.9788548,0.20523985,-1.0691639,0.5014918,1.5483614,-2.4695463,-0.79776007,1.3129777,-0.059719138,-0.33264786,0.026822677,1.2069147,2.0471811
-0.2,0.0,0.7,-0.5235987755982988,-0.5235987755982988,0,0.59499043,1.9772007,0.19850752,-1.0711814,0.49409306,1.5481445,-2.4546893,-0.80098855,1.3163998,-0.06138302,-0.3291798,0.055922404,1.2035393,2.194375
-0.2,0.0,0.7,-0.5235987755982988,-0.5235987755982988,0,0.5980106,1.976643,0.1979453,-1.0775521,0.50052017,1.5466778,-2.4633336,-0.7954465,1.3139881,-0.066689305,-0.33152577,0.033430684,1.2281885,1.9994766
-0.2,0.0,0.7,-0.5235987755982988,-0.5235987755982988,0,0.596297,1.9796189,0.20927173,-1.0779375,0.5018377,1.5482528,-2.4376655,-0.7985742,1.3222982,-0.060023796,-0.3336431,0.048115864,1.2246517,2.1516395
-0.2,0.0,0.7,-0.5235987755982988,-0.5235987755982988,0,0.59828246,1.9776454,0.20468104,-1.0701509,0.4989599,1.5469348,-2.4658103,-0.8161861,1.3132476,-0.054693464,-0.33599025,0.032577544,1.2192045,2.0946357
-0.2,0.0,0.7,-0.5235987755982988,-0.5235987755982988,0,0.597071,1.9764066,0.20274255,-1.0767568,0.5030384,1.5470213,-2.417005,-0.7983916,1.3148578,-0.064683735,-0.32826626,0.04980472,1.2319988,2.097121
-0.2,0.0,0.7,-0.5235987755982988,-0.5235987755982988,0,0.59552443,1.9819733,0.21229504,-1.0808458,0.5014601,1.5499972,-2.4666846,-0.7821387,1.3139275,-0.060556743,-0.32636836,0.042596206,1.222498,2.221071
-0.2,0.0,0.7,-0.5235987755982988,-0.5235987755982988,0,0.5997665,1.9736315,0.1978386,-1.0691131,0.5089793,1.5458783,-2.466442,-0.8068868,1.3140079,-0.057589576,-0.3348549,0.04298751,1.2390867,2.0368705
-0.2,0.0,0.7,-0.5235987755982988,-0.5235987755982988,0,0.59425867,1.9748372,0.20298724,-1.0697333,0.507295,1.5454845,-2.4640028,-0.801502,1.3152034,-0.046025712,-0.32750887,0.034376167,1.2126172,2.2181442
-0.2,0.0,0.7,-0.5235987755982988,-0.5235987755982988,0,0.59952193,1.979282,0.2005897,-1.0743797,0.5038209,1.5455543,-2.4430878,-0.8025892,1.3159196,-0.05546013,-0.33555767,0.033185426,1.216975,2.1308384
-0.2,0.0,0.7,-0.5235987755982988,-0.5235987755982988,0,0.59698147,1.9800873,0.20124054,-1.0755472,0.5051286,1.5474873,-2.4368815,-0.80927926,1.3115398,-0.055919863,-0.33061823,0.02926673,1.2247283,2.098333
-0.2,0.0,0.7,-0.5235987755982988,-0.5235987755982988,0,0.59902275,1.9771184,0.1988494,-1.0782148,0.50578034,1.5494595,-2.4544075,-0.8027216,1.3111817,-0.05303442,-0.33697483,0.05059006,1.2075375,2.190767
-0.2,0.0,0.7,-0.5235987755982988,-0.5235987755982988,0,0.59813815,1.9814142,0.20644745,-1.0737936,0.51346093,1.550708,-2.4535122,-0.8008585,1.3179427,-0.05695162,-0.3312119,0.03391332,1.224993,2.065649
-0.2,0.0,0.7,-0.5235987755982988,-0.5235987755982988,0,0.5964014,1.9810759,0.20167015,-1.0716171,0.5028502,1.5466777,-2.4514728,-0.7943446,1.3139523,-0.059475556,-0.33330327,0.02074509,1.2219197,2.022405
-0.2,0.0,0.7,-0.5235987755982988,-0.5235987755982988,0,0.5984272,1.9783423,0.19846767,-1.0773926,0.49820304,1.5516107,-2.466506,-0.8075584,1.318658,-0.05653544,-0.3392918,0.045133084,1.2265927,2.1163557
-0.2,0.0,0.7,-0.5235987755982988,-0.5235987755982988,0,0.599075,1.9773365,0.19782747,-1.0758398,0.49417126,1.5473591,-2.4326568,-0.79959005,1.3186255,-0.06261605,-0.3298662,0.047571357,1.2107984,2.1814399
-0.2,0.0,0.7,-0.5235987755982988,-0.5235987755982988,0,0.59689295,1.9816005,0.20017007,-1.0849581,0.49461827,1.5553418,-2.443744,-0.79894906,1.3168904,-0.060173836,-0.33051643,0.033839073,1.1892674,1.9393746
-0.2,0.0,0.7,-0.5235987755982988,-0.5235987755982988,0,0.59549266,1.9775301,0.19742928,-1.0699706,0.50972927,1.5511831,-2.441998,-0.8094193,1.3148707,-0.06937458,-0.33562055,0.039324418,1.2191944,2.1746294
-0.2,0.0,0.7,-0.5235987755982988,-0.5235987755982988,0,0.59578633,1.9774381,0.20035958,-1.0775845,0.49555668,1.5506253,-2.4415123,-0.7865384,1.3170046,-0.052862026,-0.32866037,0.042248618,1.2061057,1.9156507
-0.2,0.0,0.7,-0.5235987755982988,-0.5235987755982988,0,0.59505224,1.9849979,0.20327915,-1.0779843,0.50837606,1.5465285,-2.4651968,-0.7986127,1.3172708,-0.058365557,-0.33311823,0.04352591,1.2104803,1.998062
-0.2,0.0,0.7,-0.5235987755982988,-0.5235987755982988,0,0.59474194,1.9796029,0.20848511,-1.0738894,0.49659982,1.5474482,-2.4453003,-0.79883564,1.3167517,-0.061227977,-0.3345022,0.03742945,1.2339133,1.9812475
-0.2,0.0,0.7,-0.5235987755982988,-0.5235987755982988,0,0.5982841,1.9780811,0.19515914,-1.0758475,0.51070416,1.5476003,-2.4611094,-0.80009496,1.3164281,-0.058287922,-0.32886025,0.032674376,1.2375728,2.1430063
-0.2,0.0,0.7,-0.5235987755982988,-0.5235987755982988,0,0.59411246,1.9784846,0.21057099,-1.0725347,0.5010607,1.5490459,-2.4501498,-0.7928839,1.317521,-0.059122756,-0.3378332,0.03498674,1.2255473,2.0709915
-0.2,0.0,0.7,-0.5235987755982988,-0.5235987755982988,0,0.59830236,1.9799201,0.19990245,-1.0737618,0.49072593,1.548651,-2.4760807,-0.7990044,1.316078,-0.059325635,-0.3360312,0.041122403,1.2337476,1.9000378
-0.2,0.0,0.7,-0.5235987755982988,-0.5235987755982988,0,0.5941664,1.9801433,0.20612219,-1.072072,0.50114495,1.5445071,-2.4441059,-0.78964496,1.3173122,-0.052827846,-0.33998337,0.044079825,1.2179439,2.0199103
-0.2,0.0,0.7,-0.5235987755982988,-0.5235987755982988,0,0.60171014,1.9758912,0.20349362,-1.0734924,0.49931112,1.5428401,-2.4683316,-0.7861139,1.317427,-0.06329209,-0.33213332,0.04482982,1.2297716,2.1926544
-0.2,0.0,0.7,-0.5235987755982988,-0.5235987755982988,0,0.59684885,1.9787006,0.20713772,-1.0780689,0.5024732,1.548393,-2.462755,-0.7895256,1.318774,-0.047028475,-0.33391684,0.04068827,1.2273982,2.1298318
-0.2,0.0,0.7,-0.5235987755982988,-0.5235987755982988,0,0.60345036,1.9725555,0.19970499,-1.0691844,0.49887842,1.5459847,-2.4587924,-0.79210395,1.3162316,-0.058442622,-0.32855022,0.036183525,1.233079,2.0576723
-0.2,0.0,0.7,-0.5235987755982988,-0.5235987755982988,0,0.5967678,1.9768461,0.20778878,-1.0786768,0.501254,1.5493716,-2.467887,-0.7867206,1.3151412,-0.05667514,-0.32499593,0.03750963,1.2136757,2.0713027
-0.2,0.0,0.7,-0.5235987755982988,-0.5235987755982988,0,0.5959239,1.978638,0.20255895,-1.0706863,0.50790524,1.5485849,-2.464681,-0.790768,1.3210998,-0.05900274,-0.33420473,0.03274189,1.2220632,2.0569663
-0.2,0.0,0.7,-0.5235987755982988,-0.5235987755982988,0,0.59878165,1.9779404,0.20266598,-1.0759883,0.49682096,1.549291,-2.4345312,-0.8016861,1.318719,-0.05869878,-0.32878324,0.028368378,1.208973,2.1057827
-0.2,0.0,0.7,-0.5235987755982988,-0.5235987755982988,0,0.59859955,1.9815086,0.20353025,-1.077011,0.502788,1.5477321,-2.462462,-0.7900461,1.3137298,-0.061888613,-0.33185846,0.034054246,1.2295331,2.1412523
-0.2,0.0,0.7,-0.5235987755982988,-0.5235987755982988,0,0.59733117,1.980651,0.20279534,-1.0808554,0.5110348,1.5518197,-2.4492009,-0.7858972,1.3148729,-0.061763126,-0.3323784,0.04821032,1.21129,2.2193167
-0.2,0.0,0.7,-0.5235987755982988,-0.5235987755982988,0,0.59626603,1.9771792,0.20298192,-1.0749778,0.49706945,1.5491748,-2.4607022,-0.815774,1.324806,-0.056649063,-0.3444557,0.043817,1.2048721,1.8985671
-0.2,0.0,0.7,-0.5235987755982988,-0.5235987755982988,0,0.5957511,1.9817514,0.20505083,-1.0803461,0.507169,1.5498357,-2.4486434,-0.7924132,1.3176688,-0.062775284,-0.3309227,0.055546317,1.2143166,2.162924
-0.2,0.0,0.7,-0.5235987755982988,-0.5235987755982988,0,0.598426,1.9794873,0.20152594,-1.0729547,0.5018471,1.5493191,-2.4484901,-0.7928698,1.3181363,-0.063577846,-0.3331924,0.034298763,1.2102197,2.1665318
-0.2,0.0,0.7,-0.5235987755982988,-0.5235987755982988,0,0.59548587,1.9770788,0.19622396,-1.0730075,0.5061045,1.5495073,-2.4297283,-0.7980576,1.3136802,-0.06545376,-0.33173615,0.030706514,1.1991379,2.001653
-0.2,0.0,0.7,-0.5235987755982988,-0.5235987755982988,0,0.59454715,1.9812746,0.20639488,-1.0679207,0.5064104,1.5515983,-2.4464254,-0.80721426,1.3066611,-0.060964406,-0.33135313,0.035538565,1.2119584,2.152178
-0.2,0.0,0.7,-0.5235987755982988,-0.5235987755982988,0,0.5990992,1.9769785,0.20140149,-1.0754536,0.50642437,1.5511029,-2.443218,-0.80312186,1.3210701,-0.059323166,-0.3320391,0.03422191,1.2393808,2.1584718
-0.2,0.0,0.7,-0.5235987755982988,-0.5235987755982988,0,0.5956022,1.9735726,0.20567586,-1.0693874,0.50345665,1.5488282,-2.4453673,-0.7987745,1.3175188,-0.061851047,-0.3318251,0.038592763,1.2260294,2.1497998
-0.2,0.0,0.7,-0.5235987755982988,-0.5235987755982988,0,0.59865224,1.9795345,0.19209442,-1.0761935,0.5048714,1.5487471,-2.4420831,-0.7915386,1.322232,-0.05738099,-0.34173843,0.03309631,1.2297373,1.918776
-0.2,0.0,0.7,-0.5235987755982988,-0.5235987755982988,0,0.5983909,1.977283,0.20218608,-1.0810581,0.50484717,1.5487183,-2.4321706,-0.793074,1.3143839,-0.05436003,-0.33055723,0.052808225,1.2245479,1.8929211
-0.2,0.0,0.7,-0.5235987755982988,-0.5235987755982988,0,0.60039777,1.9842999,0.20726563,-1.0772125,0.49420354,1.5458876,-2.4489694,-0.7910882,1.3132125,-0.05894423,-0.33433703,0.032022033,1.2483022,2.218219
-0.2,0.0,0.7,-0.5235987755982988,-0.5235987755982988,0,0.5951435,1.9781158,0.19803092,-1.0738282,0.49930477,1.548757,-2.4195042,-0.8050797,1.3182713,-0.05138451,-0.32526633,0.03312655,1.211396,1.9755104
-0.2,0.0,0.7,-0.5235987755982988,-0.5235987755982988,0,0.6000041,1.9795203,0.20765558,-1.0656455,0.48971027,1.5497266,-2.464199,-0.79053956,1.3176717,-0.06037053,-0.3338383,0.03008102,1.2227916,1.9979011
-0.2,0.0,0.7,-0.5235987755982988,-0.5235987755982988,0,0.5968437,1.9775324,0.19737719,-1.0766914,0.50110555,1.5485415,-2.4468951,-0.79669595,1.317275,-0.062635854,-0.33240986,0.043218214,1.2188119,1.8786194
-0.2,0.0,0.7,-0.5235987755982988,-0.5235987755982988,0,0.5983799,1.972507,0.20676908,-1.0835004,0.49335843,1.5468493,-2.4562569,-0.795275,1.3184677,-0.063067764,-0.3430831,0.030011455,1.2215111,2.179404
-0.2,0.0,0.7,-0.5235987755982988,-0.5235987755982988,0,0.60033023,1.9772717,0.20864703,-1.084374,0.5059023,1.5416623,-2.4542112,-0.78986156,1.3179944,-0.055097625,-0.33579254,0.049371637,1.2297053,2.0832741
-0.2,0.0,0.7,-0.5235987755982988,-0.5235987755982988,0,0.5983089,1.9725957,0.20409511,-1.0781028,0.50347424,1.5478989,-2.4543128,-0.7970815,1.3207654,-0.059110407,-0.32512018,0.033527713,1.2184528,2.115737
-0.2,0.0,0.7,-0.5235987755982988,-0.5235987755982988,0,0.5982319,1.980053,0.20642652,-1.1107829,0.50787765,1.5528358,-2.4263089,-0.7959674,1.3158978,-0.06319574,-0.3304822,0.052687153,1.2113801,1.9437085
-0.2,0.0,0.7,-0.5235987755982988,-0.5235987755982988,0,0.5973013,1.9766531,0.20559125,-1.0845625,0.507941,1.545653,-2.4464202,-0.79276097,1.3158691,-0.05815198,-0.3310251,0.03308784,1.2235597,2.1483495
-0.2,0.0,0.7,-0.5235987755982988,-0.5235987755982988,0,0.5952937,1.9739536,0.20129864,-1.085599,0.5006768,1.5472809,-2.4738214,-0.81855226,1.3200836,-0.060556993,-0.3319812,0.045814384,1.2042934,2.0785549
-0.2,0.0,0.7,-0.5235987755982988,-0.5235987755982988,0,0.59591424,1.9772865,0.19886081,-1.0885239,0.5018141,1.547626,-2.466696,-0.80214286,1.3131901,-0.06123805,-0.33122626,0.03237957,1.2205852,2.1327908
-0.2,0.0,0.7,-0.5235987755982988,-0.5235987755982988,0,0.59642816,1.9761192,0.1954806,-1.0851816,0.50479,1.5478923,-2.4602451,-0.80122507,1.3116721,-0.057420634,-0.33968577,0.03608426,1.229005,2.143961
-0.2,0.0,0.7,-0.5235987755982988,-0.5235987755982988,0,0.5939638,1.9760684,0.19996129,-1.0844326,0.50574684,1.5499954,-2.460053,-0.797562,1.3088912,-0.06502602,-0.3312532,0.039192986,1.2148485,2.0955718
-0.2,0.0,0.7,-0.5235987755982988,-0.5235987755982988,0,0.59444946,1.978739,0.20236848,-1.0850974,0.49988115,1.5492764,-2.4579103,-0.8062665,1.3125098,-0.06026446,-0.32677993,0.044047855,1.226218,2.0959792
-0.2,0.0,0.7,-0.5235987755982988,-0.5235987755982988,0,0.59253556,1.9776363,0.2048225,-1.0810198,0.4884755,1.5494523,-2.468387,-0.8073608,1.3160613,-0.056133974,-0.32794484,0.037953127,1.2254598,2.0202656
-0.2,0.0,0.7,-0.5235987755982988,-0.5235987755982988,0,0.5962449,1.9665717,0.19410281,-1.0774893,0.5039984,1.5514675,-2.4142733,-0.8033185,1.3194,-0.06379306,-0.33773106,0.040310398,1.2381536,2.1179285
-0.2,0.0,0.7,-0.5235987755982988,-0.5235987755982988,0,0.5936539,1.979435,0.19768995,-1.0743866,0.49918467,1.5433598,-2.449965,-0.80512905,1.3166016,-0.04871782,-0.33613038,0.03288175,1.2177517,2.1772323
-0.2,0.0,0.7,-0.5235987755982988,-0.5235987755982988,0,0.59672767,1.978182,0.19715773,-1.0847793,0.5047175,1.5452354,-2.4501436,-0.79855615,1.3135289,-0.04739401,-0.32999834,0.047650892,1.2096554,1.9573632
-0.2,0.0,0.7,-0.5235987755982988,-0.5235987755982988,0,0.597111,1.9757951,0.20049572,-1.0875887,0.49523503,1.5497146,-2.469915,-0.79451513,1.3196673,-0.06654085,-0.33597752,0.05365545,1.2088993,2.038993
-0.2,0.0,0.7,-0.5235987755982988,-0.5235987755982988,0,0.59677243,1.9778259,0.1974402,-1.0830427,0.50282925,1.5494478,-2.4739738,-0.8014079,1.3167355,-0.060189884,-0.3283213,0.059188403,1.2211821,2.1088398
-0.2,0.0,0.7,-0.5235987755982988,-0.5235987755982988,0,0.5940149,1.9782523,0.19055517,-1.0792692,0.5083846,1.5478185,-2.4622903,-0.78988504,1.3095875,-0.061765235,-0.33658877,0.04350752,1.2237602,2.0408664
-0.2,0.0,0.7,-0.5235987755982988,-0.5235987755982988,0,0.593885,1.9780939,0.20329674,-1.0857657,0.49316368,1.550894,-2.4621983,-0.79747003,1.3122314,-0.052834403,-0.33444867,0.038806558,1.2239785,2.0640554
-0.2,0.0,0.7,-0.5235987755982988,-0.5235987755982988,0,0.6000578,1.9780816,0.19455618,-1.079738,0.50030243,1.5448635,-2.4796712,-0.7903462,1.3177313,-0.061273273,-0.33148342,0.033629727,1.2281356,2.0553534
-0.2,0.0,0.7,-0.5235987755982988,-0.5235987755982988,0,0.59764457,1.9762785,0.19815107,-1.0792071,0.5130484,1.541488,-2.4711208,-0.79549235,1.3150842,-0.06367527,-0.3367881,0.054897226,1.2213787,2.0771613
-0.2,0.0,0.7,-0.5235987755982988,-0.5235987755982988,0,0.59463876,1.9775659,0.20779866,-1.0757589,0.50821865,1.5441439,-2.4392838,-0.79528344,1.3189656,-0.0680924,-0.33480707,0.04249947,1.2239469,2.0406516
-0.2,0.0,0.7,-0.5235987755982988,-0.5235987755982988,0,0.59593236,1.9792335,0.20082422,-1.0792264,0.50430757,1.5466425,-2.4391074,-0.81791526,1.315169,-0.0600929,-0.3334733,0.03813325,1.2116696,2.1131008
-0.2,0.0,0.7,-0.5235987755982988,-0.5235987755982988,0,0.5958424,1.9757242,0.19595315,-1.0789179,0.49701375,1.5493085,-2.459827,-0.79513836,1.3150059,-0.057266917,-0.33163777,0.03287016,1.2288436,2.1321757
-0.2,0.0,0.7,-0.5235987755982988,-0.5235987755982988,0,0.5978039,1.9783179,0.19754265,-1.0830828,0.50285393,1.5475365,-2.456849,-0.790636,1.3161579,-0.053602308,-0.33076862,0.026410673,1.2262539,1.9202124
-0.2,0.0,0.7,-0.5235987755982988,-0.5235987755982988,0,0.5965933,1.9756924,0.19850476,-1.0782236,0.50538695,1.5467014,-2.466439,-0.8029292,1.313752,-0.059102517,-0.32546344,0.045252044,1.2212929,2.1244407
-0.2,0.0,0.7,-0.5235987755982988,-0.5235987755982988,0,0.59587723,1.9808507,0.20494407,-1.0809551,0.4979795,1.5488158,-2.460875,-0.79635495,1.3177029,-0.05274495,-0.33542785,0.031735938,1.219864,2.1701765
-0.2,0.0,0.7,-0.5235987755982988,-0.5235987755982988,0,0.59382737,1.9748011,0.1992248,-1.0786903,0.4940165,1.5471147,-2.4340327,-0.7852161,1.3122367,-0.061297126,-0.32968476,0.038352963,1.2220533,2.1792624
-0.2,0.0,0.7,-0.5235987755982988,-0.5235987755982988,0,0.5965,1.9809996,0.19342278,-1.077064,0.5043877,1.5501246,-2.4519885,-0.7894569,1.3176308,-0.061254308,-0.33236796,0.035308152,1.2124988,2.1643827
-0.2,0.0,0.7,-0.5235987755982988,-0.5235987755982988,0,0.5949065,1.9801737,0.19837366,-1.0817145,0.4928068,1.5507902,-2.4644234,-0.796291,1.3221866,-0.060811576,-0.33974367,0.041663107,1.2046149,2.1080625
-0.2,0.0,0.7,-0.5235987755982988,-0.5235987755982988,0,0.5995515,1.9707918,0.19447966,-1.0747088,0.4951495,1.5460427,-2.4454265,-0.7988939,1.3208723,-0.058230124,-0.3285504,0.029260615,1.2367469,2.1704316
-0.2,0.0,0.7,-0.5235987755982988,-0.5235987755982988,0,0.60206515,1.9663892,0.20169435,-1.0729351,0.5031651,1.5488551,-2.460532,-0.797673,1.3106583,-0.06365499,-0.33513254,0.035074767,1.2148973,2.1407762
-0.2,0.0,0.7,-0.5235987755982988,-0.5235987755982988,0,0.5992007,1.977404,0.19703013,-1.07835,0.5037635,1.5491389,-2.4710453,-0.78993475,1.3169508,-0.06993568,-0.3347181,0.0480051,1.2039672,2.0001643
-0.2,0.0,0.7,-0.5235987755982988,-0.5235987755982988,0,0.5991537,1.9787731,0.19960448,-1.0742482,0.50859433,1.5454631,-2.4588165,-0.7999794,1.3147957,-0.067508176,-0.33717504,0.045650654,1.2292417,2.132654
-0.2,0.0,0.7,-0.5235987755982988,-0.5235987755982988,0,0.59702486,1.9791558,0.20558852,-1.0745409,0.5034157,1.5434583,-2.4640524,-0.7959697,1.3186312,-0.061773073,-0.3213468,0.0348929,1.2160188,2.2459302
-0.2,0.0,0.7,-0.5235987755982988,-0.5235987755982988,0,0.5975271,1.9751545,0.20146656,-1.0734648,0.49726793,1.549894,-2.4478927,-0.8012759,1.313469,-0.056142967,-0.33832556,0.04193005,1.2412341,2.1134725
-0.2,0.0,0.7,-0.5235987755982988,-0.5235987755982988,0,0.59455657,1.9799137,0.20593391,-1.0755273,0.49453592,1.5464762,-2.4328046,-0.79489976,1.3162298,-0.056318156,-0.335211,0.034235943,1.2304465,1.992372
-0.2,0.0,0.7,-0.5235987755982988,-0.5235987755982988,0,0.59563977,1.9790772,0.1982427,-1.074535,0.5044977,1.5468718,-2.4224217,-0.8092596,1.3183593,-0.06275704,-0.33738935,0.045752577,1.2242471,2.0824785
-0.2,0.0,0.7,-0.5235987755982988,-0.5235987755982988,0,0.59554994,1.9800435,0.2011237,-1.0754085,0.4994072,1.5475997,-2.457463,-0.79709536,1.3159192,-0.060084,-0.34107143,0.049126238,1.2141514,2.081303
-0.2,0.0,0.7,-0.5235987755982988,-0.5235987755982988,0,0.59904027,1.9822087,0.19928119,-1.0846553,0.50891364,1.5488441,-2.4466722,-0.7921262,1.3151648,-0.05954417,-0.32967943,0.016597053,1.233344,2.1378233
-0.2,0.0,0.7,-0.5235987755982988,-0.5235987755982988,0,0.5996761,1.9781919,0.20168345,-1.0775896,0.49600464,1.5506961,-2.445926,-0.8023504,1.3182151,-0.063294135,-0.32961977,0.038876265,1.2210003,2.1325428
-0.2,0.0,0.7,-0.5235987755982988,-0.5235987755982988,0,0.5972111,1.9804728,0.19770077,-1.0738671,0.5071462,1.5505625,-2.4238033,-0.79352593,1.3147712,-0.058659818,-0.3327777,0.03559729,1.219113,1.953257
-0.2,0.0,0.7,-0.5235987755982988,-0.5235987755982988,0,0.6003548,1.9769088,0.19874531,-1.1029203,0.49823228,1.5498196,-2.435394,-0.8002529,1.3170278,-0.065152176,-0.35254166,0.03051323,1.2313348,2.0531654
-0.2,0.0,0.7,-0.5235987755982988,-0.5235987755982988,0,0.59668696,1.9715505,0.20182386,-1.0797154,0.50098765,1.5436593,-2.460068,-0.7957125,1.3160887,-0.066265576,-0.3290265,0.03990926,1.221832,2.1755886
-0.2,0.0,0.7,-0.5235987755982988,-0.5235987755982988,0,0.5966329,1.9771925,0.19588073,-1.0743284,0.49975753,1.5460178,-2.4543757,-0.8008867,1.3129975,-0.061777145,-0.33262718,0.0471537,1.2172832,2.0802317
-0.2,0.0,0.7,-0.5235987755982988,-0.5235987755982988,0,0.5954918,1.980012,0.20017715,-1.0763466,0.49870795,1.5502299,-2.4855444,-0.7979726,1.3131827,-0.05129187,-0.34118983,0.044476185,1.2089376,2.2190607
