sanky1234/BimanualDexCatch/isaacgymenvs/cem_results/football_pose_0.0_0.1_1.0999999999999999_-0.5235987755982988_-0.5235987755982988_0_2025-05-26.csv
x,y,z,roll,pitch,yaw,robot1/joint1,robot1/joint2,robot1/joint3,robot1/joint4,robot1/joint5,robot1/joint6,robot1/joint7,robot2/joint1,robot2/joint2,robot2/joint3,robot2/joint4,robot2/joint5,robot2/joint6,robot2/joint7
0.0,0.1,1.0999999999999999,-0.5235987755982988,-0.5235987755982988,0,-0.5327001,-0.3531275,0.015788473,0.13043578,-0.30967093,1.431233,0.88580567,0.6194046,-1.5355908,-1.4952513,-0.08146626,0.039406694,1.1609328,-0.053760204
0.0,0.1,1.0999999999999999,-0.5235987755982988,-0.5235987755982988,0,-0.53261214,-0.35280344,0.07081193,0.1932112,0.21328562,1.481882,0.33753762,0.61975515,-1.5339016,-0.97306246,-0.083491296,-0.039466448,1.2257766,-2.4854546
0.0,0.1,1.0999999999999999,-0.5235987755982988,-0.5235987755982988,0,-0.5322058,-0.35274807,0.027747339,0.2620796,-0.095229186,1.4450765,0.6388255,0.61882645,-1.5335368,-0.6807088,-0.0632525,0.05973563,1.1850393,-0.7710589
0.0,0.1,1.0999999999999999,-0.5235987755982988,-0.5235987755982988,0,-0.53244483,-0.35312876,0.05316192,0.1829498,0.2736463,1.4614344,-0.060293056,0.6190579,-1.5343136,-0.89249283,-0.09954206,-0.08014506,1.1755279,-0.72129744
0.0,0.1,1.0999999999999999,-0.5235987755982988,-0.5235987755982988,0,-0.53236073,-0.3529474,0.07705903,0.1500369,0.021540517,1.4763126,0.13088132,0.6185493,-1.5342996,-0.6534549,-0.05588047,-0.079260655,1.2479142,-0.544916
0.0,0.1,1.0999999999999999,-0.5235987755982988,-0.5235987755982988,0,-0.53259856,-0.35284194,0.059828192,0.190071,0.69510525,1.4613107,1.019164,0.6217999,-1.5355505,-0.67347646,-0.053466048,-0.036284342,1.1975921,0.52412087
0.0,0.1,1.0999999999999999,-0.5235987755982988,-0.5235987755982988,0,-0.53224945,-0.3525506,0.09111156,0.20360738,-0.29771018,1.4373033,0.76662445,0.61853635,-1.533509,-0.9523624,-0.072301574,0.08694304,1.1475017,-0.012438764
0.0,0.1,1.0999999999999999,-0.5235987755982988,-0.5235987755982988,0,-0.53246355,-0.35280293,0.07063418,0.18051045,0.011879474,1.4713987,1.0798484,0.6208469,-1.5348847,-1.0673167,-0.040457588,-0.11421274,1.1752843,-0.91104764
0.0,0.1,1.0999999999999999,-0.5235987755982988,-0.5235987755982988,0,-0.53264743,-0.35290727,0.064323954,0.1956425,-0.16813098,1.4488878,-0.70408344,0.62031,-1.535302,-1.1099706,-0.06333167,0.052344035,1.1827291,-0.087605484
0.0,0.1,1.0999999999999999,-0.5235987755982988,-0.5235987755982988,0,-0.53240997,-0.35284555,0.032977838,0.1830622,0.13815638,1.4097532,0.7784882,0.61984986,-1.5340354,-0.98191345,-0.074522786,0.023351435,1.154072,0.38386536
0.0,0.1,1.0999999999999999,-0.5235987755982988,-0.5235987755982988,0,-0.53255314,-0.35295987,0.083243944,0.24047647,0.25948465,1.4457995,0.35327923,0.62024784,-1.5330883,-0.87026715,-0.089575544,-0.071106344,1.2172686,0.9135933
0.0,0.1,1.0999999999999999,-0.5235987755982988,-0.5235987755982988,0,-0.5325122,-0.3527575,0.05549612,0.1609002,-0.05310066,1.4502031,0.65813166,0.61706996,-1.5335938,-1.0015762,-0.07413288,-0.03575832,1.1884496,-1.0312924
0.0,0.1,1.0999999999999999,-0.5235987755982988,-0.5235987755982988,0,-0.5324829,-0.35261118,0.08490133,0.18900217,0.19692905,1.4339248,-0.076533206,0.6181067,-1.5347402,-0.80173594,-0.052094385,-0.06286865,1.1818192,0.21684197
0.0,0.1,1.0999999999999999,-0.5235987755982988,-0.5235987755982988,0,-0.532554,-0.35286447,0.04190716,0.2511808,0.31472588,1.4814683,0.8851151,0.62033683,-1.5351024,-1.0975564,-0.050454583,0.028653162,1.1663986,0.7643907
0.0,0.1,1.0999999999999999,-0.5235987755982988,-0.5235987755982988,0,-0.53232473,-0.35273975,0.03881506,0.20612185,-0.17971158,1.4723958,0.09076364,0.6182673,-1.5352792,-1.1439835,-0.05536066,-0.06193575,1.1809888,-0.26707277
0.0,0.1,1.0999999999999999,-0.5235987755982988,-0.5235987755982988,0,-0.5326695,-0.35299173,0.037642505,0.16156206,0.3668818,1.3945132,0.8139521,0.6202852,-1.5362836,-1.343959,-0.0803648,0.08664156,1.1515222,-0.6875696
0.0,0.1,1.0999999999999999,-0.5235987755982988,-0.5235987755982988,0,-0.53260183,-0.35274282,0.052030448,0.21448252,0.10746909,1.474306,0.25930572,0.6192125,-1.5327132,-0.74745333,-0.050152786,0.0053467313,1.1117257,-0.42564967
0.0,0.1,1.0999999999999999,-0.5235987755982988,-0.5235987755982988,0,-0.53217804,-0.35298112,0.061805915,0.1963486,-0.12746799,1.4340622,-0.680375,0.6200202,-1.534894,-0.80841595,-0.090482965,0.0008081141,1.2133017,1.1931587
0.0,0.1,1.0999999999999999,-0.5235987755982988,-0.5235987755982988,0,-0.5324147,-0.35292804,0.0703305,0.22754791,-0.5167197,1.4110852,0.23038697,0.62025607,-1.5342753,-0.906491,-0.08376065,-0.11904917,1.1908779,-0.3559478
0.0,0.1,1.0999999999999999,-0.5235987755982988,-0.5235987755982988,0,-0.53236616,-0.3525217,0.059140805,0.20493571,0.005398016,1.4855925,0.8822802,0.61998093,-1.5355437,-0.809778,-0.045664866,0.019861195,1.1525191,0.18695454
0.0,0.1,1.0999999999999999,-0.5235987755982988,-0.5235987755982988,0,-0.53224957,-0.35300225,0.07078703,0.17786363,-0.39754942,1.4191841,0.25221997,0.6196435,-1.5363687,-1.4329791,-0.05063665,0.054541405,1.2084067,0.8948477
0.0,0.1,1.0999999999999999,-0.5235987755982988,-0.5235987755982988,0,-0.5326988,-0.352819,0.045554854,0.16709271,-0.112653255,1.4583127,-0.46968755,0.6212178,-1.534422,-1.561421,-0.022675326,0.0064058616,1.130031,0.044024758
0.0,0.1,1.0999999999999999,-0.5235987755982988,-0.5235987755982988,0,-0.53263533,-0.3533013,0.05728766,0.1661961,0.24224962,1.4619234,0.37785894,0.6195409,-1.5358856,-0.87487584,-0.04362369,-0.06741537,1.1800416,1.4193295
0.0,0.1,1.0999999999999999,-0.5235987755982988,-0.5235987755982988,0,-0.53281134,-0.35251614,0.06254568,0.129729,0.08754531,1.4443659,1.3273413,0.6183247,-1.5360273,-1.0928968,-0.06745619,0.036749292,1.1929104,-1.0091181
0.0,0.1,1.0999999999999999,-0.5235987755982988,-0.5235987755982988,0,-0.5323122,-0.35270867,0.060958877,0.12913376,0.19675271,1.4268627,-0.123374924,0.62073696,-1.5342504,-0.99950576,-0.05292385,0.015014666,1.1804931,-0.73381203
0.0,0.1,1.0999999999999999,-0.5235987755982988,-0.5235987755982988,0,-0.5323147,-0.3525284,0.031406637,0.1825151,0.021938233,1.4378614,0.93399876,0.6183878,-1.5345389,-1.4622567,-0.061722998,0.00025437505,1.1869177,-0.31176683
0.0,0.1,1.0999999999999999,-0.5235987755982988,-0.5235987755982988,0,-0.5325711,-0.3528982,0.08739569,0.23099512,-0.096233085,1.456882,0.2934725,0.6206511,-1.5340029,-1.3384813,-0.055613168,-0.039910145,1.1910528,0.09588089
0.0,0.1,1.0999999999999999,-0.5235987755982988,-0.5235987755982988,0,-0.53208613,-0.35264146,0.09568944,0.14861757,-0.4108381,1.4643291,0.69086874,0.62058747,-1.5337727,-1.2818851,-0.08042154,-0.013297898,1.1549553,0.29297683
0.0,0.1,1.0999999999999999,-0.5235987755982988,-0.5235987755982988,0,-0.5324476,-0.35322562,0.04037143,0.18516472,-0.15384348,1.4345739,-0.48361433,0.6199969,-1.5349357,-0.9918198,-0.0653543,-0.003794021,1.1389292,-1.9130753
0.0,0.1,1.0999999999999999,-0.5235987755982988,-0.5235987755982988,0,-0.532868,-0.35265952,0.03852932,0.19562608,0.3109999,1.4469903,0.20947073,0.6186247,-1.535191,-0.9885843,-0.06918806,0.025644824,1.1728499,0.7653244
0.0,0.1,1.0999999999999999,-0.5235987755982988,-0.5235987755982988,0,-0.53240883,-0.3529784,0.071328126,0.24900366,-0.041629873,1.4164393,0.37965414,0.61972517,-1.5352865,-0.98604107,-0.046330754,-0.053221673,1.1782953,0.8512871
0.0,0.1,1.0999999999999999,-0.5235987755982988,-0.5235987755982988,0,-0.5326071,-0.35285905,0.09085987,0.20254214,0.22031409,1.4604925,-0.14286838,0.6213355,-1.534132,-1.1794006,-0.036572855,-0.091696024,1.2196531,-0.56744784
0.0,0.1,1.0999999999999999,-0.5235987755982988,-0.5235987755982988,0,-0.53226656,-0.35298795,0.09988506,0.19661659,-0.16231929,1.4788834,0.5670462,0.6195546,-1.5345125,-1.1607906,-0.06283811,-0.09207107,1.1476728,0.9416413
0.0,0.1,1.0999999999999999,-0.5235987755982988,-0.5235987755982988,0,-0.53226703,-0.35267916,0.089640275,0.18066369,0.27124196,1.4942187,0.080926254,0.62018514,-1.5344877,-0.44161776,-0.08186862,-0.008326006,1.1907476,-0.50665087
0.0,0.1,1.0999999999999999,-0.5235987755982988,-0.5235987755982988,0,-0.53232634,-0.35254332,0.04713073,0.20623179,-0.12685929,1.4211152,0.24862187,0.6205251,-1.5359857,-1.252537,-0.060092527,-0.06905491,1.1642433,-0.22596778
0.0,0.1,1.0999999999999999,-0.5235987755982988,-0.5235987755982988,0,-0.53271127,-0.35301927,0.061726525,0.25317216,0.09111945,1.4730992,0.31353542,0.6191233,-1.5358309,-0.86230963,-0.06381716,0.10338504,1.1384641,-1.1951723
0.0,0.1,1.0999999999999999,-0.5235987755982988,-0.5235987755982988,0,-0.5326864,-0.35271597,0.109506786,0.1567066,0.9037608,1.4381262,-0.19011436,0.62036467,-1.5363678,-1.3555223,-0.10111776,0.016108293,1.1716311,0.46710145
0.0,0.1,1.0999999999999999,-0.5235987755982988,-0.5235987755982988,0,-0.53259146,-0.35270783,0.05561185,0.19703901,0.28375778,1.4891201,0.1437973,0.6203953,-1.5348262,-0.83793783,-0.060906883,0.008610423,1.1888762,0.15776867
0.0,0.1,1.0999999999999999,-0.5235987755982988,-0.5235987755982988,0,-0.5322725,-0.3523167,0.08211785,0.20506543,-0.1785353,1.4452968,1.3317153,0.6197046,-1.53574,-1.1544795,-0.07162768,-0.054874934,1.1799827,1.3409867
0.0,0.1,1.0999999999999999,-0.5235987755982988,-0.5235987755982988,0,-0.5323963,-0.35309425,0.07028958,0.18109001,0.27237976,1.3884666,0.043723978,0.6191838,-1.5336393,-1.22525,-0.05769881,-0.034616366,1.115551,0.6093748
0.0,0.1,1.0999999999999999,-0.5235987755982988,-0.5235987755982988,0,-0.5325443,-0.3524853,0.096491106,0.18085493,-0.17958374,1.4046488,1.4146446,0.620371,-1.5325153,-0.87103003,-0.06321364,-0.0126556,1.1378535,0.34477663
0.0,0.1,1.0999999999999999,-0.5235987755982988,-0.5235987755982988,0,-0.5322683,-0.3528598,0.03579895,0.18171814,-0.04937138,1.4277873,-0.14040124,0.62044966,-1.5351439,-0.6885471,-0.047533482,-0.07653273,1.1625232,0.13804059
0.0,0.1,1.0999999999999999,-0.5235987755982988,-0.5235987755982988,0,-0.53253144,-0.35255784,0.05216552,0.17256935,-0.26027906,1.4049908,0.6621946,0.61992437,-1.5340959,-1.0224769,-0.034376584,-0.014569565,1.1439476,1.2633796
0.0,0.1,1.0999999999999999,-0.5235987755982988,-0.5235987755982988,0,-0.5324785,-0.35258865,0.06884461,0.20973381,-0.08625006,1.4983273,0.49698985,0.6206625,-1.5357196,-1.2608802,-0.05607536,0.13941048,1.2091845,-0.7561061
0.0,0.1,1.0999999999999999,-0.5235987755982988,-0.5235987755982988,0,-0.532323,-0.35274175,0.016107233,0.18145637,0.119977646,1.4231973,0.51107216,0.61998814,-1.5344661,-1.332604,-0.07860143,-0.033999946,1.1421916,-1.646
0.0,0.1,1.0999999999999999,-0.5235987755982988,-0.5235987755982988,0,-0.53256005,-0.35260698,0.03341396,0.23852038,0.24623252,1.4505126,0.7908324,0.61773807,-1.5345368,-0.58746356,-0.07332335,0.010758761,1.1929921,-1.1004816
0.0,0.1,1.0999999999999999,-0.5235987755982988,-0.5235987755982988,0,-0.5322936,-0.35241753,0.03636396,0.17702538,0.29984662,1.3866056,0.76295453,0.6192031,-1.5355055,-0.81073284,-0.05769322,0.081770174,1.1594232,-0.2629268
0.0,0.1,1.0999999999999999,-0.5235987755982988,-0.5235987755982988,0,-0.5320565,-0.35261753,0.095297806,0.14776815,-0.4521201,1.4402597,0.2841225,0.62055385,-1.5349215,-1.0587426,-0.07509492,0.0469635,1.2138137,0.34051746
0.0,0.1,1.0999999999999999,-0.5235987755982988,-0.5235987755982988,0,-0.5328813,-0.35267577,0.047327384,0.19981219,0.36831108,1.3845851,0.9348926,0.61760163,-1.5355002,-1.4465806,-0.026376368,-0.0967594,1.2131982,-1.0564796
0.0,0.1,1.0999999999999999,-0.5235987755982988,-0.5235987755982988,0,-0.5326034,-0.3523626,0.05019649,0.1935466,0.35307416,1.4537612,0.2315735,0.6202559,-1.5371959,-1.2391789,-0.020337831,0.099792294,1.2123779,-0.46882993
0.0,0.1,1.0999999999999999,-0.5235987755982988,-0.5235987755982988,0,-0.532304,-0.35229033,0.032216948,0.1788539,0.3965527,1.4386476,0.5147635,0.61933434,-1.5357583,-0.7020184,-0.040012095,0.06079927,1.2141336,-0.7779948
0.0,0.1,1.0999999999999999,-0.5235987755982988,-0.5235987755982988,0,-0.5322026,-0.35225016,0.020252362,0.14222749,0.07438172,1.4534051,0.4595919,0.6187804,-1.5357326,-1.0707479,-0.05742168,-0.086051136,1.1674534,-0.35128832
0.0,0.1,1.0999999999999999,-0.5235987755982988,-0.5235987755982988,0,-0.53248495,-0.35256153,0.07329336,0.2360397,-0.13166931,1.4502625,0.8005994,0.61934364,-1.5353963,-0.8900635,-0.031922836,-0.01854117,1.1306975,-0.17726381
0.0,0.1,1.0999999999999999,-0.5235987755982988,-0.5235987755982988,0,-0.53222483,-0.35246736,0.024278104,0.18320963,0.24478848,1.4317325,0.118946664,0.6188532,-1.5347531,-0.7721142,-0.06638023,0.020749465,1.1971639,-2.653632
0.0,0.1,1.0999999999999999,-0.5235987755982988,-0.5235987755982988,0,-0.5325184,-0.35263714,0.06404865,0.190187,0.20117031,1.3777348,0.05421081,0.6180821,-1.5352658,-0.6966212,-0.0917932,-0.0017198744,1.1870562,-0.9503231
0.0,0.1,1.0999999999999999,-0.5235987755982988,-0.5235987755982988,0,-0.532242,-0.3527893,0.078828126,0.18944699,-0.27240583,1.4609375,0.2869227,0.6204468,-1.5346214,-0.8760269,-0.1022591,-0.046799965,1.2020047,-0.07880086
0.0,0.1,1.0999999999999999,-0.5235987755982988,-0.5235987755982988,0,-0.5326859,-0.35270777,0.083247796,0.21354483,-0.054229178,1.4924417,-0.008280644,0.6188956,-1.5354651,-0.79441917,-0.032413937,0.046898093,1.1851226,-0.53055996
0.0,0.1,1.0999999999999999,-0.5235987755982988,-0.5235987755982988,0,-0.53237313,-0.35271096,0.06332378,0.19295055,0.11271934,1.4578125,0.32377687,0.6185322,-1.5326213,-1.0584366,-0.04186963,0.05669388,1.1923273,-1.0904818
0.0,0.1,1.0999999999999999,-0.5235987755982988,-0.5235987755982988,0,-0.53261346,-0.35254195,0.08296474,0.23346336,-0.39136434,1.4190418,0.4638089,0.618166,-1.534168,-0.6112643,-0.062912166,0.012745298,1.1584103,-0.43210846
0.0,0.1,1.0999999999999999,-0.5235987755982988,-0.5235987755982988,0,-0.5326075,-0.35303757,0.062026396,0.13217536,0.36321157,1.4167277,1.3617843,0.61847097,-1.5349379,-0.7420618,-0.06386245,0.09637841,1.1616641,0.10363442
0.0,0.1,1.0999999999999999,-0.5235987755982988,-0.5235987755982988,0,-0.53201383,-0.35274142,0.09949262,0.23478843,-0.013724888,1.465872,0.09863779,0.61925477,-1.5351608,-1.174402,-0.06487414,0.04389044,1.1197125,-1.5227575
0.0,0.1,1.0999999999999999,-0.5235987755982988,-0.5235987755982988,0,-0.53249186,-0.35287604,0.049146816,0.18817528,-0.12669882,1.429412,1.1685492,0.6207684,-1.5332094,-1.7496247,-0.02626153,0.08016961,1.1810827,0.8738358
0.0,0.1,1.0999999999999999,-0.5235987755982988,-0.5235987755982988,0,-0.5324985,-0.35290313,0.108870536,0.19849116,-0.0031349785,1.3979306,0.55087113,0.6202394,-1.5350221,-0.8316595,-0.062575914,0.021514073,1.1357691,-0.763072
0.0,0.1,1.0999999999999999,-0.5235987755982988,-0.5235987755982988,0,-0.5326472,-0.35273656,0.05765797,0.1777221,-0.4270961,1.4792717,0.5653984,0.6186145,-1.534308,-0.67616725,-0.011417179,0.073701166,1.1732813,-0.24923642
0.0,0.1,1.0999999999999999,-0.5235987755982988,-0.5235987755982988,0,-0.532591,-0.35275033,0.041956373,0.18317485,0.07496733,1.4334605,0.60897076,0.6189407,-1.5351651,-0.8381011,-0.073966846,0.11682849,1.1504561,0.961581
0.0,0.1,1.0999999999999999,-0.5235987755982988,-0.5235987755982988,0,-0.53257084,-0.35270593,0.07560245,0.22916971,-0.00833902,1.4458144,0.3998299,0.61961734,-1.5337332,-0.9656304,-0.06744476,0.013202182,1.1584698,0.022924554
0.0,0.1,1.0999999999999999,-0.5235987755982988,-0.5235987755982988,0,-0.5323346,-0.35284233,0.121874884,0.20285752,0.019734558,1.4629683,0.37646157,0.6192141,-1.5345894,-0.38936138,-0.06484727,0.06981439,1.1869805,-0.27852595
0.0,0.1,1.0999999999999999,-0.5235987755982988,-0.5235987755982988,0,-0.5321518,-0.35255283,0.020682344,0.21475755,-0.7319202,1.4876342,0.25089613,0.62079954,-1.5345675,-1.3170918,-0.066284604,-0.04433042,1.1874641,1.262741
0.0,0.1,1.0999999999999999,-0.5235987755982988,-0.5235987755982988,0,-0.53276175,-0.3528473,0.018351775,0.17661265,0.0028733304,1.4912525,0.68414277,0.6210939,-1.5359955,-1.1400998,-0.049488414,-0.0068206084,1.1380606,-0.8292541
0.0,0.1,1.0999999999999999,-0.5235987755982988,-0.5235987755982988,0,-0.53230596,-0.35248578,0.021488817,0.2374235,-0.14041537,1.4966037,-0.37378293,0.6212907,-1.5364009,-0.9927951,-0.056087926,0.12477246,1.1590774,0.041875277
0.0,0.1,1.0999999999999999,-0.5235987755982988,-0.5235987755982988,0,-0.532302,-0.35272336,0.019696841,0.22143947,-0.2217049,1.3893986,-0.18915628,0.61864597,-1.5332724,-1.1125009,-0.06895966,-0.06555448,1.2026027,0.11775018
0.0,0.1,1.0999999999999999,-0.5235987755982988,-0.5235987755982988,0,-0.5327929,-0.35300365,0.06912217,0.19969873,-0.00048807016,1.4660469,0.4636656,0.61907303,-1.5370151,-1.4072584,-0.08344114,0.0661275,1.1347154,-0.00798203
0.0,0.1,1.0999999999999999,-0.5235987755982988,-0.5235987755982988,0,-0.53245056,-0.35304117,0.08001366,0.18766822,-0.49865952,1.4266218,-0.24908169,0.6211582,-1.5345058,-0.8514467,-0.06609886,-0.05235081,1.1755643,0.96233004
0.0,0.1,1.0999999999999999,-0.5235987755982988,-0.5235987755982988,0,-0.53222895,-0.3526841,0.10706318,0.16752926,0.11858205,1.4301275,-0.3198919,0.61809915,-1.5335828,-0.6206836,-0.06716842,-0.01370472,1.1620655,-0.54181343
0.0,0.1,1.0999999999999999,-0.5235987755982988,-0.5235987755982988,0,-0.532549,-0.352717,0.059489336,0.24051286,0.43904614,1.4646516,0.81064856,0.6206954,-1.5347428,-0.69114906,-0.08682622,-0.00058467046,1.1201913,0.13529089
0.0,0.1,1.0999999999999999,-0.5235987755982988,-0.5235987755982988,0,-0.53242683,-0.35271803,0.07999762,0.21083906,-0.36326596,1.4275808,-0.15144879,0.61992186,-1.5344689,-1.3962816,-0.057482023,0.0055653816,1.1117939,-0.48731184
0.0,0.1,1.0999999999999999,-0.5235987755982988,-0.5235987755982988,0,-0.5324691,-0.35275066,0.11062751,0.1651107,0.45210856,1.4543828,0.24034731,0.6190431,-1.536957,-1.3939761,-0.07045938,0.09017059,1.1805806,-1.5836415
0.0,0.1,1.0999999999999999,-0.5235987755982988,-0.5235987755982988,0,-0.53253484,-0.3527133,0.089896746,0.1797524,-0.38096097,1.4887347,0.27370608,0.61929125,-1.5353141,-0.7066051,-0.07250467,0.07307285,1.2176291,-1.1807419
0.0,0.1,1.0999999999999999,-0.5235987755982988,-0.5235987755982988,0,-0.53246045,-0.35256773,0.09027258,0.13186446,-0.09858123,1.43587,-0.56716925,0.6194898,-1.5352279,-1.2114445,-0.08246537,0.10622959,1.212269,0.99092346
0.0,0.1,1.0999999999999999,-0.5235987755982988,-0.5235987755982988,0,-0.5323912,-0.35281268,0.099421166,0.21441486,0.054168522,1.4121668,0.93601984,0.619553,-1.5355483,-0.91935766,-0.032463834,-0.0816664,1.2081528,-0.05791902
0.0,0.1,1.0999999999999999,-0.5235987755982988,-0.5235987755982988,0,-0.5324782,-0.35277894,0.06789579,0.2002198,-0.5967532,1.4167147,0.6726324,0.6201849,-1.5350041,-0.8496824,-0.06676921,-0.034263805,1.2030054,0.19292012
0.0,0.1,1.0999999999999999,-0.5235987755982988,-0.5235987755982988,0,-0.5325204,-0.3529279,0.11993445,0.18637535,-0.6342797,1.468124,0.9371467,0.6198563,-1.5368419,-1.2860354,-0.04205965,-0.1320652,1.2437668,1.1290572
0.0,0.1,1.0999999999999999,-0.5235987755982988,-0.5235987755982988,0,-0.5324905,-0.35219982,0.060322456,0.1955039,-0.36612254,1.4342128,-0.4251441,0.61839455,-1.5358478,-0.91195303,-0.06966755,0.15880291,1.1839033,1.3065788
0.0,0.1,1.0999999999999999,-0.5235987755982988,-0.5235987755982988,0,-0.53258765,-0.3529413,0.10495269,0.18746366,-0.17560151,1.4549658,-0.56547576,0.6212319,-1.5343578,-1.3996444,-0.06042932,0.05597622,1.2179189,-0.87829787
0.0,0.1,1.0999999999999999,-0.5235987755982988,-0.5235987755982988,0,-0.53265023,-0.35274014,0.057853498,0.22197479,-0.0046866178,1.4509284,0.4495333,0.6181353,-1.5358379,-0.7668328,-0.081373036,-0.026507713,1.203911,0.30000317
0.0,0.1,1.0999999999999999,-0.5235987755982988,-0.5235987755982988,0,-0.53230333,-0.3526023,0.040919945,0.22036229,0.2568797,1.4146391,-0.04421982,0.6182567,-1.5342796,-1.2793405,-0.09116721,0.043560624,1.1632078,0.29313192
0.0,0.1,1.0999999999999999,-0.5235987755982988,-0.5235987755982988,0,-0.5324355,-0.35305947,0.07274672,0.23341091,0.15868044,1.4581062,0.447354,0.61927044,-1.5340316,-1.1100491,-0.046921596,-0.046747457,1.1788229,-0.6392175
0.0,0.1,1.0999999999999999,-0.5235987755982988,-0.5235987755982988,0,-0.5326838,-0.35273165,0.082663506,0.20286542,-0.63460094,1.4145801,0.4318986,0.6177013,-1.5358192,-0.8611607,-0.07283734,0.0102789225,1.155462,-2.357674
0.0,0.1,1.0999999999999999,-0.5235987755982988,-0.5235987755982988,0,-0.5323927,-0.35247365,0.09729829,0.19944924,-0.032911498,1.4920938,0.67765653,0.61996543,-1.5353854,-1.1436958,-0.0604576,0.0027727091,1.1629891,-0.65922153
0.0,0.1,1.0999999999999999,-0.5235987755982988,-0.5235987755982988,0,-0.53247684,-0.3528384,0.042314805,0.2430542,-0.013389339,1.4162855,0.5818462,0.61831594,-1.5341693,-0.6717688,-0.06594494,-0.03979797,1.2284133,-0.49307165
0.0,0.1,1.0999999999999999,-0.5235987755982988,-0.5235987755982988,0,-0.5324502,-0.3529146,0.058421344,0.22565141,-0.18729895,1.4318706,-0.1643499,0.61864805,-1.5339645,-1.2696451,-0.053410936,0.03375481,1.178461,-0.33509415
0.0,0.1,1.0999999999999999,-0.5235987755982988,-0.5235987755982988,0,-0.5324896,-0.35250726,0.08244274,0.18776454,-0.24398415,1.4327099,0.09055617,0.61774796,-1.5356317,-0.812574,-0.06308184,-0.09785293,1.1613587,-0.77820534
0.0,0.1,1.0999999999999999,-0.5235987755982988,-0.5235987755982988,0,-0.532449,-0.35222775,0.035729975,0.17475784,-0.15427013,1.4764018,0.8215028,0.6190576,-1.5343307,-0.7927005,-0.06783621,-0.06902404,1.1518804,-0.36006698
0.0,0.1,1.0999999999999999,-0.5235987755982988,-0.5235987755982988,0,-0.532532,-0.35275263,0.03950663,0.20442374,0.11860177,1.4371116,1.0970347,0.6195311,-1.5341315,-1.1342403,-0.071325354,-0.052722197,1.1723189,-1.488362
0.0,0.1,1.0999999999999999,-0.5235987755982988,-0.5235987755982988,0,-0.5325495,-0.35273466,0.058583945,0.17585266,-0.009197974,1.4343607,0.15614548,0.6192835,-1.5360464,-1.2694203,-0.08533535,-0.030191565,1.1842684,-0.7221066
0.0,0.1,1.0999999999999999,-0.5235987755982988,-0.5235987755982988,0,-0.5324628,-0.3527355,0.036399633,0.2540918,-0.10600144,1.4178996,0.30570516,0.6198801,-1.5350587,-1.0563025,-0.080345854,0.04508647,1.1712484,0.84713036
0.0,0.1,1.0999999999999999,-0.5235987755982988,-0.5235987755982988,0,-0.5322701,-0.35270265,0.07874308,0.1851195,-0.030257963,1.4125944,1.073434,0.6198921,-1.5351611,-1.5244738,-0.0898021,0.1322367,1.137678,-1.1672
0.0,0.1,1.0999999999999999,-0.5235987755982988,-0.5235987755982988,0,-0.5326872,-0.35248843,0.1031437,0.1853602,-0.08139824,1.4561304,0.5259427,0.61986136,-1.5351164,-0.91611075,-0.0431668,0.034369294,1.2160918,0.4149876
0.0,0.1,1.0999999999999999,-0.5235987755982988,-0.5235987755982988,0,-0.5322699,-0.35258192,0.066559166,0.23013045,0.014449909,1.4018332,0.3568811,0.61836743,-1.534289,-0.70581555,-0.06392375,0.08990314,1.138006,-0.17918015
0.0,0.1,1.0999999999999999,-0.5235987755982988,-0.5235987755982988,0,-0.53237736,-0.35269722,0.038335778,0.22541031,-0.2891992,1.4489461,0.49862334,0.6195073,-1.5348228,-0.8740832,-0.05491547,0.0515144,1.1680607,-0.4283359
0.0,0.1,1.0999999999999999,-0.5235987755982988,-0.5235987755982988,0,-0.5324655,-0.35281697,0.09522137,0.21865001,-0.88724697,1.408213,0.14406246,0.6208135,-1.5345509,-1.2244276,-0.06947857,0.04481642,1.2177913,0.72235644
0.0,0.1,1.0999999999999999,-0.5235987755982988,-0.5235987755982988,0,-0.53262997,-0.3525705,0.1259159,0.21016853,0.8185175,1.4824378,0.36546537,0.6202165,-1.537067,-0.80226356,-0.06611324,0.12115504,1.1896148,0.26187828
0.0,0.1,1.0999999999999999,-0.5235987755982988,-0.5235987755982988,0,-0.5326917,-0.35317776,0.049879953,0.22579212,0.06923068,1.3965222,0.54606396,0.6210325,-1.535735,-1.2685466,-0.09543941,0.05821455,1.1728063,-0.62013924
0.0,0.1,1.0999999999999999,-0.5235987755982988,-0.5235987755982988,0,-0.53237283,-0.3528973,0.066318646,0.1849422,0.21738926,1.4736727,0.7879572,0.618789,-1.5341722,-1.3005071,-0.06221097,-0.05683406,1.2210917,-0.2496045
0.0,0.1,1.0999999999999999,-0.5235987755982988,-0.5235987755982988,0,-0.5326302,-0.35258952,0.079134665,0.21525803,-0.25083703,1.4058189,-0.122327216,0.6188369,-1.5341738,-1.2641155,-0.04919565,-0.01893347,1.1911082,-0.20450966
0.0,0.1,1.0999999999999999,-0.5235987755982988,-0.5235987755982988,0,-0.53247386,-0.35263675,0.0790683,0.17891179,0.4707144,1.4288464,-0.28315714,0.6175911,-1.5352095,-1.0862472,-0.07673858,0.03724606,1.1683036,-0.28769165
0.0,0.1,1.0999999999999999,-0.5235987755982988,-0.5235987755982988,0,-0.53227276,-0.3527031,0.1062686,0.20933132,-0.56919366,1.5080256,-0.31513876,0.61967385,-1.5363088,-0.79498017,-0.04458394,-0.04590511,1.1851636,-1.2229437
0.0,0.1,1.0999999999999999,-0.5235987755982988,-0.5235987755982988,0,-0.5323593,-0.3524572,0.07679758,0.13934402,-0.0750241,1.4674772,0.080046706,0.61851907,-1.5346811,-1.2740927,-0.06998572,0.008793223,1.1236694,-0.33334947
0.0,0.1,1.0999999999999999,-0.5235987755982988,-0.5235987755982988,0,-0.53220606,-0.35249785,0.06408875,0.16368966,-0.23183241,1.5044773,0.4448852,0.6187534,-1.5349528,-0.95940596,-0.045529358,0.06109008,1.1935966,0.031786703
0.0,0.1,1.0999999999999999,-0.5235987755982988,-0.5235987755982988,0,-0.5322958,-0.35272595,0.08051614,0.22608131,0.23316261,1.4471797,0.05682901,0.61903685,-1.5344765,-1.0471987,-0.057692442,0.007833134,1.1151952,-1.0793777
0.0,0.1,1.0999999999999999,-0.5235987755982988,-0.5235987755982988,0,-0.5324141,-0.35269147,0.08333963,0.20591928,-0.047592334,1.4684501,0.8962444,0.6215232,-1.5368179,-1.0245242,-0.06956519,-0.037073135,1.1479087,0.10072004
0.0,0.1,1.0999999999999999,-0.5235987755982988,-0.5235987755982988,0,-0.5325018,-0.35260487,0.11988304,0.25121203,0.21778753,1.47442,-0.49696267,0.6194363,-1.535212,-1.2129339,-0.04525488,-0.010130032,1.165123,0.9253582
0.0,0.1,1.0999999999999999,-0.5235987755982988,-0.5235987755982988,0,-0.53248405,-0.35268962,0.037842523,0.2177305,0.7169891,1.4844701,-0.5309386,0.61884385,-1.5340118,-1.1682075,-0.07349228,-0.068325795,1.1794692,0.24119811
0.0,0.1,1.0999999999999999,-0.5235987755982988,-0.5235987755982988,0,-0.5323879,-0.35257345,0.08049213,0.20486954,-0.28217462,1.4691932,0.70494115,0.6202028,-1.535555,-0.54678416,-0.0814141,0.08709067,1.1998756,0.23600599
0.0,0.1,1.0999999999999999,-0.5235987755982988,-0.5235987755982988,0,-0.5324453,-0.35268044,0.038096834,0.23681729,-0.22281119,1.4355768,0.149488,0.61974925,-1.5351701,-1.316678,-0.08053983,-0.104750335,1.1456761,-0.1483715
0.0,0.1,1.0999999999999999,-0.5235987755982988,-0.5235987755982988,0,-0.5326848,-0.35250112,0.04542368,0.21057001,-0.016277399,1.4163818,0.14833081,0.6193812,-1.5335302,-0.9829343,-0.06755795,0.01817135,1.1091075,-0.8322261
0.0,0.1,1.0999999999999999,-0.5235987755982988,-0.5235987755982988,0,-0.5325005,-0.35255602,0.037075326,0.16178216,0.09575474,1.4262006,0.3479096,0.6181021,-1.5358424,-0.9102002,-0.0713256,-0.011010939,1.1808151,0.4364631
0.0,0.1,1.0999999999999999,-0.5235987755982988,-0.5235987755982988,0,-0.5324115,-0.35280848,0.05943287,0.21880893,-0.5194591,1.4582901,-0.31967232,0.61894995,-1.5336297,-1.418513,-0.07650916,0.067163475,1.1045748,-0.4253771
0.0,0.1,1.0999999999999999,-0.5235987755982988,-0.5235987755982988,0,-0.5324741,-0.35256463,0.049763765,0.22487618,0.30741176,1.36593,-0.32429913,0.6187725,-1.5349038,-0.6811838,-0.09860963,0.015870886,1.1605326,0.15085398
0.0,0.1,1.0999999999999999,-0.5235987755982988,-0.5235987755982988,0,-0.5322872,-0.35254833,0.071107686,0.2151536,0.5805143,1.4314451,1.3998953,0.6179116,-1.532742,-1.1190696,-0.0619614,0.0058124736,1.128913,-1.4717349
0.0,0.1,1.0999999999999999,-0.5235987755982988,-0.5235987755982988,0,-0.53225297,-0.3525789,0.05976444,0.189884,-0.14225376,1.4594262,-0.13252474,0.6199072,-1.5344524,-1.0363595,-0.08924955,0.07388631,1.1614239,-0.10351479
0.0,0.1,1.0999999999999999,-0.5235987755982988,-0.5235987755982988,0,-0.5324217,-0.35290343,0.0437659,0.22619328,-0.91833985,1.4397783,0.7456571,0.619525,-1.5340067,-1.347776,-0.07791937,-0.037044127,1.179536,0.2843375
0.0,0.1,1.0999999999999999,-0.5235987755982988,-0.5235987755982988,0,-0.5325932,-0.35272706,0.04261519,0.15288219,-0.006482762,1.4543399,0.7446604,0.61860013,-1.5347471,-1.3007256,-0.029287098,0.078230925,1.161856,0.32142654
0.0,0.1,1.0999999999999999,-0.5235987755982988,-0.5235987755982988,0,-0.53245693,-0.35262564,0.07353692,0.16010521,0.09880975,1.4521441,1.1610163,0.6193655,-1.534617,-0.991953,-0.07502332,0.043921772,1.1510845,-0.5845428
0.0,0.1,1.0999999999999999,-0.5235987755982988,-0.5235987755982988,0,-0.5326047,-0.3526048,0.024312852,0.16122323,0.40494093,1.4370835,0.7765586,0.61938107,-1.5347964,-0.9348002,-0.08744693,0.038323037,1.137372,0.3218278
0.0,0.1,1.0999999999999999,-0.5235987755982988,-0.5235987755982988,0,-0.5323136,-0.3526807,0.041798797,0.2292169,0.035589695,1.4402667,1.4096394,0.620202,-1.5342063,-1.2401195,-0.09544822,0.06030925,1.1637506,-0.8976229
0.0,0.1,1.0999999999999999,-0.5235987755982988,-0.5235987755982988,0,-0.53240037,-0.352406,0.114852205,0.1806995,0.08292765,1.4787863,-0.15753642,0.61876047,-1.5344704,-0.53729343,-0.07519238,-0.056343533,1.154078,-0.030760473
0.0,0.1,1.0999999999999999,-0.5235987755982988,-0.5235987755982988,0,-0.53272235,-0.3526984,0.09053257,0.1556507,0.16431256,1.4475828,0.3036802,0.61840534,-1.5341791,-1.302223,-0.055020034,0.11044642,1.2303674,-0.24079509
0.0,0.1,1.0999999999999999,-0.5235987755982988,-0.5235987755982988,0,-0.5324553,-0.35257077,0.09565142,0.17629519,-0.23213509,1.3904638,0.8518179,0.618785,-1.5351387,-1.1863059,-0.07205373,-0.009118714,1.1207947,-0.16692114
0.0,0.1,1.0999999999999999,-0.5235987755982988,-0.5235987755982988,0,-0.5324664,-0.35282642,0.07329095,0.24158803,-0.016947208,1.4843241,0.61762285,0.61905736,-1.5341566,-1.2451769,-0.07658351,-0.048541084,1.1919458,-0.86360306
0.0,0.1,1.0999999999999999,-0.5235987755982988,-0.5235987755982988,0,-0.5326464,-0.35299903,0.0644916,0.23757407,0.29581597,1.4251727,1.2350968,0.61900884,-1.5344601,-1.1987574,-0.072373234,0.04373683,1.2007998,-1.2744915
0.0,0.1,1.0999999999999999,-0.5235987755982988,-0.5235987755982988,0,-0.53249335,-0.35295752,0.061797604,0.18623425,-0.23371646,1.4731979,-0.10282292,0.619527,-1.5345004,-1.371086,-0.09254857,0.03284461,1.1500956,-0.14648123
0.0,0.1,1.0999999999999999,-0.5235987755982988,-0.5235987755982988,0,-0.5326028,-0.35246307,0.065215126,0.16070376,0.12056192,1.4293935,-0.112737484,0.6175596,-1.5337408,-0.77809715,-0.051722184,0.015319495,1.196718,0.25692075
0.0,0.1,1.0999999999999999,-0.5235987755982988,-0.5235987755982988,0,-0.53240895,-0.3524165,0.052579533,0.18596362,0.2071171,1.4187063,-0.79492676,0.61804575,-1.5360407,-1.4789039,-0.07802457,-0.035322808,1.1208619,1.0435042
0.0,0.1,1.0999999999999999,-0.5235987755982988,-0.5235987755982988,0,-0.53253776,-0.35264638,0.089060456,0.19700383,-0.37639284,1.4466113,0.113008894,0.6204639,-1.5340967,-0.68756455,-0.05718749,-0.0007027515,1.1565167,-0.9556933
0.0,0.1,1.0999999999999999,-0.5235987755982988,-0.5235987755982988,0,-0.53250104,-0.3527099,0.056322403,0.22920531,-0.1109108,1.4406731,1.1002843,0.6184832,-1.5335025,-1.0985448,-0.034676313,0.036608268,1.1558849,0.20506306
0.0,0.1,1.0999999999999999,-0.5235987755982988,-0.5235987755982988,0,-0.53256446,-0.3524542,0.10923133,0.20003577,-0.27567106,1.4197743,-0.24481262,0.6170537,-1.5348274,-1.613096,-0.049954843,-0.025157042,1.1581953,0.8640883
0.0,0.1,1.0999999999999999,-0.5235987755982988,-0.5235987755982988,0,-0.5325526,-0.35260317,0.037805445,0.2609443,0.12783071,1.4029356,-0.17314805,0.61995804,-1.5349288,-1.115437,-0.096426606,0.024090407,1.1463441,0.042130586
0.0,0.1,1.0999999999999999,-0.5235987755982988,-0.5235987755982988,0,-0.53261167,-0.35261488,0.08668776,0.15749294,0.19966786,1.457072,1.0440301,0.6199458,-1.53642,-0.8475274,-0.08198672,0.13673094,1.1465707,-1.6425674
0.0,0.1,1.0999999999999999,-0.5235987755982988,-0.5235987755982988,0,-0.5322239,-0.35288653,0.10785019,0.17363279,-0.48504293,1.4569693,0.48371372,0.6173242,-1.5330747,-0.9718439,-0.0751162,0.05144892,1.1816678,-0.14276838
0.0,0.1,1.0999999999999999,-0.5235987755982988,-0.5235987755982988,0,-0.53264403,-0.35239866,0.12283955,0.21433201,0.32817584,1.4016893,0.4268318,0.6186485,-1.5350423,-0.62087214,-0.05306516,0.11817605,1.2208396,0.11760985
0.0,0.1,1.0999999999999999,-0.5235987755982988,-0.5235987755982988,0,-0.5326088,-0.35296836,0.04980085,0.18982944,0.09736517,1.4074018,0.17955418,0.6186872,-1.5327369,-0.98713994,-0.07680668,-0.0682022,1.1667614,-0.9085225
0.0,0.1,1.0999999999999999,-0.5235987755982988,-0.5235987755982988,0,-0.5325569,-0.3528278,0.08784788,0.21383812,0.18830638,1.4292927,0.66863984,0.619016,-1.5339516,-0.7059221,-0.06614712,0.002247615,1.145586,0.31921476
0.0,0.1,1.0999999999999999,-0.5235987755982988,-0.5235987755982988,0,-0.53283876,-0.35298267,0.07965568,0.21890867,0.15317662,1.476196,0.17779899,0.61953056,-1.5362223,-1.1465741,-0.07997887,0.121508226,1.1878021,-0.42811155
0.0,0.1,1.0999999999999999,-0.5235987755982988,-0.5235987755982988,0,-0.5326636,-0.3525599,0.09324853,0.16242719,0.3123244,1.4891994,0.16129705,0.61814195,-1.5345566,-0.55425376,-0.048946206,-0.034374036,1.1529961,0.04986789
0.0,0.1,1.0999999999999999,-0.5235987755982988,-0.5235987755982988,0,-0.53280085,-0.3527565,0.08292032,0.21823241,-0.34052813,1.4435467,0.33750108,0.61880064,-1.5357819,-1.0115644,-0.043546163,0.02785753,1.2045932,0.14612016
0.0,0.1,1.0999999999999999,-0.5235987755982988,-0.5235987755982988,0,-0.5323738,-0.35262817,0.08566504,0.20569989,-0.01145482,1.422382,-0.25666395,0.6203117,-1.5350641,-1.1394181,-0.08277507,0.006138459,1.1591779,0.56881565
0.0,0.1,1.0999999999999999,-0.5235987755982988,-0.5235987755982988,0,-0.53250825,-0.35240826,0.10796322,0.21962857,-0.33426413,1.4070808,0.8776742,0.6191285,-1.5339999,-0.9650897,-0.074556395,-0.02510305,1.1868573,-0.60417396
0.0,0.1,1.0999999999999999,-0.5235987755982988,-0.5235987755982988,0,-0.532602,-0.35280302,0.06001791,0.13103004,-0.016654316,1.4566983,0.2308356,0.61947936,-1.5339246,-1.0891215,-0.05490419,-0.014568348,1.2208982,-0.2814873
0.0,0.1,1.0999999999999999,-0.5235987755982988,-0.5235987755982988,0,-0.5325698,-0.35288724,0.04341914,0.16137655,0.11614773,1.427665,0.12033357,0.6193434,-1.5342593,-1.529464,-0.06884892,0.08324561,1.1859236,-0.05243855
0.0,0.1,1.0999999999999999,-0.5235987755982988,-0.5235987755982988,0,-0.532551,-0.35247955,0.012431606,0.22060525,0.18961409,1.4612662,0.8348772,0.62001574,-1.5360086,-0.85187954,-0.06925979,0.037341733,1.1680759,-0.23379406
0.0,0.1,1.0999999999999999,-0.5235987755982988,-0.5235987755982988,0,-0.5326851,-0.35269973,0.07651329,0.2061812,0.1941676,1.4337587,0.54103476,0.62001765,-1.5367863,-0.8749797,-0.084076144,0.050526906,1.1537797,-0.2308593
0.0,0.1,1.0999999999999999,-0.5235987755982988,-0.5235987755982988,0,-0.53266186,-0.3525618,0.081778996,0.18143922,-0.13605684,1.4515477,0.9641452,0.61920965,-1.5343022,-1.0200197,-0.06520381,0.037854258,1.1970458,-0.7995521
0.0,0.1,1.0999999999999999,-0.5235987755982988,-0.5235987755982988,0,-0.53262967,-0.35254577,0.0637421,0.16394308,0.19230527,1.4728715,0.24534525,0.6185719,-1.5344867,-1.2502819,-0.07941378,-0.03434998,1.1628104,-0.41560227
0.0,0.1,1.0999999999999999,-0.5235987755982988,-0.5235987755982988,0,-0.5326443,-0.35234457,0.081804134,0.19049722,0.26516187,1.4324974,0.9173792,0.62106323,-1.5345517,-1.6043936,-0.04497953,0.036099248,1.1745619,0.78666556
0.0,0.1,1.0999999999999999,-0.5235987755982988,-0.5235987755982988,0,-0.53231245,-0.35261938,0.111085266,0.21011348,0.13553557,1.4339203,1.0642512,0.6178371,-1.5341151,-1.1287199,-0.06948076,0.06794845,1.1363813,0.31391704
0.0,0.1,1.0999999999999999,-0.5235987755982988,-0.5235987755982988,0,-0.53249466,-0.3525303,0.060335804,0.2071335,0.008716623,1.448235,-0.051135328,0.6188135,-1.5330836,-1.2830205,-0.0899672,3.790943e-05,1.1994706,-0.88762915
0.0,0.1,1.0999999999999999,-0.5235987755982988,-0.5235987755982988,0,-0.5325372,-0.35266596,0.058760524,0.23954591,0.3655635,1.4198385,-0.25222102,0.6183281,-1.5337971,-1.5183016,-0.0835967,-0.031063868,1.2323923,-1.7999749
0.0,0.1,1.0999999999999999,-0.5235987755982988,-0.5235987755982988,0,-0.5324657,-0.35343707,0.08067091,0.2336128,0.0067018,1.4371065,1.1635256,0.6172593,-1.535481,-0.82189846,-0.05001462,0.086187,1.1993489,-1.5110197
0.0,0.1,1.0999999999999999,-0.5235987755982988,-0.5235987755982988,0,-0.53242093,-0.3528786,0.03701533,0.18388933,0.20765835,1.4692756,-0.46302885,0.618618,-1.5385305,-1.1304282,-0.062349398,-0.0076393457,1.1856148,-1.1443007
0.0,0.1,1.0999999999999999,-0.5235987755982988,-0.5235987755982988,0,-0.5326765,-0.3528241,0.023563687,0.18065722,-0.0947258,1.4705074,0.037248842,0.6182474,-1.5368611,-1.036816,-0.079237536,0.055759195,1.1734365,-0.3828765
0.0,0.1,1.0999999999999999,-0.5235987755982988,-0.5235987755982988,0,-0.5322649,-0.35313445,0.082515724,0.20681435,-0.35469025,1.429794,-0.2514569,0.6186423,-1.5375562,-0.72548753,-0.053915367,-0.047244214,1.1859149,-0.7906156
0.0,0.1,1.0999999999999999,-0.5235987755982988,-0.5235987755982988,0,-0.5325916,-0.35319453,0.072347395,0.16325414,0.19463111,1.3936305,0.22654925,0.6174465,-1.5352179,-1.1528912,-0.07036098,-0.057082992,1.1814396,0.78083956
0.0,0.1,1.0999999999999999,-0.5235987755982988,-0.5235987755982988,0,-0.5326593,-0.35259798,0.10633087,0.10302113,0.35733902,1.4126729,0.60195637,0.6188925,-1.5368416,-1.5203326,-0.08953762,-0.012827638,1.1758102,-0.0073089753
0.0,0.1,1.0999999999999999,-0.5235987755982988,-0.5235987755982988,0,-0.5321974,-0.3527631,0.045878753,0.1790659,0.47388968,1.454362,1.1744239,0.61617476,-1.5359325,-0.42291075,-0.06172643,-0.01622125,1.170356,0.35573092
0.0,0.1,1.0999999999999999,-0.5235987755982988,-0.5235987755982988,0,-0.53209245,-0.35259414,0.018849438,0.2218357,-0.030298885,1.43151,1.153025,0.6179631,-1.5348687,-1.0075582,-0.06966034,0.041693423,1.1368762,0.44046286
0.0,0.1,1.0999999999999999,-0.5235987755982988,-0.5235987755982988,0,-0.5322371,-0.35265478,0.027861578,0.2390835,-0.056687277,1.4006946,-0.21024844,0.6182849,-1.534877,-0.818978,-0.06873717,0.0127736805,1.2029402,-1.0648928
0.0,0.1,1.0999999999999999,-0.5235987755982988,-0.5235987755982988,0,-0.5326283,-0.3529721,0.027064273,0.1918978,0.116362676,1.4345102,0.7655527,0.62028706,-1.5361965,-1.1461153,-0.03925587,0.10552079,1.1546984,1.0234213
0.0,0.1,1.0999999999999999,-0.5235987755982988,-0.5235987755982988,0,-0.5324029,-0.35330698,0.036299158,0.16082981,0.16740178,1.4716158,0.25131565,0.6185558,-1.5358969,-0.7170587,-0.026584115,0.048569433,1.1446679,-0.12173111
0.0,0.1,1.0999999999999999,-0.5235987755982988,-0.5235987755982988,0,-0.53248715,-0.35278055,0.07653654,0.22130245,0.18250495,1.4335481,0.03754671,0.6184993,-1.5376791,-0.3088984,-0.09520627,0.019283095,1.1890192,0.26317665
0.0,0.1,1.0999999999999999,-0.5235987755982988,-0.5235987755982988,0,-0.5321965,-0.3529578,0.046920966,0.17693648,-0.3055268,1.4131067,-0.6767911,0.61901337,-1.5352862,-0.77882516,-0.052924395,0.053218186,1.2145613,-0.9253028
0.0,0.1,1.0999999999999999,-0.5235987755982988,-0.5235987755982988,0,-0.53252596,-0.35297546,0.045845248,0.19309454,0.09991365,1.4424407,0.10781788,0.6201222,-1.5360614,-0.81608295,-0.081260934,-0.057416268,1.1367763,0.61085653
0.0,0.1,1.0999999999999999,-0.5235987755982988,-0.5235987755982988,0,-0.53245205,-0.35286522,0.054109912,0.19843313,0.40172234,1.4429866,-0.17115495,0.61870736,-1.5366228,-1.0389218,-0.10304955,-0.0062530152,1.1882344,-0.47170585
0.0,0.1,1.0999999999999999,-0.5235987755982988,-0.5235987755982988,0,-0.5326421,-0.3528756,0.107882105,0.23355931,0.16836825,1.4264414,-0.4595107,0.62248296,-1.5343144,-0.89353913,-0.054982282,-0.020574238,1.2023625,-1.2439622
0.0,0.1,1.0999999999999999,-0.5235987755982988,-0.5235987755982988,0,-0.5321902,-0.35331982,0.07429194,0.16824813,-0.31515124,1.4363806,-0.5731729,0.619701,-1.5355077,-1.1771773,-0.05475599,0.00061694847,1.1693766,-0.33594546
0.0,0.1,1.0999999999999999,-0.5235987755982988,-0.5235987755982988,0,-0.5322163,-0.35309136,0.055345323,0.19188277,-0.032916173,1.4556144,0.57872325,0.6193252,-1.5345999,-1.1630855,-0.071034186,0.050083164,1.1535475,-0.44707516
0.0,0.1,1.0999999999999999,-0.5235987755982988,-0.5235987755982988,0,-0.532496,-0.35323358,0.102120325,0.21494673,-0.07680082,1.4490249,-0.28832594,0.6185121,-1.5357856,-1.013216,-0.047293607,-0.103380084,1.2190909,-0.34583727
0.0,0.1,1.0999999999999999,-0.5235987755982988,-0.5235987755982988,0,-0.53266,-0.3530161,0.07862237,0.23745184,0.10241943,1.4115047,-0.06234151,0.6184376,-1.5363086,-0.7587086,-0.052511975,-0.06766856,1.1316274,-0.68548983
0.0,0.1,1.0999999999999999,-0.5235987755982988,-0.5235987755982988,0,-0.5321304,-0.35261458,0.08694478,0.21250674,-0.029741613,1.4075077,0.21270739,0.6188494,-1.5367218,-0.7395896,-0.06635199,0.011871774,1.147251,-0.28796238
0.0,0.1,1.0999999999999999,-0.5235987755982988,-0.5235987755982988,0,-0.5325311,-0.35305077,0.056941453,0.2381589,0.21926457,1.455622,0.7850433,0.62082857,-1.5358064,-0.90370154,-0.05864884,0.03021038,1.1993278,-0.40031767
0.0,0.1,1.0999999999999999,-0.5235987755982988,-0.5235987755982988,0,-0.5324636,-0.35321277,0.09918914,0.18242905,0.15039387,1.4622506,0.12664704,0.6196497,-1.534705,-1.0474241,-0.109227575,0.054946434,1.1575145,-1.3525089
0.0,0.1,1.0999999999999999,-0.5235987755982988,-0.5235987755982988,0,-0.5323768,-0.35276026,0.042670444,0.19573554,0.10020873,1.4927284,0.16928853,0.61949086,-1.5325358,-0.84405696,-0.041750204,-0.032502685,1.2087915,0.52980906
0.0,0.1,1.0999999999999999,-0.5235987755982988,-0.5235987755982988,0,-0.532222,-0.35317355,0.07607127,0.23371722,0.18407492,1.4133255,0.15222034,0.61873907,-1.5348877,-0.96659297,-0.08822292,0.048818503,1.1772087,-1.2377778
0.0,0.1,1.0999999999999999,-0.5235987755982988,-0.5235987755982988,0,-0.5323912,-0.35345626,0.080718756,0.17821594,0.15365641,1.4738008,0.47647724,0.6183488,-1.5346895,-1.1749648,-0.05702391,-0.08103143,1.1783797,0.15607315
0.0,0.1,1.0999999999999999,-0.5235987755982988,-0.5235987755982988,0,-0.5322742,-0.35290334,0.07142703,0.17487335,0.24590667,1.4720095,0.014413873,0.61835307,-1.53476,-1.0679774,-0.05100872,0.026460154,1.168083,-0.021928618
0.0,0.1,1.0999999999999999,-0.5235987755982988,-0.5235987755982988,0,-0.53197384,-0.35290873,0.06687776,0.20820604,-0.28679892,1.4388227,0.71949273,0.61896855,-1.532907,-0.6024491,-0.06306246,0.017459692,1.1450318,-0.59486395
0.0,0.1,1.0999999999999999,-0.5235987755982988,-0.5235987755982988,0,-0.5322696,-0.35275006,0.061898697,0.1631048,0.3274509,1.4780082,1.2911061,0.6190957,-1.5336349,-1.3442746,-0.010311092,0.007141399,1.1848652,1.4079558
0.0,0.1,1.0999999999999999,-0.5235987755982988,-0.5235987755982988,0,-0.53232956,-0.35297862,0.07503644,0.23718134,-0.17530422,1.4291203,-0.19158724,0.6177486,-1.5351495,-0.79159456,-0.059074588,0.04683589,1.1813565,1.0942744
0.0,0.1,1.0999999999999999,-0.5235987755982988,-0.5235987755982988,0,-0.5323969,-0.3530678,0.010685632,0.18017496,0.35560942,1.4487816,0.6624812,0.62114537,-1.5370609,-0.71769106,-0.07002971,-0.036582682,1.1988435,2.0900357
0.0,0.1,1.0999999999999999,-0.5235987755982988,-0.5235987755982988,0,-0.53206795,-0.3524976,0.03679442,0.26861262,-0.020933466,1.4576625,0.4284466,0.6202213,-1.5340133,-1.1563249,-0.06487687,-0.03202615,1.1475782,0.46820983
0.0,0.1,1.0999999999999999,-0.5235987755982988,-0.5235987755982988,0,-0.5323019,-0.3528902,0.056059945,0.17802832,-0.5540232,1.5251504,0.5794,0.6186206,-1.5351828,-0.99512935,-0.05004586,-0.013804471,1.1680226,-1.565786
0.0,0.1,1.0999999999999999,-0.5235987755982988,-0.5235987755982988,0,-0.53252155,-0.35295856,0.073373556,0.1692666,-0.023994004,1.4369495,0.7048077,0.6195842,-1.5340035,-0.74636793,-0.05402543,-0.12192736,1.1484175,-1.4537024
0.0,0.1,1.0999999999999999,-0.5235987755982988,-0.5235987755982988,0,-0.53235555,-0.3531913,0.081726156,0.21076474,-0.46128646,1.4545088,0.5206543,0.61963516,-1.5346256,-0.99392354,-0.109936655,0.034814026,1.1500478,-0.6650589
0.0,0.1,1.0999999999999999,-0.5235987755982988,-0.5235987755982988,0,-0.5326108,-0.35323238,0.04596417,0.24180345,0.03983252,1.4644834,-0.3601167,0.61984444,-1.5342549,-0.8183006,-0.050345086,0.024083052,1.2000018,-0.2567583
0.0,0.1,1.0999999999999999,-0.5235987755982988,-0.5235987755982988,0,-0.53236663,-0.35267732,0.09488622,0.16201521,0.18930092,1.4726636,0.13362353,0.6191187,-1.5351208,-1.154186,-0.06874314,-0.0359148,1.0917283,-1.2870187
0.0,0.1,1.0999999999999999,-0.5235987755982988,-0.5235987755982988,0,-0.5324553,-0.35295165,0.067436546,0.17888817,0.18144535,1.4461298,0.512417,0.61796755,-1.535716,-1.2297382,-0.07660601,0.00087927456,1.2010499,-1.7647027
0.0,0.1,1.0999999999999999,-0.5235987755982988,-0.5235987755982988,0,-0.532861,-0.35294142,0.056492496,0.19407143,0.075302,1.3921089,-0.35837364,0.6183268,-1.5356414,-0.57749116,-0.051307682,0.029613432,1.1697112,-1.0565306
0.0,0.1,1.0999999999999999,-0.5235987755982988,-0.5235987755982988,0,-0.5325312,-0.35274792,0.065325156,0.17506368,0.23511471,1.464184,0.36311638,0.6187834,-1.5326548,-0.79486984,-0.079902,-0.033971146,1.1426438,-1.3929765
0.0,0.1,1.0999999999999999,-0.5235987755982988,-0.5235987755982988,0,-0.5325311,-0.3524387,0.017348615,0.18924807,0.04368019,1.3923013,0.61079043,0.61941016,-1.5351934,-1.0766444,-0.072016776,0.056265224,1.183223,-1.6303566
0.0,0.1,1.0999999999999999,-0.5235987755982988,-0.5235987755982988,0,-0.5324395,-0.35302463,0.078250214,0.18946227,0.29051495,1.4192375,0.46564764,0.6211986,-1.5346402,-0.87007827,-0.016180625,0.04051385,1.19079,-0.12027146
0.0,0.1,1.0999999999999999,-0.5235987755982988,-0.5235987755982988,0,-0.5322772,-0.35290137,0.057593733,0.21003667,-0.3288777,1.4534749,0.15309787,0.61881495,-1.534096,-1.2694403,-0.020030707,-0.07025046,1.142814,-1.4390955
0.0,0.1,1.0999999999999999,-0.5235987755982988,-0.5235987755982988,0,-0.53246456,-0.35293177,0.016663443,0.28405318,-0.27377734,1.528217,0.3224356,0.61901945,-1.5358706,-0.9855223,-0.10534869,-0.12123621,1.1750686,0.61496633
0.0,0.1,1.0999999999999999,-0.5235987755982988,-0.5235987755982988,0,-0.5325161,-0.35271028,0.08059126,0.14190847,-0.36436254,1.4566665,0.06277088,0.61999846,-1.5331143,-0.7481823,-0.05499484,-0.07184921,1.1816412,-0.90522444
0.0,0.1,1.0999999999999999,-0.5235987755982988,-0.5235987755982988,0,-0.5323745,-0.35286385,0.072249904,0.1787816,-0.36031583,1.4436516,-0.033988383,0.61909133,-1.5350958,-0.9753987,-0.098929085,-0.10169631,1.1783509,-1.6841922
0.0,0.1,1.0999999999999999,-0.5235987755982988,-0.5235987755982988,0,-0.5324222,-0.35258916,0.064692624,0.16723014,0.49602312,1.4407816,0.20435263,0.62151754,-1.5361615,-1.2632467,-0.059977256,0.083075486,1.1412641,-0.844
0.0,0.1,1.0999999999999999,-0.5235987755982988,-0.5235987755982988,0,-0.5324464,-0.35252607,0.037298568,0.20237015,0.17387825,1.4785212,0.80658615,0.61940664,-1.5336148,-1.1678406,-0.068185225,0.06719892,1.1924506,-0.19157586
0.0,0.1,1.0999999999999999,-0.5235987755982988,-0.5235987755982988,0,-0.5323855,-0.3531169,0.050735194,0.19108908,0.22043198,1.4230163,1.4623445,0.61885536,-1.5354388,-1.2972381,-0.08150768,-0.015445253,1.125266,-0.33172727
0.0,0.1,1.0999999999999999,-0.5235987755982988,-0.5235987755982988,0,-0.53229815,-0.35255277,0.040271975,0.23075986,0.1329501,1.4789671,0.7469652,0.6182467,-1.5339738,-0.7186408,-0.07810576,0.09865367,1.1581906,-0.89295995
0.0,0.1,1.0999999999999999,-0.5235987755982988,-0.5235987755982988,0,-0.532844,-0.35298234,0.06707635,0.1705827,-0.23558313,1.4858325,1.3613274,0.6187474,-1.5361784,-0.49450302,-0.08683218,0.013170563,1.1797855,-0.67875206
0.0,0.1,1.0999999999999999,-0.5235987755982988,-0.5235987755982988,0,-0.532846,-0.35252744,0.0813831,0.19750625,0.15416498,1.4167979,-0.50936496,0.62072957,-1.5329511,-0.7374433,-0.045211636,-0.032981705,1.1470191,-0.5320705
0.0,0.1,1.0999999999999999,-0.5235987755982988,-0.5235987755982988,0,-0.5325948,-0.3528986,0.07500042,0.19725943,-0.04813207,1.4144347,0.00074603304,0.61987627,-1.5347996,-1.0347099,-0.08628369,-0.1054914,1.2328593,0.06068972
0.0,0.1,1.0999999999999999,-0.5235987755982988,-0.5235987755982988,0,-0.532495,-0.35290286,0.09676302,0.21105467,0.3373321,1.4137758,0.6425213,0.62096465,-1.5363126,-0.60284525,-0.07784334,0.0065316204,1.1399372,-0.48419926
0.0,0.1,1.0999999999999999,-0.5235987755982988,-0.5235987755982988,0,-0.53238547,-0.35338292,0.06619702,0.19238362,-0.092874885,1.4633007,0.96348625,0.61923766,-1.5349146,-0.36178255,-0.08639966,-0.025802761,1.1158837,0.0395329
0.0,0.1,1.0999999999999999,-0.5235987755982988,-0.5235987755982988,0,-0.53255886,-0.35280988,0.06165508,0.18752195,-0.043887075,1.4279932,0.15871148,0.61701417,-1.533869,-1.0455253,-0.033869326,0.119508974,1.1540921,1.3406359
0.0,0.1,1.0999999999999999,-0.5235987755982988,-0.5235987755982988,0,-0.53252083,-0.3527066,0.108952686,0.21865524,0.19410855,1.472274,0.659627,0.6183916,-1.5350589,-0.6548107,-0.070617385,0.053567063,1.1533201,-0.93880737
0.0,0.1,1.0999999999999999,-0.5235987755982988,-0.5235987755982988,0,-0.5323753,-0.35288733,0.08484335,0.22340307,-0.3338504,1.4724345,-0.1344759,0.61847717,-1.534618,-0.88858956,-0.078468464,0.05102156,1.1879241,0.5517307
0.0,0.1,1.0999999999999999,-0.5235987755982988,-0.5235987755982988,0,-0.5324599,-0.35285208,0.045321193,0.25770807,0.32407033,1.442089,0.97555673,0.6201874,-1.5360572,-1.1259025,-0.092660755,-0.025116224,1.1781217,0.40794182
0.0,0.1,1.0999999999999999,-0.5235987755982988,-0.5235987755982988,0,-0.53216046,-0.35235468,0.08094152,0.22759902,-0.38333562,1.4730073,0.46908268,0.61891294,-1.5348568,-0.42706013,-0.044057317,-0.024366835,1.175115,-0.7349641
0.0,0.1,1.0999999999999999,-0.5235987755982988,-0.5235987755982988,0,-0.5322291,-0.35283354,0.08764592,0.27424273,-0.5413512,1.4441068,0.6372324,0.61960894,-1.5349506,-0.68407375,-0.048942048,-0.0049208025,1.1757104,-0.24465449
0.0,0.1,1.0999999999999999,-0.5235987755982988,-0.5235987755982988,0,-0.53232694,-0.3527818,0.067325026,0.2690705,-0.21889764,1.4313353,1.0039262,0.61975,-1.5353261,-0.65564454,-0.07337084,0.10608629,1.1995982,-0.097122304
0.0,0.1,1.0999999999999999,-0.5235987755982988,-0.5235987755982988,0,-0.5324032,-0.35299197,0.06346023,0.2501444,0.32055464,1.4413246,0.8265967,0.61890185,-1.5353934,-1.2676678,-0.035690133,0.11684169,1.1369716,-0.5131576
0.0,0.1,1.0999999999999999,-0.5235987755982988,-0.5235987755982988,0,-0.53244907,-0.3527825,0.052462593,0.18473133,-0.11743388,1.414299,1.2256045,0.61915714,-1.5354245,-0.9706271,-0.06442426,-0.010596631,1.2006199,-1.0490139
0.0,0.1,1.0999999999999999,-0.5235987755982988,-0.5235987755982988,0,-0.53249097,-0.35279873,0.0882159,0.19093925,0.12834987,1.4336032,0.38409242,0.6189209,-1.5367949,-0.9987538,-0.050805602,-0.021554263,1.1942242,-0.32247555
0.0,0.1,1.0999999999999999,-0.5235987755982988,-0.5235987755982988,0,-0.53255916,-0.35271758,0.022807412,0.16949055,0.43862525,1.4152772,0.7000353,0.61995393,-1.5349748,-0.9090373,-0.05668688,0.02847731,1.1796899,0.096353196
0.0,0.1,1.0999999999999999,-0.5235987755982988,-0.5235987755982988,0,-0.5324334,-0.35235623,0.020373512,0.20234926,0.42569092,1.4392385,0.7850958,0.62016344,-1.5348537,-1.1078919,-0.046303716,-0.06521201,1.1387132,-0.43614498
0.0,0.1,1.0999999999999999,-0.5235987755982988,-0.5235987755982988,0,-0.53252953,-0.35274324,0.035694588,0.18175189,0.27266225,1.4199117,-0.8592349,0.61913264,-1.536376,-0.38959375,-0.06280283,-0.048613835,1.1269188,0.723438
0.0,0.1,1.0999999999999999,-0.5235987755982988,-0.5235987755982988,0,-0.5326335,-0.3527992,0.07884567,0.18705852,-0.109589666,1.4331317,1.420991,0.61690986,-1.5340209,-1.2886186,-0.095602974,-0.14054333,1.1941867,0.059143804
0.0,0.1,1.0999999999999999,-0.5235987755982988,-0.5235987755982988,0,-0.5323633,-0.35240236,0.11301562,0.24736606,0.050140947,1.4230117,1.5209317,0.6186626,-1.5341951,-0.71230584,-0.05559168,-0.04412394,1.1541843,0.1991005
0.0,0.1,1.0999999999999999,-0.5235987755982988,-0.5235987755982988,0,-0.53237253,-0.35277182,0.014297818,0.15934236,0.16823474,1.4196011,-0.03770166,0.6189265,-1.5346406,-1.4057969,-0.04032964,0.16123137,1.1909273,-1.1384552
0.0,0.1,1.0999999999999999,-0.5235987755982988,-0.5235987755982988,0,-0.5328498,-0.35281965,0.121910125,0.14295037,0.32254106,1.4374245,-0.14429946,0.6183479,-1.5358096,-0.6983556,-0.04984093,0.089944184,1.1576413,-0.13254413
0.0,0.1,1.0999999999999999,-0.5235987755982988,-0.5235987755982988,0,-0.53270185,-0.35273093,0.083173946,0.19268778,0.14852904,1.5096811,1.3543348,0.620394,-1.5365326,-0.95644623,-0.0809231,0.03580776,1.1909297,0.38746428
0.0,0.1,1.0999999999999999,-0.5235987755982988,-0.5235987755982988,0,-0.53243595,-0.35280988,0.05321324,0.23023592,0.50811684,1.4481983,0.44350106,0.61951447,-1.5339044,-0.9185491,-0.060009886,0.07623837,1.1841482,-0.21659347
0.0,0.1,1.0999999999999999,-0.5235987755982988,-0.5235987755982988,0,-0.5325091,-0.35255373,0.061470725,0.1740372,-0.24103835,1.4446951,0.5326072,0.6191986,-1.536162,-0.8387435,-0.05922111,0.041425064,1.2113677,0.69321233
0.0,0.1,1.0999999999999999,-0.5235987755982988,-0.5235987755982988,0,-0.5324172,-0.35249606,0.078651525,0.22854513,-0.205404,1.3938316,0.24138692,0.61965126,-1.5362066,-0.99806964,-0.07552932,-0.04316672,1.1953148,-1.0689368
0.0,0.1,1.0999999999999999,-0.5235987755982988,-0.5235987755982988,0,-0.5326823,-0.35276487,0.046256907,0.16815451,0.045002434,1.4596848,0.9780394,0.6201879,-1.5348182,-1.2968112,-0.08405654,-0.03111483,1.1824164,0.34944177
0.0,0.1,1.0999999999999999,-0.5235987755982988,-0.5235987755982988,0,-0.532409,-0.3525386,0.11424756,0.14275262,0.08253581,1.4237396,0.8299216,0.6177531,-1.5346032,-0.8303181,-0.095621094,-0.017627224,1.1540912,0.025834752
0.0,0.1,1.0999999999999999,-0.5235987755982988,-0.5235987755982988,0,-0.5324489,-0.35290033,0.08836467,0.19187751,-0.07266553,1.4517925,-0.0792067,0.6196146,-1.5369537,-1.2047418,-0.061929736,0.060978785,1.188713,-0.92238706
0.0,0.1,1.0999999999999999,-0.5235987755982988,-0.5235987755982988,0,-0.53241503,-0.352482,0.050231844,0.23145023,0.19415367,1.4509515,0.5746874,0.619176,-1.5346181,-1.0054443,-0.05450613,0.01791185,1.150707,-0.74971575
0.0,0.1,1.0999999999999999,-0.5235987755982988,-0.5235987755982988,0,-0.5326126,-0.352635,0.067235954,0.17877477,0.1424225,1.3923659,0.66264784,0.62066233,-1.5349724,-1.1653392,-0.06064914,0.032329507,1.1897161,0.1601515
0.0,0.1,1.0999999999999999,-0.5235987755982988,-0.5235987755982988,0,-0.5325051,-0.35278967,0.035282474,0.23236193,-0.053761046,1.4181081,1.0136001,0.6169761,-1.5359282,-1.1788663,-0.100480095,-0.007959641,1.2153662,0.15842278
0.0,0.1,1.0999999999999999,-0.5235987755982988,-0.5235987755982988,0,-0.53262275,-0.35247654,0.09991325,0.17840712,-0.123176694,1.4934673,-0.3362664,0.6187849,-1.5338364,-0.880217,-0.08852686,0.11760619,1.188257,1.2343686
0.0,0.1,1.0999999999999999,-0.5235987755982988,-0.5235987755982988,0,-0.53250533,-0.35285547,0.08556999,0.17311676,0.35226595,1.4682633,0.89667875,0.61891437,-1.5351877,-1.1792078,-0.03876596,-0.024217203,1.1623889,0.05800203
0.0,0.1,1.0999999999999999,-0.5235987755982988,-0.5235987755982988,0,-0.5328834,-0.3527248,0.08387214,0.18649475,-0.40880466,1.4652059,0.41881287,0.61703825,-1.5343043,-0.6448536,-0.08041863,-0.03000094,1.1417227,-0.57783216
0.0,0.1,1.0999999999999999,-0.5235987755982988,-0.5235987755982988,0,-0.53279996,-0.35266584,0.04616818,0.17279029,-0.30753836,1.4361188,0.045893688,0.620348,-1.5357018,-1.4406649,-0.070265524,0.048485752,1.2030764,0.06593504
0.0,0.1,1.0999999999999999,-0.5235987755982988,-0.5235987755982988,0,-0.53243333,-0.35263398,0.089458555,0.29248753,-0.3405543,1.4488922,-0.34817275,0.617739,-1.5349762,-1.0143566,-0.06860707,0.032843992,1.1992062,-0.09930612
0.0,0.1,1.0999999999999999,-0.5235987755982988,-0.5235987755982988,0,-0.5326566,-0.35234064,0.054952905,0.1806062,0.33623314,1.4279212,0.94037044,0.6178981,-1.535487,-1.0440706,-0.068349145,0.019587683,1.1739428,0.8458522
0.0,0.1,1.0999999999999999,-0.5235987755982988,-0.5235987755982988,0,-0.5328639,-0.35314465,0.08498193,0.27001622,-0.08500906,1.4252038,-0.3486655,0.6192842,-1.5350633,-1.0347484,-0.09659917,0.039937474,1.1946805,-1.1036152
0.0,0.1,1.0999999999999999,-0.5235987755982988,-0.5235987755982988,0,-0.53249747,-0.35278937,0.08712598,0.18225081,-0.13144848,1.3949028,-0.25064823,0.61996984,-1.5352007,-1.160072,-0.07194851,-0.022829786,1.1794112,-0.21812464
0.0,0.1,1.0999999999999999,-0.5235987755982988,-0.5235987755982988,0,-0.5325386,-0.35295123,0.06753675,0.20455758,-0.1295379,1.4686267,0.14076029,0.61944073,-1.5365387,-1.0770336,-0.06522474,0.00827161,1.1689382,-0.57052326
0.0,0.1,1.0999999999999999,-0.5235987755982988,-0.5235987755982988,0,-0.53233117,-0.35237232,0.0772517,0.20175768,0.0767758,1.4447273,1.3367461,0.61969,-1.5356115,-0.897581,-0.0769387,0.048180435,1.191061,-0.6013953
0.0,0.1,1.0999999999999999,-0.5235987755982988,-0.5235987755982988,0,-0.53234947,-0.35279667,0.044227816,0.194598,0.02725849,1.4418539,0.111997396,0.6183701,-1.5343555,-1.4471579,-0.06542054,0.023871602,1.1601719,-1.9370472
0.0,0.1,1.0999999999999999,-0.5235987755982988,-0.5235987755982988,0,-0.5327895,-0.35259348,0.07771361,0.142572,0.120950945,1.4103007,0.2434118,0.6184538,-1.5350688,-1.09998,-0.057496864,-0.003916766,1.1464628,0.06614843
0.0,0.1,1.0999999999999999,-0.5235987755982988,-0.5235987755982988,0,-0.5324211,-0.35288182,0.085782155,0.20392962,-0.2054575,1.4101964,0.68243176,0.6180614,-1.5335597,-1.5637577,-0.04400031,-0.019580053,1.2084235,-0.09027354
0.0,0.1,1.0999999999999999,-0.5235987755982988,-0.5235987755982988,0,-0.5324974,-0.352675,0.092220075,0.18365626,0.5836121,1.466905,1.2592779,0.6173097,-1.5338242,-0.8925882,-0.0835548,0.0042386954,1.1865101,-0.29969764
0.0,0.1,1.0999999999999999,-0.5235987755982988,-0.5235987755982988,0,-0.5328407,-0.3526996,0.056525804,0.21206486,-0.17391823,1.4414643,0.10471241,0.61730516,-1.5352231,-0.76704544,-0.07490442,0.004634566,1.1778964,0.06067226
0.0,0.1,1.0999999999999999,-0.5235987755982988,-0.5235987755982988,0,-0.5324408,-0.3525416,0.055774193,0.20539208,0.1165172,1.4267267,0.51226294,0.61944115,-1.535426,-1.3764112,-0.089645386,-0.09933192,1.1389947,0.5062526
