sanky1234/BimanualDexCatch/isaacgymenvs/cem_results/football_pose_-0.1_0.1_1.0999999999999999_-0.5235987755982988_0.0_0_2025-05-26.csv
x,y,z,roll,pitch,yaw,robot1/joint1,robot1/joint2,robot1/joint3,robot1/joint4,robot1/joint5,robot1/joint6,robot1/joint7,robot2/joint1,robot2/joint2,robot2/joint3,robot2/joint4,robot2/joint5,robot2/joint6,robot2/joint7
-0.1,0.1,1.0999999999999999,-0.5235987755982988,0.0,0,-0.9325759,-0.7326298,1.7956485,-0.033852983,0.11804183,1.178623,0.4983617,0.53946024,-1.4651942,-0.7971199,-0.12803815,0.015070714,1.0768412,0.7533233
-0.1,0.1,1.0999999999999999,-0.5235987755982988,0.0,0,-0.9337704,-0.73223436,1.8020875,-0.038186107,-0.029714447,1.157405,-0.51032686,0.53947663,-1.4648741,-0.7978807,-0.0942069,-0.035632204,1.1822364,-0.09087207
-0.1,0.1,1.0999999999999999,-0.5235987755982988,0.0,0,-0.93295145,-0.7333249,1.7921083,-0.04496168,-0.08093853,1.1759803,0.17680097,0.54022986,-1.4654529,-0.80126065,-0.06338162,-0.061491977,1.1488293,0.21055934
-0.1,0.1,1.0999999999999999,-0.5235987755982988,0.0,0,-0.9325597,-0.7320131,1.7957661,-0.05317282,-0.08646221,1.2344182,0.53006816,0.53932065,-1.4641697,-0.80182356,-0.09570712,-0.11100361,1.1811556,-0.25871336
-0.1,0.1,1.0999999999999999,-0.5235987755982988,0.0,0,-0.93205816,-0.7306865,1.7926972,-0.04407902,-0.21670736,1.2250508,0.08649646,0.5399432,-1.464844,-0.7949627,-0.057221316,-0.01906818,1.162737,0.93006796
-0.1,0.1,1.0999999999999999,-0.5235987755982988,0.0,0,-0.9323154,-0.73204076,1.8046238,-0.056381527,-0.13724302,1.2572631,-0.476049,0.53914994,-1.46491,-0.8022319,-0.07649878,0.11535179,1.1438391,0.23973417
-0.1,0.1,1.0999999999999999,-0.5235987755982988,0.0,0,-0.9335529,-0.73256403,1.7967278,-0.0566661,-0.06950052,1.1854511,-1.1065184,0.53896993,-1.4645607,-0.8004089,-0.030254224,-0.120644204,1.16318,0.9112959
-0.1,0.1,1.0999999999999999,-0.5235987755982988,0.0,0,-0.93259215,-0.73442703,1.8106947,-0.036250252,-0.035331257,1.2644743,-0.79392123,0.5402523,-1.4645311,-0.7989426,-0.10170977,0.016113544,1.2297133,2.3060477
-0.1,0.1,1.0999999999999999,-0.5235987755982988,0.0,0,-0.9326708,-0.73154116,1.7919244,-0.043994594,-0.07641868,1.2369428,-1.0482019,0.53942585,-1.4650902,-0.7970968,-0.09245068,0.10839595,1.1876061,-0.14954159
-0.1,0.1,1.0999999999999999,-0.5235987755982988,0.0,0,-0.9338528,-0.732217,1.7962903,-0.039589293,0.14558955,1.1420697,-0.49390182,0.539549,-1.4645295,-0.79691744,-0.115933254,-0.2750313,1.2350692,0.12665208
-0.1,0.1,1.0999999999999999,-0.5235987755982988,0.0,0,-0.9337428,-0.73275125,1.8042586,-0.06454518,-0.047309004,1.1932454,0.24540874,0.5391555,-1.4641106,-0.79892313,-0.09939996,0.009310338,1.1675884,0.3910584
-0.1,0.1,1.0999999999999999,-0.5235987755982988,0.0,0,-0.9317549,-0.7327527,1.8068268,-0.061541997,0.058847822,1.2045307,0.17493843,0.5388798,-1.4646654,-0.80441225,-0.08516459,-0.07310202,1.1518713,-0.020474808
-0.1,0.1,1.0999999999999999,-0.5235987755982988,0.0,0,-0.9330858,-0.73325,1.8020426,-0.04501172,-0.070430584,1.2487841,0.5030129,0.5399234,-1.4650159,-0.8003913,-0.059920713,-0.24762854,1.1740197,1.0328436
-0.1,0.1,1.0999999999999999,-0.5235987755982988,0.0,0,-0.9335559,-0.73114365,1.7957876,-0.05214913,0.020813193,1.232646,-0.4120407,0.5393964,-1.4654888,-0.80212903,-0.064305104,-0.17068972,1.1284536,0.3058118
-0.1,0.1,1.0999999999999999,-0.5235987755982988,0.0,0,-0.9315351,-0.732001,1.7891148,-0.041435678,-0.17325553,1.2565053,-1.1210996,0.5393143,-1.464876,-0.8004348,-0.09420362,-0.06253133,1.1136981,0.39744326
-0.1,0.1,1.0999999999999999,-0.5235987755982988,0.0,0,-0.93309647,-0.73239833,1.8036354,-0.012822276,0.16397792,1.215816,-0.0142623475,0.5400657,-1.4654526,-0.7961967,-0.1077372,-0.17288014,1.115658,1.5521914
-0.1,0.1,1.0999999999999999,-0.5235987755982988,0.0,0,-0.9341183,-0.7314266,1.7982755,-0.052022196,0.050207503,1.1209033,0.594572,0.5396143,-1.4641322,-0.7912713,-0.05966685,-0.044921197,1.1857661,0.29529333
-0.1,0.1,1.0999999999999999,-0.5235987755982988,0.0,0,-0.932196,-0.7337079,1.7991885,-0.029228268,-0.1351446,1.2799528,-1.279007,0.53874177,-1.4648954,-0.8032726,-0.046372056,-0.080808535,1.1891674,0.2802709
-0.1,0.1,1.0999999999999999,-0.5235987755982988,0.0,0,-0.9323954,-0.7323717,1.8026028,-0.054852463,0.086514525,1.1232625,-0.20424844,0.5393787,-1.4647088,-0.8033743,-0.037997153,-0.038869463,1.1287236,0.8995581
-0.1,0.1,1.0999999999999999,-0.5235987755982988,0.0,0,-0.9341478,-0.73264825,1.8033928,-0.0569135,-0.14463872,1.2627038,0.030054701,0.5393877,-1.4645993,-0.79970455,-0.104683615,-0.0041841757,1.1421499,-0.6552048
-0.1,0.1,1.0999999999999999,-0.5235987755982988,0.0,0,-0.9331325,-0.73176533,1.8081002,-0.025154881,-0.12309082,1.2059761,0.20538922,0.53982794,-1.4650067,-0.79347587,-0.06508858,-0.23657714,1.233711,0.6038798
-0.1,0.1,1.0999999999999999,-0.5235987755982988,0.0,0,-0.93187034,-0.7321882,1.7992994,-0.04813333,0.05926692,1.2908452,-0.5847296,0.539924,-1.4651873,-0.79570216,-0.09133585,0.09133201,1.2164311,0.5331347
-0.1,0.1,1.0999999999999999,-0.5235987755982988,0.0,0,-0.9327417,-0.7320607,1.7947981,-0.03960821,-0.049768895,1.1831235,-1.2955033,0.5393744,-1.4648529,-0.79780275,-0.050750155,-0.057870187,1.1697438,-0.11774323
-0.1,0.1,1.0999999999999999,-0.5235987755982988,0.0,0,-0.93202776,-0.73242074,1.7973493,-0.05296207,0.059533503,1.195725,0.633584,0.53994983,-1.4645944,-0.7968248,-0.057147134,-0.05239052,1.2357432,-0.6819855
-0.1,0.1,1.0999999999999999,-0.5235987755982988,0.0,0,-0.9340147,-0.7307816,1.8037782,-0.06845764,0.046820126,1.1727376,0.1640852,0.5389078,-1.4649962,-0.79879814,-0.034884907,0.014414318,1.1325636,0.959993
-0.1,0.1,1.0999999999999999,-0.5235987755982988,0.0,0,-0.9325323,-0.73141694,1.8021332,-0.05419872,-0.14853652,1.1187608,-0.6369743,0.5396468,-1.464603,-0.79491067,-0.09711365,-0.0004466059,1.1757265,-0.6451829
-0.1,0.1,1.0999999999999999,-0.5235987755982988,0.0,0,-0.93452406,-0.7311499,1.8008338,-0.052918028,0.13762908,1.1020838,0.93777263,0.5389903,-1.4646379,-0.7947679,-0.0690345,-0.13812613,1.1412983,0.40371522
-0.1,0.1,1.0999999999999999,-0.5235987755982988,0.0,0,-0.93276787,-0.7315177,1.7999576,-0.040277783,-0.05047879,1.12263,-0.52452815,0.5388425,-1.4643928,-0.7956687,-0.053167783,-0.007479714,1.1334547,0.18328087
-0.1,0.1,1.0999999999999999,-0.5235987755982988,0.0,0,-0.9320618,-0.7322537,1.7976015,-0.05399774,-0.12752376,1.2251099,-0.6383798,0.5395468,-1.465253,-0.79913485,-0.08991995,-0.11724926,1.1822557,-0.2356618
-0.1,0.1,1.0999999999999999,-0.5235987755982988,0.0,0,-0.9337996,-0.7330526,1.7988834,-0.054330476,-0.20542173,1.3010008,-0.21540162,0.53944993,-1.4644494,-0.80065244,-0.057682402,0.09458785,1.1515592,0.13029952
-0.1,0.1,1.0999999999999999,-0.5235987755982988,0.0,0,-0.9329947,-0.73201585,1.7909797,-0.03927064,-0.05187949,1.1913073,0.09281331,0.53947085,-1.4649403,-0.80035293,-0.12534012,0.0046321885,1.1356874,0.35900322
-0.1,0.1,1.0999999999999999,-0.5235987755982988,0.0,0,-0.93286717,-0.7310987,1.8041526,-0.068675146,-0.1854937,1.2199706,0.3535962,0.53912824,-1.4648088,-0.79564416,-0.14866644,-0.030158628,1.1838468,-0.23399296
-0.1,0.1,1.0999999999999999,-0.5235987755982988,0.0,0,-0.93244886,-0.73199373,1.7959398,-0.037854657,-0.13821822,1.0985018,0.45118123,0.54015493,-1.4647198,-0.79352236,-0.10854362,0.10848763,1.1688449,0.47313827
-0.1,0.1,1.0999999999999999,-0.5235987755982988,0.0,0,-0.9328618,-0.73110694,1.7970145,-0.056512024,-0.030927474,1.182793,-0.41595435,0.5390025,-1.4657941,-0.8027113,-0.028363269,0.12507455,1.1175855,0.9417252
-0.1,0.1,1.0999999999999999,-0.5235987755982988,0.0,0,-0.9322104,-0.7327747,1.7958429,-0.04530084,-0.17030835,1.2668278,0.012478053,0.5394965,-1.4643618,-0.7940256,-0.08401145,-0.09257557,1.2198749,-0.5130442
-0.1,0.1,1.0999999999999999,-0.5235987755982988,0.0,0,-0.9338937,-0.7332851,1.8048514,-0.03624031,-0.06806434,1.1054467,-0.8909188,0.5399162,-1.4652735,-0.8019121,-0.15111248,-0.04244553,1.171791,-0.13941373
-0.1,0.1,1.0999999999999999,-0.5235987755982988,0.0,0,-0.932749,-0.73050255,1.7892833,-0.05040735,-0.17432153,1.2616216,-0.874211,0.5392922,-1.4649101,-0.79159665,-0.1078766,0.089849204,1.1613365,-0.1951604
-0.1,0.1,1.0999999999999999,-0.5235987755982988,0.0,0,-0.93379486,-0.7327758,1.8024706,-0.04915774,0.015496363,1.2377801,-0.7476019,0.53990734,-1.4657489,-0.79900116,-0.028293448,-0.21342468,1.1418127,0.05800595
-0.1,0.1,1.0999999999999999,-0.5235987755982988,0.0,0,-0.9316683,-0.732576,1.7959484,-0.045149695,-0.06040391,1.2275003,-0.619045,0.53960896,-1.4652585,-0.8005964,-0.06813992,0.075170256,1.1525185,1.2870454
-0.1,0.1,1.0999999999999999,-0.5235987755982988,0.0,0,-0.93246275,-0.7323698,1.7962946,-0.0545523,0.12248549,1.1842574,0.2752658,0.539367,-1.4647651,-0.7997652,-0.04202027,0.07468182,1.2267613,-0.4069937
-0.1,0.1,1.0999999999999999,-0.5235987755982988,0.0,0,-0.93279946,-0.730649,1.7981721,-0.048344146,0.017739572,1.1216954,1.2411373,0.53954166,-1.4654226,-0.7961267,-0.13035877,0.045051597,1.1334743,0.11114822
-0.1,0.1,1.0999999999999999,-0.5235987755982988,0.0,0,-0.93371546,-0.7323711,1.7999839,-0.05074238,-0.27205762,1.2732624,1.3583903,0.53905195,-1.4651674,-0.8003281,-0.018805774,0.070757955,1.1847459,0.3623393
-0.1,0.1,1.0999999999999999,-0.5235987755982988,0.0,0,-0.932565,-0.7324676,1.8027292,-0.043784477,-0.08628274,1.078938,-1.2432194,0.53934383,-1.4653865,-0.7987057,-0.083373204,-0.14600928,1.2366672,1.3613688
-0.1,0.1,1.0999999999999999,-0.5235987755982988,0.0,0,-0.93368864,-0.7314716,1.7985172,-0.04335015,-0.054760695,1.1471845,1.1732521,0.5392146,-1.4649,-0.7963933,-0.10808435,0.021936893,1.0600257,-0.019002933
-0.1,0.1,1.0999999999999999,-0.5235987755982988,0.0,0,-0.9327362,-0.7341481,1.7979804,-0.025564704,-0.15886168,1.2497512,1.2055407,0.53964925,-1.4647266,-0.79707307,-0.03611645,-0.14421995,1.2551502,-0.24833862
-0.1,0.1,1.0999999999999999,-0.5235987755982988,0.0,0,-0.9322122,-0.7326762,1.7959846,-0.046462808,-0.27279854,1.2533038,-0.6673121,0.5400589,-1.465071,-0.8011055,-0.08038424,-0.08223379,1.2132775,0.6954407
-0.1,0.1,1.0999999999999999,-0.5235987755982988,0.0,0,-0.93303084,-0.7326862,1.7975488,-0.040991798,-0.21575208,1.1893252,0.04901954,0.539424,-1.4650296,-0.7923272,-0.064976245,0.066016026,1.0998563,1.4313238
-0.1,0.1,1.0999999999999999,-0.5235987755982988,0.0,0,-0.9340822,-0.73294175,1.7945431,-0.01898965,-0.0005428534,1.1261678,0.17039819,0.53923184,-1.4653658,-0.797333,-0.06344616,-0.0506253,1.1535949,-0.25956365
-0.1,0.1,1.0999999999999999,-0.5235987755982988,0.0,0,-0.93367094,-0.7332754,1.8008415,-0.03569934,-0.12271397,1.1838105,-0.042449005,0.5389331,-1.4646236,-0.8000686,-0.024907134,-0.069170415,1.0945826,-1.2271011
-0.1,0.1,1.0999999999999999,-0.5235987755982988,0.0,0,-0.93269557,-0.7328013,1.8049321,-0.053581785,-0.066013105,1.1545928,1.6063118,0.5396384,-1.4646424,-0.79673636,-0.06627608,-0.028744688,1.1990538,1.445588
-0.1,0.1,1.0999999999999999,-0.5235987755982988,0.0,0,-0.9324554,-0.73308814,1.7900387,-0.036485836,0.028972702,1.213246,-0.8446162,0.5400973,-1.4648343,-0.79854023,-0.09740467,-0.06058762,1.0550469,0.30240327
-0.1,0.1,1.0999999999999999,-0.5235987755982988,0.0,0,-0.93231565,-0.7309518,1.7948684,-0.062999286,-0.116657734,1.2535932,-0.85396206,0.5394721,-1.465131,-0.79942584,-0.13881195,-0.095746495,1.1502199,1.2173048
-0.1,0.1,1.0999999999999999,-0.5235987755982988,0.0,0,-0.9337352,-0.7338313,1.7950243,-0.049429093,0.10824624,1.2606237,-0.29146937,0.53962386,-1.4651316,-0.8047678,-0.08921923,-0.028307842,1.1079451,0.3112057
-0.1,0.1,1.0999999999999999,-0.5235987755982988,0.0,0,-0.93238795,-0.7333935,1.791212,-0.04452353,-0.38786405,1.2660154,-0.09254842,0.5398443,-1.465155,-0.79724604,0.013840141,0.17156444,1.1572119,0.58380455
-0.1,0.1,1.0999999999999999,-0.5235987755982988,0.0,0,-0.9339335,-0.7327913,1.7956482,-0.04691902,-0.04281399,1.2555884,-1.5093205,0.5388578,-1.464198,-0.7994074,-0.034808293,-0.024950244,1.1478522,1.0384349
-0.1,0.1,1.0999999999999999,-0.5235987755982988,0.0,0,-0.93273157,-0.73116267,1.7986708,-0.059149396,0.08731541,1.2245473,-0.6920589,0.5391685,-1.4651768,-0.79245865,-0.11672908,0.15560898,1.1957473,-0.5048833
-0.1,0.1,1.0999999999999999,-0.5235987755982988,0.0,0,-0.9333615,-0.734322,1.8025365,-0.04486472,0.08082443,1.1999495,0.44716248,0.5397555,-1.4645005,-0.8000633,-0.086026646,0.03704587,1.1650873,0.62292045
-0.1,0.1,1.0999999999999999,-0.5235987755982988,0.0,0,-0.9330769,-0.733995,1.8016696,-0.044367958,-0.11748378,1.2200185,-0.27728626,0.5399387,-1.4655067,-0.8065014,-0.054411594,0.090866886,1.1085294,-0.75834495
-0.1,0.1,1.0999999999999999,-0.5235987755982988,0.0,0,-0.93433404,-0.7332813,1.7882463,-0.02715917,0.15844207,1.2890697,0.30451584,0.5392348,-1.46546,-0.79655766,-0.09083891,-0.07132835,1.1788212,0.35535124
-0.1,0.1,1.0999999999999999,-0.5235987755982988,0.0,0,-0.93305284,-0.7321992,1.8036606,-0.066896975,-0.0387175,1.191116,-0.9543624,0.5395871,-1.4651866,-0.7953647,-0.017934788,-0.036304332,1.2223351,-0.0055234465
-0.1,0.1,1.0999999999999999,-0.5235987755982988,0.0,0,-0.9329435,-0.73175555,1.7901852,-0.04440036,-0.10617459,1.2251719,0.4958102,0.5393187,-1.4649789,-0.7934716,-0.05994793,0.24231371,1.1723361,-0.32257575
-0.1,0.1,1.0999999999999999,-0.5235987755982988,0.0,0,-0.9318668,-0.7336996,1.7984276,-0.046926927,-0.12180773,1.2176133,0.19649878,0.53979695,-1.4649733,-0.79883236,-0.13082802,-0.10148008,1.1694767,0.029347287
-0.1,0.1,1.0999999999999999,-0.5235987755982988,0.0,0,-0.9331613,-0.7327842,1.7879894,-0.034977,-0.08316802,1.1856059,0.46966684,0.5389274,-1.4653703,-0.8023061,-0.07137508,0.0170006,1.1805767,1.0816641
-0.1,0.1,1.0999999999999999,-0.5235987755982988,0.0,0,-0.9327869,-0.73171186,1.7988799,-0.05973073,-0.00065063295,1.2413572,-0.69382995,0.53959465,-1.4646193,-0.7929737,-0.06233861,0.021127163,1.2497493,-0.396866
-0.1,0.1,1.0999999999999999,-0.5235987755982988,0.0,0,-0.9324648,-0.7322682,1.7984095,-0.061817866,-0.046148203,1.1900861,0.38697454,0.5394146,-1.4651824,-0.8020366,-0.11392553,0.19110078,1.0788149,0.24145254
-0.1,0.1,1.0999999999999999,-0.5235987755982988,0.0,0,-0.933971,-0.73304033,1.799801,-0.041590348,-0.102159336,1.2365881,0.25225863,0.5396234,-1.4646916,-0.79393816,-0.10804624,0.056189567,1.1129256,0.16270266
-0.1,0.1,1.0999999999999999,-0.5235987755982988,0.0,0,-0.933427,-0.7334628,1.7926855,-0.051622428,0.04787924,1.2028613,-0.36283207,0.5396977,-1.4655964,-0.79940075,-0.10657564,0.0765754,1.242346,0.61173075
-0.1,0.1,1.0999999999999999,-0.5235987755982988,0.0,0,-0.93111634,-0.73247254,1.7862535,-0.039331723,-0.08133176,1.1813376,-0.846929,0.5396692,-1.4643033,-0.79435015,-0.088155046,-0.174863,1.1782619,0.33741304
-0.1,0.1,1.0999999999999999,-0.5235987755982988,0.0,0,-0.9326974,-0.7328897,1.8002758,-0.058504738,-0.17733389,1.2279857,-0.22527733,0.5395548,-1.4655182,-0.7971595,-0.15037252,-0.31563127,1.085932,0.030436616
-0.1,0.1,1.0999999999999999,-0.5235987755982988,0.0,0,-0.9321203,-0.7325828,1.8026701,-0.077856004,0.006115505,1.3096699,0.05433715,0.5401809,-1.4655786,-0.79327875,-0.121814616,-0.14018051,1.2654113,1.0840497
-0.1,0.1,1.0999999999999999,-0.5235987755982988,0.0,0,-0.93377054,-0.73147714,1.8000574,-0.045954466,-0.12878591,1.1150523,0.75999284,0.53924936,-1.4649963,-0.7932279,-0.15277986,0.074340336,1.2040272,0.43110555
-0.1,0.1,1.0999999999999999,-0.5235987755982988,0.0,0,-0.9320287,-0.73299897,1.7951959,-0.06558514,0.15692869,1.2531574,0.330145,0.5398161,-1.465079,-0.8077825,-0.08870137,-0.13014632,1.1440444,-0.7560244
-0.1,0.1,1.0999999999999999,-0.5235987755982988,0.0,0,-0.9329663,-0.73222125,1.7972589,-0.04691661,-0.012462885,1.1849147,-0.79477173,0.53953946,-1.4652437,-0.79729474,-0.11541926,-0.032980837,1.1182787,0.5840238
-0.1,0.1,1.0999999999999999,-0.5235987755982988,0.0,0,-0.9330428,-0.73282343,1.795524,-0.04639526,-0.23564023,1.2195817,-0.44186518,0.5394312,-1.464518,-0.7978316,-0.07727592,0.16798109,1.2336434,-0.45409486
-0.1,0.1,1.0999999999999999,-0.5235987755982988,0.0,0,-0.93343467,-0.7332768,1.795855,-0.04291876,-0.1302521,1.2093815,1.3458152,0.5393943,-1.4653556,-0.80100787,0.00052185444,0.048099443,1.1707488,0.53199965
-0.1,0.1,1.0999999999999999,-0.5235987755982988,0.0,0,-0.9326194,-0.73331493,1.7977973,-0.047435183,0.16518474,1.1870942,0.40015888,0.5388454,-1.4647716,-0.79741484,-0.101257294,-0.09640477,1.1289091,0.2963046
-0.1,0.1,1.0999999999999999,-0.5235987755982988,0.0,0,-0.93373686,-0.73333144,1.7966287,-0.05470922,0.049196497,1.2174536,-0.60703224,0.5395977,-1.4641868,-0.79536706,-0.07334653,0.067347236,1.1175839,0.06857493
-0.1,0.1,1.0999999999999999,-0.5235987755982988,0.0,0,-0.93130904,-0.73390317,1.8108078,-0.06706542,-0.024382344,1.1980709,-0.26204127,0.5403735,-1.4649789,-0.7983545,-0.14274018,0.04396767,1.183104,0.4597358
-0.1,0.1,1.0999999999999999,-0.5235987755982988,0.0,0,-0.934088,-0.7323825,1.7970393,-0.03823507,-0.25939056,1.1623197,0.7114888,0.5390931,-1.4644983,-0.79452413,-0.12652178,-0.15109882,1.1799071,0.11352391
-0.1,0.1,1.0999999999999999,-0.5235987755982988,0.0,0,-0.93228084,-0.7319789,1.8005335,-0.070572846,-0.25516024,1.2390904,0.01145826,0.53952104,-1.4649849,-0.7986784,-0.073493876,0.010363767,1.114529,-0.58087295
-0.1,0.1,1.0999999999999999,-0.5235987755982988,0.0,0,-0.9335441,-0.7331757,1.8056707,-0.049836744,-0.11040163,1.1914667,-0.24267007,0.53962386,-1.4652077,-0.79555756,-0.08994432,0.116368204,1.1517862,1.2725812
-0.1,0.1,1.0999999999999999,-0.5235987755982988,0.0,0,-0.93297076,-0.7328325,1.8053093,-0.048250433,0.018197527,1.2325476,-0.585226,0.5390337,-1.4650296,-0.79480857,-0.08170528,0.12974143,1.0876421,-0.41031373
-0.1,0.1,1.0999999999999999,-0.5235987755982988,0.0,0,-0.93157357,-0.73145825,1.7995931,-0.062962286,-0.08642715,1.1870648,-0.7846583,0.53926736,-1.465637,-0.7993539,-0.13613644,-0.029408427,1.1891031,0.16333859
-0.1,0.1,1.0999999999999999,-0.5235987755982988,0.0,0,-0.93288743,-0.7337222,1.8048217,-0.054541025,-0.18444458,1.2179294,-0.43592867,0.5405464,-1.4645183,-0.79449,-0.11146542,-0.0662489,1.1969024,-0.3122334
-0.1,0.1,1.0999999999999999,-0.5235987755982988,0.0,0,-0.9326899,-0.732469,1.8016484,-0.05963927,0.16368172,1.1531323,-0.5423931,0.53973764,-1.4654231,-0.8018659,-0.12600856,-0.0923778,1.1123347,-1.3452988
-0.1,0.1,1.0999999999999999,-0.5235987755982988,0.0,0,-0.9328621,-0.733561,1.8042624,-0.06362738,0.0073589757,1.2160038,0.19283162,0.5398441,-1.4650444,-0.80072474,-0.064015634,-0.19217142,1.1612774,0.5012452
-0.1,0.1,1.0999999999999999,-0.5235987755982988,0.0,0,-0.9326168,-0.7333925,1.8034213,-0.073290914,0.049618367,1.2352449,0.37505305,0.5397458,-1.4646215,-0.80079746,-0.03087679,0.11697943,1.086938,0.032030072
-0.1,0.1,1.0999999999999999,-0.5235987755982988,0.0,0,-0.93232423,-0.7337257,1.7914188,-0.03233257,0.026933914,1.1494603,0.010469252,0.5402726,-1.46514,-0.80330384,-0.11772161,0.15258649,1.115151,0.008291618
-0.1,0.1,1.0999999999999999,-0.5235987755982988,0.0,0,-0.9332876,-0.73454803,1.8008727,-0.054294877,-0.1945,1.1537505,0.6032769,0.539604,-1.4653676,-0.80157965,-0.07880892,-0.213345,1.051626,0.09371179
-0.1,0.1,1.0999999999999999,-0.5235987755982988,0.0,0,-0.9331097,-0.7339318,1.8003502,-0.050014224,-0.15659243,1.1828201,0.5720128,0.54050636,-1.4649752,-0.7950195,-0.10625721,0.03631602,1.124002,0.29357746
-0.1,0.1,1.0999999999999999,-0.5235987755982988,0.0,0,-0.9336852,-0.7311037,1.8015817,-0.07757868,-0.11609264,1.1866962,0.0661594,0.54009384,-1.4654902,-0.79494095,-0.03889107,-0.0021955254,1.2014917,-0.061776824
-0.1,0.1,1.0999999999999999,-0.5235987755982988,0.0,0,-0.9334051,-0.7337518,1.8096277,-0.056095164,-0.15703373,1.1782087,-0.49497694,0.5390621,-1.4645823,-0.8003691,-0.10212154,-0.04093619,1.191072,-0.8191906
-0.1,0.1,1.0999999999999999,-0.5235987755982988,0.0,0,-0.93212515,-0.73327947,1.7928848,-0.051157195,-0.1266846,1.2107633,-1.1780449,0.53996474,-1.4647343,-0.7947855,-0.071827926,0.18200696,1.1137108,-0.13280784
-0.1,0.1,1.0999999999999999,-0.5235987755982988,0.0,0,-0.9327978,-0.7334177,1.80007,-0.059618346,0.027252518,1.2206978,0.455566,0.5394996,-1.4649755,-0.8017301,-0.06702995,-0.21558689,1.2141081,0.05554477
-0.1,0.1,1.0999999999999999,-0.5235987755982988,0.0,0,-0.9326414,-0.7331686,1.8030701,-0.06649887,-0.009825452,1.1992636,-0.7611831,0.53921413,-1.4643261,-0.7951619,-0.08567633,-0.1413309,1.0240618,0.680374
-0.1,0.1,1.0999999999999999,-0.5235987755982988,0.0,0,-0.9319174,-0.73282653,1.8006952,-0.06043752,-0.107299745,1.2200799,-0.7498235,0.5386986,-1.4645059,-0.7962653,-0.104297996,0.040435936,1.0432707,-0.07658732
-0.1,0.1,1.0999999999999999,-0.5235987755982988,0.0,0,-0.9333711,-0.73328483,1.8023962,-0.03871104,-0.057983954,1.21127,0.96505535,0.53947806,-1.4659282,-0.7955806,-0.023638126,-0.09680934,1.2657628,1.6628721
-0.1,0.1,1.0999999999999999,-0.5235987755982988,0.0,0,-0.9339899,-0.733217,1.7962414,-0.04217773,-0.08117146,1.1494955,-0.1602489,0.5395708,-1.4645802,-0.796026,-0.1565432,-0.063521005,1.1245403,0.62340206
-0.1,0.1,1.0999999999999999,-0.5235987755982988,0.0,0,-0.93268013,-0.73370624,1.8034428,-0.059217878,-0.1844446,1.2033428,-0.10229575,0.5392762,-1.4641751,-0.7960987,-0.07328328,-0.017780274,1.1128725,2.1782262
-0.1,0.1,1.0999999999999999,-0.5235987755982988,0.0,0,-0.9321364,-0.7327128,1.8022254,-0.05707872,-0.29149267,1.1793474,-0.67226386,0.53953564,-1.4655634,-0.79706806,-0.12337262,-0.1793581,1.140711,-0.3101787
-0.1,0.1,1.0999999999999999,-0.5235987755982988,0.0,0,-0.9341311,-0.73300403,1.8064435,-0.06329865,-0.09306354,1.234442,0.10585454,0.53932625,-1.4639734,-0.78699225,-0.07331648,0.021619108,1.1172091,0.37510976
-0.1,0.1,1.0999999999999999,-0.5235987755982988,0.0,0,-0.93414813,-0.7340317,1.8007132,-0.044701856,-0.084596455,1.1870766,-0.42050758,0.5394682,-1.4650847,-0.80379295,-0.08224915,-0.081752434,1.238195,1.1645311
-0.1,0.1,1.0999999999999999,-0.5235987755982988,0.0,0,-0.932433,-0.73432374,1.796758,-0.06158879,-0.08480143,1.3386706,0.9741736,0.53924274,-1.4650179,-0.7997345,-0.1388876,-0.096583255,1.2132394,0.4959869
-0.1,0.1,1.0999999999999999,-0.5235987755982988,0.0,0,-0.93118364,-0.7342866,1.8029469,-0.051415287,-0.059821773,1.2144072,0.12572852,0.53973526,-1.4647198,-0.7992589,-0.117208466,-0.02435383,1.1843243,0.68143684
-0.1,0.1,1.0999999999999999,-0.5235987755982988,0.0,0,-0.93310237,-0.7341876,1.8076301,-0.0657859,0.20639901,1.1542169,0.06641497,0.54038566,-1.4648573,-0.79717684,-0.024702411,-0.07182283,1.085822,0.14384276
-0.1,0.1,1.0999999999999999,-0.5235987755982988,0.0,0,-0.9328397,-0.73281807,1.8002021,-0.04693786,-0.07227311,1.1103389,0.42195037,0.53951186,-1.4646459,-0.79590863,-0.09831502,0.15426332,1.196007,1.1998336
-0.1,0.1,1.0999999999999999,-0.5235987755982988,0.0,0,-0.9321167,-0.73258007,1.7980447,-0.051506925,-0.1774487,1.1514142,-1.4194988,0.53941995,-1.4642508,-0.79088205,-0.10303715,-0.13265455,1.0985821,-0.012298241
-0.1,0.1,1.0999999999999999,-0.5235987755982988,0.0,0,-0.9334161,-0.73241854,1.7960026,-0.052977376,0.019677054,1.2407885,-0.17617118,0.5394406,-1.4652884,-0.7955086,-0.075711034,0.09552664,1.0871706,0.86634624
-0.1,0.1,1.0999999999999999,-0.5235987755982988,0.0,0,-0.931095,-0.73099583,1.7964277,-0.08247041,-0.21799375,1.191932,-0.18153037,0.54013366,-1.4655774,-0.7978094,-0.0575777,-0.012274973,1.1936333,0.51687115
-0.1,0.1,1.0999999999999999,-0.5235987755982988,0.0,0,-0.93193775,-0.73254496,1.7933102,-0.062282003,-0.032897137,1.2352674,-1.6254739,0.5400322,-1.4657867,-0.7987055,-0.07672555,-0.120538235,1.1181583,-1.0408018
-0.1,0.1,1.0999999999999999,-0.5235987755982988,0.0,0,-0.9329953,-0.7321464,1.8035259,-0.064626575,-0.13722138,1.1474988,-1.7779984,0.53920954,-1.4649556,-0.80249035,-0.080934554,-0.15306702,1.13474,-0.96685946
-0.1,0.1,1.0999999999999999,-0.5235987755982988,0.0,0,-0.9322563,-0.73386943,1.7988701,-0.055831883,-0.112269364,1.1927938,0.36731178,0.5400224,-1.4656507,-0.7985585,0.0054836,-0.12245552,1.168265,0.71495414
-0.1,0.1,1.0999999999999999,-0.5235987755982988,0.0,0,-0.9329933,-0.7320735,1.7959077,-0.07541279,-0.037080046,1.2648785,0.09175513,0.5395078,-1.4648994,-0.7974225,-0.07410493,-0.02013108,1.1027694,-0.21897885
-0.1,0.1,1.0999999999999999,-0.5235987755982988,0.0,0,-0.93377006,-0.73315156,1.7943406,-0.046464976,0.054624956,1.1855958,-0.41387153,0.53974265,-1.4652752,-0.79589957,-0.14963557,-0.29180178,1.1955317,1.1404952
-0.1,0.1,1.0999999999999999,-0.5235987755982988,0.0,0,-0.9342476,-0.7346522,1.8046352,-0.052111592,-0.084318615,1.2716031,-0.6355797,0.53871226,-1.4651839,-0.7995421,-0.09629032,0.069851674,1.1386675,-0.06253399
-0.1,0.1,1.0999999999999999,-0.5235987755982988,0.0,0,-0.9332662,-0.73010576,1.7947843,-0.08265828,-0.084931165,1.1600233,-0.7661774,0.5400455,-1.4655405,-0.78750676,0.016777288,0.07397989,1.1936842,-0.85517645
-0.1,0.1,1.0999999999999999,-0.5235987755982988,0.0,0,-0.9335653,-0.7340011,1.7990766,-0.056949798,0.11906565,1.2110882,0.8308122,0.53984374,-1.4653841,-0.79880625,-0.025004964,-0.12079593,1.1619562,1.341381
-0.1,0.1,1.0999999999999999,-0.5235987755982988,0.0,0,-0.93319875,-0.73283273,1.7939535,-0.052598182,-0.08252004,1.0896097,-0.67262137,0.53937757,-1.464728,-0.7955408,-0.09530649,0.0851193,1.2319295,1.1782938
-0.1,0.1,1.0999999999999999,-0.5235987755982988,0.0,0,-0.9333699,-0.7339807,1.7973651,-0.045918014,0.0137117775,1.1762998,-0.99990076,0.53975904,-1.4651731,-0.79764706,-0.08568736,-0.10908749,1.2393973,0.6891411
-0.1,0.1,1.0999999999999999,-0.5235987755982988,0.0,0,-0.93298537,-0.73420626,1.7932326,-0.03949935,-0.025573917,1.2449619,-0.7997128,0.53936183,-1.4645293,-0.79566205,-0.077501684,-0.012049048,1.173229,0.9753996
-0.1,0.1,1.0999999999999999,-0.5235987755982988,0.0,0,-0.932895,-0.73395663,1.8033912,-0.06648126,0.096891284,1.0954304,0.25820184,0.5399274,-1.4650103,-0.7977789,-0.097418725,-0.086685464,1.2493289,-0.28846073
-0.1,0.1,1.0999999999999999,-0.5235987755982988,0.0,0,-0.9325384,-0.7338221,1.8002534,-0.06604708,0.18601882,1.1032456,-0.5234723,0.54007846,-1.4652101,-0.7951855,-0.12246624,0.16378534,1.0535526,1.1017498
-0.1,0.1,1.0999999999999999,-0.5235987755982988,0.0,0,-0.93365127,-0.7332248,1.8042,-0.060498986,-0.15828295,1.206798,0.72791326,0.5392546,-1.4653107,-0.79953814,-0.05929518,0.053480975,1.1448102,0.9264037
-0.1,0.1,1.0999999999999999,-0.5235987755982988,0.0,0,-0.9327724,-0.7319919,1.8016114,-0.05453775,-0.029800273,1.1198252,-0.52574563,0.53917485,-1.4656405,-0.7977269,-0.049445797,-0.03588505,1.1894655,-0.27344224
-0.1,0.1,1.0999999999999999,-0.5235987755982988,0.0,0,-0.9329207,-0.73421806,1.7966527,-0.056757864,0.11380607,1.1961453,-0.16901721,0.54012424,-1.464868,-0.79568404,-0.06440673,-0.13476056,1.1781907,0.1278918
-0.1,0.1,1.0999999999999999,-0.5235987755982988,0.0,0,-0.9337285,-0.732568,1.7983407,-0.05513093,0.103208795,1.2103217,0.34474418,0.5390113,-1.4653634,-0.7931836,-0.046293125,0.09320884,1.2105428,-0.3679626
-0.1,0.1,1.0999999999999999,-0.5235987755982988,0.0,0,-0.9325174,-0.73279935,1.7867062,-0.054041926,0.08621179,1.2549418,0.110280655,0.5390583,-1.4651345,-0.80073375,-0.020884432,-0.16087998,1.1411719,0.20060678
-0.1,0.1,1.0999999999999999,-0.5235987755982988,0.0,0,-0.93289644,-0.73317325,1.7975763,-0.062309075,-0.10338815,1.1966599,-0.6764896,0.5390348,-1.464716,-0.8009317,-0.05967875,0.007169523,1.1469336,-0.19983427
-0.1,0.1,1.0999999999999999,-0.5235987755982988,0.0,0,-0.9326965,-0.7342708,1.7931087,-0.05222476,0.017657652,1.3206903,0.2937713,0.5394257,-1.4650341,-0.79859334,-0.084792085,0.08836767,1.1570184,0.6170589
-0.1,0.1,1.0999999999999999,-0.5235987755982988,0.0,0,-0.9339274,-0.73425335,1.7921054,-0.04088443,-0.08569305,1.1831721,0.38601828,0.5394683,-1.4652185,-0.7962254,-0.20316875,0.08376671,1.2815076,1.3290466
-0.1,0.1,1.0999999999999999,-0.5235987755982988,0.0,0,-0.9349278,-0.73189795,1.7889166,-0.05308037,-0.06267512,1.2308389,-0.781715,0.5391522,-1.4654849,-0.7926826,-0.026594471,0.111830994,1.1625863,0.15078534
-0.1,0.1,1.0999999999999999,-0.5235987755982988,0.0,0,-0.9326138,-0.7328719,1.7957441,-0.058971204,-0.13035558,1.2403389,0.77247715,0.5392602,-1.4656097,-0.7963761,-0.05242811,0.14841934,1.1262767,0.8277554
-0.1,0.1,1.0999999999999999,-0.5235987755982988,0.0,0,-0.93317455,-0.73314893,1.803033,-0.07080389,-0.21737589,1.1994838,-0.5107739,0.53972393,-1.4652774,-0.7986723,-0.110440895,0.178626,1.1357287,0.09065552
-0.1,0.1,1.0999999999999999,-0.5235987755982988,0.0,0,-0.933255,-0.73357505,1.7968702,-0.052879356,-0.30396658,1.20091,-0.6005441,0.5395338,-1.4653676,-0.7971626,-0.08915273,-0.053318433,1.2712028,0.15234995
-0.1,0.1,1.0999999999999999,-0.5235987755982988,0.0,0,-0.9329809,-0.7322774,1.7966298,-0.057248183,-0.14973508,1.1345199,0.35780868,0.5391675,-1.4646459,-0.7953363,-0.17285949,0.13480435,1.1350659,-0.105849355
-0.1,0.1,1.0999999999999999,-0.5235987755982988,0.0,0,-0.93350637,-0.7339237,1.8054945,-0.0639135,-0.08375365,1.1777318,0.6154823,0.5396595,-1.4647584,-0.7969615,-0.06608728,0.12916389,1.1533784,0.9838944
-0.1,0.1,1.0999999999999999,-0.5235987755982988,0.0,0,-0.93200684,-0.73440194,1.8019783,-0.06085585,0.02317963,1.1705391,0.23014142,0.5398036,-1.4645154,-0.79686946,-0.029424742,-0.04430251,1.2083199,0.93785954
-0.1,0.1,1.0999999999999999,-0.5235987755982988,0.0,0,-0.9325516,-0.7330142,1.7976422,-0.065656774,0.02663543,1.1172537,-0.49863762,0.5392844,-1.4650244,-0.802698,-0.07911207,-0.11011063,1.0950019,-0.04285841
-0.1,0.1,1.0999999999999999,-0.5235987755982988,0.0,0,-0.9319978,-0.7345361,1.7987534,-0.05697636,0.117810465,1.31945,-1.1166692,0.5392261,-1.4655643,-0.8034528,-0.122119725,0.04027321,1.173211,0.5209988
-0.1,0.1,1.0999999999999999,-0.5235987755982988,0.0,0,-0.93155503,-0.73341036,1.7980332,-0.06154228,-0.1307512,1.1598353,-0.3178108,0.5400483,-1.464918,-0.80135506,-0.061349273,0.1717285,1.1257074,0.74640983
-0.1,0.1,1.0999999999999999,-0.5235987755982988,0.0,0,-0.9331271,-0.7331138,1.796222,-0.05451363,-0.118341364,1.1926677,-0.06614589,0.53970754,-1.465263,-0.79445475,-0.064526334,-0.06972451,1.1569194,-0.37425414
-0.1,0.1,1.0999999999999999,-0.5235987755982988,0.0,0,-0.9336569,-0.7333703,1.8023012,-0.04860344,-0.07284667,1.1793283,0.46095788,0.53919715,-1.465599,-0.79461366,-0.073701575,-0.030338995,1.2483672,-0.13323398
-0.1,0.1,1.0999999999999999,-0.5235987755982988,0.0,0,-0.92994577,-0.7331866,1.7999811,-0.069601595,0.14709912,1.1751591,0.6630945,0.5393588,-1.4649471,-0.80024946,-0.039846506,-0.08614557,1.1605963,0.19043969
-0.1,0.1,1.0999999999999999,-0.5235987755982988,0.0,0,-0.93275774,-0.7321574,1.7944113,-0.07657413,-0.10782563,1.2150232,-0.7407285,0.53877866,-1.4650396,-0.79781795,-0.1037885,0.07472686,1.1748414,1.5468093
-0.1,0.1,1.0999999999999999,-0.5235987755982988,0.0,0,-0.9338648,-0.7342622,1.8048359,-0.059669852,0.008653464,1.2661502,0.30464983,0.539216,-1.4652401,-0.7946429,-0.105029166,-0.22002815,1.219984,-0.47623605
-0.1,0.1,1.0999999999999999,-0.5235987755982988,0.0,0,-0.93349284,-0.7325173,1.7960151,-0.058594447,-0.14397416,1.1601013,1.0843552,0.5390997,-1.4647049,-0.7940997,-0.1487349,0.037269626,1.1702628,0.42531988
-0.1,0.1,1.0999999999999999,-0.5235987755982988,0.0,0,-0.93302065,-0.7347423,1.8015374,-0.04706323,-0.0555218,1.1955115,-0.41264683,0.53927565,-1.4653376,-0.79807526,-0.08599468,-0.07868525,1.0983365,1.5938832
-0.1,0.1,1.0999999999999999,-0.5235987755982988,0.0,0,-0.93264097,-0.7329208,1.8032172,-0.07176087,-0.1827357,1.1361821,0.36627543,0.53993255,-1.4647975,-0.7968425,-0.09556328,-0.059897564,1.1011024,-0.2757018
-0.1,0.1,1.0999999999999999,-0.5235987755982988,0.0,0,-0.9329649,-0.7344051,1.8023597,-0.06638271,0.16932498,1.1801233,-0.14632651,0.5389991,-1.4644593,-0.8016442,-0.07265017,-0.019459333,1.1600215,1.0959567
-0.1,0.1,1.0999999999999999,-0.5235987755982988,0.0,0,-0.9333913,-0.73416626,1.8049184,-0.06781001,-0.17106296,1.2334942,1.0793223,0.5395216,-1.4651781,-0.7949091,-0.07339349,0.13448673,1.1973773,0.3311756
-0.1,0.1,1.0999999999999999,-0.5235987755982988,0.0,0,-0.9331562,-0.7332877,1.8090441,-0.072810166,-0.08332259,1.1784374,0.21916877,0.53971654,-1.4653531,-0.7989932,-0.08359665,-0.16081817,1.124635,1.3289623
-0.1,0.1,1.0999999999999999,-0.5235987755982988,0.0,0,-0.93160146,-0.73414207,1.8022871,-0.08043194,-0.051229402,1.2648708,-0.34131348,0.5396433,-1.4651631,-0.79758054,-0.055645738,0.21725816,1.1265992,1.0338287
-0.1,0.1,1.0999999999999999,-0.5235987755982988,0.0,0,-0.93105763,-0.7330511,1.7917867,-0.05664209,-0.16574793,1.1394557,1.6104815,0.5389517,-1.4644196,-0.79896605,-0.07655713,0.0754762,1.1609607,0.38225624
-0.1,0.1,1.0999999999999999,-0.5235987755982988,0.0,0,-0.93316823,-0.73414785,1.7945442,-0.055473894,0.050187957,1.2251979,-1.7093043,0.53942597,-1.4657469,-0.79593813,-0.023973946,0.08831247,1.0997066,0.44649833
-0.1,0.1,1.0999999999999999,-0.5235987755982988,0.0,0,-0.932572,-0.733838,1.8039742,-0.068076715,-0.12037846,1.1804259,0.12559102,0.5394741,-1.4644709,-0.79769456,-0.14188173,-0.10427682,1.1112143,-0.846953
-0.1,0.1,1.0999999999999999,-0.5235987755982988,0.0,0,-0.93321484,-0.73464495,1.7976696,-0.060329378,-0.18438023,1.1741759,-0.36989293,0.53854114,-1.464558,-0.7934821,-0.035925817,-0.17889057,1.2139678,0.21037817
-0.1,0.1,1.0999999999999999,-0.5235987755982988,0.0,0,-0.932694,-0.73392564,1.7976791,-0.06298483,0.04866763,1.233124,0.23758703,0.5392445,-1.4650933,-0.7972763,-0.13611493,-0.053865142,1.1112971,-0.0689331
-0.1,0.1,1.0999999999999999,-0.5235987755982988,0.0,0,-0.9326892,-0.7315444,1.8032513,-0.07322175,-0.17102759,1.162973,-0.2581667,0.5390371,-1.4654866,-0.7958715,-0.12832643,-0.066990644,1.2166641,-0.14257132
-0.1,0.1,1.0999999999999999,-0.5235987755982988,0.0,0,-0.93207633,-0.7326707,1.7980477,-0.06558096,-0.03428675,1.1457925,-0.19242623,0.5397029,-1.4652942,-0.7923197,-0.06464781,-0.022782722,1.17462,-0.6004595
-0.1,0.1,1.0999999999999999,-0.5235987755982988,0.0,0,-0.9325682,-0.7326641,1.7977659,-0.08490116,-0.091698624,1.2285943,-0.46560833,0.53882957,-1.4657178,-0.7981396,-0.06813836,-0.30105916,1.1928642,0.7413154
-0.1,0.1,1.0999999999999999,-0.5235987755982988,0.0,0,-0.9325689,-0.7331505,1.7991532,-0.06701094,-0.22661151,1.195928,-0.46394357,0.5389945,-1.4650055,-0.795221,-0.10436799,0.043078218,1.1555694,-0.07897051
-0.1,0.1,1.0999999999999999,-0.5235987755982988,0.0,0,-0.93275386,-0.73358613,1.7952654,-0.057945933,0.07072147,1.1737232,-0.82585377,0.5392473,-1.4649557,-0.79385084,-0.0354194,-0.044072784,1.1656975,1.1718864
-0.1,0.1,1.0999999999999999,-0.5235987755982988,0.0,0,-0.9320987,-0.73387575,1.7913349,-0.048794232,-0.019470936,1.1918769,-0.78889716,0.5386792,-1.4652486,-0.8001436,-0.08357041,0.0042955326,1.1929332,0.79438347
-0.1,0.1,1.0999999999999999,-0.5235987755982988,0.0,0,-0.933857,-0.73412997,1.7957245,-0.046576798,0.01850015,1.2204092,-1.4349039,0.53900164,-1.4655925,-0.7946611,-0.10071825,-0.10106307,1.151144,1.3701456
-0.1,0.1,1.0999999999999999,-0.5235987755982988,0.0,0,-0.9333805,-0.7333832,1.7908664,-0.06154557,-0.11739208,1.2243371,-0.9679913,0.53910184,-1.4656032,-0.79484135,-0.12557867,-0.0013313259,1.1466686,0.84629357
-0.1,0.1,1.0999999999999999,-0.5235987755982988,0.0,0,-0.9307653,-0.7352903,1.8017101,-0.057644334,-0.06700096,1.1897099,-0.8479286,0.53880537,-1.4645572,-0.79697996,-0.061501484,-0.010994212,1.1050785,0.15436897
-0.1,0.1,1.0999999999999999,-0.5235987755982988,0.0,0,-0.9339447,-0.7340842,1.7945778,-0.061254878,-0.034534473,1.1918821,0.051180176,0.539145,-1.4651105,-0.8029708,-0.07498447,-0.09511844,1.1663058,0.7916245
-0.1,0.1,1.0999999999999999,-0.5235987755982988,0.0,0,-0.931741,-0.73252326,1.7974806,-0.07094574,-0.10892601,1.2091482,-0.2435188,0.53958493,-1.4657785,-0.7993491,-0.063377306,-0.084561795,1.2358115,0.9717204
-0.1,0.1,1.0999999999999999,-0.5235987755982988,0.0,0,-0.9326856,-0.73215854,1.8025112,-0.03782309,-0.23870762,1.1835954,-0.6127234,0.54048884,-1.4648818,-0.8005072,-0.034979768,-0.13342,1.2657094,0.543952
-0.1,0.1,1.0999999999999999,-0.5235987755982988,0.0,0,-0.9328799,-0.7318864,1.7928504,-0.0638174,-0.004801852,1.2211119,-0.39455152,0.53962016,-1.4654278,-0.8028236,-0.076773,0.02038433,1.238588,-0.015240806
-0.1,0.1,1.0999999999999999,-0.5235987755982988,0.0,0,-0.93433976,-0.7317489,1.8095956,-0.087737866,-0.07239101,1.2267624,-0.5527387,0.538471,-1.4647632,-0.79891306,-0.071834534,-0.002906539,1.1047539,0.97617704
-0.1,0.1,1.0999999999999999,-0.5235987755982988,0.0,0,-0.9336871,-0.733269,1.798557,-0.057868894,-0.07986098,1.206086,-0.08339595,0.5393319,-1.4650348,-0.7949089,-0.12314545,-0.0032578118,1.2733307,1.3313863
-0.1,0.1,1.0999999999999999,-0.5235987755982988,0.0,0,-0.93342644,-0.7325836,1.8010172,-0.044606015,0.011273716,1.1423904,1.2363089,0.53989416,-1.4647957,-0.7980489,-0.10627922,0.11832231,1.2962235,-0.17327148
-0.1,0.1,1.0999999999999999,-0.5235987755982988,0.0,0,-0.9332507,-0.7330253,1.8055019,-0.069273576,0.025263987,1.1851723,1.9628291,0.5397028,-1.4650407,-0.7991371,-0.14413235,0.0995222,1.0361211,0.33811924
-0.1,0.1,1.0999999999999999,-0.5235987755982988,0.0,0,-0.93188155,-0.7337136,1.7984724,-0.041922066,0.04998441,1.1753598,-0.8374712,0.5394816,-1.4647648,-0.79995394,-0.09441548,-0.072301015,1.063505,-0.051246725
-0.1,0.1,1.0999999999999999,-0.5235987755982988,0.0,0,-0.93268853,-0.7318317,1.8010045,-0.054957405,-0.1858574,1.1691637,-0.9667826,0.5391883,-1.4653572,-0.7962273,-0.007846962,-0.04988278,1.1830294,-0.0061572776
-0.1,0.1,1.0999999999999999,-0.5235987755982988,0.0,0,-0.9313397,-0.73377204,1.7989153,-0.044038117,0.06098786,1.094562,0.22498912,0.53923875,-1.4649886,-0.7968031,-0.102934346,-0.024912518,1.1458609,0.5424434
-0.1,0.1,1.0999999999999999,-0.5235987755982988,0.0,0,-0.93303263,-0.7335636,1.8000432,-0.08203899,-0.1689237,1.0841341,-0.4280169,0.53897625,-1.464413,-0.79400307,-0.12901148,-0.17681928,1.0937959,0.12056736
-0.1,0.1,1.0999999999999999,-0.5235987755982988,0.0,0,-0.93246853,-0.7345282,1.8022269,-0.048863575,-0.1371882,1.2098637,-1.0226352,0.5390245,-1.4643186,-0.7962218,-0.04481543,-0.10644274,1.0709805,0.8524827
-0.1,0.1,1.0999999999999999,-0.5235987755982988,0.0,0,-0.9346542,-0.73345083,1.8025105,-0.04066177,-0.20291479,1.2101837,-0.5624469,0.53986084,-1.465381,-0.7979632,-0.08656291,0.048643358,1.1697133,-0.19881716
-0.1,0.1,1.0999999999999999,-0.5235987755982988,0.0,0,-0.93204975,-0.73154426,1.7907808,-0.04326867,-0.06573354,1.1883371,-0.10774457,0.5391526,-1.4645866,-0.7958777,-0.029269192,-0.08578102,1.1828654,0.11550778
-0.1,0.1,1.0999999999999999,-0.5235987755982988,0.0,0,-0.9319422,-0.73425865,1.7952416,-0.052389305,-0.18611363,1.2966524,0.043436162,0.5393571,-1.4648266,-0.80382425,-0.15190324,0.21911219,1.1425939,-0.6813553
-0.1,0.1,1.0999999999999999,-0.5235987755982988,0.0,0,-0.9321932,-0.7327671,1.8025978,-0.050291043,0.016519736,1.2178035,-0.06256136,0.5392423,-1.4648268,-0.79979235,-0.0955063,0.32894614,1.1159207,0.5733476
-0.1,0.1,1.0999999999999999,-0.5235987755982988,0.0,0,-0.9343475,-0.73325044,1.8044728,-0.049998857,-0.17086203,1.2890499,0.7008441,0.5395274,-1.4650536,-0.7969674,-0.12530819,-0.25298604,1.1606643,-0.31986758
-0.1,0.1,1.0999999999999999,-0.5235987755982988,0.0,0,-0.93447745,-0.732785,1.7980123,-0.051123362,-0.043374233,1.259692,-0.89692265,0.5386987,-1.4651182,-0.79968125,-0.16364601,-0.10746025,1.1286175,-0.44822317
-0.1,0.1,1.0999999999999999,-0.5235987755982988,0.0,0,-0.9329366,-0.73322636,1.7897007,-0.05451635,0.1843325,1.2503787,0.33372274,0.54036295,-1.4640493,-0.7982885,-0.10014418,-0.017240541,1.0858341,0.7224468
-0.1,0.1,1.0999999999999999,-0.5235987755982988,0.0,0,-0.9316638,-0.7335165,1.8033625,-0.058177296,-0.36710027,1.2008928,-1.0591487,0.5395261,-1.464553,-0.79486626,-0.10855056,0.09839946,1.130833,0.6728334
-0.1,0.1,1.0999999999999999,-0.5235987755982988,0.0,0,-0.93336993,-0.7323505,1.810428,-0.041969005,-0.20694962,1.2476399,-0.6228043,0.5394715,-1.4646963,-0.79898655,-0.07366396,-0.008884639,1.1932214,1.0525361
-0.1,0.1,1.0999999999999999,-0.5235987755982988,0.0,0,-0.9341072,-0.73298186,1.8021554,-0.07225802,-0.06076978,1.1804581,0.44140828,0.5396989,-1.465155,-0.7965091,-0.14046782,0.028189106,1.1183643,-0.4368266
-0.1,0.1,1.0999999999999999,-0.5235987755982988,0.0,0,-0.93450606,-0.7323444,1.797552,-0.04131783,0.06916903,1.1948497,-2.3037443,0.5395422,-1.4647653,-0.80191964,-0.07419531,-0.21350154,1.114436,0.7167286
-0.1,0.1,1.0999999999999999,-0.5235987755982988,0.0,0,-0.9339803,-0.7327641,1.8106532,-0.057413977,0.079634644,1.1900357,1.1509603,0.5387974,-1.4650462,-0.7987681,-0.08693599,-0.2122387,1.1896362,0.07352647
-0.1,0.1,1.0999999999999999,-0.5235987755982988,0.0,0,-0.93271834,-0.73332953,1.80752,-0.07220005,0.25825965,1.2429031,-0.8519234,0.5393502,-1.4651946,-0.7991295,-0.07311525,-0.13821962,1.2144911,1.1116465
-0.1,0.1,1.0999999999999999,-0.5235987755982988,0.0,0,-0.93371254,-0.7325856,1.7914855,-0.0453039,0.035437908,1.2346648,-0.22029771,0.5394819,-1.464908,-0.7948693,-0.14697427,-0.082490884,1.1506181,-0.0739183
-0.1,0.1,1.0999999999999999,-0.5235987755982988,0.0,0,-0.9336399,-0.7331283,1.8009161,-0.043798808,-0.075503804,1.2102052,0.20970295,0.53933436,-1.464438,-0.7925649,-0.07301836,-0.012300984,1.2073839,0.56905776
-0.1,0.1,1.0999999999999999,-0.5235987755982988,0.0,0,-0.93336946,-0.73279995,1.7965157,-0.050683234,0.0077236425,1.2281799,0.06748335,0.5403178,-1.4650252,-0.7993646,-0.12901446,0.11194511,1.163317,0.6948022
-0.1,0.1,1.0999999999999999,-0.5235987755982988,0.0,0,-0.9333101,-0.7324912,1.795103,-0.06261686,-0.06428664,1.1429188,-2.1851966,0.5386983,-1.4644164,-0.7954547,-0.084377386,0.17898622,1.1720746,0.15685496
-0.1,0.1,1.0999999999999999,-0.5235987755982988,0.0,0,-0.9326874,-0.7331076,1.8016485,-0.041250728,-0.04318795,1.2377238,-0.8123761,0.53982055,-1.4648527,-0.80346245,-0.08051732,0.028520081,1.1901925,-0.093057044
-0.1,0.1,1.0999999999999999,-0.5235987755982988,0.0,0,-0.9336267,-0.7338689,1.7975304,-0.03327198,0.099737115,1.2003495,-0.28408027,0.5397413,-1.4649493,-0.7994998,-0.03657162,-0.31571862,1.0719279,0.2746395
-0.1,0.1,1.0999999999999999,-0.5235987755982988,0.0,0,-0.9330229,-0.73376924,1.7990404,-0.020563615,-0.16212007,1.1575351,1.2036953,0.53905,-1.4644958,-0.80738914,-0.09143696,-0.06376823,1.1828908,0.72018534
-0.1,0.1,1.0999999999999999,-0.5235987755982988,0.0,0,-0.93087256,-0.73382103,1.8100634,-0.028410029,-0.17192487,1.2090355,0.6400023,0.5395354,-1.4648365,-0.7963956,-0.09177195,0.0609049,1.2158934,0.022696482
-0.1,0.1,1.0999999999999999,-0.5235987755982988,0.0,0,-0.93287206,-0.73314714,1.8024926,-0.061861217,0.10259198,1.153666,0.061023932,0.53965276,-1.4647622,-0.8006308,-0.059754457,-0.022093493,1.2057756,0.4149647
-0.1,0.1,1.0999999999999999,-0.5235987755982988,0.0,0,-0.93508977,-0.73076963,1.8067281,-0.052944444,-0.23425645,1.1433765,-0.4087959,0.5393413,-1.4645948,-0.7945263,0.0151145905,0.08546673,1.125198,1.6808017
-0.1,0.1,1.0999999999999999,-0.5235987755982988,0.0,0,-0.9345154,-0.7329691,1.8073256,-0.058524657,-0.019903067,1.132427,-0.5891243,0.5395667,-1.4649651,-0.7973448,-0.02374041,0.07512597,1.2208023,0.8518821
-0.1,0.1,1.0999999999999999,-0.5235987755982988,0.0,0,-0.932901,-0.73296094,1.7909195,-0.036617395,0.050821263,1.2540396,0.097116664,0.5400016,-1.4646406,-0.79643667,0.0014372212,-0.2551792,1.2035464,0.1333154
-0.1,0.1,1.0999999999999999,-0.5235987755982988,0.0,0,-0.9334004,-0.7330561,1.7966819,-0.036701344,-0.008556921,1.1105336,-0.17645341,0.5401128,-1.4645517,-0.8020237,-0.07265839,0.04557811,1.1514989,1.2738135
-0.1,0.1,1.0999999999999999,-0.5235987755982988,0.0,0,-0.9306455,-0.7328492,1.8005898,-0.041050207,-0.15917233,1.2414168,-0.68442464,0.53990567,-1.464679,-0.79536974,-0.1122177,-0.014695019,1.1945181,0.4386001
-0.1,0.1,1.0999999999999999,-0.5235987755982988,0.0,0,-0.9335792,-0.7332816,1.7992592,-0.034973085,0.05847373,1.2165922,-0.6278085,0.5399646,-1.465426,-0.79905653,-0.051093943,-0.1127883,1.0631446,-0.957954
-0.1,0.1,1.0999999999999999,-0.5235987755982988,0.0,0,-0.93377185,-0.7325793,1.8047259,-0.036065586,-0.07145801,1.2126825,-1.6736438,0.5399157,-1.4651523,-0.79774475,-0.1079399,0.04899125,1.1085616,-0.8109976
-0.1,0.1,1.0999999999999999,-0.5235987755982988,0.0,0,-0.932891,-0.73578876,1.7957953,-0.03016861,-0.02471602,1.2222474,-0.08994703,0.5398175,-1.4648615,-0.8022366,-0.039578617,0.16826166,1.1819502,1.2779075
-0.1,0.1,1.0999999999999999,-0.5235987755982988,0.0,0,-0.9323631,-0.7318415,1.8021829,-0.05707071,-0.10814208,1.2768492,0.51065254,0.53918374,-1.4648213,-0.79674923,-0.050358687,-0.12608032,1.2140042,0.5071913
-0.1,0.1,1.0999999999999999,-0.5235987755982988,0.0,0,-0.9334413,-0.7343434,1.7953056,-0.041633226,0.051132474,1.2294357,-0.4181812,0.5404167,-1.4654901,-0.7998869,-0.04147211,-0.1375101,1.21821,0.03322588
-0.1,0.1,1.0999999999999999,-0.5235987755982988,0.0,0,-0.9327774,-0.73438096,1.791492,-0.05695684,-0.13600992,1.2355493,-0.8532867,0.53885686,-1.4648808,-0.7998024,-0.14192626,-0.1992897,1.1966494,0.38353702
-0.1,0.1,1.0999999999999999,-0.5235987755982988,0.0,0,-0.9324766,-0.7329928,1.7943805,-0.044146128,-0.12543637,1.2257692,-1.0183187,0.53942734,-1.4652898,-0.79311675,-0.061836395,-0.06898447,1.1075529,0.85035366
-0.1,0.1,1.0999999999999999,-0.5235987755982988,0.0,0,-0.9339038,-0.7326375,1.7938911,-0.04656847,-0.04003377,1.1420076,-0.54658455,0.5394498,-1.4648892,-0.78863865,-0.086595766,-0.20976801,1.1429582,-0.50846595
-0.1,0.1,1.0999999999999999,-0.5235987755982988,0.0,0,-0.9327268,-0.73282874,1.7835944,-0.051206224,0.17792085,1.1180861,0.26651886,0.5392228,-1.4644295,-0.79227984,-0.14801277,-0.20871341,1.0782177,0.3669677
-0.1,0.1,1.0999999999999999,-0.5235987755982988,0.0,0,-0.93304336,-0.73321825,1.7947781,-0.051539365,-0.09774625,1.136334,0.87994057,0.53982025,-1.46485,-0.80308205,-0.114617854,-0.30090594,1.2439181,1.0843574
-0.1,0.1,1.0999999999999999,-0.5235987755982988,0.0,0,-0.9331112,-0.73176366,1.7906523,-0.048986208,-0.1738707,1.133565,0.7188859,0.5397264,-1.4642895,-0.79717463,-0.10847598,0.027520671,1.0811814,0.5924662
-0.1,0.1,1.0999999999999999,-0.5235987755982988,0.0,0,-0.9332242,-0.7320799,1.7908193,-0.036496457,0.005597643,1.1836456,0.08185491,0.5395767,-1.4641109,-0.8074784,-0.112451985,0.024665661,1.1296889,0.60009795
-0.1,0.1,1.0999999999999999,-0.5235987755982988,0.0,0,-0.93334454,-0.73310643,1.8101655,-0.029063364,0.036676887,1.1659315,-0.49887675,0.5402266,-1.4643598,-0.7974696,-0.12496638,-0.09441276,1.1852285,0.68218404
-0.1,0.1,1.0999999999999999,-0.5235987755982988,0.0,0,-0.93395823,-0.73113835,1.7956688,-0.049158357,0.04295094,1.1728616,-0.75151336,0.53965515,-1.4643892,-0.79936975,-0.09918338,-0.12977904,1.099436,0.898637
-0.1,0.1,1.0999999999999999,-0.5235987755982988,0.0,0,-0.9335445,-0.732926,1.812596,-0.048153944,0.012755652,1.2454172,0.092220426,0.5391978,-1.4643373,-0.79835993,-0.10344282,0.0021704817,1.081571,-0.36389232
-0.1,0.1,1.0999999999999999,-0.5235987755982988,0.0,0,-0.9339365,-0.73145926,1.80365,-0.0658119,-0.13136458,1.2452183,-0.24460776,0.54000884,-1.4645522,-0.7987865,-0.07744597,-0.016582478,1.1025525,0.66194373
-0.1,0.1,1.0999999999999999,-0.5235987755982988,0.0,0,-0.9330903,-0.73089516,1.7890844,-0.050924674,-0.032032795,1.2919036,-0.38587195,0.53925985,-1.465384,-0.7980066,-0.14418527,-0.10056967,1.1710305,0.094561584
-0.1,0.1,1.0999999999999999,-0.5235987755982988,0.0,0,-0.9326194,-0.7320158,1.8006968,-0.05520597,-0.21266612,1.2515683,1.2523239,0.53979385,-1.4652245,-0.7970586,-0.11709555,-0.053127814,1.1537098,-0.097174376
-0.1,0.1,1.0999999999999999,-0.5235987755982988,0.0,0,-0.9340739,-0.73480195,1.8034163,-0.05546565,-0.26616585,1.1346073,0.18320578,0.53955835,-1.4653004,-0.80031955,-0.064335234,-0.09481026,1.1880927,0.2325438
-0.1,0.1,1.0999999999999999,-0.5235987755982988,0.0,0,-0.9324456,-0.7322589,1.7966405,-0.0471551,-0.059706166,1.3099419,0.031855103,0.5385019,-1.4649445,-0.80141056,-0.027158087,-0.03226371,1.1830636,0.9630954
-0.1,0.1,1.0999999999999999,-0.5235987755982988,0.0,0,-0.9324691,-0.7331518,1.7976593,-0.05468021,-0.104239576,1.2813787,0.26023817,0.5406338,-1.4642838,-0.79419625,-0.12383713,-0.03539841,1.1440783,0.9351719
-0.1,0.1,1.0999999999999999,-0.5235987755982988,0.0,0,-0.93277115,-0.73271346,1.7996776,-0.0391278,0.09463979,1.1161084,0.5256224,0.5392417,-1.4643236,-0.7950585,-0.09067283,-0.08980257,1.2146069,0.8777799
-0.1,0.1,1.0999999999999999,-0.5235987755982988,0.0,0,-0.933,-0.7341286,1.7998523,-0.040955186,-0.06914646,1.1712425,-0.5637975,0.54011196,-1.46504,-0.80128986,-0.017059654,0.13493481,1.1067314,-0.40149567
-0.1,0.1,1.0999999999999999,-0.5235987755982988,0.0,0,-0.93394023,-0.7354533,1.801667,-0.03812439,-0.13547227,1.0740693,-1.7504959,0.5394111,-1.4649955,-0.79952896,-0.09584351,-0.020617507,1.116062,0.6424176
-0.1,0.1,1.0999999999999999,-0.5235987755982988,0.0,0,-0.93357027,-0.73538905,1.8007085,-0.036022518,-0.12450846,1.211079,-0.8621375,0.539928,-1.4647075,-0.8039219,-0.076256715,0.055345125,1.132492,0.3383661
-0.1,0.1,1.0999999999999999,-0.5235987755982988,0.0,0,-0.93390054,-0.73524624,1.8038148,-0.03931281,-0.029395228,1.1698482,-0.5898036,0.5394705,-1.464732,-0.79743636,-0.10612148,-0.046263818,1.1049683,-0.12796886
-0.1,0.1,1.0999999999999999,-0.5235987755982988,0.0,0,-0.9320608,-0.73374337,1.8061666,-0.061680973,-0.12789804,1.1699666,-1.266329,0.5391415,-1.4650921,-0.8027417,-0.038817193,0.054269016,1.2220713,0.50357515
-0.1,0.1,1.0999999999999999,-0.5235987755982988,0.0,0,-0.9329228,-0.73455924,1.7930336,-0.03605754,-0.055270042,1.1839286,0.32179707,0.53920084,-1.4648397,-0.8007368,-0.08620309,0.011364276,1.1861997,0.42033976
-0.1,0.1,1.0999999999999999,-0.5235987755982988,0.0,0,-0.9337468,-0.7317543,1.7959503,-0.061394084,-0.1849583,1.1964412,-0.5508678,0.5391265,-1.4655205,-0.7981903,-0.12779409,-0.01977809,1.1787076,0.81679916
-0.1,0.1,1.0999999999999999,-0.5235987755982988,0.0,0,-0.9324324,-0.733471,1.7956544,-0.040052116,-0.013278293,1.1436996,0.034681365,0.53937525,-1.4654154,-0.7951843,-0.034912556,0.091315836,1.1070801,0.6798161
-0.1,0.1,1.0999999999999999,-0.5235987755982988,0.0,0,-0.93334866,-0.73085374,1.7977595,-0.021111071,-0.004559624,1.1320323,0.3273372,0.5398995,-1.464889,-0.79401225,-0.06944605,-0.02332455,1.1579496,-0.2634603
-0.1,0.1,1.0999999999999999,-0.5235987755982988,0.0,0,-0.93278843,-0.7338454,1.7962347,-0.035038237,-0.029140776,1.1865227,-0.3577115,0.5389166,-1.4651968,-0.79352665,-0.04902415,-0.022844562,1.0887685,-0.49278954
-0.1,0.1,1.0999999999999999,-0.5235987755982988,0.0,0,-0.933544,-0.73199904,1.7953972,-0.061304245,0.109855525,1.2559068,-0.35922083,0.5395226,-1.4647586,-0.7931548,-0.046656813,-0.14206257,1.1513262,-0.51945204
-0.1,0.1,1.0999999999999999,-0.5235987755982988,0.0,0,-0.9322592,-0.73099756,1.8008666,-0.0474736,0.0027467497,1.2169834,-0.5448748,0.53972787,-1.464851,-0.79607034,-0.14020637,0.042397674,1.1456523,0.5289742
-0.1,0.1,1.0999999999999999,-0.5235987755982988,0.0,0,-0.93363845,-0.7303916,1.7982582,-0.044482704,0.03716964,1.1425552,-1.4796853,0.540089,-1.4649708,-0.79455984,-0.072732344,-0.115062796,1.2092481,1.2702094
-0.1,0.1,1.0999999999999999,-0.5235987755982988,0.0,0,-0.93441945,-0.73016804,1.8008108,-0.05623335,0.08921678,1.2432173,-1.2077931,0.5399718,-1.4648482,-0.8019635,-0.08104723,0.024858847,1.1068604,0.17471336
-0.1,0.1,1.0999999999999999,-0.5235987755982988,0.0,0,-0.933954,-0.7325308,1.7911397,-0.055183474,0.068279184,1.1878508,-0.36775163,0.5394284,-1.4643506,-0.79768646,-0.0905349,-0.08609222,1.1356065,-0.12505744
-0.1,0.1,1.0999999999999999,-0.5235987755982988,0.0,0,-0.93267334,-0.73133284,1.7912989,-0.027273867,-0.07700894,1.1555307,-0.15594175,0.5402771,-1.4643568,-0.793941,-0.026462398,-0.17912821,1.2593627,0.19219373
-0.1,0.1,1.0999999999999999,-0.5235987755982988,0.0,0,-0.9329918,-0.73235494,1.7970744,-0.026945094,-0.16893707,1.1933899,-0.32751557,0.54048425,-1.4642864,-0.79576045,-0.076239675,-0.023708459,1.2025014,-0.496624
-0.1,0.1,1.0999999999999999,-0.5235987755982988,0.0,0,-0.933938,-0.73172015,1.7933519,-0.02527783,-0.09404758,1.1051897,-0.027179096,0.5397988,-1.4643228,-0.79701686,-0.066427246,0.109045975,1.0944074,0.41719583
-0.1,0.1,1.0999999999999999,-0.5235987755982988,0.0,0,-0.9333587,-0.73409444,1.800181,-0.07698639,-0.06057711,1.229835,-0.8965382,0.53948295,-1.4647505,-0.79249173,-0.055758007,-0.03246696,1.180891,0.5868474
-0.1,0.1,1.0999999999999999,-0.5235987755982988,0.0,0,-0.9333991,-0.7306665,1.7968426,-0.039274134,-0.018544966,1.2669022,-0.73991615,0.5400252,-1.46508,-0.79186344,-0.074082285,-0.09205861,1.0817157,1.3199815
-0.1,0.1,1.0999999999999999,-0.5235987755982988,0.0,0,-0.9330764,-0.7308582,1.8025473,-0.047284793,0.048952337,1.1444803,0.9368522,0.5396818,-1.4645787,-0.79442585,-0.14026219,-0.23657608,1.2492423,0.37198207
-0.1,0.1,1.0999999999999999,-0.5235987755982988,0.0,0,-0.9330523,-0.7309111,1.8015635,-0.026808422,-0.19968887,1.0854911,-0.12330118,0.5391416,-1.464327,-0.7909785,-0.022958457,-0.02640321,1.0983117,1.7502353
-0.1,0.1,1.0999999999999999,-0.5235987755982988,0.0,0,-0.9325652,-0.7308943,1.8022251,-0.0662842,0.04130563,1.2532495,-0.27531943,0.54016316,-1.4651672,-0.7977174,-0.082499824,0.21763049,1.1662718,-0.6703587
-0.1,0.1,1.0999999999999999,-0.5235987755982988,0.0,0,-0.93248564,-0.731128,1.7931025,-0.034741454,0.040395133,1.1009609,0.919156,0.5395529,-1.465484,-0.79954207,-0.044780035,-0.080738135,1.2127894,0.88874125
-0.1,0.1,1.0999999999999999,-0.5235987755982988,0.0,0,-0.9317517,-0.7347038,1.8037983,-0.051190913,0.016802114,1.1870922,-1.5201559,0.539903,-1.4646561,-0.8012179,-0.08813614,0.04757195,1.143607,2.103716
-0.1,0.1,1.0999999999999999,-0.5235987755982988,0.0,0,-0.93332666,-0.73291475,1.7922884,-0.05443924,0.0738877,1.2376468,-0.89472085,0.5397726,-1.4658623,-0.7989057,-0.08014305,-0.17071794,1.1962692,0.82207555
-0.1,0.1,1.0999999999999999,-0.5235987755982988,0.0,0,-0.9328079,-0.7325829,1.7923255,-0.06885423,0.06345001,1.2336545,0.93045175,0.5396774,-1.4648137,-0.7930316,-0.055064563,-0.056242242,1.1195397,0.19510277
-0.1,0.1,1.0999999999999999,-0.5235987755982988,0.0,0,-0.93233615,-0.73551506,1.7956495,-0.05463211,0.104186445,1.2058058,-0.9471308,0.53976405,-1.4647264,-0.7969255,-0.08336977,-0.1248173,1.2288871,0.5454053
