sanky1234/BimanualDexCatch/isaacgymenvs/cem_results/football_pose_-0.2_0.10000000000000003_1.0999999999999999_0.5235987755982988_0.0_0_2025-05-25.csv
x,y,z,roll,pitch,yaw,robot1/joint1,robot1/joint2,robot1/joint3,robot1/joint4,robot1/joint5,robot1/joint6,robot1/joint7,robot2/joint1,robot2/joint2,robot2/joint3,robot2/joint4,robot2/joint5,robot2/joint6,robot2/joint7
-0.2,0.10000000000000003,1.0999999999999999,0.5235987755982988,0.0,0,1.2485911,0.57817566,0.47174385,0.37949857,0.9381994,1.4541566,2.9814258,-1.3878245,-1.5895163,-0.1301323,0.12761006,-0.429692,0.13228473,0.3922657
-0.2,0.10000000000000003,1.0999999999999999,0.5235987755982988,0.0,0,1.2520328,0.57050586,0.4559602,0.3962181,0.93838775,1.4601179,3.0215328,0.9039307,-1.189626,0.8023803,-0.17077959,-0.266323,0.83371097,0.10585451
-0.2,0.10000000000000003,1.0999999999999999,0.5235987755982988,0.0,0,1.2610471,0.55491424,0.4718997,0.37047926,0.9705514,1.4399645,3.0228782,0.9653032,-1.3213991,0.31882268,-0.19940363,0.095123746,0.31244147,0.44894797
-0.2,0.10000000000000003,1.0999999999999999,0.5235987755982988,0.0,0,1.256431,0.5559084,0.47267106,0.3818636,0.9720224,1.4518516,2.9987564,0.42931122,-1.1086214,0.041112717,0.078680865,-0.36296433,0.045041606,0.24943131
-0.2,0.10000000000000003,1.0999999999999999,0.5235987755982988,0.0,0,1.2536407,0.56162065,0.46229184,0.3938635,0.9647408,1.4484944,2.9811795,1.3033166,-0.99013895,0.43364194,0.010836358,0.29246205,0.64653367,-0.2255333
-0.2,0.10000000000000003,1.0999999999999999,0.5235987755982988,0.0,0,1.245,0.5735567,0.46408632,0.38839197,0.9588574,1.4714383,2.9657884,1.925375,-1.1914996,0.72733873,0.18042833,-0.3542161,0.84261614,1.2810752
-0.2,0.10000000000000003,1.0999999999999999,0.5235987755982988,0.0,0,1.2587742,0.567821,0.46924788,0.3679139,0.98869103,1.4607424,2.9919016,0.0014339223,-1.1064533,0.04252966,0.16308644,-0.28266898,1.5080307,-0.37306303
-0.2,0.10000000000000003,1.0999999999999999,0.5235987755982988,0.0,0,1.2579448,0.5482763,0.46703613,0.37465444,0.9409144,1.4512714,2.9895885,0.5408272,-0.78836733,0.8714597,0.008305538,-0.07328383,0.969379,0.20642865
-0.2,0.10000000000000003,1.0999999999999999,0.5235987755982988,0.0,0,1.2491385,0.5659327,0.44666883,0.3962793,0.95017344,1.4639148,3.016823,1.0178998,-1.1442757,0.2128039,-0.3022585,-0.22771987,1.0814164,0.3082386
-0.2,0.10000000000000003,1.0999999999999999,0.5235987755982988,0.0,0,1.2551616,0.5748263,0.4604071,0.3812315,0.94365764,1.4457241,2.9812453,1.339815,-1.2937165,0.9209365,-0.07050713,0.13070859,0.6891028,-0.6287884
-0.2,0.10000000000000003,1.0999999999999999,0.5235987755982988,0.0,0,1.2582284,0.5815031,0.4592669,0.3959318,0.95041734,1.4686067,2.9947698,1.5644647,-1.8236717,0.87077403,-0.22796415,0.1300804,0.8479671,0.43368554
-0.2,0.10000000000000003,1.0999999999999999,0.5235987755982988,0.0,0,1.259835,0.5674237,0.4592935,0.38950327,0.94246167,1.4480635,2.9745753,0.058577906,-1.5499759,1.0010341,-0.21125424,-0.26327524,0.34340566,0.40098426
-0.2,0.10000000000000003,1.0999999999999999,0.5235987755982988,0.0,0,1.2543631,0.54489714,0.46027666,0.374219,0.9208404,1.429762,3.0053005,-0.7788108,-0.9376128,0.9041106,-0.19353503,-0.012700794,0.64532787,0.057877954
-0.2,0.10000000000000003,1.0999999999999999,0.5235987755982988,0.0,0,1.2551308,0.5884799,0.47474974,0.37927857,0.95247513,1.4702141,2.987101,-1.3557745,-1.2986424,0.29940993,0.19358133,-0.15297832,0.962041,0.051259626
-0.2,0.10000000000000003,1.0999999999999999,0.5235987755982988,0.0,0,1.2456124,0.5689432,0.46447238,0.3827869,0.9330541,1.4599571,2.9858844,1.4103569,-1.1730795,0.86237127,-0.083319746,-0.07389927,1.2418123,0.58896685
-0.2,0.10000000000000003,1.0999999999999999,0.5235987755982988,0.0,0,1.2470024,0.56076086,0.47533154,0.37605676,0.9545997,1.4611499,2.9942589,1.3636935,-1.3023026,0.88405997,-0.15966213,-0.26565254,0.776904,0.7349045
-0.2,0.10000000000000003,1.0999999999999999,0.5235987755982988,0.0,0,1.2579515,0.5521259,0.4614286,0.38797066,0.9713895,1.4491854,2.9467597,-0.55094904,-1.0167938,0.9410416,-0.21736702,-0.30254403,0.6090941,-0.89221835
-0.2,0.10000000000000003,1.0999999999999999,0.5235987755982988,0.0,0,1.2445035,0.55902356,0.46574447,0.3835145,0.9484714,1.4489299,3.0073268,-0.8902059,-1.2482864,0.84275955,-0.18908823,0.4126147,0.5650547,0.23250598
-0.2,0.10000000000000003,1.0999999999999999,0.5235987755982988,0.0,0,1.2519503,0.56228065,0.4763621,0.38584927,0.962783,1.4560559,2.9899032,-1.6482055,-1.3152844,-0.07817067,0.04579321,0.54165083,-0.0725619,-0.1324875
-0.2,0.10000000000000003,1.0999999999999999,0.5235987755982988,0.0,0,1.254453,0.5690159,0.46178445,0.39345905,0.96001405,1.426391,2.9811702,0.028251361,-0.74777347,0.4598746,0.12406394,-0.23597637,0.91147983,-0.16588926
-0.2,0.10000000000000003,1.0999999999999999,0.5235987755982988,0.0,0,1.2454956,0.57377577,0.4676965,0.38262236,0.9546141,1.443971,3.0445218,1.345365,-1.7053437,-0.08946171,-0.036340974,-0.17040284,0.7051076,0.44473192
-0.2,0.10000000000000003,1.0999999999999999,0.5235987755982988,0.0,0,1.2576666,0.5841613,0.45349765,0.3781682,0.9636341,1.4650147,2.983613,-0.13858977,-0.9234688,0.27027225,0.059408374,-0.051295683,0.41753352,0.6536545
-0.2,0.10000000000000003,1.0999999999999999,0.5235987755982988,0.0,0,1.2548015,0.56630325,0.46943292,0.39485037,0.9432432,1.439673,2.957031,-0.103184186,-1.0889117,0.10679938,-0.4439462,0.5898979,0.3820828,-0.5336612
-0.2,0.10000000000000003,1.0999999999999999,0.5235987755982988,0.0,0,1.254299,0.57470345,0.46870002,0.3717855,0.937416,1.4634432,2.990315,0.25214767,-1.0282687,1.123599,-0.03894208,0.04819479,0.5179522,0.6906135
-0.2,0.10000000000000003,1.0999999999999999,0.5235987755982988,0.0,0,1.2500768,0.5427796,0.49250802,0.38743874,0.9643354,1.4803203,2.9492953,-0.03447749,-0.7260069,1.6028919,0.028931808,0.08815056,0.8460602,0.39923784
-0.2,0.10000000000000003,1.0999999999999999,0.5235987755982988,0.0,0,1.2561232,0.57247925,0.46385008,0.38254222,0.9678003,1.4644593,2.996354,0.08744208,-0.7977909,0.94901913,-0.16781195,-0.8142793,1.0935711,0.23092088
-0.2,0.10000000000000003,1.0999999999999999,0.5235987755982988,0.0,0,1.2515815,0.5461572,0.46707714,0.38484585,0.9480842,1.4664433,2.9809875,-1.0304635,-0.86189103,0.06351508,-0.13230228,0.50452995,0.87384623,0.737226
-0.2,0.10000000000000003,1.0999999999999999,0.5235987755982988,0.0,0,1.2579879,0.5729911,0.4701204,0.39040238,0.94138485,1.4436564,2.9744425,0.37941247,-1.1437298,0.9974562,-0.019319769,0.19136511,0.78417313,0.66233385
-0.2,0.10000000000000003,1.0999999999999999,0.5235987755982988,0.0,0,1.2560157,0.57074606,0.4666034,0.37854025,0.9258755,1.4441078,2.9690938,0.175584,-1.4438359,0.7904908,-0.073287204,-0.34792665,1.2223976,-0.050680034
-0.2,0.10000000000000003,1.0999999999999999,0.5235987755982988,0.0,0,1.2537519,0.5559381,0.4564717,0.39448997,0.9560739,1.4839097,3.0050006,-0.24313422,-0.77939755,1.253875,-0.023810776,0.8741047,0.6394207,1.5553081
-0.2,0.10000000000000003,1.0999999999999999,0.5235987755982988,0.0,0,1.24868,0.5718064,0.46910194,0.37400568,0.98689514,1.4471902,2.974918,-0.9045512,-1.4377576,0.7086778,-0.097676575,-0.44995415,0.89137304,0.4048833
-0.2,0.10000000000000003,1.0999999999999999,0.5235987755982988,0.0,0,1.2521431,0.5598756,0.48013556,0.37805992,0.93808407,1.4647653,2.9632661,-0.5396296,-0.7626953,1.0689647,0.036184665,-0.08988899,0.7963794,0.18409728
-0.2,0.10000000000000003,1.0999999999999999,0.5235987755982988,0.0,0,1.253634,0.57571596,0.4680679,0.3888253,0.93669385,1.4606338,2.9772837,0.40809155,-1.0267867,0.13353212,-0.2803925,-0.021315534,0.8570635,0.27116758
-0.2,0.10000000000000003,1.0999999999999999,0.5235987755982988,0.0,0,1.255868,0.5422023,0.46503773,0.38649884,0.9523369,1.4722928,3.0144134,-0.49667615,-1.1684315,-0.37182012,-0.23898111,0.34754378,1.1670791,0.38236368
-0.2,0.10000000000000003,1.0999999999999999,0.5235987755982988,0.0,0,1.2647972,0.5695792,0.4572473,0.38508627,0.9352475,1.4630679,2.9769354,-0.10850782,-0.89210117,0.25340366,0.061489757,0.06465071,0.7033806,0.7028041
-0.2,0.10000000000000003,1.0999999999999999,0.5235987755982988,0.0,0,1.247158,0.560966,0.4589972,0.38487098,0.94691205,1.4714683,2.9646916,0.5750101,-1.395505,-0.46713212,-0.20349564,0.13302246,0.64970165,0.5710728
-0.2,0.10000000000000003,1.0999999999999999,0.5235987755982988,0.0,0,1.2550128,0.5460576,0.45661008,0.39501467,0.947601,1.4601537,2.9533272,0.4081802,-1.0681559,0.9502686,-0.014207723,0.13623403,0.63832855,-0.1575406
-0.2,0.10000000000000003,1.0999999999999999,0.5235987755982988,0.0,0,1.25388,0.5860696,0.4677049,0.3673254,0.97703266,1.4612628,2.963303,1.2265658,-1.137796,-0.13998736,-0.3146154,0.70460707,0.6381033,0.2206334
-0.2,0.10000000000000003,1.0999999999999999,0.5235987755982988,0.0,0,1.2523617,0.56694597,0.4683545,0.37825125,0.9383783,1.4504436,2.9594765,-0.06906308,-0.9998806,0.49813202,-0.18788494,-0.497596,0.25918317,0.48458365
-0.2,0.10000000000000003,1.0999999999999999,0.5235987755982988,0.0,0,1.2493666,0.5615424,0.46795928,0.37747067,0.9455331,1.4531246,2.9913156,0.59045935,-0.90481114,0.21449837,-0.01822407,0.06981285,0.49408054,0.5251286
-0.2,0.10000000000000003,1.0999999999999999,0.5235987755982988,0.0,0,1.2475251,0.5512072,0.46351406,0.37728047,0.9567009,1.4474304,2.9351065,-0.1461189,-1.0684345,0.41018066,-0.016168335,0.21211083,0.5366988,0.15345338
-0.2,0.10000000000000003,1.0999999999999999,0.5235987755982988,0.0,0,1.2431415,0.5636188,0.46157765,0.3942607,0.95841676,1.4686539,2.9527338,0.20780027,-1.0165377,1.1398448,-0.06050208,0.1652675,0.62007594,0.44305816
-0.2,0.10000000000000003,1.0999999999999999,0.5235987755982988,0.0,0,1.265151,0.5756277,0.454671,0.38107747,0.9448747,1.4354616,3.0099595,0.26186186,-1.2583535,0.43401882,-0.023348812,-0.2797401,1.0073591,1.412143
-0.2,0.10000000000000003,1.0999999999999999,0.5235987755982988,0.0,0,1.2599142,0.54293907,0.46599716,0.38043028,0.95922744,1.4595404,2.9945648,-0.6381917,-0.7273742,0.3615052,-0.16514258,-0.044638958,0.35455403,0.8247417
-0.2,0.10000000000000003,1.0999999999999999,0.5235987755982988,0.0,0,1.2527869,0.56255513,0.4633311,0.38792232,0.9415769,1.4523824,2.9965365,-0.11701993,-0.81551987,0.5097125,0.12312696,0.06842012,0.97873145,-0.055979434
-0.2,0.10000000000000003,1.0999999999999999,0.5235987755982988,0.0,0,1.2420261,0.5572912,0.4691584,0.3688094,0.9427989,1.4637624,3.0172546,0.96972203,-1.1313269,0.24239331,-0.04323395,0.2830986,1.0990248,0.59741837
-0.2,0.10000000000000003,1.0999999999999999,0.5235987755982988,0.0,0,1.2510768,0.55489856,0.4723973,0.3888627,0.9424049,1.4525921,2.934861,-0.30734697,-1.2368599,0.46895534,-0.052636907,0.085149944,0.5537705,-0.08645927
-0.2,0.10000000000000003,1.0999999999999999,0.5235987755982988,0.0,0,1.2579267,0.57042605,0.4585905,0.37832227,0.9668133,1.4627733,2.9924228,0.19345385,-0.72762847,1.0061879,-0.088883944,-0.25820997,1.0381008,-0.29336545
-0.2,0.10000000000000003,1.0999999999999999,0.5235987755982988,0.0,0,1.2523261,0.5696986,0.4627834,0.37384802,0.9326578,1.4589504,2.9773228,-1.01189,-1.689559,1.3161745,0.018903188,-0.15496585,0.70535785,0.48492196
-0.2,0.10000000000000003,1.0999999999999999,0.5235987755982988,0.0,0,1.2453511,0.57078916,0.48262447,0.39354295,0.9527292,1.44603,2.975674,-1.3420094,-1.0858485,0.61831445,0.23203099,0.36759707,0.42963123,0.69759345
-0.2,0.10000000000000003,1.0999999999999999,0.5235987755982988,0.0,0,1.253891,0.5641137,0.47355404,0.38338354,0.94330835,1.4849046,2.9727106,-0.100714095,-0.9809325,0.79035014,0.11113294,-0.5176541,1.0151064,0.5059507
-0.2,0.10000000000000003,1.0999999999999999,0.5235987755982988,0.0,0,1.2485553,0.5646511,0.4679412,0.37338644,1.0032698,1.4639877,2.9817913,-0.2117403,-1.0813735,0.0012859855,-0.20069061,-0.5124995,0.9842558,1.292686
-0.2,0.10000000000000003,1.0999999999999999,0.5235987755982988,0.0,0,1.2608238,0.54371214,0.4776318,0.38176686,0.95124567,1.4541557,2.9645963,0.38970378,-0.90919054,-0.4587939,0.29021394,-0.018720316,0.5389008,-0.2648695
-0.2,0.10000000000000003,1.0999999999999999,0.5235987755982988,0.0,0,1.2573212,0.5638821,0.4669302,0.38722536,0.96397734,1.4611948,2.959788,0.7002643,-0.9813815,0.16315962,-0.29878554,-0.0018579544,1.0107714,-0.14366224
-0.2,0.10000000000000003,1.0999999999999999,0.5235987755982988,0.0,0,1.2620589,0.57399744,0.46025118,0.38354856,0.9610364,1.4442595,3.0302896,-0.8137894,-1.3277038,0.5197277,-0.118814215,0.24559371,0.7316576,-1.270621
-0.2,0.10000000000000003,1.0999999999999999,0.5235987755982988,0.0,0,1.2526456,0.56883305,0.46882406,0.38347664,0.9336237,1.468495,3.012703,0.2221862,-1.3806264,0.10296861,0.06403911,-0.16785824,0.6719363,0.14847228
-0.2,0.10000000000000003,1.0999999999999999,0.5235987755982988,0.0,0,1.2567686,0.5612244,0.46692318,0.3929184,0.9440078,1.4517549,2.979811,0.3010485,-1.1874325,-0.20740104,-0.34640777,0.10058352,1.0195168,0.32525787
-0.2,0.10000000000000003,1.0999999999999999,0.5235987755982988,0.0,0,1.26389,0.5755937,0.4745408,0.37041047,0.9742278,1.4858273,2.966068,-0.057123158,-0.96432185,0.438572,-0.23009537,0.42680785,0.31794113,-0.2659587
-0.2,0.10000000000000003,1.0999999999999999,0.5235987755982988,0.0,0,1.2568666,0.5737803,0.45735425,0.3914092,0.94768167,1.4620773,2.9766073,-1.8059545,-1.4960024,0.7944876,-0.08476212,0.40557796,0.76533586,-0.90023917
-0.2,0.10000000000000003,1.0999999999999999,0.5235987755982988,0.0,0,1.2641569,0.5500035,0.47297463,0.38563615,0.96857303,1.4588408,2.9933167,-0.10910713,-1.4984353,-0.7805173,0.015107543,-0.07800333,0.8812552,0.55993885
-0.2,0.10000000000000003,1.0999999999999999,0.5235987755982988,0.0,0,1.2531062,0.56698674,0.47122025,0.38397434,0.93386686,1.4677956,2.9315293,1.7624094,-1.3724464,0.94150126,-0.030122807,-0.42205885,0.91107494,0.75017166
-0.2,0.10000000000000003,1.0999999999999999,0.5235987755982988,0.0,0,1.2504628,0.5562885,0.4739253,0.38487732,0.9499641,1.4702047,2.966117,-1.0438865,-0.9834496,-0.03427908,-0.37252593,-0.01834859,0.5119186,0.70264363
-0.2,0.10000000000000003,1.0999999999999999,0.5235987755982988,0.0,0,1.250251,0.5426893,0.47026473,0.3770511,0.9530359,1.4763827,3.0064318,0.18232109,-1.1217916,0.48873806,0.08703599,0.38014516,0.9779061,0.4312343
-0.2,0.10000000000000003,1.0999999999999999,0.5235987755982988,0.0,0,1.2553574,0.5787251,0.47840974,0.3818663,0.9576104,1.4798577,2.958276,0.0046548876,-0.88826716,0.48510972,0.077301644,0.075547785,1.2349664,0.5668835
-0.2,0.10000000000000003,1.0999999999999999,0.5235987755982988,0.0,0,1.2519016,0.54093486,0.4727715,0.3796892,0.9461526,1.4779513,2.9745514,1.0113847,-1.0000514,0.7369891,0.083471395,-0.036543794,0.7265505,1.2237403
-0.2,0.10000000000000003,1.0999999999999999,0.5235987755982988,0.0,0,1.2644043,0.5670826,0.45801282,0.3893616,0.9803768,1.4587384,2.981412,-0.58483136,-1.3588513,0.931556,-0.29957289,0.2693625,0.74113065,-1.1883545
-0.2,0.10000000000000003,1.0999999999999999,0.5235987755982988,0.0,0,1.2524445,0.5538611,0.46069473,0.38691533,0.920363,1.4623529,2.997093,-0.5671534,-1.3510665,-0.62092036,-0.06529208,-0.12411031,0.40861425,-1.2436376
-0.2,0.10000000000000003,1.0999999999999999,0.5235987755982988,0.0,0,1.2603277,0.55931616,0.4578251,0.39414826,0.95636016,1.4524065,2.9669752,0.11738799,-1.3712057,0.7987959,-0.0075706085,0.31495935,0.54580927,0.46338117
-0.2,0.10000000000000003,1.0999999999999999,0.5235987755982988,0.0,0,1.2482623,0.55733377,0.47074342,0.39316687,0.959821,1.4492911,2.97654,-0.9350924,-1.1007917,0.3579348,0.033514246,-0.12980327,0.68301266,-0.20027874
-0.2,0.10000000000000003,1.0999999999999999,0.5235987755982988,0.0,0,1.2676542,0.56020045,0.46131986,0.37491453,0.9367012,1.4658412,2.9904473,-0.69816047,-1.0481277,0.14731513,0.12634785,0.266723,0.9310418,-0.6272155
-0.2,0.10000000000000003,1.0999999999999999,0.5235987755982988,0.0,0,1.2556977,0.5571051,0.46907726,0.4004776,0.9648029,1.4554461,2.9842882,-0.6599891,-1.795808,0.5520475,0.16672723,0.16829938,0.8583134,-0.033443134
-0.2,0.10000000000000003,1.0999999999999999,0.5235987755982988,0.0,0,1.2596561,0.559888,0.4719187,0.37437022,0.97748464,1.463825,2.9480968,0.52044576,-1.2479242,0.9478373,0.008632228,0.11622597,0.42581472,-0.2221853
-0.2,0.10000000000000003,1.0999999999999999,0.5235987755982988,0.0,0,1.2611368,0.54155254,0.45031187,0.3846238,0.9485765,1.4645138,2.973516,-0.6634918,-1.5576063,0.11546305,0.04113746,-0.12285874,0.62008023,0.61543906
-0.2,0.10000000000000003,1.0999999999999999,0.5235987755982988,0.0,0,1.2651211,0.58276904,0.4688696,0.3784276,0.96355087,1.4693682,2.984292,-1.3156796,-1.2942722,0.59958273,0.025865443,-0.3850923,1.1361467,-0.95345557
-0.2,0.10000000000000003,1.0999999999999999,0.5235987755982988,0.0,0,1.2572616,0.55455476,0.47192365,0.3939629,0.94395846,1.4517944,3.0014799,0.3957407,-1.1456399,0.86246896,0.26154226,0.25603586,0.736809,0.09715955
-0.2,0.10000000000000003,1.0999999999999999,0.5235987755982988,0.0,0,1.2611299,0.5467491,0.46849102,0.3877672,0.9376765,1.4588124,2.9820514,1.1534286,-1.313144,0.17253573,-0.119086646,-0.58834255,0.86348087,1.3756491
-0.2,0.10000000000000003,1.0999999999999999,0.5235987755982988,0.0,0,1.2526935,0.5665412,0.46634635,0.3935559,0.9580429,1.450771,2.9649587,-2.1701348,-1.6129729,0.29759184,-0.2449665,0.58540994,0.9914304,0.18037961
-0.2,0.10000000000000003,1.0999999999999999,0.5235987755982988,0.0,0,1.254025,0.55443263,0.46942702,0.38093013,0.93537587,1.4694306,3.003666,-0.43754727,-1.4201374,-0.08897042,-0.083449185,-0.47899327,0.9110644,0.25429162
-0.2,0.10000000000000003,1.0999999999999999,0.5235987755982988,0.0,0,1.2602097,0.55728483,0.4738605,0.37832654,0.9408386,1.4694661,2.9561467,-0.8591744,-1.6024219,1.1533405,-0.22364865,-0.04675188,0.8082182,-0.7366204
-0.2,0.10000000000000003,1.0999999999999999,0.5235987755982988,0.0,0,1.2653928,0.56620306,0.4549596,0.3755516,0.975503,1.4369107,2.9485655,0.9631848,-1.5405777,0.5869418,-0.22498396,0.18628791,0.35003337,-0.11784437
-0.2,0.10000000000000003,1.0999999999999999,0.5235987755982988,0.0,0,1.2614219,0.5813683,0.4743007,0.37867627,0.9445613,1.4772978,2.963646,-0.666094,-1.2275857,-0.22084644,-0.057276092,0.11175238,0.7815788,-0.460725
-0.2,0.10000000000000003,1.0999999999999999,0.5235987755982988,0.0,0,1.2524381,0.57224613,0.47947118,0.3814757,0.92164946,1.4650427,2.9971225,1.6989716,-1.3147113,1.0795777,-0.31096497,0.76572657,1.072673,-0.19738407
-0.2,0.10000000000000003,1.0999999999999999,0.5235987755982988,0.0,0,1.2622313,0.5655021,0.47528628,0.38659722,0.9494692,1.4951252,3.0087643,-0.53993475,-1.5188555,1.136874,0.0073014554,0.004630115,1.1442813,0.50119096
-0.2,0.10000000000000003,1.0999999999999999,0.5235987755982988,0.0,0,1.2549877,0.5402879,0.47139758,0.3953929,0.9487334,1.4682326,2.9818592,-0.6256809,-1.5764189,1.2863463,-0.10017276,0.37307492,0.76452875,-0.39415172
-0.2,0.10000000000000003,1.0999999999999999,0.5235987755982988,0.0,0,1.2547244,0.56963557,0.45753655,0.3849038,0.952422,1.4626367,3.0193288,0.46937567,-1.6277719,-0.049553793,0.10344014,0.18158326,1.0146924,0.67937016
-0.2,0.10000000000000003,1.0999999999999999,0.5235987755982988,0.0,0,1.2602159,0.5728576,0.46915367,0.38463748,0.9723436,1.4596066,2.9687965,0.8350569,-1.4368554,0.15165852,-0.06762563,-0.676584,0.54459494,0.31684738
-0.2,0.10000000000000003,1.0999999999999999,0.5235987755982988,0.0,0,1.2514807,0.5630287,0.46227333,0.3877971,0.9529287,1.4533216,2.9643874,1.058626,-1.3706515,1.2460613,0.15014769,0.40594387,0.30684677,0.34710252
-0.2,0.10000000000000003,1.0999999999999999,0.5235987755982988,0.0,0,1.2539163,0.57397854,0.46789658,0.39393067,0.97354424,1.4714265,2.9494808,0.27510032,-1.4377888,1.7325417,-0.16919371,0.1704989,0.8608725,-0.27189368
-0.2,0.10000000000000003,1.0999999999999999,0.5235987755982988,0.0,0,1.2571766,0.575327,0.4646969,0.39191115,0.9556464,1.4309862,2.9230056,0.7734356,-0.78597283,0.43783963,-0.2395652,-0.076569535,0.16762896,-0.5460911
-0.2,0.10000000000000003,1.0999999999999999,0.5235987755982988,0.0,0,1.2568141,0.5575438,0.46593794,0.38601515,0.9476721,1.4513584,2.9875185,-0.26978254,-1.4838343,0.07603194,-0.04086488,0.23770535,0.8056656,-0.06917602
-0.2,0.10000000000000003,1.0999999999999999,0.5235987755982988,0.0,0,1.2542853,0.5516014,0.4473982,0.38807216,0.97999895,1.4637477,2.9827983,-0.76157045,-1.176151,0.2321838,-0.025943914,-0.29438135,0.31068966,-0.2764156
-0.2,0.10000000000000003,1.0999999999999999,0.5235987755982988,0.0,0,1.2544401,0.55965835,0.4771821,0.38493353,0.9302331,1.445936,2.9722893,-0.28639704,-1.429438,0.19326074,-0.2626919,-0.11638646,0.795596,0.07534945
-0.2,0.10000000000000003,1.0999999999999999,0.5235987755982988,0.0,0,1.2613059,0.5558324,0.46483573,0.38937062,0.95389867,1.4724905,2.9627032,0.23022975,-1.288431,0.5050496,-0.15450618,0.69374543,0.42714745,0.39448512
-0.2,0.10000000000000003,1.0999999999999999,0.5235987755982988,0.0,0,1.257932,0.57723874,0.47120938,0.37385616,0.9443273,1.4453127,3.021608,0.4949379,-1.4341565,-0.8270027,-0.14413847,0.16216873,0.61640996,0.2543432
-0.2,0.10000000000000003,1.0999999999999999,0.5235987755982988,0.0,0,1.2489772,0.5487476,0.47285607,0.38261017,0.93894106,1.4625747,3.001739,0.70858127,-1.3519214,0.66854405,-0.2406398,0.38963088,0.6684761,0.8107061
-0.2,0.10000000000000003,1.0999999999999999,0.5235987755982988,0.0,0,1.2504361,0.5648633,0.47576255,0.38723093,0.9053045,1.4667681,2.956921,0.8817879,-1.4666543,0.4248456,-0.2551157,0.45207274,0.771441,1.1834188
-0.2,0.10000000000000003,1.0999999999999999,0.5235987755982988,0.0,0,1.2470802,0.56082433,0.46662056,0.392047,0.96408755,1.4632605,2.9677699,-0.46917704,-0.93157864,0.9804569,-0.26888555,0.26164457,0.38351092,0.18003109
-0.2,0.10000000000000003,1.0999999999999999,0.5235987755982988,0.0,0,1.2432096,0.57549834,0.46472752,0.3888394,0.93345773,1.4665188,2.9869368,0.63273716,-1.3400859,1.618499,0.011466184,0.5107736,0.46268076,0.17368303
-0.2,0.10000000000000003,1.0999999999999999,0.5235987755982988,0.0,0,1.2573243,0.5697392,0.45726082,0.3796591,0.9440922,1.468707,3.0067108,-0.68035465,-1.4209992,1.24289,0.035925243,-0.60461265,0.70464367,0.8434707
-0.2,0.10000000000000003,1.0999999999999999,0.5235987755982988,0.0,0,1.2533435,0.5918496,0.46227077,0.3863837,0.93352216,1.4727286,2.9176047,0.11481718,-1.261354,0.7884747,0.061359797,-0.008686515,0.6490667,0.06553943
-0.2,0.10000000000000003,1.0999999999999999,0.5235987755982988,0.0,0,1.2527593,0.5527714,0.45122507,0.3859626,0.9560128,1.4603614,2.9838183,-0.6643895,-1.1692877,0.3881177,-0.16746034,-0.31464955,0.6107505,-1.5671376
-0.2,0.10000000000000003,1.0999999999999999,0.5235987755982988,0.0,0,1.2532659,0.56575084,0.46768746,0.38544944,0.9773135,1.4491576,2.9424725,-0.80582815,-1.2533604,0.5578046,-0.15118398,0.063534655,1.0561794,-0.5886195
-0.2,0.10000000000000003,1.0999999999999999,0.5235987755982988,0.0,0,1.2669113,0.5709194,0.45858222,0.39657715,0.95394665,1.4652084,2.9625993,-1.307107,-1.6007305,0.73248047,0.12773626,-0.034599613,0.9634513,0.4145109
-0.2,0.10000000000000003,1.0999999999999999,0.5235987755982988,0.0,0,1.2566336,0.56712985,0.48188564,0.38780814,0.9159431,1.4556676,2.9180923,1.0012637,-1.4419816,0.952735,-0.14075655,0.17688699,1.0961885,0.18001509
-0.2,0.10000000000000003,1.0999999999999999,0.5235987755982988,0.0,0,1.2377833,0.5454228,0.46704465,0.39020127,0.97938424,1.4835092,2.978755,0.6015371,-1.6220558,0.044386383,0.05541271,0.59458756,0.61664134,0.06413853
-0.2,0.10000000000000003,1.0999999999999999,0.5235987755982988,0.0,0,1.2580434,0.56711656,0.4562372,0.3826043,0.9621634,1.4548237,2.969629,1.0545853,-1.558916,0.9906195,-0.0066426126,-0.36813185,0.24430081,0.33376524
-0.2,0.10000000000000003,1.0999999999999999,0.5235987755982988,0.0,0,1.2524283,0.5443758,0.47220367,0.38523203,0.9500613,1.4662358,2.9977596,0.058917433,-1.631257,-0.09271442,-0.1545112,-0.28545982,0.107815966,0.55044293
-0.2,0.10000000000000003,1.0999999999999999,0.5235987755982988,0.0,0,1.2516202,0.55440676,0.47532648,0.37547606,0.94255006,1.4648789,2.9754577,0.26224002,-1.731703,0.31259465,0.10030666,-0.1631648,-0.018411666,-0.6054531
-0.2,0.10000000000000003,1.0999999999999999,0.5235987755982988,0.0,0,1.2606845,0.5692674,0.45468047,0.3893869,0.95136917,1.4650236,3.010451,0.7491762,-1.4012938,1.151418,-0.011251584,-0.0124448445,0.1634119,-0.35655004
-0.2,0.10000000000000003,1.0999999999999999,0.5235987755982988,0.0,0,1.2575357,0.5571167,0.46196872,0.37888288,0.95006126,1.4387721,2.9783301,0.7526206,-1.4188277,0.8793086,0.05786595,-0.12319157,0.371405,0.48058861
-0.2,0.10000000000000003,1.0999999999999999,0.5235987755982988,0.0,0,1.2682005,0.567107,0.45955968,0.38737315,0.9457278,1.4647089,3.002137,1.0088146,-1.4980289,0.85651606,-0.15241231,0.020381775,0.16229889,-0.066242464
-0.2,0.10000000000000003,1.0999999999999999,0.5235987755982988,0.0,0,1.2561779,0.5428605,0.46861023,0.38812307,0.95456916,1.4793748,2.958315,0.30571747,-1.5910271,0.2588577,-0.0879641,0.41373536,0.5447014,0.9223851
-0.2,0.10000000000000003,1.0999999999999999,0.5235987755982988,0.0,0,1.2601948,0.5520554,0.45632714,0.38435864,0.9326103,1.44992,3.0072746,0.69371325,-1.5113333,0.7573275,-0.10190357,0.92219234,1.0702984,-0.32302186
-0.2,0.10000000000000003,1.0999999999999999,0.5235987755982988,0.0,0,1.2543812,0.5585057,0.4689368,0.37660846,0.93504936,1.4586911,2.940221,1.010045,-1.7734945,0.49401206,0.023567483,-0.34707803,0.6241924,1.9125843
-0.2,0.10000000000000003,1.0999999999999999,0.5235987755982988,0.0,0,1.2598183,0.5537892,0.45744777,0.37796208,0.95118237,1.4564333,2.9655476,1.0208358,-1.4106718,1.276748,0.087514095,0.6228294,0.8619719,-0.19904904
-0.2,0.10000000000000003,1.0999999999999999,0.5235987755982988,0.0,0,1.2482477,0.5614467,0.45658195,0.3811267,0.9596827,1.4518628,3.0396845,-0.26520386,-0.9445818,0.8737497,-0.21957923,0.01603729,0.26952678,0.8106075
-0.2,0.10000000000000003,1.0999999999999999,0.5235987755982988,0.0,0,1.2346128,0.5773246,0.45573527,0.37809327,0.9534398,1.4456584,2.9935246,0.40846413,-1.3727735,1.0628585,0.11509641,0.013415011,0.6881211,-0.60986894
-0.2,0.10000000000000003,1.0999999999999999,0.5235987755982988,0.0,0,1.2614774,0.56090665,0.44425878,0.37987143,0.966721,1.4440558,3.0075502,-0.65504426,-0.8639864,0.28359935,-0.17221312,0.04249907,0.51555866,-0.08244074
-0.2,0.10000000000000003,1.0999999999999999,0.5235987755982988,0.0,0,1.2521654,0.5803687,0.46281025,0.38090575,0.96933174,1.4466844,2.9939566,0.2520106,-0.7938699,0.017553609,-0.16282181,-0.19187577,0.8530357,0.27505425
-0.2,0.10000000000000003,1.0999999999999999,0.5235987755982988,0.0,0,1.2636428,0.5557965,0.45290098,0.38707387,0.94562376,1.4395505,2.990796,1.1617256,-0.8718353,0.6873114,-0.16411181,-0.5556814,0.68450975,0.66551995
-0.2,0.10000000000000003,1.0999999999999999,0.5235987755982988,0.0,0,1.260228,0.5786147,0.4574674,0.3757958,0.935778,1.4570243,2.9655018,-0.75455445,-0.8162856,1.0192037,-0.03948188,-0.39741233,0.7718807,0.19435504
-0.2,0.10000000000000003,1.0999999999999999,0.5235987755982988,0.0,0,1.2442417,0.57199836,0.46062583,0.38357377,0.9619987,1.4351407,2.987674,0.25064903,-1.537646,0.773483,-0.09756431,-0.31683743,0.7008887,-0.1318393
-0.2,0.10000000000000003,1.0999999999999999,0.5235987755982988,0.0,0,1.264138,0.5864528,0.47297904,0.38365656,0.93994194,1.4438919,2.9428198,0.8901607,-0.7549196,1.4968387,-0.18973312,-0.56258243,0.93271047,0.04414383
-0.2,0.10000000000000003,1.0999999999999999,0.5235987755982988,0.0,0,1.2573408,0.58530074,0.47320268,0.37911966,0.9495235,1.475338,3.0064435,-0.35235173,-0.77228004,0.25442562,-0.22101957,0.0019914734,0.66918594,-0.38715047
-0.2,0.10000000000000003,1.0999999999999999,0.5235987755982988,0.0,0,1.2469008,0.57033366,0.45056447,0.37647456,0.94066894,1.462733,3.0016618,1.1959468,-0.7854288,0.15688482,-0.045922793,-0.064209126,0.43243846,-0.45083678
-0.2,0.10000000000000003,1.0999999999999999,0.5235987755982988,0.0,0,1.2597705,0.5781803,0.44913632,0.3797084,0.9564253,1.4762827,2.967647,-1.1422961,-1.3417046,1.4404328,-0.15674417,-0.099630855,0.0005449225,-0.6208732
-0.2,0.10000000000000003,1.0999999999999999,0.5235987755982988,0.0,0,1.2590466,0.5924197,0.4701283,0.38682255,0.9285817,1.4696189,2.9799702,0.31335267,-1.2476006,0.50575846,-0.22583723,0.16163734,0.8456026,0.72834766
-0.2,0.10000000000000003,1.0999999999999999,0.5235987755982988,0.0,0,1.2475057,0.56962293,0.46280855,0.38369396,0.9247683,1.4618999,2.9922535,0.12726103,-1.1513345,0.23996916,0.25864717,0.1939154,1.0741467,0.034727886
-0.2,0.10000000000000003,1.0999999999999999,0.5235987755982988,0.0,0,1.2598559,0.5513528,0.4607591,0.38373587,0.9400011,1.467213,2.9849448,-0.87141204,-1.069069,0.66023403,-0.07657355,0.2679272,0.13609976,0.8485684
-0.2,0.10000000000000003,1.0999999999999999,0.5235987755982988,0.0,0,1.2370112,0.5564514,0.46320704,0.3915742,0.9505453,1.4689205,2.9897673,0.63153523,-0.89586055,0.6251129,0.13315047,0.060777728,0.2079918,0.40527427
-0.2,0.10000000000000003,1.0999999999999999,0.5235987755982988,0.0,0,1.2533017,0.5616188,0.4645948,0.38405952,0.9219281,1.4569137,2.980817,-0.5996588,-1.010864,0.5233108,-0.18336143,-0.76302403,0.9660692,-0.66331124
-0.2,0.10000000000000003,1.0999999999999999,0.5235987755982988,0.0,0,1.266008,0.5585475,0.45312396,0.38253748,0.94638395,1.436795,2.9528213,0.060965896,-1.0739081,0.16995372,0.15887155,-0.45496976,0.17036277,0.3111372
-0.2,0.10000000000000003,1.0999999999999999,0.5235987755982988,0.0,0,1.2468685,0.5662162,0.45207566,0.38798526,0.93019605,1.4552641,2.963079,0.06529127,-1.0931051,0.53834593,0.078955874,0.8868951,0.61456066,0.4133219
-0.2,0.10000000000000003,1.0999999999999999,0.5235987755982988,0.0,0,1.2634772,0.55758476,0.4581251,0.3884691,0.9447071,1.4292642,2.9834335,-0.6391306,-1.1042755,0.8896274,-0.113122225,-0.012604218,0.5254355,0.95666605
-0.2,0.10000000000000003,1.0999999999999999,0.5235987755982988,0.0,0,1.2550963,0.548803,0.45668924,0.38456893,0.9352202,1.4397064,3.0327456,0.7038429,-0.8142401,0.1448751,-0.016171098,0.16415149,0.53637534,-0.1872061
-0.2,0.10000000000000003,1.0999999999999999,0.5235987755982988,0.0,0,1.2530433,0.5644314,0.4665663,0.3887976,0.945282,1.457216,3.024299,0.8338167,-0.88423085,0.8026083,0.056471527,0.4530131,0.4965301,-0.46677014
-0.2,0.10000000000000003,1.0999999999999999,0.5235987755982988,0.0,0,1.251106,0.56931424,0.45686504,0.3839048,0.9621469,1.4458393,3.0066087,0.14136899,-0.81736857,-0.04962594,-0.08735694,-0.31231922,1.2261473,0.7971585
-0.2,0.10000000000000003,1.0999999999999999,0.5235987755982988,0.0,0,1.257014,0.57349426,0.4582009,0.3817099,0.9574701,1.4519337,2.9902043,-0.72983927,-1.026776,0.33264208,0.058200058,-0.056329984,0.42278048,-0.29036152
-0.2,0.10000000000000003,1.0999999999999999,0.5235987755982988,0.0,0,1.2541666,0.5660955,0.45607108,0.37917408,0.93156266,1.4470382,2.9758646,0.3876283,-1.1729888,-0.24424309,0.16006991,-0.10306776,1.3237818,-0.30568755
-0.2,0.10000000000000003,1.0999999999999999,0.5235987755982988,0.0,0,1.2399276,0.5731312,0.4707036,0.3920235,0.90481645,1.4596974,3.009033,1.422147,-1.0012088,0.49874887,-0.042246275,0.5408593,0.86487544,0.6422713
-0.2,0.10000000000000003,1.0999999999999999,0.5235987755982988,0.0,0,1.256588,0.573161,0.46739575,0.38581163,0.9700395,1.4478292,2.974942,0.2851564,-0.93058866,0.021529073,-0.04947483,0.7755627,0.85846734,0.74889064
-0.2,0.10000000000000003,1.0999999999999999,0.5235987755982988,0.0,0,1.2543926,0.5728098,0.46145064,0.38599157,0.9394692,1.4752178,3.009075,0.0367867,-1.314816,0.12676036,-0.0096425945,-0.06323559,0.29961422,-0.0992367
-0.2,0.10000000000000003,1.0999999999999999,0.5235987755982988,0.0,0,1.2542306,0.55779606,0.45648828,0.39788646,0.9681185,1.4480015,2.9674363,-1.7439395,-1.029362,2.0769444,-0.07830364,0.46959093,0.6182177,-0.024035472
-0.2,0.10000000000000003,1.0999999999999999,0.5235987755982988,0.0,0,1.250778,0.5872168,0.45594367,0.38705042,0.91024524,1.4653603,2.985773,1.6301146,-0.9545962,0.73930126,-0.022548283,0.12650456,1.0206394,-0.32324746
-0.2,0.10000000000000003,1.0999999999999999,0.5235987755982988,0.0,0,1.2498546,0.5626541,0.45746237,0.38232815,0.9771651,1.4616288,2.9729323,-0.6031434,-1.6556865,0.4673578,-0.019498577,-0.05970377,0.036836784,-0.15427431
-0.2,0.10000000000000003,1.0999999999999999,0.5235987755982988,0.0,0,1.2548075,0.57279855,0.45964465,0.38771924,0.9488655,1.4631591,3.0149684,-1.6329784,-1.6879346,0.8542908,-0.36845317,0.3570076,0.50128585,0.07198455
-0.2,0.10000000000000003,1.0999999999999999,0.5235987755982988,0.0,0,1.2595128,0.56475115,0.4496901,0.3828368,0.9217192,1.4650487,3.0275908,-0.29467958,-1.2886039,0.721635,0.037244488,-0.083213024,1.4740307,0.48801184
-0.2,0.10000000000000003,1.0999999999999999,0.5235987755982988,0.0,0,1.2544822,0.576663,0.45908958,0.3895612,0.93684095,1.4692209,2.9936507,2.3873014,-1.3513007,0.30166146,-0.10044334,-0.27189282,0.76097584,-0.06751581
-0.2,0.10000000000000003,1.0999999999999999,0.5235987755982988,0.0,0,1.245549,0.5686549,0.45929256,0.37746978,0.9562942,1.4467274,2.977759,1.0118374,-1.2853357,0.77196383,0.11710011,-0.34963405,0.8669204,0.7634103
-0.2,0.10000000000000003,1.0999999999999999,0.5235987755982988,0.0,0,1.2500129,0.57270026,0.4636615,0.36671606,0.9149341,1.4629787,2.9919233,-0.8748744,-0.7553949,0.54577994,-0.053831995,0.19998752,0.92932856,0.524727
-0.2,0.10000000000000003,1.0999999999999999,0.5235987755982988,0.0,0,1.2566797,0.5682786,0.46173695,0.404104,0.9360919,1.4515886,2.9969666,1.2717415,-1.0989714,-0.5932407,-0.2408225,-0.10300226,0.8545097,-0.11405199
-0.2,0.10000000000000003,1.0999999999999999,0.5235987755982988,0.0,0,1.2516215,0.5653319,0.45780265,0.38681337,0.9447823,1.4536308,2.9847493,-1.3797916,-1.3660182,0.3746247,0.07264358,0.102685206,0.54833984,0.043020874
-0.2,0.10000000000000003,1.0999999999999999,0.5235987755982988,0.0,0,1.246989,0.56344205,0.46117792,0.39472562,0.9619221,1.4574219,2.975283,0.9453949,-1.1151819,0.5604893,-0.080083,-0.24042025,0.6917325,-0.09900651
-0.2,0.10000000000000003,1.0999999999999999,0.5235987755982988,0.0,0,1.2422667,0.54749036,0.4619437,0.38681704,0.9482327,1.4470952,2.9606566,0.93971497,-1.1308461,0.35697994,-0.12391744,-0.34841266,0.3861324,0.12420312
-0.2,0.10000000000000003,1.0999999999999999,0.5235987755982988,0.0,0,1.2495413,0.5749326,0.453487,0.3883201,0.93474215,1.4732072,2.9405005,-1.3881379,-1.5354605,0.8936241,0.2453299,0.28531247,0.9488379,-0.369191
-0.2,0.10000000000000003,1.0999999999999999,0.5235987755982988,0.0,0,1.2526155,0.5485928,0.45295393,0.38813913,0.94725233,1.4628253,3.009927,0.8339114,-1.0204227,-0.16882966,-0.33094755,0.5727345,0.7704296,-0.75061107
-0.2,0.10000000000000003,1.0999999999999999,0.5235987755982988,0.0,0,1.2603859,0.57135504,0.46010205,0.3859354,0.9447541,1.4620832,2.9889536,1.6441832,-1.3264276,0.9190553,-0.1435582,-0.106306545,0.81978625,0.9685693
-0.2,0.10000000000000003,1.0999999999999999,0.5235987755982988,0.0,0,1.2539765,0.5728097,0.4660678,0.3738294,0.93366647,1.4494714,2.9760828,0.6280753,-1.2990894,1.0715402,-0.16851003,0.21087946,0.8956513,0.5280605
-0.2,0.10000000000000003,1.0999999999999999,0.5235987755982988,0.0,0,1.252475,0.56115276,0.4819163,0.3813969,0.9455417,1.4535322,2.9423897,-1.0100914,-1.3290712,0.093187705,-0.3352742,0.43792072,0.30360264,-0.123273335
-0.2,0.10000000000000003,1.0999999999999999,0.5235987755982988,0.0,0,1.2460369,0.55194277,0.47104868,0.380875,0.92085975,1.4739588,2.9807673,0.07876268,-0.4794472,0.79035634,0.27679384,0.10903802,0.17741835,0.206059
-0.2,0.10000000000000003,1.0999999999999999,0.5235987755982988,0.0,0,1.2580222,0.5570919,0.45738804,0.37459823,0.92430544,1.4667925,3.0011153,0.33977792,-0.87340665,0.7994322,0.022744654,-0.85760766,0.80988806,1.4089842
-0.2,0.10000000000000003,1.0999999999999999,0.5235987755982988,0.0,0,1.2615392,0.5719468,0.45646006,0.37277886,0.95068485,1.4750713,2.9918134,-0.9517355,-1.4244723,-0.15415467,-0.26276678,-0.06123371,0.7745212,0.44467878
-0.2,0.10000000000000003,1.0999999999999999,0.5235987755982988,0.0,0,1.2571609,0.55197567,0.46678624,0.3736094,0.92517143,1.45041,2.9687064,0.9008313,-0.7083146,1.1194994,0.06456195,-0.109323345,0.7697839,0.99016124
-0.2,0.10000000000000003,1.0999999999999999,0.5235987755982988,0.0,0,1.2616572,0.57092255,0.47611642,0.38832492,0.9302217,1.4461793,2.9836726,-1.2294312,-1.3462809,1.0288869,0.07027893,0.021014811,1.0612358,1.165272
-0.2,0.10000000000000003,1.0999999999999999,0.5235987755982988,0.0,0,1.2471238,0.5758651,0.46829495,0.3978485,0.94070286,1.4419246,2.9503376,-0.031543314,-1.2525162,0.6374685,-0.02890309,0.20681351,0.9670618,0.20949535
-0.2,0.10000000000000003,1.0999999999999999,0.5235987755982988,0.0,0,1.2552587,0.57827467,0.47588262,0.3784954,0.9544465,1.456358,2.9882698,-1.1863604,-1.3135928,-0.31891492,-0.03157054,-0.71146053,1.0125726,0.022434866
-0.2,0.10000000000000003,1.0999999999999999,0.5235987755982988,0.0,0,1.2571182,0.5738924,0.47251618,0.39724493,0.9335934,1.4455609,2.971106,-0.38670275,-1.740919,0.32713622,0.14072733,-0.40285376,0.5641086,0.41637462
-0.2,0.10000000000000003,1.0999999999999999,0.5235987755982988,0.0,0,1.253665,0.5461102,0.46226555,0.3783316,0.9527321,1.4479724,2.9645436,0.6274627,-1.2050207,0.04614477,-0.073872015,0.36445004,0.95780456,-0.044926535
-0.2,0.10000000000000003,1.0999999999999999,0.5235987755982988,0.0,0,1.2562804,0.56374836,0.4643059,0.38484502,0.95350796,1.4701645,2.9885314,-0.7823035,-1.1571759,1.1779413,-0.038391404,0.55979073,0.36710286,-0.58219
-0.2,0.10000000000000003,1.0999999999999999,0.5235987755982988,0.0,0,1.2523308,0.5582106,0.45276085,0.37928078,0.9674593,1.4505982,2.9907472,-1.4578122,-1.0883168,0.5138273,-0.0116160475,0.42533535,1.207325,-0.16482286
-0.2,0.10000000000000003,1.0999999999999999,0.5235987755982988,0.0,0,1.2512213,0.5656298,0.47091267,0.37675023,0.9340291,1.4546347,2.9547784,-0.31043002,-0.9339014,0.58878636,-0.2549918,-0.25038803,0.80254483,0.23975715
-0.2,0.10000000000000003,1.0999999999999999,0.5235987755982988,0.0,0,1.2468492,0.55249095,0.47896522,0.36766076,0.90829164,1.449092,2.9762971,-0.1353421,-1.4374686,1.3060694,-0.083797306,-0.26811135,0.22372124,-0.5723493
-0.2,0.10000000000000003,1.0999999999999999,0.5235987755982988,0.0,0,1.2577767,0.55259055,0.4615828,0.39384374,0.93728083,1.4466399,2.977416,-0.43632993,-1.1020944,1.1374161,0.18092178,0.14842746,1.319803,0.6738413
-0.2,0.10000000000000003,1.0999999999999999,0.5235987755982988,0.0,0,1.2364538,0.5755364,0.4807496,0.37802663,0.929911,1.4689935,2.9893665,-0.6977611,-0.8789202,0.38009125,-0.19083853,0.7310484,0.58332217,-0.10228144
-0.2,0.10000000000000003,1.0999999999999999,0.5235987755982988,0.0,0,1.2451965,0.5723182,0.491945,0.38197702,0.9271068,1.4425659,3.0024118,-0.6995106,-1.5617061,-0.3396964,0.0033961942,-0.38501126,0.7702478,-0.871733
-0.2,0.10000000000000003,1.0999999999999999,0.5235987755982988,0.0,0,1.2673606,0.5634273,0.4657097,0.38736516,0.9628453,1.4516038,2.9975274,-1.1297169,-1.030715,0.38240024,-0.12685128,-0.25879097,1.0096459,-0.2929451
-0.2,0.10000000000000003,1.0999999999999999,0.5235987755982988,0.0,0,1.2607026,0.5469528,0.45547143,0.39633477,0.93661165,1.4604664,2.9717395,-0.90772897,-1.2570559,0.41263783,-0.27125186,0.52867955,0.73880196,0.26991662
-0.2,0.10000000000000003,1.0999999999999999,0.5235987755982988,0.0,0,1.2475451,0.56224036,0.46816543,0.39778906,0.9398166,1.4533572,2.94211,0.29849198,-0.8071765,1.1937284,-0.14284877,-0.42017093,0.83447075,-0.534781
-0.2,0.10000000000000003,1.0999999999999999,0.5235987755982988,0.0,0,1.2546105,0.54834056,0.4678064,0.388328,0.9584893,1.4705945,2.977073,0.16494773,-1.1098423,0.76973563,0.39482418,-0.52253324,0.2883978,0.21481656
-0.2,0.10000000000000003,1.0999999999999999,0.5235987755982988,0.0,0,1.2591031,0.55575156,0.4666659,0.3821799,0.9500222,1.4566016,2.978147,1.2709706,-1.0198407,0.5570457,0.020335397,0.4043666,0.49883634,0.10440969
-0.2,0.10000000000000003,1.0999999999999999,0.5235987755982988,0.0,0,1.2525299,0.5345051,0.46926412,0.37704515,0.9301289,1.4347019,3.0024478,0.26900923,-1.2768737,0.59017384,-0.11566341,0.33995855,0.5529374,-0.21675046
-0.2,0.10000000000000003,1.0999999999999999,0.5235987755982988,0.0,0,1.2624291,0.57287306,0.46856242,0.40302795,0.9414266,1.4528208,2.9630506,0.89478016,-1.0189734,0.24996138,-0.13247147,0.14740784,1.132779,0.0126400925
-0.2,0.10000000000000003,1.0999999999999999,0.5235987755982988,0.0,0,1.2530478,0.54453325,0.460135,0.38476142,0.9637592,1.4585067,2.9865847,0.075916246,-1.1593206,1.061039,-0.07039361,0.23473343,0.99206454,0.44150478
-0.2,0.10000000000000003,1.0999999999999999,0.5235987755982988,0.0,0,1.2485383,0.5530821,0.45739275,0.37963074,0.9271053,1.4533538,3.0362747,-0.6879868,-1.4157474,-0.18562783,0.14162953,0.5211338,0.9255429,-0.28921816
-0.2,0.10000000000000003,1.0999999999999999,0.5235987755982988,0.0,0,1.2466482,0.54576653,0.47795364,0.38091916,0.9433578,1.4417989,3.0082557,-1.152272,-1.2223158,0.47957322,-0.3090316,0.3705409,0.7200357,0.15616456
-0.2,0.10000000000000003,1.0999999999999999,0.5235987755982988,0.0,0,1.2554808,0.57646406,0.46400282,0.38051504,0.9540014,1.4594953,2.947263,0.30936635,-0.9543698,0.19208907,-0.2689147,0.37185672,0.16538703,0.37979782
-0.2,0.10000000000000003,1.0999999999999999,0.5235987755982988,0.0,0,1.2595152,0.5657646,0.48212177,0.40979967,0.95057005,1.4485881,2.9370916,0.34452274,-0.9993004,0.34969592,0.018162971,-0.25661844,0.6007932,-0.016608203
-0.2,0.10000000000000003,1.0999999999999999,0.5235987755982988,0.0,0,1.2544438,0.5613236,0.47072297,0.38432586,0.93566793,1.4472598,2.989378,0.13214704,-1.1850228,0.5337373,0.21659411,-0.14551024,0.6267947,0.43319717
-0.2,0.10000000000000003,1.0999999999999999,0.5235987755982988,0.0,0,1.2564738,0.5737525,0.45508236,0.3941303,0.9585578,1.4743446,2.9784136,-0.28396565,-1.2415719,0.117231034,0.15910678,0.10008327,1.1150178,-0.067684434
-0.2,0.10000000000000003,1.0999999999999999,0.5235987755982988,0.0,0,1.2433654,0.54956114,0.4671942,0.39355305,0.97209936,1.4562012,2.979399,-0.26641428,-1.2865881,0.5653479,0.25138143,-0.012522874,0.45365983,-0.5703984
-0.2,0.10000000000000003,1.0999999999999999,0.5235987755982988,0.0,0,1.2526273,0.5709403,0.45001838,0.37801063,0.91639805,1.4609212,2.946495,1.5656394,-1.2134043,-0.056370612,-0.41628194,-0.34605047,1.1017774,0.23089106
-0.2,0.10000000000000003,1.0999999999999999,0.5235987755982988,0.0,0,1.2514396,0.5416346,0.46667898,0.38193282,0.9261411,1.4455769,2.9792366,-0.009341086,-1.3403034,-0.17678076,-0.08155138,0.369472,0.1963928,0.89294946
-0.2,0.10000000000000003,1.0999999999999999,0.5235987755982988,0.0,0,1.2685957,0.5600878,0.47130847,0.38168558,0.9676788,1.482528,3.0078769,0.25387558,-1.3037205,0.93157905,-0.13421685,-0.1215492,-0.22080822,-0.20687918
-0.2,0.10000000000000003,1.0999999999999999,0.5235987755982988,0.0,0,1.2678256,0.5720186,0.4655943,0.39620593,0.9557055,1.4546673,2.9631548,-0.2548163,-1.4727293,0.08892872,-0.23209119,0.36870638,0.38795707,-0.3968909
-0.2,0.10000000000000003,1.0999999999999999,0.5235987755982988,0.0,0,1.2558215,0.55522543,0.46568382,0.38062996,0.95659834,1.4589493,2.9743493,-0.4888712,-1.085187,1.0861777,-0.0085938815,-0.47493738,0.8314078,-0.4580577
-0.2,0.10000000000000003,1.0999999999999999,0.5235987755982988,0.0,0,1.2585708,0.5695962,0.47136697,0.3746338,0.9657939,1.4588827,3.021816,-0.4525891,-1.2735134,0.8529677,-0.13416877,0.1589657,0.97571445,0.72436374
-0.2,0.10000000000000003,1.0999999999999999,0.5235987755982988,0.0,0,1.2539825,0.54844093,0.47100866,0.37844187,0.93267906,1.4690516,2.998125,0.45555493,-1.0982914,0.6729523,-0.093027756,0.19442362,0.49693346,0.23015524
-0.2,0.10000000000000003,1.0999999999999999,0.5235987755982988,0.0,0,1.2601001,0.5541282,0.46558073,0.3761368,0.9538584,1.4686754,2.974696,-1.3445808,-0.6627453,0.45438388,0.17202403,0.0520702,0.6586695,-1.1660602
-0.2,0.10000000000000003,1.0999999999999999,0.5235987755982988,0.0,0,1.2523837,0.56792414,0.4645836,0.38584754,0.9504776,1.4430138,2.98878,0.2140675,-1.4597507,-0.36820492,-0.13841572,0.104279935,0.9515831,1.2113111
-0.2,0.10000000000000003,1.0999999999999999,0.5235987755982988,0.0,0,1.2572452,0.55806744,0.46005553,0.3888433,0.9635164,1.4461411,2.9725442,-0.6683904,-1.0768478,0.67739046,-0.055600896,-0.09982649,0.32916123,0.102758996
-0.2,0.10000000000000003,1.0999999999999999,0.5235987755982988,0.0,0,1.2539381,0.53959113,0.4642242,0.3840595,0.9737171,1.4426203,2.955969,0.21258962,-0.9544367,-0.17370918,-0.08364169,-0.2108626,0.8901464,-0.0053704507
-0.2,0.10000000000000003,1.0999999999999999,0.5235987755982988,0.0,0,1.25313,0.5682033,0.47212082,0.37823913,0.92420584,1.47102,2.9607933,0.38337007,-1.0133039,-0.31433848,-0.14623961,0.09322746,1.0950769,-0.9682448
-0.2,0.10000000000000003,1.0999999999999999,0.5235987755982988,0.0,0,1.2630136,0.55545354,0.47410226,0.38079798,0.9438395,1.4676539,2.955555,-0.5625645,-0.65773946,0.87326473,0.32362694,0.1260919,0.713584,0.4574553
-0.2,0.10000000000000003,1.0999999999999999,0.5235987755982988,0.0,0,1.2563057,0.56225204,0.48187092,0.39315897,0.9408895,1.4372877,2.9639544,-1.1390774,-1.7028446,0.5215248,-0.15475188,0.3732731,0.9574321,1.1086022
-0.2,0.10000000000000003,1.0999999999999999,0.5235987755982988,0.0,0,1.2493067,0.5548354,0.4515525,0.39398265,0.9449393,1.4655308,2.9292789,-0.05335605,-1.3515061,1.2349358,0.2363074,0.30450222,0.42867276,-0.5175627
-0.2,0.10000000000000003,1.0999999999999999,0.5235987755982988,0.0,0,1.251009,0.57759804,0.45371136,0.37581003,0.982855,1.4837899,2.9520826,-0.21674475,-1.4839082,-0.36079445,-0.28311285,0.33989847,1.0872607,0.5579103
-0.2,0.10000000000000003,1.0999999999999999,0.5235987755982988,0.0,0,1.2605399,0.5744378,0.46586967,0.38591123,0.9633254,1.4620013,2.9825497,-0.19683792,-1.384324,0.39060295,0.011841693,-0.497867,0.9627475,-0.67355996
-0.2,0.10000000000000003,1.0999999999999999,0.5235987755982988,0.0,0,1.2616789,0.55242604,0.4920856,0.39022338,0.93509126,1.4660112,3.0101824,0.6497959,-1.1429254,0.07093881,-0.17863585,-0.14734024,0.46844196,-0.28547856
-0.2,0.10000000000000003,1.0999999999999999,0.5235987755982988,0.0,0,1.2539158,0.5412133,0.4631864,0.37626696,0.95733076,1.454688,2.9745748,-0.7920101,-1.2601842,0.29423153,-0.08913021,-0.006222834,0.7831508,-0.48798516
-0.2,0.10000000000000003,1.0999999999999999,0.5235987755982988,0.0,0,1.2603033,0.56626785,0.45925972,0.38772252,0.9420694,1.4397024,2.933595,0.42403907,-1.1703774,1.7495332,-0.22094938,-0.21034624,0.58517915,-0.6428236
-0.2,0.10000000000000003,1.0999999999999999,0.5235987755982988,0.0,0,1.260626,0.5651982,0.4621354,0.38416967,0.9370835,1.4779309,2.9767764,0.41209745,-0.7689696,0.71092564,-0.025163658,-0.03900099,0.660868,0.60208523
-0.2,0.10000000000000003,1.0999999999999999,0.5235987755982988,0.0,0,1.2505795,0.56690025,0.4582503,0.38036498,0.9418944,1.4739436,2.9270742,0.42156172,-1.4206522,0.4433409,0.10741888,0.4119197,0.69344395,0.47449315
-0.2,0.10000000000000003,1.0999999999999999,0.5235987755982988,0.0,0,1.2468255,0.5571808,0.4650512,0.3754862,0.9264331,1.4821159,2.9967895,-1.015539,-1.2091379,0.17819536,-0.14917192,0.45042437,0.90616554,-0.88319665
-0.2,0.10000000000000003,1.0999999999999999,0.5235987755982988,0.0,0,1.2626274,0.5690436,0.46464458,0.3873023,0.93507385,1.4456418,2.9840143,-0.31256437,-1.3688606,0.54373926,0.24719287,-0.3773584,0.5681019,-0.40499812
-0.2,0.10000000000000003,1.0999999999999999,0.5235987755982988,0.0,0,1.2598432,0.56045294,0.47022069,0.3794824,0.9664148,1.4617499,2.9776237,0.42453519,-1.3660316,1.2785496,0.18800104,-0.5405728,0.7689564,0.3861983
-0.2,0.10000000000000003,1.0999999999999999,0.5235987755982988,0.0,0,1.2561443,0.5633937,0.47848696,0.39232174,0.92714506,1.4752935,2.9940765,0.6575942,-1.1944128,0.4818285,-0.01119162,0.03944931,0.62516874,0.6454242
-0.2,0.10000000000000003,1.0999999999999999,0.5235987755982988,0.0,0,1.263912,0.5655065,0.47294894,0.38040546,0.9655988,1.4748838,3.0077555,-1.6808076,-1.4748226,0.47136697,-0.104969926,0.20919561,0.7520513,0.3445875
-0.2,0.10000000000000003,1.0999999999999999,0.5235987755982988,0.0,0,1.2560248,0.5642865,0.46621433,0.39224002,1.0026264,1.4633482,2.966019,-0.17751169,-1.2777989,0.16184588,-0.12785587,-0.6171321,0.9952116,-0.5134526
-0.2,0.10000000000000003,1.0999999999999999,0.5235987755982988,0.0,0,1.2604506,0.5579726,0.4550437,0.37483686,0.9086531,1.4568,3.0045044,-0.45067263,-1.0559702,-0.036449242,0.10334733,-0.38258266,0.81251836,0.12620147
-0.2,0.10000000000000003,1.0999999999999999,0.5235987755982988,0.0,0,1.2552394,0.555416,0.4693139,0.39153445,0.94588387,1.4580735,2.9881372,0.7432673,-1.2328708,0.8180801,0.31970504,0.21586844,1.0243633,-0.1488237
-0.2,0.10000000000000003,1.0999999999999999,0.5235987755982988,0.0,0,1.2620533,0.5568756,0.46064854,0.38559547,0.94763124,1.46435,2.9791253,-1.5986412,-1.0689933,0.7846112,-0.13786124,0.09595158,0.7285797,-0.4419585
-0.2,0.10000000000000003,1.0999999999999999,0.5235987755982988,0.0,0,1.2603344,0.5528355,0.4847066,0.38839823,0.9580343,1.4711635,2.9880807,-0.02785817,-0.9388947,0.029196143,-0.004384917,0.5533445,0.90976626,0.83815867
-0.2,0.10000000000000003,1.0999999999999999,0.5235987755982988,0.0,0,1.2559199,0.57741874,0.4663094,0.38700193,0.94839317,1.4763205,2.9756105,1.23042,-1.0519898,-0.020470392,-0.23635495,0.044355378,0.61694777,-0.17544334
-0.2,0.10000000000000003,1.0999999999999999,0.5235987755982988,0.0,0,1.2581134,0.55327016,0.47996727,0.38415596,0.955464,1.456879,2.9722812,-0.38177976,-1.5789189,0.06744026,-0.22480507,0.39759907,0.5301606,-0.15798624
-0.2,0.10000000000000003,1.0999999999999999,0.5235987755982988,0.0,0,1.2576982,0.5537254,0.46036604,0.3847583,0.9587371,1.4813615,2.9658737,-0.26547062,-1.5054332,-0.32005006,-0.13108596,0.57616514,0.33997068,0.6183653
-0.2,0.10000000000000003,1.0999999999999999,0.5235987755982988,0.0,0,1.2452246,0.5714983,0.48230067,0.3773353,0.9384057,1.4581356,3.0001965,-0.33128765,-1.054216,0.2705158,-0.09801856,-0.31151155,1.0156113,0.9252021
-0.2,0.10000000000000003,1.0999999999999999,0.5235987755982988,0.0,0,1.2485722,0.55021566,0.46973512,0.37847358,0.94244224,1.480149,2.9964964,0.45622614,-1.219517,0.094452865,0.04335863,0.42985022,1.1966758,-0.12234608
-0.2,0.10000000000000003,1.0999999999999999,0.5235987755982988,0.0,0,1.2635645,0.56078357,0.47214395,0.38006225,0.96967155,1.4518197,2.987845,-1.0769502,-1.1781526,0.5055232,-0.035541482,0.38613072,1.0233362,0.130526
-0.2,0.10000000000000003,1.0999999999999999,0.5235987755982988,0.0,0,1.2545491,0.54708356,0.47765815,0.38807556,0.9614193,1.4837142,2.949477,-1.0993239,-1.539526,-0.36974856,-0.10241708,-0.27753207,0.86759937,-0.25154895
-0.2,0.10000000000000003,1.0999999999999999,0.5235987755982988,0.0,0,1.2535809,0.5438609,0.4812326,0.38779345,0.95955765,1.4379429,2.9630363,-0.2515072,-1.8872473,0.26190144,-0.104261085,0.04573711,0.7891349,0.63024324
-0.2,0.10000000000000003,1.0999999999999999,0.5235987755982988,0.0,0,1.2524654,0.5623901,0.46892855,0.38809657,0.9428017,1.484873,2.9672263,-1.6049632,-1.5015247,0.38647994,0.16104625,-0.097221754,1.2290148,1.0376022
-0.2,0.10000000000000003,1.0999999999999999,0.5235987755982988,0.0,0,1.2602782,0.5456228,0.47029522,0.38155314,0.9365544,1.4666525,2.9737992,-0.021137755,-1.0414696,0.77115875,-0.20998009,0.21146812,0.93417186,0.41857168
-0.2,0.10000000000000003,1.0999999999999999,0.5235987755982988,0.0,0,1.2526819,0.534953,0.4736214,0.3699265,0.9641621,1.4567114,2.971238,-0.44619697,-1.0142514,-0.16350912,0.054450817,0.047735475,0.62248355,0.12650415
-0.2,0.10000000000000003,1.0999999999999999,0.5235987755982988,0.0,0,1.245242,0.58409894,0.49561852,0.37906262,0.9566384,1.4484271,2.979723,-0.7091346,-0.8650959,0.7142106,0.06435403,0.84973896,1.0655115,0.087202385
-0.2,0.10000000000000003,1.0999999999999999,0.5235987755982988,0.0,0,1.2572541,0.5680862,0.44029602,0.37701166,0.9525059,1.4190681,2.921309,-0.54226243,-1.2827209,-0.16312253,0.01276402,0.20467135,0.6987206,-0.19441746
-0.2,0.10000000000000003,1.0999999999999999,0.5235987755982988,0.0,0,1.2522435,0.5564702,0.44934103,0.39169776,0.98237586,1.4588566,2.993127,0.88648415,-1.3813825,0.40361655,-0.048661813,0.29325897,0.10232742,-0.2599801
-0.2,0.10000000000000003,1.0999999999999999,0.5235987755982988,0.0,0,1.2516618,0.5808059,0.46647123,0.3865697,0.952071,1.4443833,2.9673667,-0.6588448,-1.2130413,0.27194896,-0.07222795,0.1187076,0.35111153,-1.0788243
-0.2,0.10000000000000003,1.0999999999999999,0.5235987755982988,0.0,0,1.258157,0.56891656,0.4669227,0.36526474,0.96406364,1.4539477,2.9627178,0.9289633,-1.3492607,0.50215995,0.17038372,-0.04388922,0.35981792,0.30690008
-0.2,0.10000000000000003,1.0999999999999999,0.5235987755982988,0.0,0,1.245475,0.5744778,0.47650778,0.37491208,0.93869424,1.4586076,3.007303,0.33209687,-1.2531358,0.029634632,0.0926584,-0.06985363,1.3837843,0.6156351
-0.2,0.10000000000000003,1.0999999999999999,0.5235987755982988,0.0,0,1.257341,0.5346542,0.47125858,0.3835138,0.93746936,1.4482749,3.0024087,0.46839383,-1.0242956,0.4032973,-0.12904821,-0.10978062,0.43691736,0.48142797
-0.2,0.10000000000000003,1.0999999999999999,0.5235987755982988,0.0,0,1.2536706,0.57597107,0.47153887,0.38577002,0.94534355,1.4643804,3.0064113,-0.16269219,-1.1704082,0.587721,0.08620967,0.32832384,0.36750084,0.99247974
-0.2,0.10000000000000003,1.0999999999999999,0.5235987755982988,0.0,0,1.2514993,0.5713987,0.4720665,0.38405532,0.93775785,1.4461325,2.9748268,0.5082558,-1.3490572,1.1718972,-0.045436483,-0.020894656,1.3408079,-0.7125491
-0.2,0.10000000000000003,1.0999999999999999,0.5235987755982988,0.0,0,1.2464944,0.5524363,0.46221045,0.3880186,0.98567003,1.4738971,3.0142257,-0.27097735,-1.6311173,0.29230845,0.038143605,-0.12070657,0.623689,0.6739601
-0.2,0.10000000000000003,1.0999999999999999,0.5235987755982988,0.0,0,1.2558651,0.559222,0.45273468,0.3813062,0.8983513,1.4603058,2.9723208,0.73595524,-1.3578352,-0.12551466,-0.264728,0.48195976,1.011453,0.4440292
-0.2,0.10000000000000003,1.0999999999999999,0.5235987755982988,0.0,0,1.2557973,0.5689469,0.48071742,0.35834715,0.96023417,1.4649757,2.9622169,0.2805575,-1.5947381,-0.08755343,-0.1140445,0.10155233,0.74526167,-0.16133654
-0.2,0.10000000000000003,1.0999999999999999,0.5235987755982988,0.0,0,1.2537909,0.5620617,0.47602296,0.39500555,0.95097494,1.4560431,2.9757495,1.2251909,-1.8314925,0.81750244,-0.11723299,0.219542,0.7640128,0.9649668
-0.2,0.10000000000000003,1.0999999999999999,0.5235987755982988,0.0,0,1.2566812,0.549367,0.4793536,0.37785357,0.93402314,1.4759036,2.9678056,0.32582903,-1.485944,-0.046175983,0.0856217,-0.30451876,0.5974846,0.41235545
-0.2,0.10000000000000003,1.0999999999999999,0.5235987755982988,0.0,0,1.2640772,0.5787086,0.46686563,0.3731204,0.948548,1.4285326,2.9506457,0.27836272,-1.6349196,0.35760602,0.030905427,0.39829162,1.0877659,1.423718
-0.2,0.10000000000000003,1.0999999999999999,0.5235987755982988,0.0,0,1.262433,0.58455074,0.45728147,0.38011825,0.9284666,1.4835638,2.990328,0.98139,-1.2934053,1.1951182,0.09027845,-0.30105484,0.55827206,0.40426338
-0.2,0.10000000000000003,1.0999999999999999,0.5235987755982988,0.0,0,1.2546772,0.545912,0.45486343,0.3782257,0.94559735,1.4432298,2.9947891,0.7612977,-1.605831,0.6660014,-0.11451199,-0.027995152,0.8420805,-0.97230005
-0.2,0.10000000000000003,1.0999999999999999,0.5235987755982988,0.0,0,1.2551973,0.5801426,0.46620858,0.3966816,0.97740424,1.4596044,2.962642,0.88612056,-1.379268,0.7511852,-0.033773493,0.06675136,1.1234673,0.3555922
-0.2,0.10000000000000003,1.0999999999999999,0.5235987755982988,0.0,0,1.2476429,0.5620354,0.4796969,0.38177967,0.9554131,1.4506159,3.0113049,0.58683205,-1.8024127,1.0052173,0.022580182,0.5645107,0.90695584,-0.11401813
-0.2,0.10000000000000003,1.0999999999999999,0.5235987755982988,0.0,0,1.2554573,0.5625747,0.45141038,0.383596,0.95235705,1.44296,3.0067055,0.7064319,-1.5978645,0.33579394,-0.091091424,0.42489448,0.7997603,-0.4083765
-0.2,0.10000000000000003,1.0999999999999999,0.5235987755982988,0.0,0,1.255379,0.5757663,0.47689158,0.38018376,0.9512126,1.4487735,3.0415292,1.0104145,-1.5351439,0.4561439,-0.35099435,-0.04244544,1.523841,-1.0629567
-0.2,0.10000000000000003,1.0999999999999999,0.5235987755982988,0.0,0,1.2611096,0.57652605,0.46471527,0.38050398,0.9616339,1.4698083,3.0208876,0.2855241,-1.8283467,0.21292916,-0.15091453,-0.18473807,0.0798941,-0.3395004
-0.2,0.10000000000000003,1.0999999999999999,0.5235987755982988,0.0,0,1.2572192,0.5371839,0.47088456,0.38797715,0.9555721,1.452342,2.978209,2.1099215,-1.2560506,1.8489872,0.13000262,-0.28520724,1.3416681,-0.3698315
