sanky1234/BimanualDexCatch/isaacgymenvs/cem_results/football_pose_0.1_-0.1_1.1999999999999997_0.0_0.0_0_2025-05-26.csv
x,y,z,roll,pitch,yaw,robot1/joint1,robot1/joint2,robot1/joint3,robot1/joint4,robot1/joint5,robot1/joint6,robot1/joint7,robot2/joint1,robot2/joint2,robot2/joint3,robot2/joint4,robot2/joint5,robot2/joint6,robot2/joint7
0.1,-0.1,1.1999999999999997,0.0,0.0,0,-1.6086507,1.3249058,-0.7228749,0.6688876,-0.34535226,0.8083149,0.24825709,-0.63330054,-1.0842668,1.5987995,0.12603617,0.045329265,1.058807,0.49148333
0.1,-0.1,1.1999999999999997,0.0,0.0,0,-1.6062806,1.324055,-0.7396201,0.6734987,-0.3540014,0.8207167,0.19951826,-0.6340758,-1.0838008,1.6097188,0.0974839,0.130448,0.9320281,-0.77613884
0.1,-0.1,1.1999999999999997,0.0,0.0,0,-1.6027535,1.3300557,-0.72382736,0.67206407,-0.344445,0.815382,0.26014373,-0.63066864,-1.0854719,1.6135906,0.20179893,-0.26746026,1.1146768,-0.037217397
0.1,-0.1,1.1999999999999997,0.0,0.0,0,-1.6104453,1.3303232,-0.7363242,0.6733715,-0.34340343,0.81622237,0.20923768,-0.6311853,-1.0942545,1.6157101,0.08103939,-0.04116863,0.8443032,-0.98395205
0.1,-0.1,1.1999999999999997,0.0,0.0,0,-1.6088117,1.3295827,-0.7299153,0.6699789,-0.35134146,0.8080927,0.16950749,-0.63288605,-1.0970687,1.610826,0.009208753,0.09465956,0.8311201,0.08162599
0.1,-0.1,1.1999999999999997,0.0,0.0,0,-1.6086948,1.3332812,-0.7314776,0.66870916,-0.31378925,0.8169593,0.22837254,-0.634284,-1.0832536,1.6096798,0.1392922,0.113591425,1.1597497,0.8197245
0.1,-0.1,1.1999999999999997,0.0,0.0,0,-1.6065705,1.3363787,-0.7334307,0.67061603,-0.3281125,0.8170259,0.23899196,-0.63250893,-1.0794173,1.6048235,0.13095859,0.17946419,1.0109081,-0.4496441
0.1,-0.1,1.1999999999999997,0.0,0.0,0,-1.6068197,1.3326733,-0.72776854,0.6707987,-0.3162863,0.81650436,0.23346134,-0.632364,-1.0908087,1.6066908,0.005034688,0.056289885,0.95589167,-0.37642765
0.1,-0.1,1.1999999999999997,0.0,0.0,0,-1.6145118,1.3404322,-0.72803617,0.67067945,-0.35800067,0.81447583,0.19361302,-0.63297296,-1.0892878,1.6160626,0.1053347,0.098327644,1.101059,-1.3964336
0.1,-0.1,1.1999999999999997,0.0,0.0,0,-1.6106097,1.3322518,-0.7347097,0.6741077,-0.3161014,0.81153417,0.2392696,-0.63508,-1.1022745,1.619441,0.19458564,0.0034271756,0.79098743,-0.39814788
0.1,-0.1,1.1999999999999997,0.0,0.0,0,-1.6137757,1.3338323,-0.72406644,0.66822517,-0.32551643,0.8111612,0.22902335,-0.6339843,-1.0809617,1.6134115,0.085110255,0.2968616,1.1840278,-1.2148565
0.1,-0.1,1.1999999999999997,0.0,0.0,0,-1.6062701,1.3352507,-0.7275856,0.6769787,-0.3420653,0.8136904,0.23051165,-0.6329096,-1.0896381,1.6105207,0.13702865,-0.12712558,1.0752246,-0.9316784
0.1,-0.1,1.1999999999999997,0.0,0.0,0,-1.6079586,1.3316343,-0.7264152,0.6787194,-0.34855816,0.8094602,0.2387126,-0.6307351,-1.0741334,1.6014035,0.07837256,0.12364749,1.049004,-0.9989648
0.1,-0.1,1.1999999999999997,0.0,0.0,0,-1.6036909,1.3273854,-0.73196423,0.6707738,-0.33005786,0.82321274,0.21933539,-0.6334292,-1.0857207,1.6009456,0.12388301,0.11311961,0.9249808,-0.37983906
0.1,-0.1,1.1999999999999997,0.0,0.0,0,-1.6026124,1.3340423,-0.73380864,0.6719216,-0.3463118,0.8194912,0.24109808,-0.6331958,-1.0859019,1.6075022,0.13146429,-0.033823475,0.9688311,-1.1308414
0.1,-0.1,1.1999999999999997,0.0,0.0,0,-1.6073961,1.3279561,-0.7256329,0.67735535,-0.34264198,0.8118895,0.25227034,-0.63427263,-1.0854756,1.6037217,0.12568517,0.25149605,1.0653696,0.87134063
0.1,-0.1,1.1999999999999997,0.0,0.0,0,-1.6041617,1.3272091,-0.7297882,0.6739098,-0.31590265,0.8160712,0.23547229,-0.6356507,-1.074603,1.6015716,0.111603685,0.027715806,1.2547506,-0.50768346
0.1,-0.1,1.1999999999999997,0.0,0.0,0,-1.6052172,1.3311273,-0.7406276,0.67300093,-0.33565924,0.8114609,0.23173521,-0.63129675,-1.0869132,1.603196,0.061306573,-0.01561905,0.84092087,-0.95323575
0.1,-0.1,1.1999999999999997,0.0,0.0,0,-1.6068064,1.3271188,-0.7321908,0.6770192,-0.34758285,0.8111752,0.23414354,-0.63474,-1.0825933,1.6127859,0.061001994,0.18106239,1.0538895,-0.52210116
0.1,-0.1,1.1999999999999997,0.0,0.0,0,-1.6045266,1.3248993,-0.7330436,0.67528135,-0.36930177,0.8151744,0.25007954,-0.6314128,-1.0989065,1.6165329,0.1600148,0.050558127,0.975566,-0.750164
0.1,-0.1,1.1999999999999997,0.0,0.0,0,-1.6109846,1.3271213,-0.7284136,0.67166424,-0.34397745,0.8181815,0.22680347,-0.6331194,-1.0877889,1.6140103,0.13719139,0.088609405,1.0487244,-0.25045896
0.1,-0.1,1.1999999999999997,0.0,0.0,0,-1.6049117,1.326264,-0.7314943,0.67136204,-0.32499176,0.8199777,0.23442021,-0.6324381,-1.0891445,1.60902,0.1438046,0.18030392,1.220101,-0.87194264
0.1,-0.1,1.1999999999999997,0.0,0.0,0,-1.6033648,1.3300958,-0.725399,0.67149734,-0.32524988,0.82416546,0.2274814,-0.63313186,-1.095001,1.61482,0.09091594,-0.00854263,1.096995,0.9579062
0.1,-0.1,1.1999999999999997,0.0,0.0,0,-1.6042144,1.3411198,-0.7277016,0.6761487,-0.34578127,0.81229043,0.2686905,-0.6319468,-1.0870534,1.6117393,0.122684896,-0.006588478,0.9850122,-0.4678391
0.1,-0.1,1.1999999999999997,0.0,0.0,0,-1.6076062,1.3362828,-0.73297787,0.6743437,-0.3370862,0.81502604,0.23842883,-0.6339814,-1.0733563,1.6164961,0.07630176,0.32379305,1.0985156,1.0789309
0.1,-0.1,1.1999999999999997,0.0,0.0,0,-1.606666,1.328552,-0.7249893,0.6741191,-0.34152457,0.8170201,0.22523716,-0.6321248,-1.0755424,1.6068363,0.14687833,-0.022080552,1.028286,0.44701415
0.1,-0.1,1.1999999999999997,0.0,0.0,0,-1.6073701,1.3287755,-0.7297057,0.6728484,-0.3321057,0.81661993,0.22089326,-0.6297655,-1.0884461,1.6155653,0.12084429,0.018069943,1.2871246,-0.24099979
0.1,-0.1,1.1999999999999997,0.0,0.0,0,-1.6020164,1.3248928,-0.7208149,0.6711327,-0.33734652,0.8188146,0.26282752,-0.631982,-1.0785987,1.6102148,0.107745364,0.020641573,1.0111299,-1.787424
0.1,-0.1,1.1999999999999997,0.0,0.0,0,-1.6090904,1.331917,-0.72897595,0.67133176,-0.34386957,0.8250721,0.2540656,-0.63497686,-1.0850569,1.6137015,0.12539656,-0.09121818,1.134638,-0.40831432
0.1,-0.1,1.1999999999999997,0.0,0.0,0,-1.609016,1.3273553,-0.73261595,0.67311233,-0.3301228,0.82326806,0.2106732,-0.6347495,-1.0926875,1.6042434,0.22441277,0.023488294,1.1638992,-0.8174779
0.1,-0.1,1.1999999999999997,0.0,0.0,0,-1.6034461,1.3298149,-0.722042,0.6674808,-0.32438383,0.81067425,0.25117126,-0.6359773,-1.0832148,1.6121271,0.066699564,0.259463,0.75593376,-0.42147163
0.1,-0.1,1.1999999999999997,0.0,0.0,0,-1.6076069,1.3354748,-0.7318793,0.6727746,-0.32871413,0.808177,0.22115687,-0.6343206,-1.0807912,1.6166506,0.0437543,-0.01883503,1.2613093,0.5058455
0.1,-0.1,1.1999999999999997,0.0,0.0,0,-1.6102452,1.3318056,-0.73661536,0.67542464,-0.34778985,0.807664,0.23986751,-0.63554895,-1.0821143,1.6043066,0.094517104,0.009654495,0.86113244,0.74394304
0.1,-0.1,1.1999999999999997,0.0,0.0,0,-1.6073196,1.325156,-0.72212744,0.66850305,-0.35083446,0.8069048,0.20496391,-0.6335518,-1.08652,1.6039103,0.19134358,-0.040690996,0.935777,0.045915667
0.1,-0.1,1.1999999999999997,0.0,0.0,0,-1.6079156,1.3440543,-0.72536224,0.6678005,-0.33730513,0.81392634,0.23671408,-0.6346356,-1.086977,1.6121485,0.08083283,0.17814615,0.98146945,-0.41064098
0.1,-0.1,1.1999999999999997,0.0,0.0,0,-1.6072974,1.3209536,-0.7249166,0.673377,-0.34307423,0.8105842,0.21337335,-0.63472855,-1.0897837,1.6123607,0.15670183,0.35274932,1.0857503,-0.13391572
0.1,-0.1,1.1999999999999997,0.0,0.0,0,-1.6101894,1.3347749,-0.7258401,0.67114335,-0.34962365,0.81040084,0.2538772,-0.63474995,-1.0938023,1.613779,0.07914023,0.027337395,0.87716895,-0.5992665
0.1,-0.1,1.1999999999999997,0.0,0.0,0,-1.6117314,1.3299738,-0.72122306,0.6708894,-0.34202662,0.80266845,0.22428463,-0.63390255,-1.0899311,1.6047205,0.05021784,0.13367862,1.1862448,-0.7253464
0.1,-0.1,1.1999999999999997,0.0,0.0,0,-1.6044564,1.3309535,-0.72300637,0.67366123,-0.33104363,0.8168095,0.24878822,-0.63336307,-1.0989631,1.61457,0.028490512,0.22141436,1.1461011,-0.3062149
0.1,-0.1,1.1999999999999997,0.0,0.0,0,-1.6093011,1.3314282,-0.7323567,0.66922444,-0.34633806,0.8110338,0.24503833,-0.6336094,-1.0939648,1.6087966,0.17766182,0.016082667,0.9590945,-0.23011763
0.1,-0.1,1.1999999999999997,0.0,0.0,0,-1.6121743,1.3263192,-0.7258175,0.67120475,-0.3144528,0.8189981,0.23431912,-0.6332752,-1.0843585,1.6044563,0.08886282,0.09363203,0.8993567,-1.4345151
0.1,-0.1,1.1999999999999997,0.0,0.0,0,-1.6047859,1.3296442,-0.716288,0.6743869,-0.32472262,0.8275664,0.2418993,-0.63279665,-1.0921443,1.6090814,0.10233043,0.2714197,0.81432664,0.17582974
0.1,-0.1,1.1999999999999997,0.0,0.0,0,-1.602882,1.3251743,-0.72108656,0.67522603,-0.31380302,0.81252,0.26565045,-0.6335354,-1.083734,1.6075455,0.028548324,0.19282396,1.1751187,-1.487576
0.1,-0.1,1.1999999999999997,0.0,0.0,0,-1.6034913,1.3359885,-0.7211057,0.66629016,-0.35092834,0.8051444,0.22829933,-0.6369441,-1.0808117,1.6148438,0.16826324,0.3279387,1.2373759,2.1275823
0.1,-0.1,1.1999999999999997,0.0,0.0,0,-1.6095054,1.3295447,-0.7357054,0.66943216,-0.31178862,0.8139513,0.23030876,-0.6362639,-1.0969794,1.6170373,0.20497361,0.06386187,0.9645651,-0.077177264
0.1,-0.1,1.1999999999999997,0.0,0.0,0,-1.6060236,1.3190411,-0.72471756,0.6679507,-0.33593392,0.8127624,0.23391807,-0.636001,-1.0822788,1.6036841,0.14123349,-0.08258683,0.9099206,-0.89008564
0.1,-0.1,1.1999999999999997,0.0,0.0,0,-1.6065191,1.3275114,-0.7405517,0.6729435,-0.35392904,0.80774933,0.23348522,-0.6366663,-1.0917803,1.6184344,0.1816951,0.18189435,0.9491019,-0.17028
0.1,-0.1,1.1999999999999997,0.0,0.0,0,-1.606377,1.3359708,-0.7292096,0.6701947,-0.33979204,0.8151164,0.23025909,-0.63495845,-1.0913839,1.6162523,0.11446752,0.21188493,1.0747396,0.48792508
0.1,-0.1,1.1999999999999997,0.0,0.0,0,-1.6060973,1.3326441,-0.71963567,0.6726694,-0.33231595,0.81920123,0.22895272,-0.63216084,-1.097287,1.6021999,0.11657276,-0.13975313,0.85024697,-1.0577382
0.1,-0.1,1.1999999999999997,0.0,0.0,0,-1.6075016,1.3357478,-0.72767466,0.6750212,-0.33968085,0.8131525,0.220284,-0.63626844,-1.090744,1.6147283,0.20416048,0.19780515,1.1349264,-0.42486846
0.1,-0.1,1.1999999999999997,0.0,0.0,0,-1.605069,1.3298875,-0.7230488,0.6689692,-0.36588454,0.81648755,0.20610893,-0.6327092,-1.0832566,1.6145774,0.21004476,0.021464104,0.9833594,0.35706985
0.1,-0.1,1.1999999999999997,0.0,0.0,0,-1.6058882,1.3294898,-0.7235068,0.67184263,-0.3605428,0.8051357,0.22681804,-0.63759893,-1.0826542,1.6060792,0.21471553,0.18725675,1.0285066,-1.1428643
0.1,-0.1,1.1999999999999997,0.0,0.0,0,-1.6040775,1.3261696,-0.7339497,0.67444146,-0.35199344,0.81129783,0.19479454,-0.63606095,-1.084863,1.6100154,0.14947458,0.19083919,1.1721715,-0.63134205
0.1,-0.1,1.1999999999999997,0.0,0.0,0,-1.6044713,1.3399599,-0.7302378,0.66895163,-0.34700808,0.8058566,0.24487807,-0.6318514,-1.0820732,1.6082563,0.05224089,-0.042637415,0.89672714,0.33063322
0.1,-0.1,1.1999999999999997,0.0,0.0,0,-1.6060455,1.3324507,-0.7245372,0.66912514,-0.35808814,0.81036204,0.2466579,-0.6303229,-1.087346,1.6084465,0.13324235,0.07744689,1.2335377,-0.64804626
0.1,-0.1,1.1999999999999997,0.0,0.0,0,-1.6056825,1.3313103,-0.7322787,0.6674226,-0.33596715,0.80949044,0.24824148,-0.6336195,-1.0911195,1.6070076,0.1977925,0.037338935,1.1693834,-0.2220347
0.1,-0.1,1.1999999999999997,0.0,0.0,0,-1.6059465,1.3289839,-0.7276015,0.665967,-0.35120752,0.81538945,0.21160193,-0.63570565,-1.0859703,1.6015819,0.17300071,0.20534283,0.9583468,0.5559892
0.1,-0.1,1.1999999999999997,0.0,0.0,0,-1.6041428,1.3245363,-0.7254713,0.67137855,-0.32785088,0.81304,0.22693588,-0.6341463,-1.0870122,1.6095009,0.11483796,0.3288777,1.0362592,-2.5119326
0.1,-0.1,1.1999999999999997,0.0,0.0,0,-1.6069585,1.3387271,-0.7223222,0.6675936,-0.33871773,0.81142014,0.24349216,-0.6343329,-1.0869989,1.599892,0.1899077,-0.09469196,1.0597532,-0.07639462
0.1,-0.1,1.1999999999999997,0.0,0.0,0,-1.6057289,1.325457,-0.7234622,0.6684713,-0.3465075,0.81618005,0.23321395,-0.6328314,-1.0851079,1.5966686,0.17273931,-0.0057868757,1.0119123,0.056002848
0.1,-0.1,1.1999999999999997,0.0,0.0,0,-1.6080811,1.3228551,-0.728475,0.67455906,-0.35172594,0.81145483,0.2222006,-0.63261336,-1.0851964,1.6004403,0.09065408,0.2705512,0.84724224,0.7370372
0.1,-0.1,1.1999999999999997,0.0,0.0,0,-1.6106457,1.3381507,-0.72653604,0.6723314,-0.35517374,0.81596994,0.25019276,-0.6346107,-1.0904858,1.6077363,0.20410399,0.2624728,1.1560664,-0.3826963
0.1,-0.1,1.1999999999999997,0.0,0.0,0,-1.6040562,1.32896,-0.72284603,0.67030287,-0.32902926,0.8087071,0.22969936,-0.6327878,-1.0946467,1.601413,0.10704715,0.010260645,1.055049,-0.62508136
0.1,-0.1,1.1999999999999997,0.0,0.0,0,-1.6088054,1.3232802,-0.7252673,0.67464197,-0.3482716,0.80493075,0.21987939,-0.6341726,-1.0982796,1.6114267,0.18209803,-0.011396523,1.1420251,-0.9734383
0.1,-0.1,1.1999999999999997,0.0,0.0,0,-1.6047826,1.3311565,-0.7214388,0.6684349,-0.33683482,0.8063035,0.24405971,-0.6340976,-1.0849341,1.61278,0.14056861,-0.039736554,0.918156,0.20470616
0.1,-0.1,1.1999999999999997,0.0,0.0,0,-1.6075815,1.3356491,-0.7182932,0.67339504,-0.3486037,0.8130114,0.21859072,-0.6343714,-1.0974143,1.6153768,0.21997125,0.16784066,1.155302,-0.947599
0.1,-0.1,1.1999999999999997,0.0,0.0,0,-1.6081506,1.3225515,-0.73194164,0.66898286,-0.3349037,0.80480295,0.22311944,-0.6326859,-1.0756856,1.6030514,0.14320326,-0.0069539943,1.0050799,-0.3253313
0.1,-0.1,1.1999999999999997,0.0,0.0,0,-1.6080776,1.3290472,-0.72136366,0.6701519,-0.32848623,0.8174505,0.18172343,-0.6352038,-1.0704087,1.6073647,0.037522726,-0.13431415,1.0530504,0.41005647
0.1,-0.1,1.1999999999999997,0.0,0.0,0,-1.6045632,1.3254272,-0.7290751,0.6746692,-0.37237835,0.8077209,0.22991994,-0.63690317,-1.095997,1.6146449,0.11781577,0.13392247,0.86069727,1.200276
0.1,-0.1,1.1999999999999997,0.0,0.0,0,-1.6074967,1.3283743,-0.7330576,0.6742977,-0.33203176,0.8053222,0.23548909,-0.6335453,-1.0921764,1.6084503,0.07139879,0.18936898,0.8945094,0.40002164
0.1,-0.1,1.1999999999999997,0.0,0.0,0,-1.6048603,1.3354416,-0.7188498,0.6731733,-0.33939922,0.804352,0.23231818,-0.6341218,-1.0811899,1.5991241,0.065183334,0.061817728,1.0329605,-0.23448838
0.1,-0.1,1.1999999999999997,0.0,0.0,0,-1.6082858,1.3339807,-0.7158295,0.6669964,-0.34559035,0.81393284,0.23768774,-0.6331612,-1.0971258,1.5998715,0.106965214,0.21468669,0.8951149,-0.27828902
0.1,-0.1,1.1999999999999997,0.0,0.0,0,-1.6013297,1.3372858,-0.72297233,0.66656303,-0.3452598,0.81402963,0.2272382,-0.6340334,-1.1002383,1.6091762,0.11908294,0.22922094,0.87456745,-1.1169041
0.1,-0.1,1.1999999999999997,0.0,0.0,0,-1.6045846,1.3353691,-0.72890174,0.6692274,-0.3518178,0.81841534,0.21403539,-0.633283,-1.0837384,1.6103092,0.11134313,-0.085993074,0.70240587,-0.5920285
0.1,-0.1,1.1999999999999997,0.0,0.0,0,-1.6115309,1.3154973,-0.72088236,0.6699497,-0.3604861,0.8163101,0.24517363,-0.63319236,-1.0967699,1.6180587,0.12234286,0.32247445,1.0562642,0.5909747
0.1,-0.1,1.1999999999999997,0.0,0.0,0,-1.6039684,1.3340343,-0.7261027,0.67377585,-0.3232108,0.81480455,0.23681352,-0.63011837,-1.088063,1.6142398,0.09605,0.0966541,1.0599042,0.36264116
0.1,-0.1,1.1999999999999997,0.0,0.0,0,-1.6060262,1.334613,-0.7282185,0.6663984,-0.34861183,0.8194905,0.24540707,-0.6335349,-1.0989734,1.6039646,0.2488259,-0.036011484,0.7799741,1.4826092
0.1,-0.1,1.1999999999999997,0.0,0.0,0,-1.6032552,1.3405607,-0.72280157,0.67365223,-0.33178332,0.8094917,0.21078359,-0.63318294,-1.0803813,1.6139233,0.13526943,0.13613726,0.86387,-1.2140162
0.1,-0.1,1.1999999999999997,0.0,0.0,0,-1.6045426,1.3273971,-0.71636266,0.6723527,-0.34526795,0.8045717,0.23795886,-0.6325432,-1.0880914,1.6116694,0.22088464,-0.017781617,1.1012259,0.3140954
0.1,-0.1,1.1999999999999997,0.0,0.0,0,-1.6069255,1.3334924,-0.72921836,0.6698684,-0.36136737,0.8077784,0.24238333,-0.6347909,-1.0957286,1.6114073,0.10912357,0.17127988,1.1897734,0.1949118
0.1,-0.1,1.1999999999999997,0.0,0.0,0,-1.6074972,1.321998,-0.72795284,0.6700669,-0.32457277,0.81307465,0.22263381,-0.6331703,-1.0921526,1.6129653,0.19771469,-0.21884629,1.0696541,-1.5110312
0.1,-0.1,1.1999999999999997,0.0,0.0,0,-1.6039288,1.3374447,-0.73116404,0.6701957,-0.3245525,0.80816567,0.23131683,-0.63398796,-1.1071904,1.6083695,0.14777662,0.23021258,1.0256411,-0.34777614
0.1,-0.1,1.1999999999999997,0.0,0.0,0,-1.6129984,1.3246915,-0.7292519,0.67136896,-0.3535153,0.80767345,0.21449263,-0.63355094,-1.0896927,1.6043615,0.23480618,-0.12501687,1.2179874,-0.483779
0.1,-0.1,1.1999999999999997,0.0,0.0,0,-1.6103297,1.3374717,-0.72868073,0.6699941,-0.3262383,0.8055424,0.22601666,-0.63560224,-1.0935215,1.6090828,0.1314553,0.08623677,1.026008,0.90832585
0.1,-0.1,1.1999999999999997,0.0,0.0,0,-1.6051632,1.3239754,-0.7241275,0.6715135,-0.34029555,0.8180212,0.21302126,-0.634832,-1.0994409,1.6071794,0.117402054,0.13028497,0.98755044,0.49646625
0.1,-0.1,1.1999999999999997,0.0,0.0,0,-1.6107635,1.3361531,-0.7267187,0.6609903,-0.32798353,0.8131501,0.24846648,-0.63213706,-1.0948647,1.5961729,0.16654041,0.27537802,1.1805799,-0.51438963
0.1,-0.1,1.1999999999999997,0.0,0.0,0,-1.6071126,1.3158964,-0.72521645,0.6711974,-0.3402834,0.8148828,0.24758062,-0.6342462,-1.0939454,1.6060698,0.12684616,-0.05332984,0.96612036,-1.5210395
0.1,-0.1,1.1999999999999997,0.0,0.0,0,-1.6082754,1.3278557,-0.7330451,0.67314184,-0.33293596,0.8059616,0.20711826,-0.6343953,-1.0958421,1.6072853,0.06273099,0.11443425,1.0544381,-0.84488523
0.1,-0.1,1.1999999999999997,0.0,0.0,0,-1.6065632,1.336074,-0.73017764,0.6704369,-0.33938518,0.8194472,0.23894852,-0.6337817,-1.0966243,1.6124842,0.09117835,0.18748906,0.8405705,-1.2455902
0.1,-0.1,1.1999999999999997,0.0,0.0,0,-1.6063789,1.329276,-0.73036087,0.6650803,-0.3491437,0.8195312,0.2126215,-0.63163817,-1.0865725,1.5994141,0.056485407,0.09634997,0.7706143,-0.19979824
0.1,-0.1,1.1999999999999997,0.0,0.0,0,-1.602916,1.3368652,-0.7291527,0.67052346,-0.34421784,0.8159334,0.25395465,-0.6333249,-1.0891929,1.61117,0.1622735,0.019877976,1.0241233,-0.69182175
0.1,-0.1,1.1999999999999997,0.0,0.0,0,-1.6097602,1.3312681,-0.7185763,0.6701696,-0.3405607,0.8105657,0.22812776,-0.6327788,-1.0916468,1.6014215,0.087389156,0.27808988,1.0213534,-1.8189042
0.1,-0.1,1.1999999999999997,0.0,0.0,0,-1.6061505,1.3332006,-0.7259965,0.6732702,-0.33601114,0.81071544,0.249391,-0.6355777,-1.0839331,1.6128981,0.24735847,-0.20631455,1.0333763,-0.0077184374
0.1,-0.1,1.1999999999999997,0.0,0.0,0,-1.6048613,1.3257245,-0.72343385,0.6708231,-0.33516556,0.8141184,0.20193727,-0.6340534,-1.0812157,1.608708,0.15543744,0.12677334,0.93327993,-0.5195074
0.1,-0.1,1.1999999999999997,0.0,0.0,0,-1.6097169,1.3371173,-0.7214314,0.66954565,-0.34295818,0.813784,0.2422106,-0.633138,-1.0929317,1.6030843,0.034623723,0.15947194,0.98617095,-0.77910554
0.1,-0.1,1.1999999999999997,0.0,0.0,0,-1.6109115,1.3312789,-0.72843874,0.6689388,-0.3189787,0.81714493,0.22852182,-0.63459605,-1.0931456,1.605703,0.11811747,-0.023368735,1.1100795,-0.56798714
0.1,-0.1,1.1999999999999997,0.0,0.0,0,-1.6076225,1.3256507,-0.71775496,0.67222625,-0.35042796,0.81688863,0.2757845,-0.6339561,-1.0848963,1.615051,0.15994196,0.04522475,0.83948797,-1.0957886
0.1,-0.1,1.1999999999999997,0.0,0.0,0,-1.6082867,1.3347878,-0.7234679,0.66599673,-0.35035783,0.80620414,0.20247288,-0.6340654,-1.0837731,1.6146703,0.02561896,-0.0227176,1.0808429,-0.22954406
0.1,-0.1,1.1999999999999997,0.0,0.0,0,-1.6047443,1.3297184,-0.7272428,0.6735952,-0.34817156,0.8076207,0.24852496,-0.6338818,-1.0837685,1.6176128,0.20819975,0.24831033,0.76637286,-1.041153
0.1,-0.1,1.1999999999999997,0.0,0.0,0,-1.608649,1.3384752,-0.7241912,0.6716206,-0.34289458,0.8096833,0.23133674,-0.6346031,-1.0823762,1.6137532,0.17900507,0.18494815,0.94553334,-0.74148524
0.1,-0.1,1.1999999999999997,0.0,0.0,0,-1.6095847,1.3375467,-0.7246591,0.6722284,-0.33236304,0.810737,0.22395495,-0.6318783,-1.1037596,1.6132814,0.10898027,0.28418493,1.0653883,0.8116384
0.1,-0.1,1.1999999999999997,0.0,0.0,0,-1.6089461,1.3448204,-0.7275422,0.6705528,-0.35721046,0.808622,0.2415513,-0.63327014,-1.0905262,1.6038959,0.10471646,0.039516367,0.9096517,0.23924486
0.1,-0.1,1.1999999999999997,0.0,0.0,0,-1.6099275,1.3107263,-0.72962993,0.6685277,-0.3569778,0.8099242,0.25198758,-0.63528854,-1.0904295,1.6083708,0.1394651,0.22161688,1.041748,-0.10756573
0.1,-0.1,1.1999999999999997,0.0,0.0,0,-1.6074686,1.340805,-0.72742474,0.66816086,-0.3390648,0.80461663,0.1745807,-0.63138723,-1.0825297,1.6105709,0.12524045,-0.020060489,1.0126091,0.72763836
0.1,-0.1,1.1999999999999997,0.0,0.0,0,-1.6080022,1.321476,-0.72974575,0.6732441,-0.3598358,0.8143512,0.23000847,-0.6346356,-1.0849073,1.6043912,0.1130156,-0.10111719,1.1516635,0.47814286
0.1,-0.1,1.1999999999999997,0.0,0.0,0,-1.6060587,1.3215522,-0.72501945,0.6701606,-0.3518327,0.81493276,0.2067496,-0.63347006,-1.0802511,1.6190492,0.14747623,-0.13250758,1.1619601,-1.3639104
0.1,-0.1,1.1999999999999997,0.0,0.0,0,-1.6014576,1.3383179,-0.7300828,0.6721475,-0.34644532,0.81985706,0.21045889,-0.63279027,-1.102075,1.6204613,0.12151919,0.11633237,1.0077869,-0.6596452
0.1,-0.1,1.1999999999999997,0.0,0.0,0,-1.6084876,1.32513,-0.7282259,0.6711701,-0.35663852,0.8229842,0.22986344,-0.6350845,-1.0883503,1.6084883,0.1309459,-0.07854729,0.9122163,-0.35049883
0.1,-0.1,1.1999999999999997,0.0,0.0,0,-1.6043874,1.3410841,-0.72733694,0.67273706,-0.321156,0.81060994,0.22724497,-0.63314015,-1.0952296,1.6055413,0.08920949,0.083728954,1.0428308,-0.9126778
0.1,-0.1,1.1999999999999997,0.0,0.0,0,-1.6039468,1.3365629,-0.7189548,0.674969,-0.33286196,0.8049055,0.22980265,-0.63070774,-1.0946258,1.6108992,0.21138528,0.3435306,0.92072207,-0.77859646
0.1,-0.1,1.1999999999999997,0.0,0.0,0,-1.6051328,1.3293736,-0.72366375,0.6715382,-0.35668257,0.8167474,0.22066899,-0.6338987,-1.0778105,1.6095443,0.14251068,-0.0007608569,1.0706925,0.550486
0.1,-0.1,1.1999999999999997,0.0,0.0,0,-1.604052,1.331172,-0.731372,0.66489387,-0.37046358,0.809997,0.23193498,-0.63581187,-1.0907675,1.598013,0.2245283,0.1856971,0.87586594,0.43821087
0.1,-0.1,1.1999999999999997,0.0,0.0,0,-1.6057328,1.3308386,-0.7294075,0.6698345,-0.34767908,0.8103649,0.22494246,-0.63336664,-1.0786134,1.6007427,0.07816023,0.076227434,0.86066747,-1.4743667
0.1,-0.1,1.1999999999999997,0.0,0.0,0,-1.6049229,1.325304,-0.73137105,0.6714097,-0.3441114,0.80829096,0.2409418,-0.63333535,-1.0799507,1.6119827,0.08476641,0.07729188,1.0401216,-0.5011171
0.1,-0.1,1.1999999999999997,0.0,0.0,0,-1.606828,1.3406543,-0.72419107,0.67022294,-0.33955845,0.8064267,0.23748517,-0.63429254,-1.0941442,1.6191337,0.16016154,0.17248127,1.0019251,-2.7744806
0.1,-0.1,1.1999999999999997,0.0,0.0,0,-1.604507,1.3401818,-0.7287348,0.66828746,-0.36874688,0.8101327,0.18585177,-0.633613,-1.0747982,1.6117902,0.12336787,0.12490893,0.94056886,-0.45040518
0.1,-0.1,1.1999999999999997,0.0,0.0,0,-1.60501,1.3368965,-0.73650485,0.666835,-0.34490067,0.81902015,0.24136582,-0.63242316,-1.0928786,1.6023363,0.12580225,-0.048544075,1.2297012,0.7194519
0.1,-0.1,1.1999999999999997,0.0,0.0,0,-1.6005834,1.3366144,-0.727511,0.6682572,-0.34591514,0.805217,0.2503065,-0.63329124,-1.0821824,1.602751,0.15552065,-0.07340499,1.0496103,0.71636826
0.1,-0.1,1.1999999999999997,0.0,0.0,0,-1.6051546,1.3341855,-0.7235979,0.67031956,-0.32883522,0.80948895,0.24413273,-0.6339767,-1.0875071,1.5963898,0.1291196,-0.051116228,1.0241534,-0.1816752
0.1,-0.1,1.1999999999999997,0.0,0.0,0,-1.6049186,1.3291758,-0.7265169,0.6699164,-0.328241,0.8036553,0.24105518,-0.63483024,-1.0910246,1.6042653,0.15725146,0.093523994,0.96242535,-1.2031333
0.1,-0.1,1.1999999999999997,0.0,0.0,0,-1.6075226,1.3306501,-0.726717,0.6704143,-0.3319368,0.81889856,0.23400086,-0.63360167,-1.0865352,1.6092807,0.16146637,-0.013308181,0.9175444,-0.5399907
0.1,-0.1,1.1999999999999997,0.0,0.0,0,-1.6084163,1.3339815,-0.72660834,0.6720969,-0.3695955,0.8079898,0.22058511,-0.63260484,-1.0876288,1.5982786,0.08282009,0.16006647,1.0907943,0.9668582
0.1,-0.1,1.1999999999999997,0.0,0.0,0,-1.6051613,1.3267082,-0.72465265,0.6765126,-0.35621652,0.8153414,0.2241852,-0.6317246,-1.0857958,1.5961188,0.13380766,0.032711625,0.9768388,0.670116
0.1,-0.1,1.1999999999999997,0.0,0.0,0,-1.6072562,1.3399879,-0.723766,0.6742318,-0.3427754,0.81351805,0.2024924,-0.6343665,-1.0794556,1.6097633,0.10380143,0.2874161,1.1980416,-0.13149633
0.1,-0.1,1.1999999999999997,0.0,0.0,0,-1.6108016,1.3224885,-0.7298407,0.6697797,-0.34463376,0.81005377,0.21285711,-0.63505006,-1.0879295,1.6121365,0.18708739,-0.048662655,1.001552,1.4661677
0.1,-0.1,1.1999999999999997,0.0,0.0,0,-1.6047143,1.3275677,-0.7228615,0.665452,-0.31584322,0.81214964,0.21803376,-0.6328289,-1.0845836,1.6065619,0.14612544,0.0379306,1.0493329,0.5194742
0.1,-0.1,1.1999999999999997,0.0,0.0,0,-1.6040652,1.3283103,-0.7266736,0.6697848,-0.33294487,0.82082665,0.22105446,-0.63519037,-1.0887601,1.6091748,0.10922428,0.26171604,1.1252981,-0.3368567
0.1,-0.1,1.1999999999999997,0.0,0.0,0,-1.607633,1.3302385,-0.72498375,0.6684818,-0.34500575,0.82207566,0.25124502,-0.63541913,-1.0869597,1.6136827,0.11172231,0.16867045,1.0510147,0.016673725
0.1,-0.1,1.1999999999999997,0.0,0.0,0,-1.6063118,1.3395377,-0.7299359,0.6681761,-0.34491643,0.81387424,0.2550722,-0.63249946,-1.0927029,1.611043,0.14391609,0.3030168,0.9600986,-1.232178
0.1,-0.1,1.1999999999999997,0.0,0.0,0,-1.6102257,1.3242575,-0.72457296,0.6779204,-0.3504152,0.8047874,0.23055491,-0.63399476,-1.0941542,1.6059858,0.14901854,-0.063551165,1.0895923,-0.4183891
0.1,-0.1,1.1999999999999997,0.0,0.0,0,-1.6035445,1.331346,-0.7253218,0.6688234,-0.3552257,0.81937766,0.22993138,-0.63287795,-1.0973768,1.6105915,0.076346725,0.30384034,0.94212365,-1.7729585
0.1,-0.1,1.1999999999999997,0.0,0.0,0,-1.6029534,1.3290894,-0.72543824,0.66984016,-0.34569165,0.8139161,0.19875546,-0.63269335,-1.0968757,1.6068923,0.14369765,0.09621078,1.049558,0.18755221
0.1,-0.1,1.1999999999999997,0.0,0.0,0,-1.6033893,1.3296603,-0.7294363,0.66790515,-0.31557983,0.8116115,0.23269792,-0.6347132,-1.0832797,1.610344,0.13454795,0.11487001,0.8835267,-0.008725775
0.1,-0.1,1.1999999999999997,0.0,0.0,0,-1.6070671,1.3136485,-0.728101,0.67467684,-0.34116492,0.812654,0.23096381,-0.6337824,-1.090257,1.6018783,0.1716398,-0.080000274,0.9849065,-0.27525797
0.1,-0.1,1.1999999999999997,0.0,0.0,0,-1.6053413,1.3218468,-0.72901595,0.6764367,-0.3687665,0.8130529,0.2436711,-0.6340899,-1.0987599,1.6118546,0.110415675,-0.0139663555,1.1192633,-1.080394
0.1,-0.1,1.1999999999999997,0.0,0.0,0,-1.6082425,1.3231565,-0.72875416,0.67450815,-0.3374891,0.80906457,0.21140073,-0.6334459,-1.0854057,1.6024305,0.16930848,0.41623673,0.9011085,-0.541588
0.1,-0.1,1.1999999999999997,0.0,0.0,0,-1.5995125,1.33029,-0.7294585,0.6695333,-0.32541287,0.8124453,0.23542473,-0.6317719,-1.0811203,1.6066865,0.10719896,0.13117686,0.97372097,-0.19486684
0.1,-0.1,1.1999999999999997,0.0,0.0,0,-1.6076883,1.3273064,-0.71817297,0.66641074,-0.32063022,0.80634105,0.22115967,-0.6308948,-1.0819385,1.6050497,0.06701983,0.07999414,1.2123761,-0.8404207
0.1,-0.1,1.1999999999999997,0.0,0.0,0,-1.6077533,1.3355656,-0.72675914,0.67520106,-0.33895773,0.81072044,0.24060595,-0.6338029,-1.0840412,1.6038165,0.06301946,-0.083245896,0.9307753,-0.53023684
0.1,-0.1,1.1999999999999997,0.0,0.0,0,-1.6078166,1.321435,-0.72163516,0.67266095,-0.3455412,0.8126768,0.2065406,-0.6341821,-1.0900773,1.6081284,0.035293665,0.070167504,0.85831416,0.9141025
0.1,-0.1,1.1999999999999997,0.0,0.0,0,-1.6097835,1.3346109,-0.72318983,0.6706058,-0.3377273,0.814805,0.22134605,-0.6336543,-1.0844026,1.6166886,0.07963311,-0.094810665,1.1156436,-0.5807417
0.1,-0.1,1.1999999999999997,0.0,0.0,0,-1.6119772,1.3404864,-0.72653025,0.6732689,-0.33243898,0.8137959,0.20577948,-0.6329852,-1.0901833,1.605314,0.10536059,-0.10988077,0.7530277,-1.2411292
0.1,-0.1,1.1999999999999997,0.0,0.0,0,-1.607084,1.3341862,-0.7259394,0.6730502,-0.33473122,0.8044633,0.24473941,-0.6335079,-1.0897421,1.6101725,0.14249799,0.14128402,1.0188559,0.20076251
0.1,-0.1,1.1999999999999997,0.0,0.0,0,-1.6086198,1.3394817,-0.72484285,0.6707101,-0.35291347,0.82075894,0.24989669,-0.6336828,-1.0864149,1.6094022,0.08683462,0.043002073,1.1501147,-1.1222758
0.1,-0.1,1.1999999999999997,0.0,0.0,0,-1.6061574,1.3352925,-0.7224562,0.6701523,-0.3307103,0.80769795,0.23076455,-0.6338118,-1.085389,1.6068103,0.08617294,0.110337265,0.9975567,0.090662435
0.1,-0.1,1.1999999999999997,0.0,0.0,0,-1.6056645,1.3427306,-0.7283317,0.6686771,-0.33281738,0.80807996,0.23014484,-0.63521594,-1.0856931,1.6069275,0.043230418,-0.27840093,1.0717216,-1.1348696
0.1,-0.1,1.1999999999999997,0.0,0.0,0,-1.6036862,1.3343031,-0.7267439,0.66910076,-0.32399353,0.81087005,0.21605359,-0.6365427,-1.0883659,1.6169659,0.09008038,0.13071929,1.1396643,-0.381528
0.1,-0.1,1.1999999999999997,0.0,0.0,0,-1.6070263,1.3272392,-0.72459245,0.6747475,-0.3590493,0.814614,0.1890727,-0.6333032,-1.091901,1.616537,0.124204256,0.31458378,1.023993,0.77071637
0.1,-0.1,1.1999999999999997,0.0,0.0,0,-1.606475,1.3349184,-0.7290478,0.67015487,-0.32766,0.80995256,0.20783196,-0.6329788,-1.0918297,1.5927342,0.13568683,-0.13297172,1.2193673,0.14777371
0.1,-0.1,1.1999999999999997,0.0,0.0,0,-1.6052774,1.3284557,-0.72200835,0.6724761,-0.31829375,0.8107325,0.22124918,-0.63271236,-1.083942,1.6084355,0.10950235,0.09552457,1.1045113,-0.026223142
0.1,-0.1,1.1999999999999997,0.0,0.0,0,-1.6067978,1.3340391,-0.7218708,0.6712243,-0.33783117,0.81260276,0.2392498,-0.6325552,-1.086591,1.6050898,0.14884883,0.10103741,0.92593646,-0.62087214
0.1,-0.1,1.1999999999999997,0.0,0.0,0,-1.6051561,1.3333681,-0.7307106,0.67287874,-0.34712073,0.80691123,0.23408645,-0.63409513,-1.0900692,1.6092285,0.048807357,0.120743774,1.0345846,1.5559897
0.1,-0.1,1.1999999999999997,0.0,0.0,0,-1.6105385,1.3313851,-0.72884685,0.66813177,-0.31252596,0.8131714,0.26034445,-0.63434976,-1.0894938,1.5983157,0.0948919,0.07939878,0.98349977,-0.43279868
0.1,-0.1,1.1999999999999997,0.0,0.0,0,-1.6050757,1.33463,-0.7287897,0.67519826,-0.32935074,0.81284076,0.22284028,-0.634617,-1.0911092,1.6069365,0.12227206,0.08380398,1.109382,0.06553141
0.1,-0.1,1.1999999999999997,0.0,0.0,0,-1.6078,1.3387944,-0.73683155,0.67100996,-0.35392722,0.81845224,0.21499573,-0.63216877,-1.0945646,1.6024821,0.12151774,0.29518235,1.0255361,-0.2614183
0.1,-0.1,1.1999999999999997,0.0,0.0,0,-1.6102818,1.3321571,-0.7298735,0.6704585,-0.34706607,0.8129815,0.21216178,-0.63526136,-1.0909271,1.607011,0.08084391,-0.067236744,0.8323781,0.023525324
0.1,-0.1,1.1999999999999997,0.0,0.0,0,-1.6028365,1.3356773,-0.7266417,0.6702398,-0.34877157,0.81106263,0.20202282,-0.63034964,-1.0821052,1.6136512,0.14771143,0.05304631,0.9346552,0.53324634
0.1,-0.1,1.1999999999999997,0.0,0.0,0,-1.6071641,1.335472,-0.7227566,0.67163855,-0.32003173,0.81471217,0.19605818,-0.63203716,-1.1021422,1.6103224,0.11723238,0.21584561,1.2130572,-0.05290056
0.1,-0.1,1.1999999999999997,0.0,0.0,0,-1.6033843,1.3242747,-0.72663426,0.66980356,-0.3456548,0.8169207,0.24091947,-0.63299274,-1.0798889,1.6023945,0.17468278,0.10511284,1.1532863,-1.5354503
0.1,-0.1,1.1999999999999997,0.0,0.0,0,-1.6030842,1.3382802,-0.7266746,0.6710365,-0.33267888,0.8122398,0.2297565,-0.63112473,-1.0929706,1.608439,0.15872565,0.14744498,1.3522879,0.55491376
0.1,-0.1,1.1999999999999997,0.0,0.0,0,-1.6076951,1.3324288,-0.7246997,0.6746014,-0.35283425,0.8165794,0.22193561,-0.6328411,-1.084355,1.6120626,0.14410262,0.1739761,0.92137766,-1.3526423
0.1,-0.1,1.1999999999999997,0.0,0.0,0,-1.6096712,1.3311595,-0.72823095,0.67453426,-0.33484262,0.8147256,0.22081052,-0.6344624,-1.0851806,1.6066207,0.11651435,0.2343946,1.082231,0.2961786
0.1,-0.1,1.1999999999999997,0.0,0.0,0,-1.6066011,1.3362,-0.7287362,0.671778,-0.33479604,0.8162063,0.2186554,-0.6330599,-1.0832045,1.602623,0.028633155,0.15099886,1.1094724,-1.5469033
0.1,-0.1,1.1999999999999997,0.0,0.0,0,-1.6069921,1.3351127,-0.7286022,0.6659999,-0.3658117,0.809081,0.20672868,-0.632731,-1.0936592,1.6030596,0.11432248,-0.03143471,1.2596996,-2.8248527
0.1,-0.1,1.1999999999999997,0.0,0.0,0,-1.6093394,1.3342223,-0.7332983,0.6698799,-0.34123164,0.8094136,0.20444916,-0.63118243,-1.0921439,1.615637,0.06614567,0.13595349,0.99644524,-0.72917205
0.1,-0.1,1.1999999999999997,0.0,0.0,0,-1.6089457,1.3328015,-0.7187814,0.6794099,-0.3521645,0.81446236,0.19852537,-0.63320595,-1.0879725,1.6077418,0.04946686,-0.09092801,0.9807367,0.8388592
0.1,-0.1,1.1999999999999997,0.0,0.0,0,-1.6053982,1.3314074,-0.7317056,0.6693863,-0.35636115,0.807722,0.24511382,-0.63226604,-1.0867035,1.600809,0.11986341,0.00058427895,1.1481603,-0.43461213
0.1,-0.1,1.1999999999999997,0.0,0.0,0,-1.6050298,1.3285391,-0.7280068,0.6686242,-0.34892133,0.82032156,0.24250785,-0.635428,-1.0868161,1.6100886,0.09085692,0.17152548,0.9997983,0.111871205
0.1,-0.1,1.1999999999999997,0.0,0.0,0,-1.6086811,1.3277249,-0.7238264,0.67040366,-0.33497828,0.8091784,0.22097653,-0.6343902,-1.0871805,1.605447,0.21214643,0.2543004,0.89824665,0.83390987
0.1,-0.1,1.1999999999999997,0.0,0.0,0,-1.6073781,1.3314611,-0.7264351,0.666606,-0.30632636,0.8074257,0.22206257,-0.63490045,-1.0842894,1.613087,0.10486644,0.022825886,1.1382958,-0.07263239
0.1,-0.1,1.1999999999999997,0.0,0.0,0,-1.6096028,1.3388188,-0.7292327,0.67137706,-0.3553201,0.8164889,0.2296025,-0.63326335,-1.0818111,1.6147494,0.1177379,-0.0151433945,0.9380067,-0.13155706
0.1,-0.1,1.1999999999999997,0.0,0.0,0,-1.6061386,1.3415426,-0.7327316,0.66988677,-0.34066203,0.80785406,0.20309417,-0.6355704,-1.0755804,1.6030608,0.03155408,0.38875,0.9673868,-0.24913238
0.1,-0.1,1.1999999999999997,0.0,0.0,0,-1.606696,1.33631,-0.73227334,0.67435193,-0.3398788,0.8090584,0.20716372,-0.6325761,-1.0926263,1.6051661,0.065466136,0.21803609,1.3034402,0.39942983
0.1,-0.1,1.1999999999999997,0.0,0.0,0,-1.6089522,1.340013,-0.7363654,0.66659045,-0.3358983,0.81266564,0.2135655,-0.6327622,-1.0747188,1.6064644,0.14884369,-0.09799159,1.158055,-0.55321413
0.1,-0.1,1.1999999999999997,0.0,0.0,0,-1.6077541,1.3322688,-0.7306192,0.66897374,-0.35480285,0.8081655,0.22405629,-0.6326615,-1.082966,1.5998551,0.098487064,0.027846742,0.9433993,-0.19155426
0.1,-0.1,1.1999999999999997,0.0,0.0,0,-1.6058731,1.3198111,-0.73556685,0.66997814,-0.3424753,0.8061493,0.2269092,-0.6332873,-1.0787793,1.6036732,0.12373714,-0.14185141,0.9397915,0.611734
0.1,-0.1,1.1999999999999997,0.0,0.0,0,-1.6099105,1.3340406,-0.7289413,0.6699949,-0.35828543,0.81093657,0.2667511,-0.6309959,-1.0806049,1.6038288,0.10377921,0.25548458,0.9511651,-1.3594831
0.1,-0.1,1.1999999999999997,0.0,0.0,0,-1.6088428,1.3326933,-0.7219655,0.67316663,-0.3385657,0.8079448,0.18599963,-0.63536644,-1.0882158,1.6191047,0.14223123,-0.031019662,0.98871136,-1.7328385
0.1,-0.1,1.1999999999999997,0.0,0.0,0,-1.605567,1.3304971,-0.7317246,0.66774064,-0.33664498,0.8124992,0.2053993,-0.633965,-1.0843867,1.6004217,0.1268001,0.016132193,0.88071924,0.00662541
0.1,-0.1,1.1999999999999997,0.0,0.0,0,-1.6092105,1.3233736,-0.7224423,0.67004085,-0.32758328,0.8115983,0.22815992,-0.6334178,-1.0853685,1.6178823,0.07057967,0.24298464,1.2791861,0.43421793
0.1,-0.1,1.1999999999999997,0.0,0.0,0,-1.6077813,1.3316824,-0.7291015,0.67132175,-0.35127023,0.816442,0.23318678,-0.6332908,-1.0878522,1.6086557,0.027474435,0.004141036,0.9653535,-0.74711263
0.1,-0.1,1.1999999999999997,0.0,0.0,0,-1.6075286,1.3423748,-0.7285834,0.670869,-0.34544778,0.8139859,0.21747686,-0.6328512,-1.0894367,1.6131729,0.11713289,-0.0876835,1.0538542,-1.7515204
0.1,-0.1,1.1999999999999997,0.0,0.0,0,-1.6105201,1.3320463,-0.7272534,0.66748375,-0.34009716,0.81620175,0.21997872,-0.63088846,-1.0815766,1.6162246,0.1289545,0.12135327,0.85420054,-0.10412159
0.1,-0.1,1.1999999999999997,0.0,0.0,0,-1.609291,1.3291035,-0.72802234,0.66900605,-0.31953624,0.808697,0.23597124,-0.63523996,-1.0888755,1.6198089,0.13611168,0.4064972,1.1157217,-1.3529602
0.1,-0.1,1.1999999999999997,0.0,0.0,0,-1.6064873,1.3292567,-0.73098785,0.67304826,-0.34579515,0.8183699,0.2309701,-0.6331611,-1.0779072,1.6005677,0.11991365,0.0051456722,1.0849495,0.10769934
0.1,-0.1,1.1999999999999997,0.0,0.0,0,-1.6060011,1.3242245,-0.73980457,0.6710722,-0.35136786,0.8080076,0.19947048,-0.632137,-1.0881516,1.6110395,0.18593468,-0.05010521,1.0976851,0.68857884
0.1,-0.1,1.1999999999999997,0.0,0.0,0,-1.6014308,1.3262199,-0.7334009,0.6709811,-0.35607308,0.80894387,0.23617736,-0.63399273,-1.090275,1.6133318,0.13902391,-0.060826525,1.1565607,-1.1083753
0.1,-0.1,1.1999999999999997,0.0,0.0,0,-1.6061599,1.3307335,-0.7257395,0.6729084,-0.35285655,0.8127652,0.23965685,-0.63376254,-1.0922911,1.6091422,0.12907383,-0.020232338,0.97747177,-0.85888785
0.1,-0.1,1.1999999999999997,0.0,0.0,0,-1.6094532,1.3368102,-0.72473395,0.6770966,-0.33766204,0.80888987,0.21427044,-0.63312954,-1.087105,1.6106399,0.14394222,0.32934162,1.1435579,-0.6272905
0.1,-0.1,1.1999999999999997,0.0,0.0,0,-1.6087116,1.3336856,-0.7280147,0.66947776,-0.3458332,0.81211364,0.29671556,-0.6329821,-1.0895042,1.6036458,0.13253382,0.22636123,1.2506516,1.2090114
0.1,-0.1,1.1999999999999997,0.0,0.0,0,-1.6063049,1.3395872,-0.72724265,0.67181367,-0.37658954,0.8076126,0.24214794,-0.6324292,-1.0794849,1.6115475,0.031796772,0.21167707,1.0045155,1.4883429
0.1,-0.1,1.1999999999999997,0.0,0.0,0,-1.6075294,1.3223249,-0.72607136,0.6683231,-0.33031163,0.8225393,0.24372311,-0.6336584,-1.0860572,1.6107156,0.113339916,0.14055252,1.2017161,0.96524537
0.1,-0.1,1.1999999999999997,0.0,0.0,0,-1.6070095,1.3254033,-0.72722703,0.66935295,-0.34377128,0.81126124,0.23002437,-0.6329662,-1.0839317,1.5989921,0.16003184,0.11271507,0.9957751,0.7647034
0.1,-0.1,1.1999999999999997,0.0,0.0,0,-1.6120243,1.3311368,-0.7298215,0.67355937,-0.36040157,0.81507,0.24438156,-0.6313557,-1.093973,1.6059122,0.17501669,-0.01816154,1.0689701,-1.4117341
0.1,-0.1,1.1999999999999997,0.0,0.0,0,-1.6084734,1.3374062,-0.72361755,0.6737964,-0.3344989,0.81405526,0.21010871,-0.6344463,-1.074173,1.6075952,0.14731336,0.19339918,1.0120795,0.017551972
0.1,-0.1,1.1999999999999997,0.0,0.0,0,-1.6056291,1.3278677,-0.7298726,0.6724807,-0.3588876,0.81107795,0.24371934,-0.6336549,-1.0924116,1.6078488,0.1411924,0.107684314,1.0966322,1.6984164
0.1,-0.1,1.1999999999999997,0.0,0.0,0,-1.6083925,1.3312899,-0.7340318,0.6758115,-0.3577901,0.8092625,0.2112122,-0.63416994,-1.0833249,1.5999757,0.029533748,0.33310795,1.2811981,-0.62340975
0.1,-0.1,1.1999999999999997,0.0,0.0,0,-1.6086044,1.3226199,-0.72395223,0.6681655,-0.36384347,0.8242573,0.21060456,-0.63372356,-1.0837498,1.6083637,0.14317237,0.041672073,1.2153525,0.7243795
0.1,-0.1,1.1999999999999997,0.0,0.0,0,-1.611028,1.3332119,-0.7306147,0.67172575,-0.33770883,0.81201404,0.25943664,-0.63364106,-1.1017166,1.6132445,0.17892827,0.25566348,1.1160975,0.30125043
0.1,-0.1,1.1999999999999997,0.0,0.0,0,-1.6144105,1.3306055,-0.7231511,0.6669729,-0.35343397,0.8196234,0.24451555,-0.6340637,-1.0882518,1.6138341,0.08440788,0.0743115,0.75364316,-0.50321686
0.1,-0.1,1.1999999999999997,0.0,0.0,0,-1.6070044,1.33623,-0.73035616,0.6726296,-0.34119946,0.8076241,0.22274311,-0.63063955,-1.0974392,1.6109954,0.09061017,-0.158447,1.0328864,1.7975987
0.1,-0.1,1.1999999999999997,0.0,0.0,0,-1.6053522,1.3290185,-0.7305634,0.6732467,-0.3486635,0.8116326,0.22393061,-0.63377357,-1.0947144,1.6108155,0.06369543,0.14711441,1.0378058,0.50723255
0.1,-0.1,1.1999999999999997,0.0,0.0,0,-1.6058725,1.3174801,-0.7250389,0.6709967,-0.3385012,0.81142163,0.20232357,-0.6338075,-1.0850129,1.6043154,-0.0043726363,0.064484626,0.99252295,-0.22673385
0.1,-0.1,1.1999999999999997,0.0,0.0,0,-1.6051719,1.3397714,-0.7260687,0.6750848,-0.32843488,0.81643546,0.23661257,-0.6326647,-1.099887,1.6036954,0.14752464,-0.026116244,0.99533224,1.5288596
0.1,-0.1,1.1999999999999997,0.0,0.0,0,-1.6051627,1.3192242,-0.7198239,0.67477334,-0.32975504,0.8157346,0.2222234,-0.6311197,-1.0879769,1.6050707,0.16012962,0.047368735,0.99905586,-1.3305247
0.1,-0.1,1.1999999999999997,0.0,0.0,0,-1.6081465,1.3365579,-0.7276141,0.66978955,-0.35034168,0.8236529,0.22356899,-0.6327012,-1.0857291,1.6139326,0.056502953,-0.015365674,0.93009156,-0.5656574
0.1,-0.1,1.1999999999999997,0.0,0.0,0,-1.6080483,1.3344123,-0.73295385,0.66694427,-0.35150176,0.8199191,0.2536004,-0.6324385,-1.0918111,1.609601,0.06372117,-0.07413123,1.1384737,-0.8036964
0.1,-0.1,1.1999999999999997,0.0,0.0,0,-1.6069024,1.3264052,-0.726726,0.6693465,-0.34762794,0.8045094,0.16765141,-0.63692844,-1.0907135,1.6146768,0.1280277,-0.14638849,0.967836,-0.24859545
0.1,-0.1,1.1999999999999997,0.0,0.0,0,-1.6085451,1.3305731,-0.72680897,0.6740465,-0.33950558,0.81291556,0.2258641,-0.63513994,-1.0977142,1.6137766,0.04678819,0.14123134,1.0942299,-0.5137344
0.1,-0.1,1.1999999999999997,0.0,0.0,0,-1.6069236,1.329324,-0.7294526,0.67025745,-0.34164998,0.8164298,0.24373761,-0.63186955,-1.0872067,1.6113724,0.12914814,-0.08329436,0.9284985,0.11837778
0.1,-0.1,1.1999999999999997,0.0,0.0,0,-1.6104515,1.3292547,-0.72916305,0.67504007,-0.34020075,0.80926734,0.22090377,-0.6315638,-1.0877264,1.6144458,0.17739676,-0.16173479,1.0102364,0.061734807
0.1,-0.1,1.1999999999999997,0.0,0.0,0,-1.6095843,1.3270203,-0.73082906,0.6721174,-0.35266012,0.8196543,0.24246685,-0.6318497,-1.0933754,1.6102067,0.12370794,0.060711812,0.91186553,-0.7480442
0.1,-0.1,1.1999999999999997,0.0,0.0,0,-1.6096108,1.3337255,-0.7286458,0.67096215,-0.35956717,0.8164131,0.25274056,-0.633786,-1.0899779,1.5981885,0.1330438,0.0892164,1.2246083,-1.228472
0.1,-0.1,1.1999999999999997,0.0,0.0,0,-1.6061958,1.3300873,-0.73235774,0.6738286,-0.3468678,0.8087922,0.2406902,-0.63163936,-1.0879841,1.6162261,0.07182364,0.21485257,1.0560263,1.7223291
0.1,-0.1,1.1999999999999997,0.0,0.0,0,-1.6090388,1.3332424,-0.72735864,0.67361844,-0.3301654,0.8170375,0.24403614,-0.6355593,-1.0829506,1.6132196,0.1618385,-0.060541123,0.81437093,-0.62788355
0.1,-0.1,1.1999999999999997,0.0,0.0,0,-1.6027771,1.3332385,-0.7327592,0.674619,-0.3369,0.8148733,0.24237716,-0.6342364,-1.085305,1.6074897,0.1390443,0.059103742,1.1280485,0.0007420358
0.1,-0.1,1.1999999999999997,0.0,0.0,0,-1.6093253,1.3270159,-0.7283088,0.67371404,-0.3397468,0.8132834,0.22485228,-0.6340092,-1.0828962,1.6111622,0.13233571,-0.059370182,1.0258622,0.10232151
0.1,-0.1,1.1999999999999997,0.0,0.0,0,-1.6089857,1.3357749,-0.73014486,0.6664369,-0.35099688,0.8112707,0.2257687,-0.6342937,-1.0871676,1.6173414,0.09339288,0.024507096,1.2352929,0.16836834
0.1,-0.1,1.1999999999999997,0.0,0.0,0,-1.6041882,1.3350419,-0.7257345,0.6698886,-0.33456525,0.81001395,0.23395124,-0.63273734,-1.0877441,1.5994211,0.124844,0.051759332,0.93377197,-0.52382123
0.1,-0.1,1.1999999999999997,0.0,0.0,0,-1.606385,1.3323041,-0.7274959,0.665591,-0.33494896,0.8170709,0.21835269,-0.63490844,-1.0942005,1.619258,0.13641325,0.18795502,0.85863286,-0.78695863
0.1,-0.1,1.1999999999999997,0.0,0.0,0,-1.6092902,1.3286455,-0.72174466,0.6723238,-0.32495433,0.8071328,0.22736496,-0.63053113,-1.0828357,1.6083122,0.084269345,-0.16517906,1.2364088,-0.3765681
0.1,-0.1,1.1999999999999997,0.0,0.0,0,-1.6078545,1.3350527,-0.7265595,0.6657771,-0.36056358,0.8106627,0.25291538,-0.6333713,-1.0897036,1.6092327,0.039112657,-0.004062738,1.0944476,-1.534559
0.1,-0.1,1.1999999999999997,0.0,0.0,0,-1.608055,1.3329628,-0.724768,0.6708734,-0.33815485,0.80484825,0.23012522,-0.63633317,-1.0916828,1.6121202,0.06855572,-0.04895362,1.088793,0.25792617
0.1,-0.1,1.1999999999999997,0.0,0.0,0,-1.6068531,1.3252449,-0.7297078,0.6696256,-0.33983803,0.80523574,0.24428244,-0.63286567,-1.0902793,1.6066462,0.14218155,-0.04481979,1.1095585,0.084725566
0.1,-0.1,1.1999999999999997,0.0,0.0,0,-1.6046579,1.3307619,-0.73289365,0.67314655,-0.3221298,0.8116629,0.225203,-0.6311017,-1.0870154,1.6121131,0.066303425,0.056962233,1.0752681,0.7330532
0.1,-0.1,1.1999999999999997,0.0,0.0,0,-1.6005173,1.3311847,-0.72689736,0.6723748,-0.32918942,0.80992633,0.21324325,-0.63330185,-1.0954796,1.6107574,0.036803793,0.16230951,1.101227,1.341502
0.1,-0.1,1.1999999999999997,0.0,0.0,0,-1.6050285,1.326799,-0.73179907,0.67067987,-0.37179998,0.8194114,0.2144727,-0.6325004,-1.0935719,1.6044164,0.09132624,0.10349235,1.0814891,-1.3292214
0.1,-0.1,1.1999999999999997,0.0,0.0,0,-1.606567,1.3359516,-0.72434866,0.67049575,-0.35082838,0.810024,0.24177125,-0.63581675,-1.0903821,1.6069511,0.108977295,0.12631263,1.0759379,-0.704453
0.1,-0.1,1.1999999999999997,0.0,0.0,0,-1.6053517,1.3324459,-0.7350177,0.67108476,-0.3228687,0.8171021,0.23424669,-0.63368535,-1.0881257,1.6131968,0.16572325,0.094832696,1.0147159,-0.645847
0.1,-0.1,1.1999999999999997,0.0,0.0,0,-1.6094892,1.3322942,-0.72673774,0.669049,-0.31344303,0.80804384,0.23171513,-0.6356915,-1.07937,1.6041089,0.14179224,0.35228467,1.0835925,-0.68333125
0.1,-0.1,1.1999999999999997,0.0,0.0,0,-1.6074047,1.3411363,-0.7131991,0.67430127,-0.33141473,0.80536056,0.25031233,-0.6319177,-1.0990356,1.6177015,0.116169825,-0.031738833,0.99251914,0.033999935
0.1,-0.1,1.1999999999999997,0.0,0.0,0,-1.6035564,1.3377898,-0.7304276,0.66562694,-0.31989226,0.81383336,0.263621,-0.63517827,-1.0932306,1.6009365,0.11634263,-0.08654717,0.83412796,0.008240165
0.1,-0.1,1.1999999999999997,0.0,0.0,0,-1.6040044,1.3293078,-0.727159,0.6668088,-0.32928383,0.80660224,0.21507241,-0.63598984,-1.0753288,1.6109935,0.07754638,0.14215448,1.101176,0.1391527
0.1,-0.1,1.1999999999999997,0.0,0.0,0,-1.6031842,1.3240926,-0.7267651,0.66584593,-0.3455692,0.81317824,0.24967206,-0.63266647,-1.0861628,1.6046216,0.021281347,-0.03891997,1.0754607,1.1060252
0.1,-0.1,1.1999999999999997,0.0,0.0,0,-1.6002747,1.3336867,-0.7234793,0.66716576,-0.32749942,0.8154353,0.21745147,-0.63502187,-1.096165,1.6071734,0.08102827,0.00652078,1.274288,-0.43725035
0.1,-0.1,1.1999999999999997,0.0,0.0,0,-1.6064179,1.3273346,-0.72289973,0.6759078,-0.3591422,0.81314695,0.21375005,-0.63305396,-1.0821186,1.6129353,0.10870758,0.05598932,1.1448253,-0.87495005
0.1,-0.1,1.1999999999999997,0.0,0.0,0,-1.6088699,1.3353612,-0.7284946,0.672235,-0.35568374,0.8142967,0.22754666,-0.6354121,-1.0892222,1.6107057,0.16992795,0.003109122,0.7576445,-1.2225107
0.1,-0.1,1.1999999999999997,0.0,0.0,0,-1.6047419,1.3260657,-0.7298161,0.67062026,-0.34401518,0.8135944,0.24221277,-0.631768,-1.0916797,1.5903773,0.12538913,-0.08815476,1.1237892,-2.9424381
0.1,-0.1,1.1999999999999997,0.0,0.0,0,-1.6119477,1.3213407,-0.72169465,0.6659182,-0.32901886,0.80632335,0.20690978,-0.6333275,-1.0951307,1.6075652,0.22210975,0.3755698,1.070968,-0.52063423
0.1,-0.1,1.1999999999999997,0.0,0.0,0,-1.6014879,1.3263378,-0.7278406,0.67197055,-0.35675716,0.81241995,0.18317024,-0.6332353,-1.0839782,1.6000866,0.12527747,-0.107966736,1.0657303,-0.20663694
0.1,-0.1,1.1999999999999997,0.0,0.0,0,-1.6058668,1.3300207,-0.7279943,0.6703356,-0.3508384,0.814302,0.22709085,-0.63253075,-1.0898665,1.607623,0.125238,0.038926534,1.0617838,0.59324837
0.1,-0.1,1.1999999999999997,0.0,0.0,0,-1.6072416,1.3352883,-0.7362772,0.6703946,-0.3336858,0.8094142,0.23880209,-0.6337759,-1.0842592,1.6106923,0.19533026,0.31673285,1.1507514,0.61090666
0.1,-0.1,1.1999999999999997,0.0,0.0,0,-1.6058979,1.3351471,-0.73360443,0.6760448,-0.35791236,0.80608773,0.22739588,-0.63393736,-1.0813506,1.6062797,0.08155168,-0.10939516,1.1709285,-0.38190255
0.1,-0.1,1.1999999999999997,0.0,0.0,0,-1.6059788,1.327185,-0.7331771,0.6713739,-0.34118825,0.8127527,0.23083022,-0.6339065,-1.0898169,1.6076277,0.096219994,0.14748354,0.7937285,-2.0362103
0.1,-0.1,1.1999999999999997,0.0,0.0,0,-1.604325,1.3238033,-0.7303645,0.6714335,-0.3399328,0.8066946,0.23576215,-0.6308975,-1.0903008,1.6131089,0.13223721,-0.16407657,1.0374408,0.00069885707
0.1,-0.1,1.1999999999999997,0.0,0.0,0,-1.6056197,1.3288491,-0.72758245,0.6698707,-0.36816862,0.81414527,0.25095537,-0.6386153,-1.0782524,1.6039072,0.07252543,0.018686188,1.0756552,0.38684073
0.1,-0.1,1.1999999999999997,0.0,0.0,0,-1.6070893,1.3364228,-0.7263211,0.6744849,-0.35218263,0.8046052,0.23347269,-0.63233167,-1.0936476,1.6092862,0.15300602,-0.022207936,1.0180525,0.2888081
0.1,-0.1,1.1999999999999997,0.0,0.0,0,-1.6076934,1.3316584,-0.72497535,0.6744483,-0.34126684,0.812956,0.23154408,-0.6341133,-1.0872364,1.6019206,0.11083254,0.08371567,1.1048595,0.80471236
0.1,-0.1,1.1999999999999997,0.0,0.0,0,-1.6057303,1.326035,-0.72655165,0.66855997,-0.3246312,0.80959547,0.21915881,-0.63365793,-1.0928837,1.6116216,0.124315985,0.30094406,1.0071421,-0.33797255
0.1,-0.1,1.1999999999999997,0.0,0.0,0,-1.6082569,1.3295236,-0.71921563,0.6715898,-0.3279082,0.8217374,0.21824284,-0.6327493,-1.1022491,1.608698,0.13317528,-0.053870115,0.9509921,0.9476362
0.1,-0.1,1.1999999999999997,0.0,0.0,0,-1.6037928,1.3294078,-0.731217,0.67018545,-0.33024144,0.8127964,0.25554907,-0.6356882,-1.0963285,1.6090223,0.016509766,0.01130409,1.0683914,-0.8529257
0.1,-0.1,1.1999999999999997,0.0,0.0,0,-1.6101391,1.3270103,-0.7244031,0.67018527,-0.32788503,0.8175479,0.2202053,-0.63186806,-1.0968152,1.6089989,0.14644004,0.21921434,0.9965135,1.4940408
0.1,-0.1,1.1999999999999997,0.0,0.0,0,-1.6098663,1.340046,-0.72307855,0.67432004,-0.340292,0.81815463,0.22017501,-0.63216823,-1.1046565,1.6121328,0.11093639,-0.021075448,0.96102065,-0.6461458
0.1,-0.1,1.1999999999999997,0.0,0.0,0,-1.6040901,1.3364148,-0.72929263,0.6699856,-0.32609448,0.8106804,0.24039468,-0.6345072,-1.0969322,1.6153914,0.04966718,-0.096323445,0.8167615,-0.13066027
0.1,-0.1,1.1999999999999997,0.0,0.0,0,-1.6046019,1.3309144,-0.7238666,0.66901666,-0.3406112,0.8168188,0.23065852,-0.63166875,-1.0964785,1.6170089,0.0888399,-0.017701577,1.2205559,0.74672115
0.1,-0.1,1.1999999999999997,0.0,0.0,0,-1.6090533,1.3368396,-0.7312334,0.66988784,-0.32539052,0.8131882,0.24394953,-0.6319237,-1.0836673,1.606332,0.06501232,-0.023836726,1.1233675,0.29698554
