sanky1234/BimanualDexCatch/isaacgymenvs/cem_results/football_pose_0.1_0.0_1.2999999999999998_-0.5235987755982988_0.0_0_2025-05-26.csv
x,y,z,roll,pitch,yaw,robot1/joint1,robot1/joint2,robot1/joint3,robot1/joint4,robot1/joint5,robot1/joint6,robot1/joint7,robot2/joint1,robot2/joint2,robot2/joint3,robot2/joint4,robot2/joint5,robot2/joint6,robot2/joint7
0.1,0.0,1.2999999999999998,-0.5235987755982988,0.0,0,-0.46862167,0.75070804,-0.9177887,0.8440571,-0.7050553,0.9794954,-3.0740032,-0.4072173,-1.2357754,1.1833966,0.29871735,-0.03812705,0.1562414,-0.6613905
0.1,0.0,1.2999999999999998,-0.5235987755982988,0.0,0,-0.46551663,0.7509571,-0.90800995,0.8447889,-0.717035,0.9828432,-3.0903325,-0.4132049,-1.2498101,1.206131,0.35537314,-0.112427466,0.1371654,-1.198238
0.1,0.0,1.2999999999999998,-0.5235987755982988,0.0,0,-0.46920693,0.75485104,-0.9175692,0.84837836,-0.71723247,0.9763015,-3.0532658,-0.4191309,-1.2581425,1.1856946,0.43068895,-0.04041312,0.6938259,0.3747504
0.1,0.0,1.2999999999999998,-0.5235987755982988,0.0,0,-0.46512577,0.75857633,-0.91439116,0.84285116,-0.7264614,0.98264545,-3.0475702,-0.41470268,-1.2477584,1.1996312,0.3416225,-0.18077895,0.38468415,-0.50004405
0.1,0.0,1.2999999999999998,-0.5235987755982988,0.0,0,-0.47349557,0.7582504,-0.913149,0.8439012,-0.7035092,0.9780549,-3.0800376,-0.4111269,-1.224256,1.1606212,0.16350815,0.009241388,0.30259618,0.49928778
0.1,0.0,1.2999999999999998,-0.5235987755982988,0.0,0,-0.4673851,0.7564739,-0.90847814,0.842341,-0.716349,0.9841249,-3.0446053,-0.41550913,-1.2252808,1.2177774,0.3129558,0.0039025273,0.44212836,-0.18370906
0.1,0.0,1.2999999999999998,-0.5235987755982988,0.0,0,-0.4740974,0.75314265,-0.91152334,0.8433443,-0.69423294,0.9883516,-3.0548427,-0.4118336,-1.2254983,1.1981071,0.22508082,-0.050674956,0.31697425,-0.779609
0.1,0.0,1.2999999999999998,-0.5235987755982988,0.0,0,-0.4639929,0.7457855,-0.91055834,0.8394236,-0.73793894,0.9840415,-3.0508256,-0.4168174,-1.2398546,1.2184645,0.39152887,-0.08012731,0.74314964,0.15298608
0.1,0.0,1.2999999999999998,-0.5235987755982988,0.0,0,-0.46798846,0.7588327,-0.91211945,0.8451799,-0.70345724,0.9799201,-3.046004,-0.41061035,-1.2389044,1.183291,0.30651054,0.023510147,0.31227276,0.50707734
0.1,0.0,1.2999999999999998,-0.5235987755982988,0.0,0,-0.4698975,0.7504557,-0.9093258,0.8476886,-0.71430355,0.98753726,-3.0615745,-0.41085133,-1.259684,1.1764349,0.10647157,-0.0024368346,0.4537901,-0.22884578
0.1,0.0,1.2999999999999998,-0.5235987755982988,0.0,0,-0.46780157,0.75785303,-0.9131556,0.8470927,-0.73267627,0.9818605,-3.0534186,-0.41005895,-1.2281616,1.188818,0.32574862,0.10584301,0.21110679,-0.71764284
0.1,0.0,1.2999999999999998,-0.5235987755982988,0.0,0,-0.4708519,0.7624184,-0.91006416,0.8447647,-0.71154606,0.9851839,-3.0253456,-0.4115982,-1.2248982,1.1729093,0.4197027,-0.058141258,0.3708409,0.33404967
0.1,0.0,1.2999999999999998,-0.5235987755982988,0.0,0,-0.4703031,0.75505143,-0.90977764,0.84798026,-0.717038,0.9852302,-3.0605204,-0.42163834,-1.2644174,1.183375,0.1573615,-0.031019213,0.2558695,-0.78866863
0.1,0.0,1.2999999999999998,-0.5235987755982988,0.0,0,-0.46392202,0.76035,-0.90867275,0.8470815,-0.7043244,0.9831541,-3.0753253,-0.417009,-1.215975,1.1889594,0.3048946,0.024698108,0.5828915,0.008049118
0.1,0.0,1.2999999999999998,-0.5235987755982988,0.0,0,-0.4668781,0.7607606,-0.910671,0.8422045,-0.73120964,0.9809466,-3.0614023,-0.41443714,-1.2346635,1.1945246,0.48506826,-0.20355113,0.38608095,-0.16684267
0.1,0.0,1.2999999999999998,-0.5235987755982988,0.0,0,-0.46580815,0.7664281,-0.9088808,0.84542847,-0.7138733,0.98572934,-3.0561092,-0.41923463,-1.230214,1.190489,0.2766044,-0.11548111,0.4424211,-0.3613332
0.1,0.0,1.2999999999999998,-0.5235987755982988,0.0,0,-0.46787208,0.7665917,-0.91828877,0.8430433,-0.7024514,0.98217946,-3.0511193,-0.41482028,-1.2580417,1.1593877,0.19728857,0.068716995,0.49632245,0.49676692
0.1,0.0,1.2999999999999998,-0.5235987755982988,0.0,0,-0.46853662,0.75366724,-0.9170149,0.8410962,-0.7202926,0.98767406,-3.0159295,-0.4136749,-1.2364388,1.2071356,0.33392236,-0.023571087,0.3868563,-0.42567497
0.1,0.0,1.2999999999999998,-0.5235987755982988,0.0,0,-0.47145084,0.74979764,-0.91105735,0.8450205,-0.71150285,0.98159087,-3.0795588,-0.41876867,-1.2334571,1.1975361,0.38502428,-0.1007762,0.31222397,-0.16367902
0.1,0.0,1.2999999999999998,-0.5235987755982988,0.0,0,-0.4687717,0.7629938,-0.91066164,0.8418655,-0.7061526,0.98646563,-3.0796466,-0.4096181,-1.2347069,1.1914434,0.33159968,0.11796915,0.5843277,1.1321585
0.1,0.0,1.2999999999999998,-0.5235987755982988,0.0,0,-0.4704509,0.75332564,-0.9103136,0.8459475,-0.7125858,0.9840407,-3.0504975,-0.41295496,-1.2208244,1.203761,0.24110816,0.08306417,0.42879394,-0.12404144
0.1,0.0,1.2999999999999998,-0.5235987755982988,0.0,0,-0.470452,0.75542885,-0.9122928,0.8444169,-0.72345185,0.98560035,-3.057296,-0.4129671,-1.2322013,1.1870213,0.026858605,-0.032020103,0.25965193,0.08671185
0.1,0.0,1.2999999999999998,-0.5235987755982988,0.0,0,-0.46558568,0.7703376,-0.9130892,0.84234846,-0.7272274,0.9824447,-3.04235,-0.41257903,-1.2301449,1.1816517,0.15668103,0.019314967,0.2254124,-0.59387547
0.1,0.0,1.2999999999999998,-0.5235987755982988,0.0,0,-0.47206876,0.74554455,-0.9147733,0.84275717,-0.7167721,0.9802351,-3.0428941,-0.415002,-1.2448349,1.1961557,0.12716177,0.06505798,0.5654036,-0.62986934
0.1,0.0,1.2999999999999998,-0.5235987755982988,0.0,0,-0.466215,0.75477934,-0.9118506,0.84655863,-0.7210253,0.98488426,-3.0583901,-0.41711822,-1.235697,1.1535919,0.044872265,0.19767079,0.45259354,-0.9973422
0.1,0.0,1.2999999999999998,-0.5235987755982988,0.0,0,-0.46651575,0.75421154,-0.9143596,0.8440912,-0.7141136,0.986351,-3.0281024,-0.4121672,-1.2452626,1.2066892,0.113520086,0.008508718,0.11306048,-0.43962732
0.1,0.0,1.2999999999999998,-0.5235987755982988,0.0,0,-0.4714078,0.7549182,-0.91481596,0.84740674,-0.72660005,0.9799414,-3.048713,-0.41701278,-1.2427418,1.2043605,0.46263584,-0.10304583,0.3210423,-1.1315482
0.1,0.0,1.2999999999999998,-0.5235987755982988,0.0,0,-0.4686069,0.758749,-0.9092211,0.8503729,-0.7082554,0.98850656,-3.0697923,-0.4175332,-1.2365799,1.1670276,0.35871118,0.013409669,0.24950665,0.19428281
0.1,0.0,1.2999999999999998,-0.5235987755982988,0.0,0,-0.46902275,0.75468177,-0.91577405,0.83811533,-0.70828694,0.9899455,-3.0493221,-0.41298056,-1.2381814,1.182404,0.31247008,-0.003570769,0.2677879,0.08454149
0.1,0.0,1.2999999999999998,-0.5235987755982988,0.0,0,-0.46901402,0.7693345,-0.90945184,0.84336764,-0.70978546,0.9820213,-3.065068,-0.41504124,-1.226614,1.2054889,0.26288724,0.0088436995,0.4552711,0.39716431
0.1,0.0,1.2999999999999998,-0.5235987755982988,0.0,0,-0.46738434,0.75207317,-0.9116209,0.846482,-0.7218088,0.9867043,-3.064047,-0.41862366,-1.2382292,1.2162861,0.31965205,0.10323162,0.35164645,-0.014131572
0.1,0.0,1.2999999999999998,-0.5235987755982988,0.0,0,-0.46747348,0.75479597,-0.91642916,0.8425073,-0.7129368,0.9872647,-3.0436716,-0.41623262,-1.2495738,1.2217661,0.358172,0.0060677137,0.23455203,0.7277399
0.1,0.0,1.2999999999999998,-0.5235987755982988,0.0,0,-0.47173607,0.75823087,-0.91668886,0.84010434,-0.7039203,0.9856257,-3.0593948,-0.4185841,-1.2401744,1.2116508,0.27700698,-0.053513117,0.11564637,-0.49575272
0.1,0.0,1.2999999999999998,-0.5235987755982988,0.0,0,-0.46798483,0.7616511,-0.9133987,0.84115124,-0.7273417,0.9804872,-3.0396934,-0.41018608,-1.2302403,1.1751157,0.31681627,0.05647168,0.35039973,-0.36718127
0.1,0.0,1.2999999999999998,-0.5235987755982988,0.0,0,-0.46734852,0.7519317,-0.91352123,0.8444385,-0.71191263,0.9864599,-3.0309517,-0.41521737,-1.2399596,1.1841484,0.29888514,-0.07559782,0.5417651,-0.05445232
0.1,0.0,1.2999999999999998,-0.5235987755982988,0.0,0,-0.4672535,0.75633997,-0.915521,0.8454882,-0.718984,0.9828012,-3.0566063,-0.41289306,-1.2197952,1.1794841,0.2401018,0.13367362,0.16215429,0.08130198
0.1,0.0,1.2999999999999998,-0.5235987755982988,0.0,0,-0.46715158,0.7615876,-0.90961045,0.8428034,-0.73107076,0.9835349,-3.0617263,-0.41504127,-1.2481025,1.1658448,0.29524487,0.0053668707,0.62779725,-0.9651745
0.1,0.0,1.2999999999999998,-0.5235987755982988,0.0,0,-0.47091177,0.75123745,-0.91575146,0.8460712,-0.71997947,0.98499185,-3.0480506,-0.41724682,-1.2562155,1.1953106,0.41432616,-0.09384353,0.16391183,-0.52777
0.1,0.0,1.2999999999999998,-0.5235987755982988,0.0,0,-0.46806002,0.7602761,-0.9156213,0.8424443,-0.7186953,0.9844578,-3.0657248,-0.41771582,-1.2472255,1.1873038,0.26002243,-0.060831275,0.28651366,0.42404795
0.1,0.0,1.2999999999999998,-0.5235987755982988,0.0,0,-0.47206327,0.75510454,-0.9095805,0.8493225,-0.72182095,0.98576915,-3.0288825,-0.4085779,-1.2562302,1.2111223,0.31367457,-0.0099236965,0.31116095,0.7469957
0.1,0.0,1.2999999999999998,-0.5235987755982988,0.0,0,-0.46519986,0.76330525,-0.91386026,0.8478483,-0.72023636,0.98309785,-3.090857,-0.4160181,-1.2262748,1.1458906,0.09838906,-0.12731835,0.52963656,0.04362877
0.1,0.0,1.2999999999999998,-0.5235987755982988,0.0,0,-0.46283665,0.7563125,-0.91421294,0.8431646,-0.7152334,0.9772451,-3.0648468,-0.4143491,-1.2371441,1.1995767,0.10787564,-0.042499132,0.22177659,-0.40018544
0.1,0.0,1.2999999999999998,-0.5235987755982988,0.0,0,-0.47020718,0.7618443,-0.9170092,0.84951925,-0.7218514,0.9825368,-3.0748124,-0.41703492,-1.2181269,1.182983,0.3597169,-0.12824923,0.57165474,0.16536498
0.1,0.0,1.2999999999999998,-0.5235987755982988,0.0,0,-0.46867597,0.7557394,-0.91175956,0.8441632,-0.72053564,0.9887048,-3.0543714,-0.41173324,-1.2473159,1.1510507,0.26193944,-0.091528505,0.40629148,-0.12773871
0.1,0.0,1.2999999999999998,-0.5235987755982988,0.0,0,-0.47067335,0.757408,-0.9142965,0.84025514,-0.7274266,0.9788173,-3.0577922,-0.41481003,-1.224005,1.1784662,0.28843808,-0.118005805,0.43987134,0.2577068
0.1,0.0,1.2999999999999998,-0.5235987755982988,0.0,0,-0.4676353,0.76491034,-0.9080495,0.84772795,-0.7209468,0.979355,-3.074245,-0.42062306,-1.230643,1.1929076,0.35824767,0.03443911,0.32230285,-0.36969745
0.1,0.0,1.2999999999999998,-0.5235987755982988,0.0,0,-0.4691382,0.7573821,-0.9081705,0.84512633,-0.7179462,0.9911732,-3.0569105,-0.40501297,-1.2422513,1.2113609,0.27804458,-0.013659724,0.3805386,-0.55709463
0.1,0.0,1.2999999999999998,-0.5235987755982988,0.0,0,-0.47148988,0.757288,-0.9133337,0.84750634,-0.7094593,0.9778603,-3.0651455,-0.41482228,-1.242935,1.2167898,0.28745383,-0.042185776,0.2919966,1.058782
0.1,0.0,1.2999999999999998,-0.5235987755982988,0.0,0,-0.47148997,0.7598135,-0.9175611,0.8456336,-0.712052,0.98090166,-3.0716438,-0.42526644,-1.2631615,1.1661655,0.32307142,-0.00841538,0.34209415,0.031720757
0.1,0.0,1.2999999999999998,-0.5235987755982988,0.0,0,-0.4698948,0.76154274,-0.91447437,0.84768695,-0.71262413,0.9790372,-3.0555484,-0.4169979,-1.2247269,1.1854277,0.3023495,0.029002577,0.26598173,-0.13125764
0.1,0.0,1.2999999999999998,-0.5235987755982988,0.0,0,-0.46880287,0.765733,-0.91503763,0.84261906,-0.71533614,0.98028463,-3.0245585,-0.41585657,-1.2332845,1.1981541,0.32716286,0.13701543,0.49076724,-0.70594645
0.1,0.0,1.2999999999999998,-0.5235987755982988,0.0,0,-0.4731052,0.7626391,-0.91895306,0.8432996,-0.7202105,0.9813924,-3.0421135,-0.41698954,-1.2280595,1.2133526,0.06304705,0.11469441,0.3480732,0.034698874
0.1,0.0,1.2999999999999998,-0.5235987755982988,0.0,0,-0.46532825,0.7616468,-0.91167384,0.8472985,-0.71438235,0.98459005,-3.081712,-0.41967732,-1.2602538,1.182652,0.32603833,0.13464773,0.5532022,-0.25189948
0.1,0.0,1.2999999999999998,-0.5235987755982988,0.0,0,-0.47148377,0.76447576,-0.9094406,0.8401279,-0.7222415,0.9863762,-3.0558066,-0.41366756,-1.2285903,1.1816943,0.39525473,-0.045205586,0.63142884,0.7990638
0.1,0.0,1.2999999999999998,-0.5235987755982988,0.0,0,-0.47145,0.770023,-0.9113607,0.8471218,-0.71193933,0.9837473,-3.0201654,-0.4191741,-1.2421113,1.1938323,0.35887668,-0.07405901,0.14261782,0.08229469
0.1,0.0,1.2999999999999998,-0.5235987755982988,0.0,0,-0.4733028,0.7546932,-0.91361445,0.84771293,-0.711573,0.9872138,-3.0726862,-0.4152587,-1.2504839,1.1977654,0.31894612,-0.01508418,0.37672803,-0.1634472
0.1,0.0,1.2999999999999998,-0.5235987755982988,0.0,0,-0.4639482,0.7706216,-0.9151563,0.8420643,-0.71638703,0.9813774,-3.0701754,-0.40887123,-1.2381229,1.2013674,0.24664077,-0.26677313,0.3932365,-0.0818649
0.1,0.0,1.2999999999999998,-0.5235987755982988,0.0,0,-0.46331903,0.75869197,-0.914071,0.84358114,-0.7285286,0.9817239,-3.0727925,-0.41214317,-1.2565738,1.201544,0.28575808,-0.002468171,0.67147684,-0.19684
0.1,0.0,1.2999999999999998,-0.5235987755982988,0.0,0,-0.47131673,0.75376964,-0.9105767,0.8420284,-0.73114496,0.980935,-3.0878882,-0.4101567,-1.2305659,1.2008761,0.2627177,-0.1156569,0.4229485,-0.4343803
0.1,0.0,1.2999999999999998,-0.5235987755982988,0.0,0,-0.46622255,0.7483571,-0.91046923,0.84768873,-0.7136406,0.9876282,-3.0840626,-0.41361165,-1.2573516,1.1658734,0.31052154,-0.094046704,0.085676074,0.024662968
0.1,0.0,1.2999999999999998,-0.5235987755982988,0.0,0,-0.46781412,0.7639741,-0.9149694,0.8444212,-0.7197497,0.98281646,-3.050663,-0.41200882,-1.234905,1.1786897,0.3368561,-0.029582974,0.5719755,-0.3111169
0.1,0.0,1.2999999999999998,-0.5235987755982988,0.0,0,-0.46902344,0.7606262,-0.9094599,0.84438986,-0.7006411,0.98398304,-3.0616248,-0.415324,-1.2424062,1.2004274,0.3729259,-0.06619499,0.42365894,0.4941013
0.1,0.0,1.2999999999999998,-0.5235987755982988,0.0,0,-0.46812528,0.7514928,-0.9143309,0.8396439,-0.7209368,0.98440367,-3.065483,-0.41141853,-1.2445419,1.2064279,0.25556043,-0.091081604,0.72935003,0.401667
0.1,0.0,1.2999999999999998,-0.5235987755982988,0.0,0,-0.46586162,0.76142126,-0.9131603,0.84382254,-0.6979874,0.9899545,-3.0630188,-0.41580433,-1.2342068,1.1791259,0.095059894,-0.22742192,0.22677198,0.7265823
0.1,0.0,1.2999999999999998,-0.5235987755982988,0.0,0,-0.4737483,0.7636768,-0.9120468,0.8464036,-0.7129241,0.98725164,-3.0687852,-0.4151146,-1.2581252,1.2083753,0.44647405,0.020686764,0.4939341,-0.07914037
0.1,0.0,1.2999999999999998,-0.5235987755982988,0.0,0,-0.4709335,0.7586697,-0.91060936,0.8417421,-0.71470106,0.9812642,-3.067956,-0.410794,-1.2456852,1.1780677,0.163484,-0.007192967,0.3925975,-1.568144
0.1,0.0,1.2999999999999998,-0.5235987755982988,0.0,0,-0.464305,0.75308603,-0.9077747,0.8424068,-0.72939706,0.98461545,-3.061708,-0.41084173,-1.2371832,1.2041259,0.3047564,-0.024396652,0.26691106,-0.59705305
0.1,0.0,1.2999999999999998,-0.5235987755982988,0.0,0,-0.47151172,0.74733156,-0.91957337,0.8394223,-0.70669204,0.98734057,-3.0639153,-0.41413823,-1.2454101,1.1833786,0.36525634,-0.11939377,0.4714391,-0.23202097
0.1,0.0,1.2999999999999998,-0.5235987755982988,0.0,0,-0.471534,0.76265126,-0.9084472,0.8466396,-0.71000195,0.9880478,-3.0428898,-0.4093089,-1.2411958,1.1798041,0.26873684,-0.05185103,0.47821164,-0.7736791
0.1,0.0,1.2999999999999998,-0.5235987755982988,0.0,0,-0.46634755,0.7581724,-0.9127202,0.8451326,-0.7204474,0.9820399,-3.0575755,-0.41309783,-1.2438169,1.2174097,0.23190126,-0.118203625,0.48631686,-0.6370102
0.1,0.0,1.2999999999999998,-0.5235987755982988,0.0,0,-0.471659,0.7569073,-0.9135045,0.8404266,-0.72266006,0.9806337,-3.0891259,-0.41272062,-1.2423908,1.1997619,0.4277407,-0.06692654,0.2518271,-0.36104867
0.1,0.0,1.2999999999999998,-0.5235987755982988,0.0,0,-0.46919033,0.758188,-0.9104729,0.8418583,-0.72524995,0.98544407,-3.0831387,-0.4053499,-1.2411401,1.1836053,0.34866422,-0.026001992,0.37530547,-1.1945578
0.1,0.0,1.2999999999999998,-0.5235987755982988,0.0,0,-0.4598695,0.7592302,-0.9155324,0.8401873,-0.71904236,0.9775319,-3.104356,-0.41181478,-1.2442645,1.1960766,0.33863044,-0.03687338,0.26965502,-0.08735112
0.1,0.0,1.2999999999999998,-0.5235987755982988,0.0,0,-0.46697122,0.76174974,-0.9175128,0.84071976,-0.7178552,0.98285687,-3.0223815,-0.41611537,-1.2486286,1.1681792,0.32341394,0.057562064,0.50562,0.74587154
0.1,0.0,1.2999999999999998,-0.5235987755982988,0.0,0,-0.46556666,0.7568956,-0.9164813,0.84542024,-0.7139704,0.9861212,-3.0730083,-0.41055152,-1.2267294,1.1824955,0.44787315,-0.008469785,0.301799,0.34514657
0.1,0.0,1.2999999999999998,-0.5235987755982988,0.0,0,-0.46817735,0.7478175,-0.91129386,0.8412686,-0.71638626,0.9911237,-3.061269,-0.4120115,-1.2439349,1.1774005,0.31784856,0.009832265,0.47626922,-0.5883259
0.1,0.0,1.2999999999999998,-0.5235987755982988,0.0,0,-0.46429953,0.75251865,-0.9144749,0.84763247,-0.7159038,0.98265874,-3.0802267,-0.4171372,-1.2466874,1.1775646,0.34701023,0.05765852,0.4923543,-1.1997389
0.1,0.0,1.2999999999999998,-0.5235987755982988,0.0,0,-0.46771058,0.7534698,-0.9124639,0.84156036,-0.7341922,0.9825147,-3.0527654,-0.41771388,-1.2227025,1.1935728,0.11243928,0.0027057389,0.5496769,0.15392078
0.1,0.0,1.2999999999999998,-0.5235987755982988,0.0,0,-0.46652,0.75579864,-0.90932864,0.8437554,-0.72593945,0.98831165,-3.0754359,-0.40766823,-1.2338741,1.198396,0.3027194,0.18857183,0.27471828,1.0924778
0.1,0.0,1.2999999999999998,-0.5235987755982988,0.0,0,-0.46388957,0.7595545,-0.9201768,0.83937675,-0.7134393,0.98471904,-3.054159,-0.41773617,-1.2476844,1.1719316,0.31477338,-0.038349643,0.5560679,0.025910677
0.1,0.0,1.2999999999999998,-0.5235987755982988,0.0,0,-0.46754518,0.76015824,-0.911081,0.84402645,-0.7135741,0.9883489,-3.0467205,-0.41495296,-1.2311506,1.189786,0.33447444,0.08185615,0.5987031,0.27583206
0.1,0.0,1.2999999999999998,-0.5235987755982988,0.0,0,-0.4743511,0.75430346,-0.9141112,0.84021306,-0.7178347,0.9858966,-3.0450268,-0.41403073,-1.2458478,1.2036785,0.20532095,-0.2584075,0.32379106,-0.42402825
0.1,0.0,1.2999999999999998,-0.5235987755982988,0.0,0,-0.46740934,0.7536358,-0.91864514,0.84327185,-0.72982305,0.9840736,-3.0686548,-0.41338173,-1.2657366,1.2024798,0.3187324,0.02821069,0.25234577,0.77272725
0.1,0.0,1.2999999999999998,-0.5235987755982988,0.0,0,-0.46550158,0.76095283,-0.91472113,0.84805447,-0.71242195,0.9815932,-3.065991,-0.40714154,-1.2325969,1.1829975,0.050537117,-0.1619384,0.14915954,-0.02556639
0.1,0.0,1.2999999999999998,-0.5235987755982988,0.0,0,-0.47029272,0.7641401,-0.91343004,0.8464036,-0.7220017,0.9799849,-3.051637,-0.415324,-1.247317,1.2076195,0.38571388,0.0023530163,0.53763336,1.5591218
0.1,0.0,1.2999999999999998,-0.5235987755982988,0.0,0,-0.46431506,0.76735544,-0.9117477,0.8481168,-0.71680915,0.978127,-3.0784,-0.4139484,-1.2532991,1.1746587,0.3325594,0.03263268,0.68070066,-0.32918262
0.1,0.0,1.2999999999999998,-0.5235987755982988,0.0,0,-0.4709771,0.7646066,-0.90989476,0.8450298,-0.7267866,0.97944224,-3.0440624,-0.41181996,-1.2457184,1.2018872,0.24858533,0.10791938,0.4983506,0.63555884
0.1,0.0,1.2999999999999998,-0.5235987755982988,0.0,0,-0.46828815,0.7577125,-0.91687024,0.8405525,-0.70703924,0.9862144,-3.0768652,-0.4145354,-1.254925,1.1978254,0.39917395,-0.018070929,0.48920003,0.63344264
0.1,0.0,1.2999999999999998,-0.5235987755982988,0.0,0,-0.4764031,0.76523656,-0.91042763,0.8396376,-0.7181337,0.98622704,-3.0780957,-0.40756792,-1.238998,1.1797056,0.14673975,-0.18917313,0.25258788,0.08579264
0.1,0.0,1.2999999999999998,-0.5235987755982988,0.0,0,-0.46739918,0.7518767,-0.90951717,0.84534097,-0.7166061,0.9846941,-3.0366561,-0.4141411,-1.2259473,1.1757156,0.19231252,-0.043612108,0.21106924,-0.108886085
0.1,0.0,1.2999999999999998,-0.5235987755982988,0.0,0,-0.46945408,0.75509304,-0.91317266,0.84571433,-0.70466805,0.9904317,-3.0660887,-0.41433734,-1.2324765,1.1788738,0.3221882,-0.13779217,0.36360303,0.110769026
0.1,0.0,1.2999999999999998,-0.5235987755982988,0.0,0,-0.4713999,0.76621133,-0.91375196,0.84292257,-0.71201533,0.981972,-3.052209,-0.41283962,-1.2507483,1.2243692,0.45718974,-0.04581823,0.521788,0.16008848
0.1,0.0,1.2999999999999998,-0.5235987755982988,0.0,0,-0.46495435,0.7575603,-0.9146194,0.8399726,-0.72529024,0.98292935,-3.0549238,-0.4152153,-1.2365576,1.2175504,0.2505834,-0.041029546,0.59768367,1.4151397
0.1,0.0,1.2999999999999998,-0.5235987755982988,0.0,0,-0.4700081,0.75960135,-0.9189428,0.84071344,-0.7164717,0.9836757,-3.076201,-0.40679252,-1.2452865,1.1654183,0.40432015,0.018760616,0.571283,0.17251998
0.1,0.0,1.2999999999999998,-0.5235987755982988,0.0,0,-0.47106323,0.76341504,-0.9155685,0.8444502,-0.7112062,0.98254836,-3.0560122,-0.41311836,-1.2361759,1.2174776,0.4209402,-0.12477214,0.19412488,0.35119453
0.1,0.0,1.2999999999999998,-0.5235987755982988,0.0,0,-0.46926865,0.754785,-0.9148655,0.8430383,-0.7144303,0.9842539,-3.0278518,-0.41556177,-1.2525717,1.2198055,0.27792406,-0.056476925,0.6292546,0.07007542
0.1,0.0,1.2999999999999998,-0.5235987755982988,0.0,0,-0.46756437,0.7526369,-0.91813785,0.84389496,-0.7071041,0.98066264,-3.0910194,-0.42017487,-1.2400963,1.1734828,0.3734662,-0.1244302,0.296884,0.59372026
0.1,0.0,1.2999999999999998,-0.5235987755982988,0.0,0,-0.47092673,0.75141025,-0.910349,0.847974,-0.712581,0.98731554,-3.0608947,-0.41504756,-1.2466638,1.209728,0.30359492,0.019484745,0.39331755,-0.045728225
0.1,0.0,1.2999999999999998,-0.5235987755982988,0.0,0,-0.47179177,0.7572815,-0.9170418,0.84566003,-0.7146747,0.97930974,-3.0274148,-0.42054752,-1.2215124,1.1755414,0.3094652,-0.03680862,0.24045749,-0.5470221
0.1,0.0,1.2999999999999998,-0.5235987755982988,0.0,0,-0.47000727,0.7554321,-0.912932,0.84218466,-0.71528745,0.98525023,-3.059214,-0.4179852,-1.2400826,1.197363,0.13798499,-0.0007476758,0.5514063,0.70006424
0.1,0.0,1.2999999999999998,-0.5235987755982988,0.0,0,-0.4683396,0.76342195,-0.9150058,0.8407431,-0.7223066,0.9798904,-3.071745,-0.4176853,-1.2613536,1.1972166,0.22948709,0.052227434,0.60119396,-0.24126624
0.1,0.0,1.2999999999999998,-0.5235987755982988,0.0,0,-0.47216332,0.7542419,-0.9114615,0.84544915,-0.7258762,0.9783279,-3.0310721,-0.41145188,-1.2429131,1.1741678,0.33782646,-0.10927593,0.506131,-0.12225497
0.1,0.0,1.2999999999999998,-0.5235987755982988,0.0,0,-0.47369784,0.7599136,-0.91651994,0.8419885,-0.72091573,0.98106563,-3.0625606,-0.4168857,-1.2258474,1.1952153,0.093611576,0.041984875,0.38111815,0.71813285
0.1,0.0,1.2999999999999998,-0.5235987755982988,0.0,0,-0.4671679,0.7561604,-0.9157608,0.8419094,-0.72297025,0.98425066,-3.066121,-0.41642144,-1.2378628,1.1528577,0.20007998,0.0859955,0.4485651,-0.1430562
0.1,0.0,1.2999999999999998,-0.5235987755982988,0.0,0,-0.46936536,0.7527937,-0.91216546,0.84366333,-0.72486144,0.97971994,-3.0632372,-0.4187521,-1.2243472,1.201576,0.26046413,-0.08196019,0.53856915,-0.28751746
0.1,0.0,1.2999999999999998,-0.5235987755982988,0.0,0,-0.46599725,0.76394695,-0.916472,0.83546644,-0.73621964,0.9891037,-3.0288808,-0.42104095,-1.2264179,1.1929314,0.26831976,-0.16623342,0.22542362,-0.99591625
0.1,0.0,1.2999999999999998,-0.5235987755982988,0.0,0,-0.47429037,0.7597079,-0.9105209,0.8424931,-0.722686,0.98501176,-3.0643504,-0.4116647,-1.2463971,1.1813354,0.28893584,0.09233917,0.34466237,0.8196074
0.1,0.0,1.2999999999999998,-0.5235987755982988,0.0,0,-0.46683878,0.76440793,-0.9148567,0.8468152,-0.7079651,0.97960764,-3.040553,-0.4198964,-1.2456816,1.2131153,0.22771297,-0.07401557,0.6605868,-0.04632893
0.1,0.0,1.2999999999999998,-0.5235987755982988,0.0,0,-0.4642214,0.76141995,-0.91770357,0.8431484,-0.7304231,0.98124737,-3.065085,-0.4060066,-1.2488475,1.1826473,0.08259107,0.015787005,0.39292252,-0.47381824
0.1,0.0,1.2999999999999998,-0.5235987755982988,0.0,0,-0.47401944,0.75599635,-0.91300416,0.84330475,-0.70864314,0.9843278,-3.037328,-0.41633895,-1.2337706,1.190583,0.3864121,-0.08140805,0.41654104,0.8191806
0.1,0.0,1.2999999999999998,-0.5235987755982988,0.0,0,-0.4698508,0.755721,-0.9115826,0.8561,-0.7230011,0.97790515,-3.072422,-0.41996723,-1.2248687,1.1608748,0.22598846,0.12595467,0.5745708,0.21438545
0.1,0.0,1.2999999999999998,-0.5235987755982988,0.0,0,-0.46539074,0.7627118,-0.91358113,0.8375196,-0.7306607,0.9812115,-3.075819,-0.41280165,-1.2366408,1.2181542,0.108418144,-0.04074243,0.15210329,0.38320458
0.1,0.0,1.2999999999999998,-0.5235987755982988,0.0,0,-0.4693747,0.7517619,-0.9130269,0.8427488,-0.70913607,0.9786047,-3.06707,-0.41831425,-1.2580805,1.187383,0.16612108,-0.06722663,0.6969262,-0.22184873
0.1,0.0,1.2999999999999998,-0.5235987755982988,0.0,0,-0.46967313,0.7493349,-0.91399693,0.8400505,-0.731046,0.9830269,-3.0320375,-0.41223496,-1.2345138,1.192283,0.2606872,0.034297388,0.699498,0.1006451
0.1,0.0,1.2999999999999998,-0.5235987755982988,0.0,0,-0.46200606,0.75774026,-0.9153148,0.84542185,-0.72326267,0.9883579,-3.0458367,-0.4123044,-1.2363182,1.1858084,0.14986973,-0.25907233,0.49664074,-0.26311198
0.1,0.0,1.2999999999999998,-0.5235987755982988,0.0,0,-0.46302557,0.75415844,-0.9191754,0.8419844,-0.71626896,0.982545,-3.070896,-0.41933128,-1.2306437,1.1761742,0.11764279,0.0023426944,0.39027098,0.06954638
0.1,0.0,1.2999999999999998,-0.5235987755982988,0.0,0,-0.47012866,0.7514454,-0.91406643,0.84554255,-0.71651894,0.9859407,-3.0210817,-0.41042715,-1.2388896,1.1912701,0.116195224,0.0062490543,0.18877344,0.21251787
0.1,0.0,1.2999999999999998,-0.5235987755982988,0.0,0,-0.46986157,0.7677909,-0.9089656,0.84650046,-0.7094404,0.98854524,-3.0618086,-0.4217842,-1.2484797,1.2004478,0.42226186,-0.12714842,0.4203746,-0.33854714
0.1,0.0,1.2999999999999998,-0.5235987755982988,0.0,0,-0.4674966,0.76276577,-0.9105263,0.8515819,-0.7203508,0.98521036,-3.0650158,-0.40810958,-1.2487997,1.195489,0.25970453,-0.39865965,0.37653908,0.53521097
0.1,0.0,1.2999999999999998,-0.5235987755982988,0.0,0,-0.46839902,0.75246924,-0.9092136,0.8436311,-0.7127699,0.9895764,-3.0882983,-0.41124746,-1.2444328,1.1698033,0.29280293,0.13378565,0.56946635,0.56680644
0.1,0.0,1.2999999999999998,-0.5235987755982988,0.0,0,-0.46842006,0.76372725,-0.91321564,0.84938765,-0.7038369,0.9792749,-3.0917401,-0.41168362,-1.2431215,1.2365203,0.2840156,-0.048755076,0.415784,-0.19761692
0.1,0.0,1.2999999999999998,-0.5235987755982988,0.0,0,-0.46944648,0.7542182,-0.9163673,0.8412954,-0.71339464,0.98991597,-3.077368,-0.4155889,-1.2502493,1.2205882,0.41807416,-0.085744016,0.5373005,0.014400298
0.1,0.0,1.2999999999999998,-0.5235987755982988,0.0,0,-0.47212058,0.7542802,-0.9159388,0.84191555,-0.71603215,0.98256254,-3.0485678,-0.4158535,-1.2432927,1.2187079,0.20644236,-0.049340464,0.3848476,-0.80198693
0.1,0.0,1.2999999999999998,-0.5235987755982988,0.0,0,-0.47679955,0.75052315,-0.9166583,0.8426683,-0.717242,0.9871227,-3.0810032,-0.41386172,-1.2411584,1.2018824,0.0970008,0.09804006,0.39348426,-0.6941045
0.1,0.0,1.2999999999999998,-0.5235987755982988,0.0,0,-0.47422534,0.76456267,-0.9176932,0.8457252,-0.7299545,0.97883916,-3.0291526,-0.4118746,-1.2538358,1.2315177,0.4371681,0.01815327,0.58010346,-0.025198892
0.1,0.0,1.2999999999999998,-0.5235987755982988,0.0,0,-0.46639836,0.76259494,-0.9146636,0.83958554,-0.72303474,0.97639227,-3.0637217,-0.41187236,-1.2265048,1.2000484,0.17486885,-0.025120413,0.5698779,-0.33695608
0.1,0.0,1.2999999999999998,-0.5235987755982988,0.0,0,-0.4644645,0.754436,-0.91619414,0.8415838,-0.70439357,0.9876027,-3.0286593,-0.41288275,-1.2320132,1.2143718,0.2445483,0.037709985,0.3634316,-0.23440976
0.1,0.0,1.2999999999999998,-0.5235987755982988,0.0,0,-0.4697851,0.7562334,-0.91347045,0.84997094,-0.7186203,0.9848229,-3.079274,-0.42018723,-1.2695321,1.1833447,0.34157798,0.047982864,0.57319504,0.13573012
0.1,0.0,1.2999999999999998,-0.5235987755982988,0.0,0,-0.46877742,0.7566897,-0.91512835,0.8466988,-0.72016674,0.98080826,-3.054688,-0.41809887,-1.2338378,1.189684,0.22906509,0.0401841,0.46880183,0.5500642
0.1,0.0,1.2999999999999998,-0.5235987755982988,0.0,0,-0.46967158,0.7544255,-0.9141296,0.8432969,-0.71082497,0.98225737,-3.0648646,-0.41571948,-1.2563007,1.1635541,0.27590436,0.02393651,0.49673563,0.12238778
0.1,0.0,1.2999999999999998,-0.5235987755982988,0.0,0,-0.46970585,0.76116586,-0.90800244,0.83894104,-0.71450263,0.9880788,-3.0892487,-0.41747925,-1.2345214,1.1865636,0.35326874,0.06407156,0.51113355,0.11860172
0.1,0.0,1.2999999999999998,-0.5235987755982988,0.0,0,-0.4727396,0.76320386,-0.9155759,0.84311515,-0.7000282,0.98069495,-3.0752485,-0.41056725,-1.2305917,1.1887457,0.3262039,-0.12243872,0.4336488,0.473509
0.1,0.0,1.2999999999999998,-0.5235987755982988,0.0,0,-0.47170466,0.7595936,-0.9167873,0.8381025,-0.7190287,0.9828528,-3.0812457,-0.41243908,-1.2280462,1.184158,0.0575706,0.019693296,0.39367995,0.29482993
0.1,0.0,1.2999999999999998,-0.5235987755982988,0.0,0,-0.46435487,0.7597531,-0.9117972,0.8483715,-0.70493054,0.99132824,-3.0542579,-0.4159988,-1.2571083,1.1996809,0.09337413,0.0354196,0.361849,-0.18769392
0.1,0.0,1.2999999999999998,-0.5235987755982988,0.0,0,-0.46165994,0.7551448,-0.91388255,0.8456751,-0.7339954,0.977837,-3.0483575,-0.41717178,-1.2366343,1.1977142,0.2790878,-0.049567558,0.62193996,0.107017
0.1,0.0,1.2999999999999998,-0.5235987755982988,0.0,0,-0.47057366,0.76274514,-0.91781,0.8446971,-0.69698095,0.9795366,-3.0609767,-0.41932732,-1.2483242,1.1898887,0.16028163,-0.036635287,0.5423119,-0.12209893
0.1,0.0,1.2999999999999998,-0.5235987755982988,0.0,0,-0.47744325,0.7524798,-0.9148782,0.84341,-0.7058266,0.9795678,-3.0758288,-0.41733637,-1.2476478,1.1949489,0.26637256,-0.05322188,0.4891769,-0.33691406
0.1,0.0,1.2999999999999998,-0.5235987755982988,0.0,0,-0.46880797,0.76347846,-0.91611034,0.84449625,-0.7093091,0.9858475,-3.0673192,-0.4206126,-1.2583889,1.1733451,0.13451886,0.009579143,0.47701794,0.11961668
0.1,0.0,1.2999999999999998,-0.5235987755982988,0.0,0,-0.47256827,0.7581134,-0.9124199,0.84437466,-0.706361,0.9869043,-3.057345,-0.41291302,-1.2305323,1.1829545,0.31550494,-0.14643,0.61351573,-0.5748646
0.1,0.0,1.2999999999999998,-0.5235987755982988,0.0,0,-0.47331843,0.7667076,-0.9127547,0.84568846,-0.7172731,0.98043555,-3.0447826,-0.41494927,-1.2367408,1.1913449,0.42747632,-0.028302968,0.39637434,0.2902503
0.1,0.0,1.2999999999999998,-0.5235987755982988,0.0,0,-0.47172105,0.7539219,-0.9194857,0.8392441,-0.722431,0.98246753,-3.0813017,-0.41834125,-1.2570637,1.2041177,0.3542568,-0.110896274,0.34498602,0.35381067
0.1,0.0,1.2999999999999998,-0.5235987755982988,0.0,0,-0.4675895,0.7643085,-0.9131101,0.8472895,-0.71897846,0.979382,-3.0535245,-0.41033992,-1.2431545,1.1576499,0.38369015,0.03192866,0.54120314,-0.3484055
0.1,0.0,1.2999999999999998,-0.5235987755982988,0.0,0,-0.46482664,0.75726616,-0.9118037,0.84456146,-0.70539004,0.98431116,-3.1070306,-0.41139376,-1.2307899,1.2148112,0.22600909,0.03679812,0.33104718,0.11902854
0.1,0.0,1.2999999999999998,-0.5235987755982988,0.0,0,-0.46637413,0.76478755,-0.9122942,0.8470963,-0.7141102,0.9822947,-3.0223873,-0.4152678,-1.2435387,1.2050996,0.16439809,-0.049689174,0.44865978,-0.20516539
0.1,0.0,1.2999999999999998,-0.5235987755982988,0.0,0,-0.46759775,0.7599454,-0.9137072,0.8419651,-0.7384281,0.98989046,-3.0843856,-0.41559562,-1.2453285,1.1729491,0.11429775,-0.06773647,0.3429279,-0.329558
0.1,0.0,1.2999999999999998,-0.5235987755982988,0.0,0,-0.47103804,0.762505,-0.910288,0.8444253,-0.7091112,0.9846554,-3.0717869,-0.41515064,-1.2292019,1.2097621,0.33060256,0.06413595,0.48978356,-0.13546596
0.1,0.0,1.2999999999999998,-0.5235987755982988,0.0,0,-0.4726491,0.75638247,-0.9162673,0.84729296,-0.7119941,0.9816052,-3.0743515,-0.41990113,-1.2475046,1.2098739,0.37227514,-0.13505945,0.31547543,0.359442
0.1,0.0,1.2999999999999998,-0.5235987755982988,0.0,0,-0.46803215,0.76491153,-0.91071695,0.842495,-0.7062221,0.9907123,-3.0602002,-0.41559637,-1.2377638,1.1968766,0.3289983,0.09002431,0.5766701,0.44122863
0.1,0.0,1.2999999999999998,-0.5235987755982988,0.0,0,-0.47129914,0.75382423,-0.9152542,0.8406791,-0.7279803,0.9824916,-3.0803082,-0.41702482,-1.2413338,1.1995776,0.229106,-0.17163493,0.25937733,-0.09602469
0.1,0.0,1.2999999999999998,-0.5235987755982988,0.0,0,-0.47059897,0.7534695,-0.91094,0.84789336,-0.7088981,0.9795362,-3.0526335,-0.41421682,-1.2405702,1.2313346,0.2367192,-0.026319752,0.4001979,-0.4211763
0.1,0.0,1.2999999999999998,-0.5235987755982988,0.0,0,-0.4668658,0.768647,-0.9161455,0.84266156,-0.7258264,0.9804489,-3.046226,-0.4148182,-1.2532372,1.2096666,0.31463093,-0.062403426,0.36965021,-0.84782374
0.1,0.0,1.2999999999999998,-0.5235987755982988,0.0,0,-0.46888953,0.7538095,-0.91252416,0.84831727,-0.7185735,0.98413676,-3.0796933,-0.41072232,-1.2360135,1.1844953,0.034544352,-0.14776303,0.36578503,0.18599002
0.1,0.0,1.2999999999999998,-0.5235987755982988,0.0,0,-0.46426013,0.75810814,-0.91504914,0.8428187,-0.71696615,0.98522615,-3.0635624,-0.41563502,-1.2297882,1.1828896,0.32157055,-0.053027697,0.24031729,0.5842693
0.1,0.0,1.2999999999999998,-0.5235987755982988,0.0,0,-0.4713069,0.76609534,-0.91339606,0.8408741,-0.719102,0.9811176,-3.057792,-0.40962043,-1.2430567,1.196561,0.20512576,-0.07515217,0.728559,-0.36338156
0.1,0.0,1.2999999999999998,-0.5235987755982988,0.0,0,-0.4680431,0.76111007,-0.910953,0.84693086,-0.70527124,0.98720884,-3.086949,-0.4153277,-1.243134,1.1834303,0.24858283,-0.15443616,0.12836833,-0.5509643
0.1,0.0,1.2999999999999998,-0.5235987755982988,0.0,0,-0.46813905,0.7594162,-0.9104052,0.843405,-0.7220233,0.99038,-3.0462947,-0.42225862,-1.2383906,1.1913573,0.038295038,0.15675971,0.541987,-0.6605083
0.1,0.0,1.2999999999999998,-0.5235987755982988,0.0,0,-0.47195494,0.7526759,-0.91735196,0.84513485,-0.72171336,0.98807514,-3.0625103,-0.42069438,-1.2347631,1.2223136,0.36619702,-0.062291283,0.56454355,0.3600697
0.1,0.0,1.2999999999999998,-0.5235987755982988,0.0,0,-0.46637172,0.7543181,-0.9119585,0.8411862,-0.7285974,0.9839723,-3.0588157,-0.41822702,-1.232912,1.1998367,0.2270021,-0.064380296,0.54100424,0.1521023
0.1,0.0,1.2999999999999998,-0.5235987755982988,0.0,0,-0.47008404,0.76679313,-0.9123975,0.84413624,-0.7141656,0.98943233,-3.041517,-0.41431025,-1.242536,1.2116977,0.20651458,-0.010460092,0.33817932,-0.37029305
0.1,0.0,1.2999999999999998,-0.5235987755982988,0.0,0,-0.4681112,0.7650979,-0.9104429,0.84973854,-0.7187232,0.9884346,-3.0438068,-0.4097358,-1.2355494,1.2131388,0.2944295,0.10156071,0.15975516,-0.47114986
0.1,0.0,1.2999999999999998,-0.5235987755982988,0.0,0,-0.47036743,0.7498492,-0.91333485,0.84354967,-0.73838234,0.98525846,-3.0818577,-0.4121052,-1.2362498,1.2115413,0.13480145,-0.066878475,0.5126168,0.4174223
0.1,0.0,1.2999999999999998,-0.5235987755982988,0.0,0,-0.47176838,0.76365006,-0.9150028,0.84360886,-0.71418595,0.9791682,-3.0844657,-0.41242898,-1.248787,1.1796272,0.35850105,-0.12522703,0.45816997,1.0037917
0.1,0.0,1.2999999999999998,-0.5235987755982988,0.0,0,-0.47041747,0.76605684,-0.91415596,0.8429209,-0.72729284,0.9884026,-3.0349936,-0.42030814,-1.2477039,1.1868305,0.24596171,-0.075118266,0.3956528,0.23319326
0.1,0.0,1.2999999999999998,-0.5235987755982988,0.0,0,-0.47274718,0.76158077,-0.9166866,0.8458034,-0.7151311,0.983348,-3.0711343,-0.41607216,-1.2423972,1.2114131,0.43035978,-0.057777014,0.38356495,0.007988256
0.1,0.0,1.2999999999999998,-0.5235987755982988,0.0,0,-0.46660325,0.7607396,-0.91377246,0.84865606,-0.71553695,0.98837405,-3.0311666,-0.4162015,-1.2399801,1.2086159,0.2861482,0.014323914,0.33556926,0.22321197
0.1,0.0,1.2999999999999998,-0.5235987755982988,0.0,0,-0.4715716,0.76600873,-0.91496754,0.8419759,-0.7200288,0.9876412,-3.0658345,-0.41192758,-1.2501609,1.1969848,0.2664103,-0.0941984,0.26216155,-1.0529538
0.1,0.0,1.2999999999999998,-0.5235987755982988,0.0,0,-0.46943852,0.7643648,-0.9118953,0.8493617,-0.7171168,0.98178816,-3.0425148,-0.41498193,-1.2398293,1.2176595,0.14241645,-0.012605172,0.3346189,0.290792
0.1,0.0,1.2999999999999998,-0.5235987755982988,0.0,0,-0.46590844,0.7571505,-0.9164537,0.8462957,-0.71113986,0.9830791,-3.0873065,-0.41679618,-1.2392797,1.1854452,0.24773647,0.023830846,0.28427038,-0.39968035
0.1,0.0,1.2999999999999998,-0.5235987755982988,0.0,0,-0.46962467,0.7589632,-0.913746,0.8466168,-0.71703625,0.98658615,-3.058551,-0.41792858,-1.2387666,1.1857727,0.46167314,-0.050700724,0.4557344,0.14997561
0.1,0.0,1.2999999999999998,-0.5235987755982988,0.0,0,-0.4711184,0.75416416,-0.91445893,0.84639263,-0.73138756,0.9792613,-3.106825,-0.4102227,-1.2563126,1.2096497,0.11450617,-0.18786404,0.45959935,0.6981658
0.1,0.0,1.2999999999999998,-0.5235987755982988,0.0,0,-0.4679127,0.75038874,-0.9171439,0.840032,-0.71965367,0.98006874,-3.059476,-0.41603917,-1.249916,1.2048302,0.13273819,-0.087130494,0.6459731,0.6829655
0.1,0.0,1.2999999999999998,-0.5235987755982988,0.0,0,-0.46959874,0.75409955,-0.92342114,0.84836113,-0.7003442,0.97934186,-3.0057144,-0.41485503,-1.2424213,1.1745541,0.21199569,-0.076771565,0.345259,-0.78312933
0.1,0.0,1.2999999999999998,-0.5235987755982988,0.0,0,-0.46999487,0.7600611,-0.9120547,0.8431623,-0.7156921,0.9866005,-3.1010292,-0.41768935,-1.2347115,1.2036093,0.28992945,-0.089725,0.61832654,0.072576
0.1,0.0,1.2999999999999998,-0.5235987755982988,0.0,0,-0.4651682,0.7504748,-0.91370356,0.845163,-0.7196023,0.9872103,-3.0520449,-0.41630578,-1.2382517,1.2063556,0.34518567,-0.03532278,0.54474866,0.63233244
0.1,0.0,1.2999999999999998,-0.5235987755982988,0.0,0,-0.47029677,0.7524783,-0.9104773,0.8465102,-0.7153431,0.99628013,-3.0460935,-0.41609728,-1.2382154,1.1909841,0.3362186,-0.15561055,0.3934001,-0.29852095
0.1,0.0,1.2999999999999998,-0.5235987755982988,0.0,0,-0.47215214,0.7607963,-0.9105728,0.84707105,-0.7141453,0.9842881,-3.0808823,-0.42137703,-1.2452404,1.2034677,0.36949483,0.048412543,0.3667463,-0.3270127
0.1,0.0,1.2999999999999998,-0.5235987755982988,0.0,0,-0.46823844,0.7585805,-0.91007924,0.84323204,-0.7213202,0.9914137,-3.0758655,-0.41377956,-1.227964,1.2018853,0.37468398,0.048867986,0.4201042,0.7129669
0.1,0.0,1.2999999999999998,-0.5235987755982988,0.0,0,-0.4677572,0.75842535,-0.9171119,0.8405978,-0.71561456,0.9873811,-3.0710597,-0.41410768,-1.2429976,1.189118,0.15368962,-0.11630587,0.30613863,0.10013873
0.1,0.0,1.2999999999999998,-0.5235987755982988,0.0,0,-0.46596885,0.75223535,-0.91594726,0.845804,-0.7083886,0.9894423,-3.0677116,-0.4138645,-1.2393816,1.1934434,0.46511474,0.1164919,0.3980771,-0.066329524
0.1,0.0,1.2999999999999998,-0.5235987755982988,0.0,0,-0.4720867,0.76039493,-0.9129779,0.84773254,-0.7061443,0.98090476,-3.0578535,-0.41987804,-1.2383054,1.190227,0.40448353,0.04411402,0.3871865,-0.6401766
0.1,0.0,1.2999999999999998,-0.5235987755982988,0.0,0,-0.47150654,0.76610655,-0.91643435,0.8446555,-0.71786857,0.98512274,-3.0472338,-0.4127371,-1.2309561,1.2033342,0.36942804,-0.17019334,0.5771426,-0.9912301
0.1,0.0,1.2999999999999998,-0.5235987755982988,0.0,0,-0.4721427,0.75192225,-0.91077256,0.8444651,-0.7210459,0.97866064,-3.0447884,-0.41231066,-1.2447004,1.1812613,0.09097104,-0.1420831,0.7302075,-1.1213361
0.1,0.0,1.2999999999999998,-0.5235987755982988,0.0,0,-0.47073814,0.75870395,-0.91670185,0.8471622,-0.7349315,0.9820625,-3.0763502,-0.42021307,-1.225037,1.1945604,0.3460873,-0.078918815,0.43025303,0.83879715
0.1,0.0,1.2999999999999998,-0.5235987755982988,0.0,0,-0.4640275,0.7632536,-0.91548663,0.8456328,-0.71294504,0.9889829,-3.0390217,-0.41285968,-1.2320017,1.1921487,0.3838554,0.009699029,0.5965112,-0.5384038
0.1,0.0,1.2999999999999998,-0.5235987755982988,0.0,0,-0.4704496,0.767875,-0.91630805,0.8484098,-0.7054105,0.9825201,-3.0485144,-0.41677713,-1.2549015,1.1962466,0.100164324,-0.1330258,0.38427842,-0.3360573
0.1,0.0,1.2999999999999998,-0.5235987755982988,0.0,0,-0.46923327,0.760173,-0.9114279,0.84686124,-0.7097409,0.98636925,-3.0396483,-0.41846117,-1.231977,1.1836547,0.37434217,-0.07109335,0.6388408,0.019914038
0.1,0.0,1.2999999999999998,-0.5235987755982988,0.0,0,-0.46471006,0.7515947,-0.91271496,0.84460217,-0.7282756,0.9806069,-3.0736966,-0.40958416,-1.2610343,1.2091094,0.23144938,0.0140711,0.49656984,0.17550798
0.1,0.0,1.2999999999999998,-0.5235987755982988,0.0,0,-0.4748937,0.7569644,-0.9176492,0.8451616,-0.71693754,0.9747484,-3.0656261,-0.4163997,-1.2370026,1.2003638,0.104303025,-0.029289462,0.5400162,-0.028592288
0.1,0.0,1.2999999999999998,-0.5235987755982988,0.0,0,-0.47065708,0.7626204,-0.9171956,0.8486746,-0.7149768,0.97816426,-3.0725467,-0.41349843,-1.2339226,1.2107104,0.28874472,0.09319008,0.4908631,0.37634075
0.1,0.0,1.2999999999999998,-0.5235987755982988,0.0,0,-0.46898133,0.7595065,-0.9173515,0.8455313,-0.7065617,0.9873781,-3.0475802,-0.41529298,-1.2316269,1.1734786,0.4325218,-0.09518783,0.51642996,0.13795052
0.1,0.0,1.2999999999999998,-0.5235987755982988,0.0,0,-0.47282863,0.7506386,-0.9098899,0.8416805,-0.73028517,0.9807962,-3.0645142,-0.413819,-1.2280352,1.1845626,0.30583888,-0.04279157,0.40263528,0.06640523
0.1,0.0,1.2999999999999998,-0.5235987755982988,0.0,0,-0.47112167,0.7610961,-0.9190896,0.84512603,-0.7132749,0.98732173,-3.0664217,-0.4097596,-1.2468077,1.1602,0.32774186,-0.0413428,0.23027562,-0.3926143
0.1,0.0,1.2999999999999998,-0.5235987755982988,0.0,0,-0.47018474,0.76187843,-0.9096501,0.8433524,-0.7093544,0.990484,-3.0751145,-0.41189513,-1.2352202,1.2144951,0.1660733,-0.09455636,0.21404935,-0.5631197
0.1,0.0,1.2999999999999998,-0.5235987755982988,0.0,0,-0.4669855,0.76363605,-0.91637516,0.84336525,-0.7076792,0.9764818,-3.0567203,-0.4171776,-1.2454346,1.1926162,0.1643749,0.1168065,0.516056,0.36326057
0.1,0.0,1.2999999999999998,-0.5235987755982988,0.0,0,-0.4673529,0.75341094,-0.91589147,0.849902,-0.71884835,0.9846077,-3.0675251,-0.4095429,-1.2313893,1.205323,0.2698203,-0.024566462,0.21640325,0.35056278
0.1,0.0,1.2999999999999998,-0.5235987755982988,0.0,0,-0.47036248,0.7620628,-0.9159589,0.84527916,-0.7186001,0.9859984,-3.0683854,-0.4164406,-1.2589564,1.201135,0.0764108,-0.0438448,0.54762214,0.28327525
0.1,0.0,1.2999999999999998,-0.5235987755982988,0.0,0,-0.46700394,0.7569895,-0.91563827,0.84611773,-0.7160021,0.9861781,-3.0612915,-0.41264105,-1.2408583,1.2021217,0.1102681,0.031162292,0.37480053,-0.6287754
0.1,0.0,1.2999999999999998,-0.5235987755982988,0.0,0,-0.46760538,0.7694699,-0.91328555,0.8368228,-0.71475345,0.98443645,-3.0882008,-0.41069332,-1.2585993,1.1634799,0.41213602,-0.021988487,0.4873824,-0.04824995
0.1,0.0,1.2999999999999998,-0.5235987755982988,0.0,0,-0.4720357,0.7592785,-0.914051,0.8447961,-0.7282566,0.9844645,-3.060417,-0.41535407,-1.2405242,1.1857041,0.2571225,-0.21933076,0.6287087,-0.77810663
0.1,0.0,1.2999999999999998,-0.5235987755982988,0.0,0,-0.47084552,0.76229453,-0.9193985,0.8419816,-0.72504556,0.9843095,-3.0514371,-0.41100964,-1.2477895,1.1818163,0.26212856,-0.07243768,0.5707602,-0.61429894
0.1,0.0,1.2999999999999998,-0.5235987755982988,0.0,0,-0.47204688,0.7593349,-0.91650856,0.8443778,-0.71485645,0.9835495,-3.0638332,-0.41015002,-1.2644105,1.169146,0.0772041,-0.1749288,0.50238144,-0.097174466
0.1,0.0,1.2999999999999998,-0.5235987755982988,0.0,0,-0.47380283,0.7586962,-0.91550076,0.84838444,-0.7216978,0.9791447,-3.0484686,-0.4258572,-1.2394248,1.2061702,0.36970696,0.044271685,0.5681698,-0.77318287
0.1,0.0,1.2999999999999998,-0.5235987755982988,0.0,0,-0.4671671,0.7640981,-0.91212815,0.8449806,-0.72599894,0.98282903,-3.0423336,-0.41331905,-1.2406023,1.2228137,0.12904604,0.0148369055,0.10313593,-0.6275334
0.1,0.0,1.2999999999999998,-0.5235987755982988,0.0,0,-0.46645576,0.76005745,-0.92092973,0.84912395,-0.71439624,0.98372847,-3.0321875,-0.40898484,-1.2580084,1.1797501,0.23054747,0.075662576,0.5243708,-0.04521607
0.1,0.0,1.2999999999999998,-0.5235987755982988,0.0,0,-0.46870238,0.7606139,-0.9162185,0.84770304,-0.7159749,0.9852351,-3.0573175,-0.41474378,-1.2352089,1.1961452,0.28407708,-8.205166e-05,0.33814868,0.5037728
0.1,0.0,1.2999999999999998,-0.5235987755982988,0.0,0,-0.46833244,0.7570522,-0.91325146,0.8421783,-0.7179687,0.9919438,-3.0518217,-0.4183293,-1.2583416,1.2134002,0.20056508,-0.037608083,0.45271206,-0.52996373
0.1,0.0,1.2999999999999998,-0.5235987755982988,0.0,0,-0.46483895,0.7639418,-0.9162698,0.84374857,-0.71089184,0.9861868,-3.1057951,-0.4107981,-1.2661393,1.1848545,0.33822912,0.13423117,0.44622505,-0.62254953
0.1,0.0,1.2999999999999998,-0.5235987755982988,0.0,0,-0.47396457,0.75489306,-0.9165316,0.8438948,-0.7171036,0.9812657,-3.069314,-0.42216748,-1.2436402,1.1794698,0.2432313,-0.08852431,0.35531324,-0.10285648
0.1,0.0,1.2999999999999998,-0.5235987755982988,0.0,0,-0.47374302,0.75670666,-0.9149667,0.8417846,-0.7258183,0.9865587,-3.0800486,-0.41802448,-1.2304081,1.1896274,0.053286128,0.06440987,0.4928057,0.4806943
0.1,0.0,1.2999999999999998,-0.5235987755982988,0.0,0,-0.46917087,0.76435137,-0.918647,0.8461094,-0.7223337,0.98061365,-3.0514238,-0.4110064,-1.2487663,1.2211651,0.07307941,-0.088469476,0.54703,0.026586356
0.1,0.0,1.2999999999999998,-0.5235987755982988,0.0,0,-0.47123054,0.7589394,-0.91434556,0.84916764,-0.71867526,0.982296,-3.0673378,-0.41490552,-1.2442269,1.2007341,0.36748078,-0.116074525,0.59286743,-0.20305064
0.1,0.0,1.2999999999999998,-0.5235987755982988,0.0,0,-0.4714125,0.75734925,-0.9121954,0.837441,-0.7183245,0.98497057,-3.078851,-0.41377166,-1.2498145,1.1681154,0.21758331,0.02478043,0.54572743,0.59054184
0.1,0.0,1.2999999999999998,-0.5235987755982988,0.0,0,-0.47429904,0.7668474,-0.91304123,0.83871967,-0.7219035,0.9786815,-3.103893,-0.41791397,-1.2591261,1.1933528,0.28636473,0.049963202,0.27459767,-0.21885544
0.1,0.0,1.2999999999999998,-0.5235987755982988,0.0,0,-0.46854675,0.7513631,-0.9172503,0.844771,-0.71313643,0.9812353,-3.063558,-0.40793225,-1.255248,1.2286754,0.08416572,-0.021177,0.8049903,-1.1702999
0.1,0.0,1.2999999999999998,-0.5235987755982988,0.0,0,-0.46983486,0.7473223,-0.9140189,0.84018,-0.7116088,0.98954064,-3.061233,-0.41932237,-1.242406,1.2072701,-0.08832633,-0.046670046,0.46092054,0.15987928
0.1,0.0,1.2999999999999998,-0.5235987755982988,0.0,0,-0.46571907,0.7599832,-0.91245836,0.8454607,-0.71015054,0.9848581,-3.1102734,-0.4094467,-1.239557,1.2009567,0.16841565,-0.08038925,0.6318419,-0.9213022
0.1,0.0,1.2999999999999998,-0.5235987755982988,0.0,0,-0.47036675,0.7712865,-0.913216,0.8433293,-0.72277397,0.984931,-3.0646584,-0.41568547,-1.2333964,1.2173455,0.33933675,0.068004824,0.7235678,0.63593787
0.1,0.0,1.2999999999999998,-0.5235987755982988,0.0,0,-0.4679907,0.76147044,-0.9149841,0.8417782,-0.73311174,0.9858261,-3.0969744,-0.41152042,-1.2462114,1.2265972,0.17368433,-0.023625169,0.3990479,0.13723165
0.1,0.0,1.2999999999999998,-0.5235987755982988,0.0,0,-0.47118568,0.75946534,-0.91455126,0.843795,-0.72802657,0.9842795,-3.083132,-0.40938282,-1.2392548,1.217085,0.29956785,-0.12617362,0.4831063,0.9065953
0.1,0.0,1.2999999999999998,-0.5235987755982988,0.0,0,-0.4755305,0.76386994,-0.91872823,0.8449157,-0.7270752,0.98539,-3.050495,-0.4127788,-1.2442071,1.1842436,0.2271704,0.05755699,0.43484724,0.078464106
0.1,0.0,1.2999999999999998,-0.5235987755982988,0.0,0,-0.4689156,0.75571716,-0.914989,0.84554625,-0.7235591,0.98469096,-3.0336657,-0.40920085,-1.2416253,1.1539285,0.105674006,0.0021853673,0.4967175,-0.1323438
0.1,0.0,1.2999999999999998,-0.5235987755982988,0.0,0,-0.4672529,0.7514236,-0.9168517,0.8446532,-0.7192587,0.98723054,-3.0680666,-0.4089377,-1.2409832,1.2121011,0.315163,-0.07946061,0.46187642,-0.8497412
0.1,0.0,1.2999999999999998,-0.5235987755982988,0.0,0,-0.4700912,0.77108204,-0.9093412,0.84425724,-0.7173545,0.9908537,-3.0938122,-0.40674236,-1.232067,1.1724935,0.27328748,-0.11687187,0.69942176,-0.45037505
0.1,0.0,1.2999999999999998,-0.5235987755982988,0.0,0,-0.46593478,0.7524214,-0.9123412,0.8433075,-0.7201863,0.98829526,-3.0724542,-0.4101192,-1.2564453,1.2115545,0.07212984,-0.009852941,0.23469381,-0.21141219
0.1,0.0,1.2999999999999998,-0.5235987755982988,0.0,0,-0.465919,0.7472996,-0.9120536,0.84524703,-0.7270936,0.9865697,-3.0642743,-0.41212136,-1.242574,1.2095164,0.2544718,0.072085656,0.2952809,0.31363368
0.1,0.0,1.2999999999999998,-0.5235987755982988,0.0,0,-0.46778774,0.7561241,-0.9191167,0.8441247,-0.7171409,0.99282473,-3.0395699,-0.412709,-1.2561921,1.1929488,0.24777003,-0.0057933466,0.5279171,0.044816922
0.1,0.0,1.2999999999999998,-0.5235987755982988,0.0,0,-0.4675223,0.7594351,-0.9140856,0.8470762,-0.69496167,0.98273104,-3.1060226,-0.4159628,-1.2405049,1.175898,0.21628454,0.0013218059,0.31278414,-1.1411488
0.1,0.0,1.2999999999999998,-0.5235987755982988,0.0,0,-0.47266352,0.76130766,-0.9145002,0.8463372,-0.7099687,0.98963106,-3.055189,-0.41614786,-1.2549816,1.1763763,0.1519589,-0.022524416,0.53208864,1.1097047
0.1,0.0,1.2999999999999998,-0.5235987755982988,0.0,0,-0.46648356,0.76113456,-0.9207809,0.83855176,-0.7143782,0.9810089,-3.0800457,-0.41202566,-1.2577204,1.2034782,0.32235354,-0.23725678,0.5138941,0.9642155
0.1,0.0,1.2999999999999998,-0.5235987755982988,0.0,0,-0.47113624,0.75934905,-0.9157448,0.84650946,-0.719833,0.9849225,-3.086932,-0.4219901,-1.2479901,1.2031761,0.30879256,0.052934274,0.07093748,-0.015968347
0.1,0.0,1.2999999999999998,-0.5235987755982988,0.0,0,-0.46436766,0.75256145,-0.9139293,0.8439466,-0.7159267,0.98147726,-3.0584574,-0.41303897,-1.2314413,1.2092462,0.27119184,-0.054424312,0.4878367,-0.8542666
0.1,0.0,1.2999999999999998,-0.5235987755982988,0.0,0,-0.469142,0.7649358,-0.9137715,0.8454041,-0.726668,0.98683465,-3.0691295,-0.4111882,-1.2405815,1.183032,0.163548,0.0027864752,0.64337057,0.59839237
0.1,0.0,1.2999999999999998,-0.5235987755982988,0.0,0,-0.46930405,0.76613337,-0.91367286,0.84433866,-0.715675,0.98851496,-3.0289333,-0.41557327,-1.2418501,1.1778599,0.28815636,0.053254023,0.3564391,0.38411424
0.1,0.0,1.2999999999999998,-0.5235987755982988,0.0,0,-0.4663009,0.7535534,-0.91342217,0.84284216,-0.720388,0.9884294,-3.0468104,-0.4128947,-1.2620422,1.1754662,0.17869349,-0.031961277,0.7918082,0.38171002
0.1,0.0,1.2999999999999998,-0.5235987755982988,0.0,0,-0.4651078,0.7524839,-0.9139141,0.8425902,-0.7247877,0.9855253,-3.0225422,-0.4216456,-1.2314267,1.202046,0.2936948,0.06866077,0.50052977,-0.717046
0.1,0.0,1.2999999999999998,-0.5235987755982988,0.0,0,-0.46853685,0.76191664,-0.9175653,0.84575236,-0.7127998,0.98076993,-3.0905502,-0.41506645,-1.2335243,1.2213002,0.38844797,-0.15116727,0.47132605,-0.37768838
0.1,0.0,1.2999999999999998,-0.5235987755982988,0.0,0,-0.4689875,0.7487153,-0.91293985,0.8410561,-0.7147257,0.98143643,-3.0143247,-0.40987378,-1.2252966,1.1854751,0.2789174,0.02611952,0.4185806,0.19144884
0.1,0.0,1.2999999999999998,-0.5235987755982988,0.0,0,-0.4649211,0.75611925,-0.91686994,0.83976597,-0.7116206,0.98014605,-3.0608828,-0.41958174,-1.236577,1.1734574,0.30093873,-0.013566925,0.31827688,1.2378165
0.1,0.0,1.2999999999999998,-0.5235987755982988,0.0,0,-0.4655576,0.75864637,-0.9108243,0.8451788,-0.713312,0.9853041,-3.040137,-0.41351426,-1.2440333,1.196212,0.43964455,0.092843264,0.49775615,0.0043673925
0.1,0.0,1.2999999999999998,-0.5235987755982988,0.0,0,-0.4681807,0.75408214,-0.9100799,0.8458261,-0.70409447,0.98317504,-3.0766997,-0.4157664,-1.2336829,1.185235,0.31310144,0.06178909,0.3952525,0.21829557
0.1,0.0,1.2999999999999998,-0.5235987755982988,0.0,0,-0.46108222,0.7561706,-0.9143583,0.8389463,-0.71612906,0.98821694,-3.0533948,-0.413549,-1.2397708,1.1784652,0.38214976,-0.1856803,0.338606,-0.51733947
0.1,0.0,1.2999999999999998,-0.5235987755982988,0.0,0,-0.46876943,0.7578857,-0.9169233,0.8393323,-0.711002,0.9864401,-3.0498602,-0.41348603,-1.2446077,1.1740048,0.36009663,-0.0124280015,0.28274956,-0.004433434
0.1,0.0,1.2999999999999998,-0.5235987755982988,0.0,0,-0.4661646,0.7541034,-0.9142487,0.84079844,-0.70732224,0.98126256,-3.0260844,-0.41149002,-1.2477951,1.1966754,0.24198912,0.14376853,0.30473274,-0.7314461
0.1,0.0,1.2999999999999998,-0.5235987755982988,0.0,0,-0.46681657,0.7578045,-0.9150386,0.84407717,-0.70629406,0.9826856,-3.075173,-0.413994,-1.2464604,1.1939241,0.106388606,-0.21094874,0.20145239,-0.47032726
0.1,0.0,1.2999999999999998,-0.5235987755982988,0.0,0,-0.4635513,0.75818115,-0.91522515,0.8447672,-0.71661264,0.98041546,-3.0631137,-0.42007533,-1.2410556,1.1778834,0.30444846,0.15632455,0.38622868,-0.39351398
0.1,0.0,1.2999999999999998,-0.5235987755982988,0.0,0,-0.47205803,0.7644009,-0.90928584,0.84515965,-0.70508254,0.991192,-3.0566375,-0.40888253,-1.2330796,1.1849874,0.45575002,-0.04456741,0.4565089,-0.6077381
0.1,0.0,1.2999999999999998,-0.5235987755982988,0.0,0,-0.46816626,0.76153535,-0.9154897,0.84357446,-0.7080951,0.984792,-3.0761638,-0.41927832,-1.2369642,1.196843,0.36317465,0.09985113,0.55119115,-0.13297413
0.1,0.0,1.2999999999999998,-0.5235987755982988,0.0,0,-0.47006947,0.7548814,-0.9129497,0.83954465,-0.72675645,0.97455966,-3.0464582,-0.41560385,-1.2406518,1.1761833,0.2960062,0.0032024507,0.48535728,0.36436665
0.1,0.0,1.2999999999999998,-0.5235987755982988,0.0,0,-0.46299604,0.7618129,-0.918606,0.84335715,-0.7277829,0.9832502,-3.0484748,-0.41693288,-1.282122,1.1711725,0.2945251,-0.030567018,0.45007262,0.5706386
0.1,0.0,1.2999999999999998,-0.5235987755982988,0.0,0,-0.47221556,0.76427543,-0.9082299,0.84738994,-0.71217155,0.98371047,-3.0734863,-0.41409737,-1.2414839,1.2204127,0.27976614,-0.012865702,0.45175973,-0.11713728
0.1,0.0,1.2999999999999998,-0.5235987755982988,0.0,0,-0.46585703,0.7550635,-0.91441655,0.8421228,-0.7074652,0.9848259,-3.0645947,-0.41411734,-1.2388101,1.2102495,0.17469285,-0.024710651,0.43273187,0.055999484
0.1,0.0,1.2999999999999998,-0.5235987755982988,0.0,0,-0.47239438,0.75982046,-0.9143783,0.84690124,-0.72251374,0.98806715,-3.0539188,-0.41468158,-1.2418038,1.2134095,0.23762694,0.11657459,0.417379,-0.41127518
0.1,0.0,1.2999999999999998,-0.5235987755982988,0.0,0,-0.47005984,0.74495643,-0.91160613,0.84332407,-0.7266573,0.9849601,-3.0923705,-0.41043657,-1.2458398,1.196039,0.2648834,-0.09622829,0.3606724,-0.6358098
0.1,0.0,1.2999999999999998,-0.5235987755982988,0.0,0,-0.46649158,0.7534379,-0.9100694,0.84324217,-0.71093535,0.97952056,-3.0380948,-0.4220839,-1.2285823,1.161301,0.2832812,0.059800673,0.39184198,-0.5937927
0.1,0.0,1.2999999999999998,-0.5235987755982988,0.0,0,-0.47081795,0.7613769,-0.911101,0.8425112,-0.7180947,0.99062115,-3.0516174,-0.416552,-1.2382536,1.1952466,0.4268063,-0.17410547,0.32243788,-0.13722071
0.1,0.0,1.2999999999999998,-0.5235987755982988,0.0,0,-0.4723938,0.7550493,-0.91105574,0.8417614,-0.7076564,0.98364437,-3.0844343,-0.41330233,-1.2504156,1.1829338,0.35099414,-0.11192388,0.4153759,0.108128466
