sanky1234/BimanualDexCatch/isaacgymenvs/cem_results/football_pose_0.1_0.0_1.0999999999999999_0.0_0.5235987755982988_0_2025-05-26.csv
x,y,z,roll,pitch,yaw,robot1/joint1,robot1/joint2,robot1/joint3,robot1/joint4,robot1/joint5,robot1/joint6,robot1/joint7,robot2/joint1,robot2/joint2,robot2/joint3,robot2/joint4,robot2/joint5,robot2/joint6,robot2/joint7
0.1,0.0,1.0999999999999999,0.0,0.5235987755982988,0,-1.9073586,1.0957744,-0.4554371,0.64100933,-0.5749485,1.1543208,-2.6991737,1.6937892,0.9833229,-0.009312611,-0.0055044843,1.8667028,-1.3856417,-1.0310242
0.1,0.0,1.0999999999999999,0.0,0.5235987755982988,0,-1.9072939,1.0946221,-0.45738783,0.64094836,-0.5978545,1.1521654,-2.6932883,1.1153347,1.1170744,-0.35567638,-0.0018856525,1.044779,-1.4030151,-1.6408911
0.1,0.0,1.0999999999999999,0.0,0.5235987755982988,0,-1.9074057,1.0949224,-0.45640618,0.64093035,-0.5709291,1.1531222,-2.7117054,1.1207713,1.182991,0.07266387,-0.04709164,1.2288587,-1.4390656,-0.87440985
0.1,0.0,1.0999999999999999,0.0,0.5235987755982988,0,-1.907099,1.0933555,-0.45711312,0.6412242,-0.573644,1.1490355,-2.7150013,1.3566142,1.0944145,0.0055943183,-0.11669939,2.0219915,-1.4416152,-0.45406774
0.1,0.0,1.0999999999999999,0.0,0.5235987755982988,0,-1.9071434,1.0950042,-0.45691073,0.6408585,-0.5812678,1.1572194,-2.7203305,1.1872278,1.1791608,-0.07263075,-0.07275401,0.46259308,-1.3640305,-0.64108413
0.1,0.0,1.0999999999999999,0.0,0.5235987755982988,0,-1.9062382,1.0962788,-0.4560966,0.64105046,-0.5587925,1.153793,-2.7486947,1.2949046,1.1271477,0.027750371,-0.031734947,1.2187593,-1.4545171,-0.5545204
0.1,0.0,1.0999999999999999,0.0,0.5235987755982988,0,-1.907843,1.0948719,-0.4560399,0.64065355,-0.55916715,1.1582328,-2.7200582,1.4439185,1.0813677,-0.047490846,-0.070840746,1.0832256,-1.4615374,-0.22074549
0.1,0.0,1.0999999999999999,0.0,0.5235987755982988,0,-1.9065993,1.0970602,-0.45699486,0.64123,-0.5738803,1.1564986,-2.7312543,1.1748718,1.2883362,-0.014654948,0.07011485,0.35260016,-1.4450009,-0.30920336
0.1,0.0,1.0999999999999999,0.0,0.5235987755982988,0,-1.9074858,1.0956174,-0.4585283,0.6412111,-0.5810593,1.1565826,-2.714322,1.251116,0.9967251,-0.19037826,-0.039923992,1.0585505,-1.5076919,-1.1187224
0.1,0.0,1.0999999999999999,0.0,0.5235987755982988,0,-1.9066402,1.0932181,-0.4572288,0.64149946,-0.56934917,1.1599628,-2.6814249,1.2856622,1.0601062,-0.19201092,-0.15178773,0.6504385,-1.3878242,-1.0422477
0.1,0.0,1.0999999999999999,0.0,0.5235987755982988,0,-1.9071107,1.0927154,-0.45661715,0.6407621,-0.58387643,1.1551242,-2.7181334,1.3955353,1.187271,-0.041904163,-0.062245287,0.9079673,-1.4519116,-0.2900357
0.1,0.0,1.0999999999999999,0.0,0.5235987755982988,0,-1.9070258,1.0931216,-0.45773026,0.6407288,-0.57149845,1.1524366,-2.7046435,1.4521034,1.0893283,0.08379328,-0.120120764,1.1780106,-1.3792938,-0.26690957
0.1,0.0,1.0999999999999999,0.0,0.5235987755982988,0,-1.9066927,1.0955735,-0.4568442,0.6413375,-0.5677996,1.1510619,-2.7164538,1.3226027,1.2085946,-0.31204602,-0.113102295,0.3461753,-1.5071402,0.4894871
0.1,0.0,1.0999999999999999,0.0,0.5235987755982988,0,-1.9068714,1.0940102,-0.45614624,0.64102304,-0.57528025,1.1530305,-2.7291977,1.2556807,1.1309855,0.09404227,-0.08161879,1.6385164,-1.5386997,-0.23527117
0.1,0.0,1.0999999999999999,0.0,0.5235987755982988,0,-1.9069631,1.0939065,-0.45687756,0.6414282,-0.5669431,1.1446323,-2.6766582,1.1996928,1.0799879,-0.029175349,-0.07834528,2.0514517,-1.4460158,-0.047069423
0.1,0.0,1.0999999999999999,0.0,0.5235987755982988,0,-1.906058,1.0957617,-0.45751414,0.64114505,-0.587681,1.1534075,-2.723824,1.3850832,1.0445174,0.095465645,-0.0633222,0.58881944,-1.3994346,-0.06225895
0.1,0.0,1.0999999999999999,0.0,0.5235987755982988,0,-1.9066108,1.0946211,-0.45825025,0.6407062,-0.5649721,1.1519256,-2.7120812,1.5716935,1.0371709,-0.2088756,0.0006656867,-0.31256273,-1.4938643,-0.15558757
0.1,0.0,1.0999999999999999,0.0,0.5235987755982988,0,-1.9065095,1.0949944,-0.45809355,0.6419392,-0.60673344,1.1546915,-2.6767275,1.27691,0.9365545,-0.023437895,-0.09273114,-0.24778074,-1.4502926,-0.32140586
0.1,0.0,1.0999999999999999,0.0,0.5235987755982988,0,-1.9068693,1.0914326,-0.45666856,0.640836,-0.58245456,1.154106,-2.6824875,1.1903806,1.2979326,0.0023993338,-0.059869982,1.10389,-1.5153337,-0.8112373
0.1,0.0,1.0999999999999999,0.0,0.5235987755982988,0,-1.9067787,1.0937449,-0.45655784,0.6414795,-0.5500886,1.1563882,-2.7008154,1.4451622,1.1464927,-0.105128475,-0.0069887596,0.83419114,-1.4034938,-0.40256175
0.1,0.0,1.0999999999999999,0.0,0.5235987755982988,0,-1.9076853,1.0938098,-0.45526123,0.64131916,-0.578352,1.1558836,-2.6884058,1.3039595,1.132439,0.020340594,-0.083586276,1.0469663,-1.4741819,-0.6975941
0.1,0.0,1.0999999999999999,0.0,0.5235987755982988,0,-1.9077812,1.0983344,-0.45681915,0.6408143,-0.55665,1.15847,-2.7001534,1.3150377,1.1381788,-0.26877078,-0.0058625643,1.5915617,-1.438531,-0.2944926
0.1,0.0,1.0999999999999999,0.0,0.5235987755982988,0,-1.9066745,1.0955654,-0.45723954,0.64118946,-0.58021516,1.1521007,-2.6900618,1.0185771,1.1856488,-0.048935894,-0.13052818,0.6815231,-1.4399393,0.58243644
0.1,0.0,1.0999999999999999,0.0,0.5235987755982988,0,-1.9068923,1.0944318,-0.45601022,0.64120877,-0.57506293,1.1558751,-2.7339306,1.4099731,1.0362678,-0.16126938,-0.02657351,0.9646458,-1.5000324,-0.47593254
0.1,0.0,1.0999999999999999,0.0,0.5235987755982988,0,-1.906567,1.0949247,-0.45787328,0.6411094,-0.5790101,1.1517487,-2.6842282,1.1416743,1.073947,-0.09771381,-0.021154027,-0.74294984,-1.4369509,-1.6992117
0.1,0.0,1.0999999999999999,0.0,0.5235987755982988,0,-1.906801,1.0974239,-0.45783037,0.64101976,-0.5633906,1.1501118,-2.679689,1.2095796,1.2494497,-0.2536886,-0.11368288,1.3257154,-1.4573233,0.97966534
0.1,0.0,1.0999999999999999,0.0,0.5235987755982988,0,-1.9065158,1.09482,-0.45626104,0.6410868,-0.5856422,1.1593982,-2.6887114,1.5237551,1.2422093,-0.28530926,-0.037814017,0.89136475,-1.4010215,-0.39097965
0.1,0.0,1.0999999999999999,0.0,0.5235987755982988,0,-1.9065384,1.0974213,-0.45615494,0.64095426,-0.56190777,1.1481594,-2.6939924,1.2179068,1.0444974,-0.097233936,-0.051499683,-2.390088,-1.4439069,-0.57604796
0.1,0.0,1.0999999999999999,0.0,0.5235987755982988,0,-1.9070629,1.0965995,-0.45726132,0.6410418,-0.5827507,1.1581235,-2.7160606,1.168994,1.0298276,-0.15675779,-0.004337959,1.0641289,-1.4212028,-0.36209705
0.1,0.0,1.0999999999999999,0.0,0.5235987755982988,0,-1.9077494,1.0947598,-0.45682713,0.6406953,-0.56033534,1.1573374,-2.6949966,1.1255549,1.1773894,0.060625363,-0.053811282,2.2711709,-1.44556,-0.7225902
0.1,0.0,1.0999999999999999,0.0,0.5235987755982988,0,-1.9069883,1.0956365,-0.45575425,0.64112407,-0.55352855,1.1689749,-2.765279,1.5523896,1.0952792,0.028939018,-0.12476037,1.3296257,-1.421306,0.3819194
0.1,0.0,1.0999999999999999,0.0,0.5235987755982988,0,-1.9066979,1.0937685,-0.45683149,0.64091015,-0.5426329,1.1549817,-2.710507,1.3776857,1.2053639,-0.19997722,-0.05938077,-0.25857624,-1.4571036,-0.36191127
0.1,0.0,1.0999999999999999,0.0,0.5235987755982988,0,-1.9070356,1.0972257,-0.45803532,0.64109063,-0.5624196,1.1524398,-2.6828046,1.428426,1.0438955,-0.16081959,-0.055550892,2.471389,-1.4254571,0.31118357
0.1,0.0,1.0999999999999999,0.0,0.5235987755982988,0,-1.9066802,1.0964856,-0.45627713,0.6410706,-0.582623,1.1516151,-2.7425666,1.4437898,1.1169258,-0.08601417,-0.038823903,1.4437308,-1.425293,0.0040949997
0.1,0.0,1.0999999999999999,0.0,0.5235987755982988,0,-1.9065813,1.0974514,-0.45723855,0.64079046,-0.5801227,1.138885,-2.7330503,1.1181732,1.061442,-0.044816937,0.034072958,-0.025722021,-1.4131483,-1.1946152
0.1,0.0,1.0999999999999999,0.0,0.5235987755982988,0,-1.9071618,1.0936064,-0.45701244,0.6409565,-0.5726256,1.1475459,-2.760221,1.3182367,1.0599532,-0.07227701,-0.070819885,-0.25903997,-1.4082975,-0.1125151
0.1,0.0,1.0999999999999999,0.0,0.5235987755982988,0,-1.9069512,1.0918615,-0.45658422,0.6407513,-0.5649441,1.1377981,-2.6713011,1.3645406,0.9902974,0.13176508,-0.042958003,1.9887469,-1.4646173,-0.5561816
0.1,0.0,1.0999999999999999,0.0,0.5235987755982988,0,-1.906887,1.0870094,-0.45606562,0.6406142,-0.56972075,1.1518668,-2.7059493,1.331844,0.9634442,-0.057383254,0.0688895,0.13006406,-1.4810793,0.009938672
0.1,0.0,1.0999999999999999,0.0,0.5235987755982988,0,-1.9070038,1.0944902,-0.45641205,0.6412198,-0.5777164,1.1450163,-2.6866536,1.1445293,1.0472338,-0.09061419,-0.018353054,-0.118724555,-1.344025,-0.930547
0.1,0.0,1.0999999999999999,0.0,0.5235987755982988,0,-1.9071237,1.095217,-0.45745364,0.640872,-0.5850518,1.151798,-2.732865,1.5625664,1.1752324,-0.013683707,-0.18887025,0.53183407,-1.4727249,0.056130316
0.1,0.0,1.0999999999999999,0.0,0.5235987755982988,0,-1.9071789,1.0915033,-0.45537615,0.64084804,-0.58257496,1.1527275,-2.7364228,1.3316612,1.0990592,-0.062213037,-0.08875243,1.252065,-1.447733,-0.9125402
0.1,0.0,1.0999999999999999,0.0,0.5235987755982988,0,-1.9068906,1.0941219,-0.45784494,0.64088756,-0.5848945,1.1478659,-2.705182,1.4254122,1.061456,-0.16591202,-0.08904644,0.56539947,-1.4280796,-0.6745532
0.1,0.0,1.0999999999999999,0.0,0.5235987755982988,0,-1.9073004,1.0913887,-0.4577536,0.64063865,-0.5655363,1.1489569,-2.679318,1.1719154,1.132016,0.021991486,-0.07549179,2.1744244,-1.4971402,0.5857558
0.1,0.0,1.0999999999999999,0.0,0.5235987755982988,0,-1.9063933,1.0970279,-0.4578812,0.6410508,-0.57022285,1.1477855,-2.6720202,1.3003503,1.1222739,-0.055964872,0.018925041,0.31230634,-1.4583408,-0.35776666
0.1,0.0,1.0999999999999999,0.0,0.5235987755982988,0,-1.9065022,1.0912049,-0.45687738,0.6409591,-0.5708242,1.1541556,-2.6656353,1.2131712,1.0378524,-0.011279949,-0.0006868859,1.12441,-1.4591618,0.21904399
0.1,0.0,1.0999999999999999,0.0,0.5235987755982988,0,-1.9062816,1.0974796,-0.45643917,0.6410644,-0.5629409,1.145811,-2.7590275,1.64327,1.1408619,-0.14115828,0.047458787,0.26983333,-1.4306254,0.43472233
0.1,0.0,1.0999999999999999,0.0,0.5235987755982988,0,-1.9072818,1.0971563,-0.45649785,0.64025986,-0.57135844,1.139904,-2.7217944,1.5874999,1.0499685,-0.0622378,-0.033561707,1.9105525,-1.4769576,-0.23593517
0.1,0.0,1.0999999999999999,0.0,0.5235987755982988,0,-1.9063376,1.0943475,-0.4550857,0.64041203,-0.56895477,1.1474358,-2.7197597,1.3538573,1.214853,-0.024262376,-0.03305942,2.1768088,-1.4378021,-0.36369997
0.1,0.0,1.0999999999999999,0.0,0.5235987755982988,0,-1.9076095,1.0968238,-0.4555674,0.6420041,-0.58619285,1.1500936,-2.6641185,1.0360456,1.0060823,0.101673424,-0.029756814,0.48576158,-1.3840103,-1.8316371
0.1,0.0,1.0999999999999999,0.0,0.5235987755982988,0,-1.9070722,1.0937916,-0.45609254,0.6411554,-0.577665,1.1353666,-2.7518215,1.1810656,1.2781446,-0.14382033,-0.040462907,-0.16243021,-1.435098,0.6577301
0.1,0.0,1.0999999999999999,0.0,0.5235987755982988,0,-1.9063764,1.0926846,-0.4557502,0.6409223,-0.55385566,1.1398216,-2.7324119,1.018371,1.0109944,-0.35667115,-0.022262953,1.8999931,-1.3527685,0.15133151
0.1,0.0,1.0999999999999999,0.0,0.5235987755982988,0,-1.9074813,1.0909767,-0.45621523,0.6413383,-0.57540965,1.146981,-2.7234135,1.2390615,1.0523702,0.21616557,-0.09373228,0.85853136,-1.3785788,-0.26788974
0.1,0.0,1.0999999999999999,0.0,0.5235987755982988,0,-1.9068748,1.0945238,-0.45608127,0.64072996,-0.59774053,1.1470292,-2.7300515,1.2127365,1.1676241,-0.31324562,-0.06975806,0.4056172,-1.4131132,-0.82760024
0.1,0.0,1.0999999999999999,0.0,0.5235987755982988,0,-1.9069377,1.0946832,-0.4553443,0.64104277,-0.58045065,1.146332,-2.7478356,1.4134395,1.1706628,-0.1937613,-0.0012003497,0.2220838,-1.4268353,0.63169044
0.1,0.0,1.0999999999999999,0.0,0.5235987755982988,0,-1.9072708,1.0899739,-0.45834234,0.6407482,-0.57738703,1.1439096,-2.698415,1.0130165,1.0948707,0.11692739,-0.03273981,0.4518735,-1.4591736,-0.9051057
0.1,0.0,1.0999999999999999,0.0,0.5235987755982988,0,-1.9075688,1.0874604,-0.45718673,0.64096576,-0.56846255,1.1312838,-2.7568226,1.1501209,1.1062703,-0.26938182,0.0068191634,0.3535996,-1.4358486,-0.6919393
0.1,0.0,1.0999999999999999,0.0,0.5235987755982988,0,-1.9069002,1.093074,-0.45538467,0.6405156,-0.58769894,1.1438614,-2.7207963,1.1006365,1.1263183,0.014735189,-0.05736669,0.23664635,-1.3970395,0.58490646
0.1,0.0,1.0999999999999999,0.0,0.5235987755982988,0,-1.9073048,1.0933182,-0.4559826,0.6407311,-0.58463585,1.1430392,-2.7376146,1.1560359,1.1051044,-0.039604023,-0.033960536,0.6499825,-1.3974234,0.23454712
0.1,0.0,1.0999999999999999,0.0,0.5235987755982988,0,-1.9068642,1.0874583,-0.45818186,0.64070874,-0.58320874,1.1472912,-2.7384624,1.6813431,1.1189233,-0.0707838,-0.050652497,0.32160273,-1.4689714,-0.49377495
0.1,0.0,1.0999999999999999,0.0,0.5235987755982988,0,-1.9067376,1.0888149,-0.4572539,0.640527,-0.5723635,1.1467876,-2.7318683,1.0248891,1.0480547,-0.050982043,0.038335096,1.6328509,-1.4219145,-0.26987353
0.1,0.0,1.0999999999999999,0.0,0.5235987755982988,0,-1.9066188,1.0898361,-0.4562937,0.64090294,-0.57847685,1.1431634,-2.736408,1.4470274,1.0011437,-0.18557656,0.08888234,0.6348565,-1.3974547,-1.6860756
0.1,0.0,1.0999999999999999,0.0,0.5235987755982988,0,-1.9070907,1.0918497,-0.45598564,0.64094055,-0.5706891,1.1512269,-2.7219355,1.2773994,1.0009744,-0.06535145,0.10556233,0.19919051,-1.3824277,0.14178754
0.1,0.0,1.0999999999999999,0.0,0.5235987755982988,0,-1.9068433,1.0889575,-0.45681417,0.6406776,-0.5798859,1.1456575,-2.6906254,1.3115789,0.9970027,0.24183989,-0.0613648,0.67123157,-1.4020174,-0.09359918
0.1,0.0,1.0999999999999999,0.0,0.5235987755982988,0,-1.9074718,1.0912489,-0.45671135,0.64104736,-0.5846235,1.1484616,-2.741597,1.3968838,1.0294534,-0.0791916,-0.16256183,0.80815065,-1.4297323,-0.2833983
0.1,0.0,1.0999999999999999,0.0,0.5235987755982988,0,-1.9068888,1.0919237,-0.45523566,0.6415631,-0.5865899,1.1444751,-2.7041273,1.7879008,1.2016238,0.06306549,0.01421115,1.6465381,-1.369072,-0.8478007
0.1,0.0,1.0999999999999999,0.0,0.5235987755982988,0,-1.9068152,1.0957536,-0.45575407,0.64139813,-0.54486316,1.1407089,-2.6544197,1.1607175,1.1313363,-0.07342072,-0.060604535,-0.8666862,-1.4048243,0.46990094
0.1,0.0,1.0999999999999999,0.0,0.5235987755982988,0,-1.9066918,1.0955971,-0.45543784,0.6414721,-0.5718032,1.1455392,-2.7515578,1.3254154,1.2454587,-0.33612937,-0.04557538,0.09961423,-1.4290199,-0.24407509
0.1,0.0,1.0999999999999999,0.0,0.5235987755982988,0,-1.9075032,1.0946194,-0.45759073,0.64015865,-0.5784979,1.1454864,-2.7352788,1.4209548,1.0646156,-0.04814577,-0.11702964,0.8247555,-1.4957905,0.57669795
0.1,0.0,1.0999999999999999,0.0,0.5235987755982988,0,-1.9074688,1.0961746,-0.4541942,0.64073837,-0.57423323,1.1477747,-2.7575061,1.2620479,0.92236346,0.009061779,-0.0076187653,0.063123636,-1.5448112,-0.3939222
0.1,0.0,1.0999999999999999,0.0,0.5235987755982988,0,-1.9069582,1.0902935,-0.45630613,0.6404333,-0.5751792,1.151821,-2.7160692,1.2370242,1.2366471,-0.0008123282,0.11395517,-0.13766329,-1.4628407,-0.5620426
0.1,0.0,1.0999999999999999,0.0,0.5235987755982988,0,-1.9072261,1.0970789,-0.45517218,0.6412412,-0.56455606,1.1515136,-2.686694,1.0199594,0.89422,-0.22900923,-0.00021788037,1.3384577,-1.3622804,-0.59173256
0.1,0.0,1.0999999999999999,0.0,0.5235987755982988,0,-1.907279,1.0897639,-0.4571591,0.64076275,-0.59623885,1.1537676,-2.7249956,1.1454896,1.1807847,-0.024084838,-0.11760653,1.3197279,-1.4063971,-0.5228874
0.1,0.0,1.0999999999999999,0.0,0.5235987755982988,0,-1.9062576,1.0905981,-0.4556949,0.6409618,-0.5777684,1.14413,-2.7323105,1.4449285,1.1722984,-0.1845683,-0.11474196,0.38943237,-1.4209058,0.023166923
0.1,0.0,1.0999999999999999,0.0,0.5235987755982988,0,-1.9076185,1.0909865,-0.4565986,0.6408436,-0.56948465,1.15086,-2.6961584,1.287581,0.9121175,-0.32239243,-0.13195217,0.50907904,-1.4630126,-0.62496585
0.1,0.0,1.0999999999999999,0.0,0.5235987755982988,0,-1.906869,1.0922402,-0.45464116,0.6407416,-0.5750297,1.1481454,-2.7229414,1.5134877,1.2357291,0.033613052,0.010167957,0.110952966,-1.4714462,0.46538886
0.1,0.0,1.0999999999999999,0.0,0.5235987755982988,0,-1.9071183,1.0920726,-0.4553228,0.64069057,-0.58416766,1.1542033,-2.7129202,1.1695045,1.2046078,-0.12798436,-0.060550444,0.20726253,-1.4416146,-1.1472881
0.1,0.0,1.0999999999999999,0.0,0.5235987755982988,0,-1.9062977,1.0881461,-0.45555666,0.64077896,-0.58949244,1.147994,-2.6847281,1.2933815,1.2711176,0.032371208,0.03132803,-0.9714091,-1.4694022,0.35727704
0.1,0.0,1.0999999999999999,0.0,0.5235987755982988,0,-1.9069077,1.1009601,-0.45714802,0.64117604,-0.5926031,1.1396993,-2.6954386,1.2294213,1.1086519,-0.14268045,-0.060867064,0.64362717,-1.4704462,-1.7460301
0.1,0.0,1.0999999999999999,0.0,0.5235987755982988,0,-1.9067291,1.092019,-0.45618728,0.64086825,-0.5864181,1.1493152,-2.714229,1.4728404,1.2193484,-0.32688358,-0.07467946,0.001813822,-1.4008015,-0.9485916
0.1,0.0,1.0999999999999999,0.0,0.5235987755982988,0,-1.907537,1.0908206,-0.45814854,0.6406927,-0.5877799,1.1517624,-2.6965203,0.97358686,1.0404536,-0.15343527,-0.015595802,0.6154348,-1.4712793,-1.0265572
0.1,0.0,1.0999999999999999,0.0,0.5235987755982988,0,-1.9068288,1.0944898,-0.4563245,0.64092743,-0.592294,1.1475493,-2.7209685,1.1677222,1.0236781,-0.123572014,-0.022586003,0.5225344,-1.4350389,-0.41361874
0.1,0.0,1.0999999999999999,0.0,0.5235987755982988,0,-1.9072022,1.0972419,-0.45559028,0.64148027,-0.57348156,1.1446174,-2.762449,1.6891214,1.3309957,-0.44537038,0.083032094,-0.4540148,-1.418786,-0.028771436
0.1,0.0,1.0999999999999999,0.0,0.5235987755982988,0,-1.9063514,1.0925673,-0.4578627,0.6412868,-0.57727545,1.1491734,-2.7808242,1.2122086,1.142037,-0.20598605,-0.08401237,0.79850805,-1.4290161,-0.6648265
0.1,0.0,1.0999999999999999,0.0,0.5235987755982988,0,-1.9070098,1.0931009,-0.4558438,0.64123315,-0.57528996,1.1332626,-2.7184641,1.1859137,1.1295143,-0.11253328,-0.01540289,0.25937542,-1.374317,0.89279765
0.1,0.0,1.0999999999999999,0.0,0.5235987755982988,0,-1.9075973,1.0903881,-0.45867187,0.64107454,-0.57708067,1.1516553,-2.7327223,1.5688148,0.9939914,0.079790846,-0.07932584,1.6712573,-1.4164616,0.6191363
0.1,0.0,1.0999999999999999,0.0,0.5235987755982988,0,-1.9069027,1.090765,-0.45525998,0.6412079,-0.5750735,1.153023,-2.732347,1.2674481,1.130108,-0.19630857,-0.09895506,0.58621526,-1.3518784,-0.39760205
0.1,0.0,1.0999999999999999,0.0,0.5235987755982988,0,-1.9065312,1.0922844,-0.45565906,0.64036864,-0.56950194,1.159967,-2.6523788,1.0993053,1.00198,-0.21332657,-0.033717982,-0.40743008,-1.4726628,-0.021223074
0.1,0.0,1.0999999999999999,0.0,0.5235987755982988,0,-1.9062598,1.0858115,-0.4556786,0.6409373,-0.56229216,1.1450727,-2.7519562,1.6314744,1.2815144,0.10235167,-0.008924667,0.73354733,-1.4242018,0.13692822
0.1,0.0,1.0999999999999999,0.0,0.5235987755982988,0,-1.9075296,1.0917574,-0.45780864,0.64105594,-0.5648404,1.1483327,-2.7458856,1.37793,1.234315,0.075831965,-0.07901914,-0.23291169,-1.3852698,0.040527523
0.1,0.0,1.0999999999999999,0.0,0.5235987755982988,0,-1.906531,1.0911489,-0.45590958,0.64108706,-0.566417,1.1419512,-2.7341397,1.3077406,1.0813687,-0.1753622,-0.043734748,-0.34582368,-1.416912,-0.2387828
0.1,0.0,1.0999999999999999,0.0,0.5235987755982988,0,-1.907612,1.0909528,-0.4558106,0.6414024,-0.5661241,1.1458428,-2.706302,1.4619637,1.1216762,-0.18513672,0.0036050244,1.0193894,-1.42236,-0.26202917
0.1,0.0,1.0999999999999999,0.0,0.5235987755982988,0,-1.9071087,1.0916489,-0.45592058,0.6412041,-0.5528736,1.1476094,-2.725864,1.0636172,1.1774616,-0.2756758,0.07313258,1.6207609,-1.4827467,-0.6672838
0.1,0.0,1.0999999999999999,0.0,0.5235987755982988,0,-1.9073246,1.0893118,-0.4562644,0.64095414,-0.5723279,1.1507105,-2.7401865,1.0034753,1.0116099,-0.24788901,-0.08118195,-0.48752838,-1.4524394,-1.6185775
0.1,0.0,1.0999999999999999,0.0,0.5235987755982988,0,-1.9070233,1.0973476,-0.45574042,0.6412473,-0.5751546,1.145859,-2.672003,1.208079,1.1961136,0.18818809,-0.036554348,0.20434472,-1.4036947,-0.40544996
0.1,0.0,1.0999999999999999,0.0,0.5235987755982988,0,-1.9071587,1.0930936,-0.45661008,0.64079887,-0.5716009,1.1540321,-2.7483675,1.311299,1.0746689,-0.10050349,-0.088530734,1.0160025,-1.4403106,-0.47926965
0.1,0.0,1.0999999999999999,0.0,0.5235987755982988,0,-1.9067552,1.0920324,-0.45674127,0.64091086,-0.5800799,1.1520361,-2.7179286,1.1614944,1.3004898,0.121481895,-0.027367506,0.22649686,-1.404284,-0.1614598
0.1,0.0,1.0999999999999999,0.0,0.5235987755982988,0,-1.9069043,1.0904089,-0.45635864,0.640985,-0.5650603,1.1420316,-2.7223148,1.1694245,1.1294864,-0.15125051,-0.03733205,0.05910794,-1.4821225,0.155493
0.1,0.0,1.0999999999999999,0.0,0.5235987755982988,0,-1.9072301,1.0971984,-0.4566525,0.64097565,-0.5656131,1.1496526,-2.7391636,1.4065999,1.198666,-0.1284097,-0.05699822,-0.18997824,-1.407439,-1.602358
0.1,0.0,1.0999999999999999,0.0,0.5235987755982988,0,-1.9070114,1.091887,-0.45569256,0.64108557,-0.5726578,1.1399534,-2.7054954,1.1417258,0.9941842,-0.10146211,-0.13254853,1.1192267,-1.4408594,-1.2593969
0.1,0.0,1.0999999999999999,0.0,0.5235987755982988,0,-1.9067577,1.0902627,-0.45475706,0.64106804,-0.5953176,1.1460217,-2.6902847,1.5252764,1.2629821,-0.30200872,-0.0335508,1.3018647,-1.3266662,-1.7501606
0.1,0.0,1.0999999999999999,0.0,0.5235987755982988,0,-1.9058704,1.0928985,-0.4564142,0.6405809,-0.5827953,1.1377904,-2.685442,1.0857934,1.1444685,0.12831624,-0.07973559,0.9558056,-1.4151399,-0.32344553
0.1,0.0,1.0999999999999999,0.0,0.5235987755982988,0,-1.906865,1.0937766,-0.45710713,0.64107215,-0.56575,1.1428738,-2.708484,1.3764856,1.1328413,-0.06451302,0.028373754,-0.26262033,-1.4825343,-0.008769621
0.1,0.0,1.0999999999999999,0.0,0.5235987755982988,0,-1.9072984,1.0924877,-0.45486397,0.64080924,-0.56761134,1.1398567,-2.687496,1.1089922,1.0271101,-0.016498502,-0.00922747,-0.042043447,-1.4955158,-0.38901556
0.1,0.0,1.0999999999999999,0.0,0.5235987755982988,0,-1.9069552,1.0914514,-0.45561484,0.64107853,-0.57001925,1.1479958,-2.6974092,1.5766504,1.0299041,-0.17710485,-0.0008739181,-0.20592389,-1.4560747,0.4525496
0.1,0.0,1.0999999999999999,0.0,0.5235987755982988,0,-1.9072716,1.0965317,-0.45556867,0.6410944,-0.5809942,1.1558244,-2.7051518,1.2464697,0.8581462,0.045425296,-0.048950236,0.96832013,-1.4468555,-0.7501883
0.1,0.0,1.0999999999999999,0.0,0.5235987755982988,0,-1.9069704,1.0951626,-0.45675752,0.6412141,-0.6088622,1.1430292,-2.750694,1.4945073,0.9890052,-0.034893043,-0.054169007,1.907476,-1.3994164,0.09463363
0.1,0.0,1.0999999999999999,0.0,0.5235987755982988,0,-1.9069679,1.09021,-0.45629218,0.64118826,-0.5735411,1.1559011,-2.6941676,1.1590955,1.179415,-0.15362413,-0.12629886,-0.66820776,-1.5131288,-0.21049426
0.1,0.0,1.0999999999999999,0.0,0.5235987755982988,0,-1.9066116,1.0908443,-0.45649183,0.6411831,-0.57697237,1.1579715,-2.76084,1.1403695,1.0744712,-0.055352006,0.010320883,1.8013195,-1.4306504,0.15620604
0.1,0.0,1.0999999999999999,0.0,0.5235987755982988,0,-1.9067463,1.090321,-0.4570436,0.6415087,-0.54471374,1.139738,-2.7383442,1.3635528,1.2607156,0.061836403,-0.051239382,-1.0499781,-1.4750134,-0.08654991
0.1,0.0,1.0999999999999999,0.0,0.5235987755982988,0,-1.907482,1.0911988,-0.45623386,0.6411623,-0.58432215,1.1493068,-2.6914423,1.2584496,1.2148536,0.08353187,-0.13293676,1.6545005,-1.4310926,-1.167006
0.1,0.0,1.0999999999999999,0.0,0.5235987755982988,0,-1.9066031,1.0958952,-0.4561396,0.6419154,-0.58031493,1.1455535,-2.7272356,1.2843615,1.0131149,-0.14606999,-0.061035506,2.5040276,-1.4300121,-0.6473073
0.1,0.0,1.0999999999999999,0.0,0.5235987755982988,0,-1.906402,1.0921746,-0.45698935,0.6408962,-0.5870411,1.1442168,-2.7092788,1.4058104,1.1326499,-0.1082529,-0.1359341,0.5883269,-1.4659024,-1.3959147
0.1,0.0,1.0999999999999999,0.0,0.5235987755982988,0,-1.9069494,1.0921432,-0.45620352,0.641132,-0.5763851,1.1427256,-2.6922295,1.0223138,1.1102917,-0.186165,-0.030118026,0.30910766,-1.4461696,-0.20452327
0.1,0.0,1.0999999999999999,0.0,0.5235987755982988,0,-1.9075211,1.093373,-0.45718187,0.64062744,-0.5803758,1.1478237,-2.723839,1.5239818,1.2539098,-0.2092734,-0.09770051,1.3691388,-1.5070738,-1.1603444
0.1,0.0,1.0999999999999999,0.0,0.5235987755982988,0,-1.9065912,1.0965254,-0.45592597,0.64129555,-0.5883467,1.1478698,-2.7255046,1.4029558,1.0542834,0.017619101,0.049305514,0.4533727,-1.4135088,-0.18318199
0.1,0.0,1.0999999999999999,0.0,0.5235987755982988,0,-1.9066472,1.0913165,-0.4566157,0.6401942,-0.5619065,1.1537479,-2.7096539,1.2070733,1.0852947,-0.25403744,-0.011504381,-0.76103336,-1.4417466,-0.7703388
0.1,0.0,1.0999999999999999,0.0,0.5235987755982988,0,-1.9068813,1.0962969,-0.45559952,0.6411627,-0.6145861,1.1532136,-2.7847998,1.2512612,1.2906487,-0.21352926,-0.089241296,-0.35686484,-1.4405016,0.08666482
0.1,0.0,1.0999999999999999,0.0,0.5235987755982988,0,-1.9074334,1.0953228,-0.45731688,0.6410025,-0.5645718,1.1459326,-2.763073,1.008028,1.3092895,-0.21497156,-0.08093043,0.4565543,-1.4246422,-0.16783184
0.1,0.0,1.0999999999999999,0.0,0.5235987755982988,0,-1.9065379,1.0962887,-0.455163,0.64062005,-0.5762158,1.1451098,-2.7401714,1.2936426,1.1249472,-0.109792225,-0.08757603,0.1038746,-1.4182029,0.29461384
0.1,0.0,1.0999999999999999,0.0,0.5235987755982988,0,-1.907302,1.0934376,-0.45677596,0.64034307,-0.5817242,1.1502088,-2.6925735,1.3642945,1.3403225,-0.10274604,-0.09759206,-0.67619246,-1.4662851,-0.3766988
0.1,0.0,1.0999999999999999,0.0,0.5235987755982988,0,-1.9068536,1.0926956,-0.4543106,0.6414207,-0.5715445,1.1493872,-2.6963487,1.2353789,1.2116616,-0.088587314,0.041307308,0.54563826,-1.4941403,-0.37885928
0.1,0.0,1.0999999999999999,0.0,0.5235987755982988,0,-1.9073093,1.0909723,-0.45524365,0.6406202,-0.5851685,1.1492211,-2.6944423,1.2606376,1.1427581,-0.074316606,-0.084765874,0.3353341,-1.4623289,-0.2949218
0.1,0.0,1.0999999999999999,0.0,0.5235987755982988,0,-1.9067659,1.0943849,-0.45623738,0.64053595,-0.5840625,1.1532099,-2.693511,1.5739172,1.2738134,0.05860925,-0.050735246,0.102650434,-1.4434428,0.6742289
0.1,0.0,1.0999999999999999,0.0,0.5235987755982988,0,-1.9070889,1.0955118,-0.4565232,0.64111525,-0.5889189,1.1538782,-2.721949,1.0789123,1.0954511,-0.25576597,-0.055810485,-0.093976445,-1.4275776,-0.84309256
0.1,0.0,1.0999999999999999,0.0,0.5235987755982988,0,-1.9070301,1.0926981,-0.45630077,0.6402795,-0.5624692,1.1483084,-2.7048233,1.057363,1.1195183,-0.25936326,-0.07180721,1.7483385,-1.4344151,-0.059448853
0.1,0.0,1.0999999999999999,0.0,0.5235987755982988,0,-1.9078029,1.0961686,-0.45659715,0.64046,-0.573128,1.1478075,-2.6797209,1.3042833,1.0907172,-0.119003,-0.034337077,0.48294732,-1.5043415,-0.90302795
0.1,0.0,1.0999999999999999,0.0,0.5235987755982988,0,-1.9070479,1.0933776,-0.4572453,0.6408598,-0.5681379,1.1466308,-2.7033083,1.0779526,1.1562406,0.09880077,-0.106203,0.42254475,-1.3711902,-0.7979216
0.1,0.0,1.0999999999999999,0.0,0.5235987755982988,0,-1.906929,1.0938658,-0.4559139,0.6411949,-0.604794,1.1402782,-2.764027,1.1393282,1.1916438,0.041687354,-0.022304513,-0.23211533,-1.474505,0.52280414
0.1,0.0,1.0999999999999999,0.0,0.5235987755982988,0,-1.9066384,1.0961818,-0.45600322,0.6406581,-0.58404666,1.1514097,-2.743039,1.3622967,1.0101957,-0.15484199,0.007784236,1.3854693,-1.5211204,0.9485784
0.1,0.0,1.0999999999999999,0.0,0.5235987755982988,0,-1.9075357,1.0942672,-0.4557398,0.64104193,-0.5983571,1.153727,-2.7301311,1.2427632,1.3179749,-0.019195141,-0.08879242,1.3269078,-1.3569736,0.62328756
0.1,0.0,1.0999999999999999,0.0,0.5235987755982988,0,-1.9073694,1.090588,-0.4574447,0.6413536,-0.5735879,1.1541617,-2.6777618,1.036846,1.0019975,-0.18050784,-0.09873318,2.2921379,-1.4506816,0.13822117
0.1,0.0,1.0999999999999999,0.0,0.5235987755982988,0,-1.907001,1.0942833,-0.4563211,0.6410038,-0.5920558,1.1429988,-2.7204225,1.1198851,1.0792142,-0.40061042,0.052815445,-0.23568954,-1.4658532,1.026342
0.1,0.0,1.0999999999999999,0.0,0.5235987755982988,0,-1.9069968,1.0930495,-0.45651355,0.6404751,-0.5779578,1.1530492,-2.693503,1.2586563,1.3358592,0.06775802,0.053240944,1.1795377,-1.3944681,-0.16026743
0.1,0.0,1.0999999999999999,0.0,0.5235987755982988,0,-1.907015,1.0942523,-0.45551762,0.6406256,-0.582861,1.1434394,-2.6837456,1.3240218,1.0949287,0.06416416,-0.040665448,1.0841922,-1.4564487,-0.5409975
0.1,0.0,1.0999999999999999,0.0,0.5235987755982988,0,-1.9070449,1.0937139,-0.45591795,0.64090466,-0.573757,1.1563216,-2.7453384,1.5946609,1.3040943,-0.027948005,0.02171993,1.1872798,-1.4359668,0.60818475
0.1,0.0,1.0999999999999999,0.0,0.5235987755982988,0,-1.9075948,1.0956299,-0.45751828,0.6416614,-0.5743766,1.1518949,-2.6690173,1.1033963,1.1635306,-0.0105653275,-0.1189961,-0.41612017,-1.4569868,-0.89958626
0.1,0.0,1.0999999999999999,0.0,0.5235987755982988,0,-1.9068376,1.0911359,-0.45492107,0.64069,-0.58176124,1.1480708,-2.663054,1.3398266,1.3025634,-0.193731,0.040329654,1.1915077,-1.4370472,0.634042
0.1,0.0,1.0999999999999999,0.0,0.5235987755982988,0,-1.9070699,1.0947648,-0.4562231,0.6406747,-0.6074512,1.1519302,-2.7123537,1.2135332,1.2950534,-0.039341312,-0.1960014,-0.058109324,-1.4626608,0.32897413
0.1,0.0,1.0999999999999999,0.0,0.5235987755982988,0,-1.9068351,1.0950158,-0.45622492,0.64075136,-0.58139914,1.1408602,-2.7182846,1.1292119,0.9567127,0.0004696748,-0.09622848,0.3536749,-1.4323359,-0.04451009
0.1,0.0,1.0999999999999999,0.0,0.5235987755982988,0,-1.9068756,1.0941927,-0.45614767,0.64110225,-0.5827368,1.145697,-2.72285,1.1470393,1.1130888,-0.22392769,-0.032302357,0.105701186,-1.4537482,-1.2255287
0.1,0.0,1.0999999999999999,0.0,0.5235987755982988,0,-1.907207,1.0929917,-0.45590448,0.64124966,-0.5528103,1.1421081,-2.7357283,1.1574765,0.9840379,0.027735332,-0.086409174,1.0055374,-1.4409956,-0.70389986
0.1,0.0,1.0999999999999999,0.0,0.5235987755982988,0,-1.906981,1.0958264,-0.45579997,0.6407281,-0.5869749,1.1451979,-2.7401206,0.98978543,1.1718537,-0.13938722,-0.06668871,0.5850722,-1.4246774,-0.7696387
0.1,0.0,1.0999999999999999,0.0,0.5235987755982988,0,-1.9066663,1.0945195,-0.45670757,0.6409199,-0.5773089,1.141908,-2.7046816,1.0796658,1.1054312,-0.31800905,0.018268423,1.1238755,-1.4279112,-0.09773465
0.1,0.0,1.0999999999999999,0.0,0.5235987755982988,0,-1.9080199,1.0994598,-0.45733815,0.64038515,-0.5742441,1.1512371,-2.7243435,1.1862422,1.0262587,0.10263138,-0.15710805,1.4753577,-1.4616405,-0.601552
0.1,0.0,1.0999999999999999,0.0,0.5235987755982988,0,-1.9065435,1.0932602,-0.45696434,0.641284,-0.5857682,1.1410549,-2.6881013,1.1498203,0.93496084,-0.13592,-0.055792253,-0.54592264,-1.4610538,-0.899141
0.1,0.0,1.0999999999999999,0.0,0.5235987755982988,0,-1.9070139,1.0965178,-0.45684096,0.6410091,-0.572003,1.1450077,-2.7029083,1.2415531,1.0898535,-0.24416246,-0.033592187,0.1617556,-1.4174334,-0.13928641
0.1,0.0,1.0999999999999999,0.0,0.5235987755982988,0,-1.906989,1.0957135,-0.45737085,0.64078695,-0.5855469,1.14703,-2.7471638,1.0046382,1.2686527,-0.13712199,-0.026203651,1.9483397,-1.3611772,0.48572218
0.1,0.0,1.0999999999999999,0.0,0.5235987755982988,0,-1.9056926,1.0903919,-0.45479572,0.641681,-0.567736,1.140927,-2.7155828,1.2163494,1.2376344,0.15177809,-0.06748111,0.30634326,-1.523169,0.09869846
0.1,0.0,1.0999999999999999,0.0,0.5235987755982988,0,-1.9065355,1.0926777,-0.45760402,0.64070654,-0.56999034,1.1520501,-2.7691667,1.1821198,1.1088814,-0.15370958,-0.07409901,0.8190949,-1.4334735,-0.87371606
0.1,0.0,1.0999999999999999,0.0,0.5235987755982988,0,-1.9068978,1.0947952,-0.45573997,0.64114857,-0.5797858,1.1506886,-2.770559,1.179434,1.1974949,-0.26269522,-0.08076895,0.61914706,-1.4191706,0.1713113
0.1,0.0,1.0999999999999999,0.0,0.5235987755982988,0,-1.9067926,1.0936292,-0.45459083,0.64079386,-0.59443635,1.1433897,-2.6741357,1.3889155,1.0033975,-0.2562175,-0.044139154,-0.9431567,-1.4798148,0.31839854
0.1,0.0,1.0999999999999999,0.0,0.5235987755982988,0,-1.9069967,1.091503,-0.45579243,0.6414195,-0.5956774,1.1630372,-2.730158,1.2640249,0.97562057,0.05016063,-0.05726503,1.0825806,-1.445545,-0.3955713
0.1,0.0,1.0999999999999999,0.0,0.5235987755982988,0,-1.9062755,1.0930225,-0.45655537,0.640815,-0.5739223,1.1487622,-2.7187903,1.5403506,1.22255,0.03790175,-0.053391658,1.0847783,-1.4007165,-0.1416552
0.1,0.0,1.0999999999999999,0.0,0.5235987755982988,0,-1.9069577,1.0944084,-0.45580825,0.641519,-0.5951488,1.1522571,-2.7092347,1.1698618,1.0339739,0.089832276,-0.052613433,0.70388967,-1.4696586,-0.5462826
0.1,0.0,1.0999999999999999,0.0,0.5235987755982988,0,-1.9071602,1.093546,-0.45651853,0.64080346,-0.57432294,1.1489167,-2.6752772,1.1234202,1.243567,0.17440969,-0.021059785,0.5767286,-1.4257035,-0.6370968
0.1,0.0,1.0999999999999999,0.0,0.5235987755982988,0,-1.9062965,1.0960064,-0.45569876,0.6410516,-0.5864584,1.1471851,-2.659573,1.1845057,1.2150189,-0.6367933,0.023460306,0.029685576,-1.389768,-0.4863684
0.1,0.0,1.0999999999999999,0.0,0.5235987755982988,0,-1.9068987,1.0945386,-0.45575178,0.64138657,-0.5754133,1.1427646,-2.7206407,1.203662,1.0411648,0.017015275,-0.10772066,-0.5703939,-1.5052874,-0.452369
0.1,0.0,1.0999999999999999,0.0,0.5235987755982988,0,-1.9062741,1.0951546,-0.45639107,0.6410887,-0.5743486,1.1500686,-2.743407,0.9138628,1.0343815,0.38073137,0.07636825,-0.5061702,-1.4851161,-1.0741509
0.1,0.0,1.0999999999999999,0.0,0.5235987755982988,0,-1.9074343,1.0992868,-0.456839,0.64090025,-0.5872501,1.15256,-2.6904185,1.4990927,1.1291668,-0.002989603,0.0076305834,0.99039435,-1.4647982,0.036724612
0.1,0.0,1.0999999999999999,0.0,0.5235987755982988,0,-1.906365,1.0914041,-0.45786333,0.6407344,-0.5653094,1.1509352,-2.694865,1.4382234,1.3347799,0.048859026,-0.07365149,0.39471704,-1.4995254,0.3897599
0.1,0.0,1.0999999999999999,0.0,0.5235987755982988,0,-1.906638,1.0981044,-0.4562955,0.64106715,-0.5946808,1.1439058,-2.6980178,1.0169705,1.2197454,-0.30366668,-0.044417776,0.4319458,-1.4592996,0.2999847
0.1,0.0,1.0999999999999999,0.0,0.5235987755982988,0,-1.9071717,1.0934876,-0.45666516,0.64116514,-0.5739661,1.1482666,-2.7133784,1.305861,1.1378809,-0.015080996,-0.02575903,1.1239802,-1.4660096,-0.62248594
0.1,0.0,1.0999999999999999,0.0,0.5235987755982988,0,-1.9067725,1.0915992,-0.45534512,0.64196986,-0.5828767,1.1516398,-2.720402,1.1872233,0.993918,0.070579275,-0.024403486,0.69157416,-1.5132734,-0.5701327
0.1,0.0,1.0999999999999999,0.0,0.5235987755982988,0,-1.9070394,1.0918378,-0.45538077,0.64119804,-0.5812177,1.1525974,-2.7254426,1.0633619,1.2919825,0.05080703,-0.021679392,1.9651377,-1.493693,0.06644382
0.1,0.0,1.0999999999999999,0.0,0.5235987755982988,0,-1.9066724,1.0927744,-0.45693466,0.64010864,-0.5915285,1.159406,-2.7031739,1.4715441,1.0184397,-0.15795925,-0.10515967,-0.32199708,-1.4674784,-0.54331654
0.1,0.0,1.0999999999999999,0.0,0.5235987755982988,0,-1.9064176,1.0927798,-0.45810628,0.64106745,-0.55387497,1.1557034,-2.7260897,1.5003736,1.0201739,0.026063275,-0.087320045,0.4016501,-1.4493397,-0.62255406
0.1,0.0,1.0999999999999999,0.0,0.5235987755982988,0,-1.906614,1.0944382,-0.4564612,0.64050967,-0.57018626,1.1375884,-2.6763272,1.1638163,1.0907717,-0.082967155,-0.027402136,1.2329042,-1.521778,-0.7067262
0.1,0.0,1.0999999999999999,0.0,0.5235987755982988,0,-1.9062333,1.0954231,-0.4567335,0.64116925,-0.57967323,1.1435522,-2.715354,1.0835075,1.0013497,-0.08661888,-0.0015019451,-0.73695755,-1.4275165,0.19070432
0.1,0.0,1.0999999999999999,0.0,0.5235987755982988,0,-1.9065593,1.0980079,-0.45705622,0.6410133,-0.58953166,1.1467187,-2.7518048,1.0976605,1.1094091,-0.09370305,0.03363848,0.19566697,-1.5396779,0.47682318
0.1,0.0,1.0999999999999999,0.0,0.5235987755982988,0,-1.9069432,1.0932969,-0.4555569,0.6413146,-0.56769866,1.1494634,-2.6837845,1.0257801,1.0682316,0.1694521,-0.030674297,0.24109629,-1.4799473,-0.21179673
0.1,0.0,1.0999999999999999,0.0,0.5235987755982988,0,-1.9067808,1.0926832,-0.45606026,0.64147145,-0.5769353,1.1474974,-2.6993687,1.475971,1.1517988,0.07739961,-0.11211092,1.5881078,-1.4851834,-0.7684792
0.1,0.0,1.0999999999999999,0.0,0.5235987755982988,0,-1.9067582,1.0950669,-0.45683262,0.6411359,-0.58885926,1.1498308,-2.716365,0.94678754,1.0624847,-0.24742176,-0.105259605,0.8626782,-1.4238329,-0.27461025
0.1,0.0,1.0999999999999999,0.0,0.5235987755982988,0,-1.9072652,1.0943308,-0.45468482,0.64021134,-0.56299525,1.1539937,-2.7262104,1.1644216,1.0848525,0.10131401,0.030079855,0.37460864,-1.4374297,-0.61787903
0.1,0.0,1.0999999999999999,0.0,0.5235987755982988,0,-1.9067469,1.097929,-0.45624587,0.64081913,-0.56178653,1.150991,-2.6711206,1.3351846,1.2313412,-0.15443578,-0.025179246,0.0004648639,-1.4518567,-0.15534689
0.1,0.0,1.0999999999999999,0.0,0.5235987755982988,0,-1.9075541,1.0921785,-0.45599577,0.64084905,-0.5468153,1.1519266,-2.712317,1.3402913,1.0181218,0.26176137,-0.053729583,-0.3944521,-1.449895,0.12608886
0.1,0.0,1.0999999999999999,0.0,0.5235987755982988,0,-1.9072077,1.091095,-0.45631576,0.64150065,-0.5784657,1.1580766,-2.7035718,1.2631499,1.2353157,-0.06016342,-0.045338918,0.79258126,-1.4919475,-0.8791137
0.1,0.0,1.0999999999999999,0.0,0.5235987755982988,0,-1.9067062,1.0930247,-0.45560586,0.641617,-0.58486587,1.155129,-2.7267907,1.1652218,1.1282954,-0.30303448,-0.01966606,-0.56747484,-1.4841865,0.32010782
0.1,0.0,1.0999999999999999,0.0,0.5235987755982988,0,-1.9063616,1.0942369,-0.45623598,0.64121664,-0.56951797,1.1501722,-2.7236497,1.1655761,1.1728568,-0.12767744,-0.12965098,1.5035341,-1.4905982,-1.224859
0.1,0.0,1.0999999999999999,0.0,0.5235987755982988,0,-1.9071255,1.0921382,-0.45748103,0.64105,-0.5671679,1.1514007,-2.688033,1.2822014,1.2179857,-0.17874481,-0.044420984,-0.19812793,-1.4122952,-1.1099353
0.1,0.0,1.0999999999999999,0.0,0.5235987755982988,0,-1.9070482,1.0959398,-0.45628166,0.64108866,-0.55999494,1.1539502,-2.740189,0.94689304,1.2831615,-0.40235838,-0.13976026,0.50951827,-1.4048656,-0.42938393
0.1,0.0,1.0999999999999999,0.0,0.5235987755982988,0,-1.9071271,1.0951804,-0.45700878,0.6411952,-0.5741701,1.1492738,-2.697752,1.488771,1.00261,0.17554958,0.02291736,1.8436232,-1.4124829,-0.5285115
0.1,0.0,1.0999999999999999,0.0,0.5235987755982988,0,-1.906867,1.091818,-0.45695734,0.6404256,-0.56566745,1.1552254,-2.7544372,1.1743276,0.9745094,-0.13519703,-0.08143181,1.1818849,-1.5134983,-0.82177514
0.1,0.0,1.0999999999999999,0.0,0.5235987755982988,0,-1.9068979,1.0966749,-0.45572525,0.6408006,-0.5764728,1.1409749,-2.681811,1.5005904,1.1013047,-0.24828339,-0.028831802,0.12963226,-1.506488,-1.8074361
0.1,0.0,1.0999999999999999,0.0,0.5235987755982988,0,-1.9071785,1.0944988,-0.45564815,0.6399661,-0.59859407,1.1481944,-2.6724803,1.2501737,1.3003645,0.17657664,-0.047701206,1.5411392,-1.445423,-0.39623037
0.1,0.0,1.0999999999999999,0.0,0.5235987755982988,0,-1.9069647,1.0955298,-0.45578933,0.64089143,-0.5728006,1.1546847,-2.7147965,1.2125906,1.1450216,-0.03553048,-0.07618577,-1.0886347,-1.3961264,0.41783065
0.1,0.0,1.0999999999999999,0.0,0.5235987755982988,0,-1.9071101,1.095829,-0.45747638,0.6409128,-0.58788216,1.1611197,-2.6734624,1.6494561,1.0899639,-0.3027608,-0.07979716,0.6261338,-1.4626335,-0.99790835
0.1,0.0,1.0999999999999999,0.0,0.5235987755982988,0,-1.9069484,1.0958685,-0.45515135,0.6410186,-0.57700944,1.147863,-2.7007174,1.3129826,1.1026591,-0.11927884,0.016055567,-0.27700925,-1.4037313,-0.06323735
0.1,0.0,1.0999999999999999,0.0,0.5235987755982988,0,-1.9070152,1.0929868,-0.45620784,0.6410537,-0.5719903,1.1462152,-2.701704,1.1781455,1.3031986,-0.21479584,0.0053348397,1.3607199,-1.4381589,-0.22827657
0.1,0.0,1.0999999999999999,0.0,0.5235987755982988,0,-1.906769,1.0955642,-0.45593393,0.64087737,-0.5844459,1.147264,-2.686702,0.9992621,1.1291834,-0.1468848,-0.047344334,0.62887216,-1.4665544,-0.82121646
0.1,0.0,1.0999999999999999,0.0,0.5235987755982988,0,-1.907326,1.0917383,-0.4572384,0.64135593,-0.5659878,1.1539569,-2.6870086,1.0273353,1.0483825,-0.12630177,-0.047166683,0.057580624,-1.4612889,-0.5196747
0.1,0.0,1.0999999999999999,0.0,0.5235987755982988,0,-1.9072553,1.098476,-0.45659578,0.64076847,-0.58849645,1.1526533,-2.7012076,1.7149662,1.0744419,0.07480316,-0.029405253,0.85292304,-1.4271111,0.7195294
0.1,0.0,1.0999999999999999,0.0,0.5235987755982988,0,-1.9070604,1.0950173,-0.45659053,0.6410915,-0.5654933,1.1497225,-2.7040355,1.2817172,1.1842681,-0.030774118,-0.0014227952,0.12378072,-1.3920125,0.43022102
0.1,0.0,1.0999999999999999,0.0,0.5235987755982988,0,-1.9068042,1.0944453,-0.4572394,0.6411076,-0.6110798,1.1531458,-2.7392614,1.299545,1.1263329,-0.17360637,-0.044635806,0.71828467,-1.5026228,0.39721859
0.1,0.0,1.0999999999999999,0.0,0.5235987755982988,0,-1.9065292,1.0981551,-0.45680523,0.6408719,-0.5620956,1.1529243,-2.7508783,1.0406574,1.1526595,0.16142586,-0.08603744,0.13927683,-1.4597741,0.172487
0.1,0.0,1.0999999999999999,0.0,0.5235987755982988,0,-1.9064894,1.0935935,-0.45643494,0.6411445,-0.57250196,1.1546305,-2.6947236,1.2440698,1.473923,-0.19991378,-0.025316875,1.2487513,-1.453065,0.12088323
0.1,0.0,1.0999999999999999,0.0,0.5235987755982988,0,-1.907015,1.0934925,-0.45709386,0.6412928,-0.5794819,1.1499851,-2.7377844,1.1547233,1.0896982,-0.059810925,-0.039068874,-0.14365655,-1.4738103,-0.5702898
0.1,0.0,1.0999999999999999,0.0,0.5235987755982988,0,-1.9062028,1.09336,-0.45555982,0.6415432,-0.56269556,1.1500813,-2.7222397,1.1915464,0.9930617,-0.31561056,-0.024803827,-0.26151693,-1.4890002,0.4216625
0.1,0.0,1.0999999999999999,0.0,0.5235987755982988,0,-1.906833,1.0971413,-0.45622802,0.64017045,-0.58392924,1.149638,-2.7252653,1.4167095,1.2107389,-0.10295939,-0.02212803,1.1053761,-1.467761,-0.8606052
0.1,0.0,1.0999999999999999,0.0,0.5235987755982988,0,-1.9066651,1.0937188,-0.45697436,0.64107084,-0.58051383,1.1469266,-2.67662,1.8149107,1.1742173,-0.12304025,-0.056350674,0.65195596,-1.4304985,-0.23311128
0.1,0.0,1.0999999999999999,0.0,0.5235987755982988,0,-1.9070598,1.0948653,-0.45612624,0.6410492,-0.56783724,1.1566579,-2.7292361,1.4518819,1.1313953,-0.11802704,-0.047015417,0.38501835,-1.4279665,0.24564679
0.1,0.0,1.0999999999999999,0.0,0.5235987755982988,0,-1.9065275,1.094624,-0.45650175,0.6411279,-0.6073573,1.1475091,-2.7003238,0.88141465,1.104516,-0.10665877,0.05930247,2.2402477,-1.5624166,-0.022375846
0.1,0.0,1.0999999999999999,0.0,0.5235987755982988,0,-1.9071046,1.0951762,-0.45642692,0.6410594,-0.5936642,1.1457989,-2.7108383,1.1815528,1.1124727,-0.08477161,-0.03331877,2.2588048,-1.4524643,-0.27721608
0.1,0.0,1.0999999999999999,0.0,0.5235987755982988,0,-1.9064516,1.0964847,-0.45688805,0.6415551,-0.5667524,1.1504141,-2.7213888,1.5432416,1.2188225,-0.16298825,-0.0393683,1.0216173,-1.434212,0.80396485
0.1,0.0,1.0999999999999999,0.0,0.5235987755982988,0,-1.9066918,1.0930882,-0.45757887,0.6411022,-0.583085,1.1560177,-2.7208476,1.2046427,1.2925508,0.06056442,-0.047936134,0.5486468,-1.3916785,-0.2451009
0.1,0.0,1.0999999999999999,0.0,0.5235987755982988,0,-1.9069937,1.0933757,-0.45735443,0.64035344,-0.59310675,1.158944,-2.700735,1.4575186,1.1350987,-0.22247228,0.039438788,0.570062,-1.5038908,0.15738091
0.1,0.0,1.0999999999999999,0.0,0.5235987755982988,0,-1.9070078,1.0979835,-0.45746142,0.6407486,-0.58781123,1.1550065,-2.7003238,1.2717285,1.2738842,-0.1495235,-0.0346956,-0.5412311,-1.3869411,-0.5864796
0.1,0.0,1.0999999999999999,0.0,0.5235987755982988,0,-1.9060727,1.0948929,-0.45602196,0.64090633,-0.5804011,1.156577,-2.7583804,1.309946,1.1528711,-0.19850902,-0.075982995,-0.4680744,-1.4499953,-0.64576834
0.1,0.0,1.0999999999999999,0.0,0.5235987755982988,0,-1.9068568,1.0945398,-0.45675987,0.64070684,-0.55364966,1.1542177,-2.6895015,1.072493,1.1980242,-0.15626203,-0.010168783,1.3438324,-1.4781951,0.844376
0.1,0.0,1.0999999999999999,0.0,0.5235987755982988,0,-1.9069684,1.0934625,-0.45602468,0.6405613,-0.5877846,1.1550924,-2.6966398,1.220198,1.0900531,-0.3370856,-0.055615634,0.89958924,-1.4524301,-0.82396036
0.1,0.0,1.0999999999999999,0.0,0.5235987755982988,0,-1.9075985,1.1002815,-0.45795897,0.64106077,-0.6022969,1.1615703,-2.738534,1.3765463,1.0492976,-0.053513926,-0.106503874,-0.42169166,-1.4762933,-0.30140066
0.1,0.0,1.0999999999999999,0.0,0.5235987755982988,0,-1.9073962,1.0940611,-0.45738974,0.64099795,-0.594147,1.1529446,-2.687016,1.2815533,1.2032411,-0.078977674,-0.05865998,0.86465156,-1.4562821,-0.60908985
0.1,0.0,1.0999999999999999,0.0,0.5235987755982988,0,-1.9073969,1.0946155,-0.45575118,0.64083,-0.58646005,1.1591799,-2.7137802,1.0923223,1.1942216,0.0021944952,-0.038934354,0.48917145,-1.457559,-0.63477457
0.1,0.0,1.0999999999999999,0.0,0.5235987755982988,0,-1.9068359,1.0948033,-0.45677873,0.64095485,-0.570252,1.1552494,-2.723557,1.6003889,1.2995158,-0.17160112,0.061900098,0.76543653,-1.3959761,-1.6449765
0.1,0.0,1.0999999999999999,0.0,0.5235987755982988,0,-1.9072671,1.0904214,-0.45696756,0.64134014,-0.57673585,1.151322,-2.7014856,1.4615005,1.038434,-0.14462808,-0.008021531,0.74111855,-1.5044283,-0.65638167
0.1,0.0,1.0999999999999999,0.0,0.5235987755982988,0,-1.906777,1.0943241,-0.45606524,0.6404068,-0.60763377,1.1448833,-2.7140102,1.1697524,1.0457898,-0.20807941,-0.0116577735,0.32549948,-1.4298579,-1.1040266
0.1,0.0,1.0999999999999999,0.0,0.5235987755982988,0,-1.9061718,1.0948285,-0.45687395,0.64079815,-0.56439316,1.1504334,-2.7193067,1.2227954,1.0482008,-0.14951104,-0.0077576055,0.018082203,-1.439422,0.0572959
0.1,0.0,1.0999999999999999,0.0,0.5235987755982988,0,-1.9071596,1.09529,-0.45521984,0.64070773,-0.5849597,1.1419841,-2.7077236,1.0632226,1.3068564,-0.14995039,0.037863463,0.40722984,-1.4833897,-0.5905887
0.1,0.0,1.0999999999999999,0.0,0.5235987755982988,0,-1.906493,1.0939078,-0.45509923,0.64159316,-0.59398943,1.1460096,-2.694185,1.2399492,1.0469053,0.11688575,0.082072034,0.4882105,-1.4292164,-0.3692966
0.1,0.0,1.0999999999999999,0.0,0.5235987755982988,0,-1.907119,1.0918998,-0.45702407,0.64050144,-0.57795876,1.1542193,-2.7570715,1.4874088,1.2682443,-0.055478916,-0.050977357,0.45158607,-1.440105,0.31047714
0.1,0.0,1.0999999999999999,0.0,0.5235987755982988,0,-1.9066669,1.0959091,-0.45556372,0.64083225,-0.56164455,1.1502646,-2.7419891,1.1711086,1.1068112,-0.17042263,-0.08275443,0.7806969,-1.3647985,-0.4164299
0.1,0.0,1.0999999999999999,0.0,0.5235987755982988,0,-1.9071538,1.0937699,-0.45800745,0.64122295,-0.56488955,1.1476363,-2.7025132,1.4875702,0.8157266,-0.20906252,0.10429039,-0.16278255,-1.4525182,-0.35653296
0.1,0.0,1.0999999999999999,0.0,0.5235987755982988,0,-1.906487,1.0909873,-0.45706826,0.64104134,-0.5594989,1.1502333,-2.6863568,1.3217592,1.1513245,-0.16654044,0.038288254,-0.39208534,-1.4361176,-0.8788328
0.1,0.0,1.0999999999999999,0.0,0.5235987755982988,0,-1.9072638,1.0925379,-0.45631537,0.6407509,-0.5699748,1.1439123,-2.7522843,1.1371706,1.2091545,-0.20215791,0.009458976,-0.17240342,-1.490154,-0.88522774
0.1,0.0,1.0999999999999999,0.0,0.5235987755982988,0,-1.9073418,1.0921289,-0.4578402,0.64126474,-0.5638949,1.1443636,-2.7376897,1.215412,1.0184174,-0.016017552,-0.09142807,-0.5272495,-1.4296935,-0.8858618
0.1,0.0,1.0999999999999999,0.0,0.5235987755982988,0,-1.9073467,1.089271,-0.45593458,0.6414046,-0.59186095,1.1573198,-2.7699385,1.4404669,0.96915996,-0.14118361,-0.039127547,0.98678803,-1.5071807,-0.8836919
0.1,0.0,1.0999999999999999,0.0,0.5235987755982988,0,-1.908038,1.0909591,-0.45529136,0.6407223,-0.551968,1.1404405,-2.715458,1.4835683,1.0733647,0.030358028,0.030049108,0.36240086,-1.4857707,0.06979144
0.1,0.0,1.0999999999999999,0.0,0.5235987755982988,0,-1.9069438,1.0915524,-0.45551974,0.6410595,-0.5651527,1.1493318,-2.7576954,1.040898,1.1920649,-0.1513059,-0.02743437,-1.2227151,-1.4837524,-0.69177276
0.1,0.0,1.0999999999999999,0.0,0.5235987755982988,0,-1.9067851,1.0897878,-0.45664814,0.6405265,-0.56945425,1.1413491,-2.7363894,1.5392579,1.0773981,0.21868342,0.0014987664,0.6155432,-1.4598132,0.6246262
0.1,0.0,1.0999999999999999,0.0,0.5235987755982988,0,-1.9063152,1.0962448,-0.45684287,0.6404358,-0.59143037,1.1464262,-2.7536564,1.333375,1.0135988,-0.0033755496,0.011312116,0.5049532,-1.3613741,-0.459878
0.1,0.0,1.0999999999999999,0.0,0.5235987755982988,0,-1.9071503,1.093381,-0.45698828,0.64064676,-0.56542903,1.1486965,-2.7284164,1.2775713,1.1354723,-0.05538746,0.06911322,-0.125059,-1.3735623,-0.3239584
0.1,0.0,1.0999999999999999,0.0,0.5235987755982988,0,-1.9074368,1.0991118,-0.45518354,0.6414718,-0.57251626,1.1493335,-2.6917822,1.4232769,1.084697,-0.09603742,0.042397883,1.358178,-1.5108815,0.112519726
0.1,0.0,1.0999999999999999,0.0,0.5235987755982988,0,-1.9071792,1.0937198,-0.45674142,0.64066684,-0.579475,1.1452705,-2.6718235,1.0984966,1.0877643,-0.06265028,-0.18084592,0.74028474,-1.360034,-0.5602495
0.1,0.0,1.0999999999999999,0.0,0.5235987755982988,0,-1.9067556,1.0932828,-0.45578703,0.64084166,-0.58532387,1.1441125,-2.751105,1.5179111,0.89428926,-0.15986794,-0.17491332,-0.031127205,-1.4319998,-1.115141
0.1,0.0,1.0999999999999999,0.0,0.5235987755982988,0,-1.9070754,1.0970002,-0.45553803,0.64096713,-0.5617423,1.1454775,-2.713492,1.5524682,1.1112996,-0.26612613,-0.100884266,0.9477906,-1.4526831,-0.96530336
0.1,0.0,1.0999999999999999,0.0,0.5235987755982988,0,-1.9075303,1.0921401,-0.45548245,0.6411932,-0.5758374,1.1473322,-2.665194,1.140359,0.95639294,-0.18693152,-0.0086176675,1.1566007,-1.4341279,0.56817997
0.1,0.0,1.0999999999999999,0.0,0.5235987755982988,0,-1.9070187,1.091248,-0.45525098,0.64064395,-0.5605114,1.1434137,-2.716114,1.301493,1.2447796,0.08116174,-0.02163111,0.70665985,-1.4807582,-0.25821283
0.1,0.0,1.0999999999999999,0.0,0.5235987755982988,0,-1.9069822,1.0972481,-0.45645145,0.64113545,-0.58476084,1.1490626,-2.7138808,1.3237535,0.9289951,-0.27408317,0.019611757,1.0008085,-1.4268147,-0.6974954
0.1,0.0,1.0999999999999999,0.0,0.5235987755982988,0,-1.9070314,1.0942744,-0.4565837,0.6414903,-0.56615335,1.1473532,-2.6893585,1.1250455,1.3735547,-0.20007607,-0.019336488,-0.9917747,-1.5139668,0.07626544
0.1,0.0,1.0999999999999999,0.0,0.5235987755982988,0,-1.9073073,1.0994781,-0.4564218,0.64071697,-0.58590114,1.1526146,-2.7276084,1.4003035,1.0756338,0.12827376,-0.08004584,0.7430335,-1.422237,0.008123287
0.1,0.0,1.0999999999999999,0.0,0.5235987755982988,0,-1.9074804,1.0970821,-0.4563583,0.64101595,-0.5785915,1.149431,-2.725371,1.3776498,1.2405103,-0.33239308,-0.011388858,0.4251891,-1.479021,0.24552734
0.1,0.0,1.0999999999999999,0.0,0.5235987755982988,0,-1.9065801,1.0940933,-0.4562561,0.6404841,-0.5581356,1.1488625,-2.6949801,1.2929548,1.1373732,-0.061003324,0.027219832,-1.1091105,-1.4572027,0.3154517
0.1,0.0,1.0999999999999999,0.0,0.5235987755982988,0,-1.9067758,1.0950756,-0.4551555,0.6414405,-0.57058626,1.1517724,-2.6919281,1.3365071,1.0867656,-0.23209128,-0.077371754,0.96970093,-1.4254063,-0.83531654
0.1,0.0,1.0999999999999999,0.0,0.5235987755982988,0,-1.9069909,1.0958076,-0.4561049,0.6405709,-0.580483,1.1472684,-2.6869016,1.5986395,1.136927,0.008964518,-0.06067217,-0.2605555,-1.4697295,-0.8291679
0.1,0.0,1.0999999999999999,0.0,0.5235987755982988,0,-1.9069754,1.09336,-0.45702824,0.641069,-0.5808021,1.1515365,-2.7402868,1.1655489,1.2569128,-0.19138221,-0.11681068,1.1777492,-1.4508076,-0.18516374
0.1,0.0,1.0999999999999999,0.0,0.5235987755982988,0,-1.9072931,1.0938854,-0.456721,0.64068913,-0.56679195,1.1519477,-2.7448041,1.4398376,1.1821313,0.2027681,-0.06341173,0.7130868,-1.4916967,-1.0153441
0.1,0.0,1.0999999999999999,0.0,0.5235987755982988,0,-1.906753,1.0942541,-0.45674273,0.6408549,-0.5770911,1.1491292,-2.687678,1.1697328,1.2309852,-0.09434068,-0.10264546,0.8528014,-1.4958949,-0.079572566
0.1,0.0,1.0999999999999999,0.0,0.5235987755982988,0,-1.9074643,1.0961251,-0.45538417,0.64118725,-0.58690935,1.1530576,-2.713562,1.110144,1.2283314,-0.18177833,-0.026789444,1.2618501,-1.4589379,-1.27222
0.1,0.0,1.0999999999999999,0.0,0.5235987755982988,0,-1.9072611,1.0964177,-0.45640478,0.6403287,-0.5891127,1.1497763,-2.661852,1.2125454,1.0450678,-0.30277777,-0.0019680017,-0.7862034,-1.4670812,-0.5649648
0.1,0.0,1.0999999999999999,0.0,0.5235987755982988,0,-1.9071076,1.0935597,-0.45511708,0.64151156,-0.5734165,1.1586438,-2.707084,1.3884753,1.0377002,-0.13016742,-0.075808875,1.856175,-1.4372565,-0.12039599
0.1,0.0,1.0999999999999999,0.0,0.5235987755982988,0,-1.906898,1.0952487,-0.45765626,0.6407733,-0.59362423,1.1557857,-2.7043095,1.3456409,1.1107824,0.043675933,-0.09253349,1.2532798,-1.4580653,0.28370675
0.1,0.0,1.0999999999999999,0.0,0.5235987755982988,0,-1.9065852,1.0925449,-0.45641747,0.64109313,-0.5656747,1.1558222,-2.7360947,1.2105359,1.1712112,-0.16525535,-0.12493574,0.4142217,-1.4970605,0.1386158
0.1,0.0,1.0999999999999999,0.0,0.5235987755982988,0,-1.907063,1.0930163,-0.4541257,0.640553,-0.5682103,1.1397479,-2.7113955,1.2783645,1.0571494,-0.08571281,-0.07769589,1.3314359,-1.5082961,0.53510016
0.1,0.0,1.0999999999999999,0.0,0.5235987755982988,0,-1.9056077,1.0942492,-0.4561526,0.64128745,-0.56946987,1.1455214,-2.7401848,1.3070564,1.010725,-0.41940314,-0.046115126,1.6266097,-1.489705,-0.57802665
0.1,0.0,1.0999999999999999,0.0,0.5235987755982988,0,-1.9072899,1.0937965,-0.45610234,0.64122766,-0.5618692,1.1464219,-2.7346895,0.9620314,1.0575244,-0.023606118,0.09528401,1.0179703,-1.451596,-1.0492604
0.1,0.0,1.0999999999999999,0.0,0.5235987755982988,0,-1.9067379,1.0945976,-0.45760217,0.640575,-0.57902294,1.1518332,-2.7318854,1.1768764,1.2536143,-0.22397348,-0.015446584,1.2414393,-1.4736485,0.2353758
0.1,0.0,1.0999999999999999,0.0,0.5235987755982988,0,-1.9069456,1.0959173,-0.45732385,0.64024734,-0.5845593,1.1552823,-2.6860368,1.0776827,1.3338664,0.08565368,-0.087012574,0.27622598,-1.362142,-0.0051881294
