sanky1234/BimanualDexCatch/isaacgymenvs/cem_results/football_pose_0.0_0.1_1.4_0.5235987755982988_0.5235987755982988_0_2025-05-26.csv
x,y,z,roll,pitch,yaw,robot1/joint1,robot1/joint2,robot1/joint3,robot1/joint4,robot1/joint5,robot1/joint6,robot1/joint7,robot2/joint1,robot2/joint2,robot2/joint3,robot2/joint4,robot2/joint5,robot2/joint6,robot2/joint7
0.0,0.1,1.4,0.5235987755982988,0.5235987755982988,0,-0.12697504,-0.29189795,-0.4948581,0.530797,0.3987599,1.077788,0.651932,1.7033633,1.3014557,-0.080486745,-0.14861564,-0.17130361,1.1246626,-0.2435917
0.0,0.1,1.4,0.5235987755982988,0.5235987755982988,0,-0.12751585,-0.2916869,-0.49001676,0.5368506,0.7607491,1.2475531,2.0634935,1.9146882,1.1621728,-0.11964531,0.038916655,-0.18000901,1.0779549,0.49773243
0.0,0.1,1.4,0.5235987755982988,0.5235987755982988,0,-0.12687546,-0.29194117,-0.49531016,0.35490435,0.47013348,1.0529441,0.053745445,1.7235951,1.2823731,0.023944058,-0.18984656,0.5057251,1.2746557,0.206011
0.0,0.1,1.4,0.5235987755982988,0.5235987755982988,0,-0.12675115,-0.29195303,-0.49166065,0.38085997,1.0627983,1.1941465,0.63183045,1.8769484,1.4595807,-0.137101,-0.1222883,-0.10502422,1.3278025,0.35987785
0.0,0.1,1.4,0.5235987755982988,0.5235987755982988,0,-0.12780586,-0.29199645,-0.48943725,0.3994935,0.8918336,1.2216823,0.0044532097,1.5808733,1.3293374,-0.31837663,-0.20386258,0.02918902,1.0198627,-0.9229206
0.0,0.1,1.4,0.5235987755982988,0.5235987755982988,0,-0.12714325,-0.2921451,-0.4914424,0.4028278,0.5210284,1.1706752,-0.35278544,1.7341303,1.0338317,-0.13252679,-0.10198395,0.3106845,1.1753768,0.9621734
0.0,0.1,1.4,0.5235987755982988,0.5235987755982988,0,-0.12786053,-0.29149675,-0.49239287,0.3423552,0.5782586,1.315009,0.86852527,1.7322344,1.17923,-0.4431434,-0.2112928,-0.16334113,1.1872774,0.24283704
0.0,0.1,1.4,0.5235987755982988,0.5235987755982988,0,-0.12713613,-0.29200086,-0.48886847,0.35201278,0.21933267,1.047816,0.92548746,1.58683,1.4507315,-0.3106851,0.11725029,-0.13889481,0.89648885,0.85090905
0.0,0.1,1.4,0.5235987755982988,0.5235987755982988,0,-0.12713341,-0.2916406,-0.4881758,0.4010606,0.5631641,1.1891743,2.1654482,1.8405515,1.2962807,-0.24381687,-0.08125624,-0.27022094,1.1656576,1.0223154
0.0,0.1,1.4,0.5235987755982988,0.5235987755982988,0,-0.12827961,-0.29174584,-0.49629867,0.49480543,0.42326242,1.2691915,0.5472054,1.7475579,1.2761592,0.46435413,-0.046372708,-0.30319983,1.0254542,1.0684013
0.0,0.1,1.4,0.5235987755982988,0.5235987755982988,0,-0.12803984,-0.29166004,-0.49475163,0.45054176,0.5624777,1.1935112,0.7799845,1.6224812,1.4387724,-0.2715758,-0.29330584,-0.105175145,1.281354,-0.14690489
0.0,0.1,1.4,0.5235987755982988,0.5235987755982988,0,-0.12780339,-0.29191697,-0.49051747,0.45245916,0.43905276,1.2416562,0.20016274,1.6660475,1.3172786,-0.06955978,-0.2133525,0.27651048,1.0574206,-0.5008045
0.0,0.1,1.4,0.5235987755982988,0.5235987755982988,0,-0.12792927,-0.29182953,-0.49420425,0.4174756,0.64664483,1.2636092,0.5784957,1.8077562,1.1219823,-0.16737644,-0.08925315,-0.014768752,1.2281698,0.90531474
0.0,0.1,1.4,0.5235987755982988,0.5235987755982988,0,-0.12803367,-0.2919204,-0.48969936,0.4456434,0.67825174,1.3022677,1.1300505,1.8133022,1.2166355,-0.5093625,-0.062542185,0.07289301,1.2602885,1.5492059
0.0,0.1,1.4,0.5235987755982988,0.5235987755982988,0,-0.12754473,-0.29199466,-0.4876172,0.44998288,0.5590112,1.2754967,0.46447545,1.6544145,1.4390329,-0.33686227,-0.019526897,0.07699249,1.229319,0.88863915
0.0,0.1,1.4,0.5235987755982988,0.5235987755982988,0,-0.12648135,-0.29186618,-0.4914142,0.4208198,1.3201308,1.2891806,1.1234462,1.773108,1.2998931,-0.34568605,-0.033703882,0.20015103,1.15871,-0.22756839
0.0,0.1,1.4,0.5235987755982988,0.5235987755982988,0,-0.12644458,-0.29193684,-0.49479437,0.49218336,0.29734364,1.3568934,0.7442927,1.803341,1.161195,0.21721733,-0.18996787,0.050247587,1.0867441,-0.0100757815
0.0,0.1,1.4,0.5235987755982988,0.5235987755982988,0,-0.12852468,-0.29175436,-0.49378547,0.4643213,0.8340367,1.2746614,1.1798401,1.7218119,1.0652146,-0.004731321,-0.019986728,-0.046413694,1.1392668,0.21909334
0.0,0.1,1.4,0.5235987755982988,0.5235987755982988,0,-0.12687103,-0.29162374,-0.4944136,0.4706023,0.28138503,1.1957879,0.5077397,1.7532864,1.422881,-0.34737563,-0.16584043,0.22435546,0.9670617,0.70998424
0.0,0.1,1.4,0.5235987755982988,0.5235987755982988,0,-0.12785138,-0.29170904,-0.49552232,0.448134,0.82467574,1.0809041,-0.09221955,1.8041964,1.5326898,-0.39383167,-0.06342064,0.22407788,1.300354,0.6119987
0.0,0.1,1.4,0.5235987755982988,0.5235987755982988,0,-0.1286219,-0.29172558,-0.49655142,0.41165483,0.6740561,1.1688188,0.8056867,1.8184432,1.1974887,-0.14628838,-0.15248945,0.4398255,0.94212013,0.5627262
0.0,0.1,1.4,0.5235987755982988,0.5235987755982988,0,-0.12780488,-0.2919,-0.49446878,0.5059893,0.32833424,1.2174062,0.7055199,1.6583524,1.177328,-0.18352424,-0.015519903,0.2665302,1.3414601,-0.05303209
0.0,0.1,1.4,0.5235987755982988,0.5235987755982988,0,-0.1273634,-0.29170224,-0.49241582,0.48397002,-0.011277002,1.1871268,1.2965294,1.6812152,1.4596924,-0.35366726,-0.14972088,0.24517211,1.1810513,-0.83605075
0.0,0.1,1.4,0.5235987755982988,0.5235987755982988,0,-0.1280663,-0.29179066,-0.49081284,0.4227952,0.3080538,1.2550998,0.8236506,1.7975403,1.3705118,0.21753635,0.045974754,0.08452538,1.0259554,0.89421386
0.0,0.1,1.4,0.5235987755982988,0.5235987755982988,0,-0.12801042,-0.2918539,-0.4927168,0.47257918,0.6029532,1.1676823,0.064836435,1.7043109,1.3688995,0.40941122,-0.17057483,-0.15452757,0.9095877,-1.1742305
0.0,0.1,1.4,0.5235987755982988,0.5235987755982988,0,-0.1280122,-0.29177994,-0.49540016,0.3784137,0.23419712,1.3263793,1.8492113,1.6463763,1.4002624,-0.17707497,-0.061778262,-0.097196475,1.0337795,1.1740922
0.0,0.1,1.4,0.5235987755982988,0.5235987755982988,0,-0.12756619,-0.29170337,-0.4904907,0.40966538,0.6937972,1.247298,0.0046213553,1.7076622,1.4319406,-0.30395383,-0.02671634,-0.295591,0.96940243,0.5720217
0.0,0.1,1.4,0.5235987755982988,0.5235987755982988,0,-0.12818336,-0.29183486,-0.4940561,0.4726833,0.5670335,1.1269622,0.32311296,1.7002921,1.1552887,-0.42766166,-0.080156356,-0.210731,1.1057296,-0.39319006
0.0,0.1,1.4,0.5235987755982988,0.5235987755982988,0,-0.12812217,-0.29165825,-0.48907915,0.4559311,0.47427845,1.344077,0.34387034,1.6225373,1.2358059,-0.39038748,0.025228,-0.1194182,1.0561972,0.20846337
0.0,0.1,1.4,0.5235987755982988,0.5235987755982988,0,-0.1284625,-0.29190284,-0.4917424,0.47596505,0.37271133,1.1827288,0.45766774,1.6840681,1.5495065,-0.45414492,-0.016119651,0.1072598,1.1230725,0.08806444
0.0,0.1,1.4,0.5235987755982988,0.5235987755982988,0,-0.12751383,-0.29146206,-0.49301547,0.43341196,1.1585903,1.2308307,-1.0332239,1.783978,1.3074111,0.058172654,-0.092973314,-0.26132607,1.0816158,-0.007516298
0.0,0.1,1.4,0.5235987755982988,0.5235987755982988,0,-0.12800023,-0.2917359,-0.49058717,0.44618,0.3264573,1.1941438,-0.71314716,1.7238243,1.3220123,0.33405295,-0.03723944,-0.1083219,1.0242736,-0.8051055
0.0,0.1,1.4,0.5235987755982988,0.5235987755982988,0,-0.1274416,-0.29212302,-0.49262023,0.5114448,0.0028684968,1.201539,0.52939236,1.7520431,1.3505346,-0.029303802,-0.017004658,-0.040181022,1.0447233,-0.1397868
0.0,0.1,1.4,0.5235987755982988,0.5235987755982988,0,-0.12789884,-0.29210842,-0.4925533,0.44285527,0.60930926,1.0072267,0.9123046,1.6538002,1.4192351,-0.049519386,0.047344685,0.034939524,1.1595708,-0.36654603
0.0,0.1,1.4,0.5235987755982988,0.5235987755982988,0,-0.12777227,-0.29201362,-0.49124765,0.43580383,1.1291677,1.2199453,0.5759379,1.6741371,1.4101754,-0.1294712,-0.2451634,-0.008640946,1.0672911,-0.53394926
0.0,0.1,1.4,0.5235987755982988,0.5235987755982988,0,-0.12797348,-0.2921504,-0.48651475,0.40653712,0.8307636,1.2025635,-0.001171276,1.7073386,1.3827537,0.13432135,-0.014171646,-0.1065035,1.097221,-0.061467372
0.0,0.1,1.4,0.5235987755982988,0.5235987755982988,0,-0.12752368,-0.29183924,-0.4934093,0.4806396,1.1002007,1.3802303,0.5055427,1.8911724,1.1282839,-0.44634098,-0.23099646,-0.2902787,1.1466752,0.5699877
0.0,0.1,1.4,0.5235987755982988,0.5235987755982988,0,-0.12739046,-0.29200488,-0.4966923,0.4200588,0.5525198,1.3565016,0.24817196,1.7561688,1.0673258,-0.23885451,-0.01036283,0.1556537,1.2710564,0.5887489
0.0,0.1,1.4,0.5235987755982988,0.5235987755982988,0,-0.12748636,-0.29199058,-0.49155104,0.37786385,0.25998062,1.2434819,1.9016744,1.7652841,1.4308864,0.0043734615,-0.22024427,-0.13543423,0.99063855,-0.5385427
0.0,0.1,1.4,0.5235987755982988,0.5235987755982988,0,-0.12711534,-0.29189208,-0.49364117,0.47394773,0.22413944,1.2988342,1.6517162,1.7947128,1.4616758,-0.18807374,-0.022495272,0.15867539,1.1377809,1.019407
0.0,0.1,1.4,0.5235987755982988,0.5235987755982988,0,-0.1264079,-0.2920019,-0.49626806,0.41419265,0.34433833,1.3476237,0.00080778694,1.6908023,1.4623232,-0.11188127,-0.18139373,0.04949493,1.1856081,0.26307848
0.0,0.1,1.4,0.5235987755982988,0.5235987755982988,0,-0.12714028,-0.29187465,-0.49308184,0.4645855,0.60580933,1.2167914,1.8791682,1.6806456,1.3473551,-0.6116486,0.0063313716,-0.046638403,0.8671261,0.33560258
0.0,0.1,1.4,0.5235987755982988,0.5235987755982988,0,-0.12657604,-0.29157352,-0.49607345,0.4445638,0.47145402,1.2092851,-0.30312982,1.9550629,1.4708722,0.08788162,-0.12724178,0.089053586,0.99653333,1.6378759
0.0,0.1,1.4,0.5235987755982988,0.5235987755982988,0,-0.12839325,-0.29189527,-0.4965046,0.38260505,0.13997783,1.255994,1.2727629,1.7228903,1.3916227,-0.16694379,-0.316753,-0.2628002,0.9919374,0.22777452
0.0,0.1,1.4,0.5235987755982988,0.5235987755982988,0,-0.12698328,-0.29207534,-0.49647278,0.3867531,0.49799326,1.1540924,1.1363595,1.7593056,1.1133496,-0.0068052225,0.05421632,0.50053203,1.1412605,0.2863808
0.0,0.1,1.4,0.5235987755982988,0.5235987755982988,0,-0.12843382,-0.29193863,-0.49848244,0.44596162,0.3153119,1.197919,0.5509564,1.7886444,1.1103799,-0.12385375,-0.13049714,-0.5278403,1.0588436,-0.11436544
0.0,0.1,1.4,0.5235987755982988,0.5235987755982988,0,-0.12760389,-0.29217565,-0.49310872,0.48093453,0.75025564,1.3041139,0.9459321,1.8632319,1.240297,-0.45767978,-0.027548138,0.11492802,1.2488633,-0.14842212
0.0,0.1,1.4,0.5235987755982988,0.5235987755982988,0,-0.1266366,-0.29222813,-0.4902485,0.4190911,0.5594567,1.1829948,1.1112413,1.6366917,1.3883972,-0.47418904,-0.11220359,-0.026048895,1.0770338,0.5373442
0.0,0.1,1.4,0.5235987755982988,0.5235987755982988,0,-0.12613913,-0.29198018,-0.49786565,0.44427428,0.8023204,1.2478529,0.0778068,1.5981526,1.3504609,-0.3685169,-0.07116227,-0.18535766,0.9005168,-0.55903476
0.0,0.1,1.4,0.5235987755982988,0.5235987755982988,0,-0.12760504,-0.29189038,-0.4963286,0.36506224,-0.060888894,1.0980177,0.25125292,1.6962439,1.502513,-0.17795356,0.026089901,-0.13403848,1.2298139,0.43027762
0.0,0.1,1.4,0.5235987755982988,0.5235987755982988,0,-0.12849623,-0.29209188,-0.49172482,0.4479768,0.9037379,1.2368482,1.122025,1.7000738,1.1486523,-0.1525363,-0.2057594,0.27075556,1.2638521,0.26636636
0.0,0.1,1.4,0.5235987755982988,0.5235987755982988,0,-0.12670521,-0.29186165,-0.48784187,0.42162487,0.47823757,1.3031356,1.428394,1.5594351,1.0758703,-0.11517453,-0.13035883,-0.15711296,1.1558186,0.41299474
0.0,0.1,1.4,0.5235987755982988,0.5235987755982988,0,-0.12725614,-0.29198745,-0.494787,0.40416053,0.18045677,1.0967436,0.054746028,1.7816755,1.137854,-0.21810333,-0.014922757,0.15304588,1.2032019,0.11227463
0.0,0.1,1.4,0.5235987755982988,0.5235987755982988,0,-0.12648515,-0.2919634,-0.498323,0.40287435,0.11599978,1.1604124,0.7282645,1.8420178,1.2291734,-0.17760628,-0.05838502,-0.0030614017,1.1817343,-0.1699391
0.0,0.1,1.4,0.5235987755982988,0.5235987755982988,0,-0.12676652,-0.29201096,-0.4895329,0.47413966,0.1579493,1.0728375,-0.21870959,1.7211297,1.3751211,-0.5342004,-0.05078188,0.30061266,1.2795941,0.91988367
0.0,0.1,1.4,0.5235987755982988,0.5235987755982988,0,-0.12641461,-0.29192203,-0.4911705,0.4486591,0.8342468,1.2357081,1.0181612,1.6681471,1.5012852,-0.010547345,-0.12020194,0.14283389,1.0823926,-0.14964437
0.0,0.1,1.4,0.5235987755982988,0.5235987755982988,0,-0.12779501,-0.29178083,-0.49700922,0.4444182,0.5854763,1.1529298,0.9043414,1.6665528,0.96318996,-0.27483144,0.13784814,-0.011324648,1.2849579,0.051830683
0.0,0.1,1.4,0.5235987755982988,0.5235987755982988,0,-0.1261852,-0.29189265,-0.49508974,0.4605223,1.0309857,1.2193778,0.63716865,1.8271089,1.5618309,0.2236487,-0.11612154,-0.26603305,1.3462763,-0.15040176
0.0,0.1,1.4,0.5235987755982988,0.5235987755982988,0,-0.12637696,-0.2920357,-0.49033397,0.48429212,0.41545174,1.304259,2.0407627,1.7445341,1.5492159,-0.09644268,0.03240559,-0.026356181,1.1470714,0.71300256
0.0,0.1,1.4,0.5235987755982988,0.5235987755982988,0,-0.12778723,-0.29169172,-0.5052936,0.4585092,0.5256315,1.1040976,0.12669149,1.8162031,1.2232958,0.30242622,-0.12710366,0.056681667,1.0694287,0.3795027
0.0,0.1,1.4,0.5235987755982988,0.5235987755982988,0,-0.12782872,-0.29206258,-0.48939982,0.4923482,0.5369231,1.2789135,0.81470543,1.5863577,1.4517621,0.35078272,-0.08910998,0.31775966,1.2778468,0.5758688
0.0,0.1,1.4,0.5235987755982988,0.5235987755982988,0,-0.12797673,-0.29213837,-0.49511948,0.37693197,0.23434895,1.1588149,-0.24191876,1.7983443,1.4408605,-0.34989676,-0.10652035,0.17139338,1.2094356,-0.6680097
0.0,0.1,1.4,0.5235987755982988,0.5235987755982988,0,-0.12820709,-0.29178625,-0.4941117,0.33877707,0.28002593,1.0431674,0.06404544,1.7034854,1.0247525,-0.7623525,-0.024440441,0.053269293,1.1659522,0.7574774
0.0,0.1,1.4,0.5235987755982988,0.5235987755982988,0,-0.12814692,-0.29213575,-0.4906488,0.49749345,0.2894644,1.2903329,0.5521913,1.7596135,1.2024082,0.2720057,-0.12486189,-0.15174723,1.029216,-0.31872
0.0,0.1,1.4,0.5235987755982988,0.5235987755982988,0,-0.12651935,-0.2922412,-0.4970391,0.45199507,0.53049797,1.2782186,1.1266373,1.9328358,1.275011,0.4549339,-0.055791687,-0.055589885,1.1785207,0.7700442
0.0,0.1,1.4,0.5235987755982988,0.5235987755982988,0,-0.12691416,-0.291969,-0.49798632,0.45863402,0.88041943,1.137356,0.13120233,1.7255832,1.5734075,-0.09855757,-0.011568158,-0.39662293,1.1942365,1.527307
0.0,0.1,1.4,0.5235987755982988,0.5235987755982988,0,-0.1277003,-0.2919396,-0.48676366,0.53319186,0.16542633,1.1359137,1.3777379,1.7209167,1.4606789,0.104335144,-0.110508665,0.03007592,1.2632216,0.4008153
0.0,0.1,1.4,0.5235987755982988,0.5235987755982988,0,-0.12744899,-0.2919765,-0.49123132,0.44727647,0.7655105,1.1685475,1.1651058,1.6418736,1.3422693,-0.49176347,-0.15607184,0.21228758,1.1093228,0.080652736
0.0,0.1,1.4,0.5235987755982988,0.5235987755982988,0,-0.12764485,-0.29214147,-0.48899382,0.3881801,0.5719567,1.2470206,0.23049387,1.8216709,1.4295726,0.07340149,-0.030154156,0.14963348,1.025397,0.33484054
0.0,0.1,1.4,0.5235987755982988,0.5235987755982988,0,-0.12805243,-0.2920051,-0.4943426,0.35333195,0.52960724,1.2426006,0.56790626,1.7605888,1.1065059,-0.11577307,-0.13421555,0.023409551,1.017329,1.3251822
0.0,0.1,1.4,0.5235987755982988,0.5235987755982988,0,-0.12749636,-0.29191887,-0.49469864,0.38314122,1.0423714,1.0112139,1.3890716,1.7987916,1.0292622,-0.0994424,-0.106986485,-0.1991803,1.019978,-0.38211855
0.0,0.1,1.4,0.5235987755982988,0.5235987755982988,0,-0.12625599,-0.29184932,-0.49124458,0.4138924,0.6505205,1.2116896,0.5411137,1.7684586,1.2302072,-0.38944355,-0.009273918,-0.061214715,1.1923406,1.0450732
0.0,0.1,1.4,0.5235987755982988,0.5235987755982988,0,-0.12746593,-0.2920995,-0.4946217,0.4092269,0.6773596,1.1857669,1.3231221,1.7393656,1.2282728,-0.30486995,-0.2048458,-0.29638952,1.3501439,-0.65241206
0.0,0.1,1.4,0.5235987755982988,0.5235987755982988,0,-0.12743762,-0.29211217,-0.49813357,0.41647547,0.7870665,1.1069124,0.060885128,1.7775469,1.4331093,-0.83998793,-0.18768333,0.06983515,1.1007673,-0.21481036
0.0,0.1,1.4,0.5235987755982988,0.5235987755982988,0,-0.1280936,-0.29193887,-0.4969871,0.4027659,0.28247455,1.1652429,1.8592112,1.6868174,1.5625672,0.36528018,0.01093466,-0.31754437,1.1991245,-0.5502665
0.0,0.1,1.4,0.5235987755982988,0.5235987755982988,0,-0.12744048,-0.2920945,-0.4923458,0.41514876,0.6291072,1.2057283,0.7777306,1.6496096,1.379762,0.26687428,-0.08369848,0.032704104,1.3063638,-0.3431629
0.0,0.1,1.4,0.5235987755982988,0.5235987755982988,0,-0.12804528,-0.29206845,-0.48807722,0.46281123,-0.24586388,1.1711899,1.4773321,1.6711743,1.187187,-0.41515067,-0.12549135,0.17902194,0.9486427,0.31834283
0.0,0.1,1.4,0.5235987755982988,0.5235987755982988,0,-0.12794778,-0.29173046,-0.4947607,0.42581236,0.7125676,1.203427,1.3069721,1.7309983,1.5563076,-0.4389836,0.0145998215,-0.5848698,1.1116068,0.7234167
0.0,0.1,1.4,0.5235987755982988,0.5235987755982988,0,-0.12746702,-0.29195374,-0.49580896,0.39383653,0.09566318,1.2194308,1.1479731,1.6972016,1.1966246,0.16751327,-0.02716465,0.34273523,1.4949076,0.43611458
0.0,0.1,1.4,0.5235987755982988,0.5235987755982988,0,-0.12661193,-0.29166603,-0.49477378,0.41454348,0.46082646,1.1461575,-1.1132996,1.7634472,1.1490055,-0.20516317,0.09241104,0.49633643,1.182886,-0.81076217
0.0,0.1,1.4,0.5235987755982988,0.5235987755982988,0,-0.12705553,-0.29138976,-0.49402565,0.47085017,0.19310212,1.2359649,1.1438072,1.7993679,1.4414111,-0.43257582,-0.04648133,0.18312524,1.2394258,0.5387825
0.0,0.1,1.4,0.5235987755982988,0.5235987755982988,0,-0.12707298,-0.29215905,-0.48885167,0.382287,0.758388,1.1330043,0.8059643,1.664203,1.2704084,-0.51611674,0.090377174,-0.18912125,0.9877041,-1.1429224
0.0,0.1,1.4,0.5235987755982988,0.5235987755982988,0,-0.1267568,-0.29201978,-0.4932747,0.45191562,0.46943697,1.1781405,0.83402765,1.7451146,1.4212435,-0.31574565,-0.012855798,-0.07511249,1.2900181,0.4957613
0.0,0.1,1.4,0.5235987755982988,0.5235987755982988,0,-0.12851015,-0.29214886,-0.4898509,0.4924838,0.5716786,1.2989374,1.0287069,1.7749351,1.4816751,0.07555677,0.038464393,0.2179707,1.0397782,0.43380374
0.0,0.1,1.4,0.5235987755982988,0.5235987755982988,0,-0.12728544,-0.29198506,-0.48869222,0.4129853,0.32034117,1.057715,0.123634584,1.5422081,1.2038964,-0.44346184,-0.18853828,-0.29529682,1.2132161,-0.75176084
0.0,0.1,1.4,0.5235987755982988,0.5235987755982988,0,-0.12688613,-0.29216352,-0.48976856,0.37652597,1.196567,1.1750519,1.998059,1.802339,1.177189,-0.41621652,-0.07479043,0.266774,1.0995847,0.10922646
0.0,0.1,1.4,0.5235987755982988,0.5235987755982988,0,-0.12767689,-0.29196867,-0.49452043,0.39016345,-0.014423818,1.2633791,0.053089533,1.7132754,1.3733721,-0.025300227,-0.04236751,-0.038634747,1.2001988,0.003731446
0.0,0.1,1.4,0.5235987755982988,0.5235987755982988,0,-0.12728882,-0.29188675,-0.4902413,0.4126453,-0.1739148,1.2014532,1.5503006,1.6840215,1.2124445,-0.061783828,-0.17587265,0.15258121,1.1979768,1.240686
0.0,0.1,1.4,0.5235987755982988,0.5235987755982988,0,-0.12687212,-0.2919374,-0.4941688,0.41198558,1.042116,1.0888371,-0.05844688,1.7271153,1.5771854,0.08378284,-0.13149394,-0.08911476,0.92751044,0.06772248
0.0,0.1,1.4,0.5235987755982988,0.5235987755982988,0,-0.12772441,-0.29189152,-0.49581116,0.4274277,0.48512262,1.1789628,-0.45139495,1.732626,1.4606239,-0.5117766,-0.050368566,-0.16446938,1.1528553,-0.29734877
0.0,0.1,1.4,0.5235987755982988,0.5235987755982988,0,-0.1271579,-0.29185784,-0.4989068,0.44304365,0.73272866,1.1370677,0.15770149,1.6530322,1.4429239,-0.10022293,-0.12856832,-0.35116887,0.93567526,0.44037148
0.0,0.1,1.4,0.5235987755982988,0.5235987755982988,0,-0.12744044,-0.29186857,-0.48453814,0.48620912,0.801645,1.1028597,1.1475216,1.7561322,1.2266365,-0.4578731,-0.07664031,-0.118947566,1.4125731,0.33691135
0.0,0.1,1.4,0.5235987755982988,0.5235987755982988,0,-0.1289384,-0.29167306,-0.4937158,0.43987995,0.78145105,1.1582848,0.5397745,1.6674408,1.4020429,-0.50300795,0.0034494419,-0.11870929,1.2755451,-0.5265359
0.0,0.1,1.4,0.5235987755982988,0.5235987755982988,0,-0.12809928,-0.2919821,-0.49089983,0.46435136,0.6803443,1.2787993,1.4284399,1.7401178,1.4119536,-0.27639994,-0.28550395,0.070111305,0.9864416,-1.3417122
0.0,0.1,1.4,0.5235987755982988,0.5235987755982988,0,-0.1264676,-0.2920235,-0.49117607,0.46954527,1.0087981,1.1965325,1.3408003,1.6980264,1.5227214,0.044684805,-0.16601498,0.101022355,1.2973181,0.5048321
0.0,0.1,1.4,0.5235987755982988,0.5235987755982988,0,-0.12773871,-0.29209203,-0.49022594,0.46584833,0.2931306,1.2441796,0.90474826,1.8075794,1.477072,-0.16084988,-0.11403018,-0.09668283,1.1975279,0.9749316
0.0,0.1,1.4,0.5235987755982988,0.5235987755982988,0,-0.12780021,-0.29212633,-0.49835852,0.4538517,0.38056707,1.2198482,0.35128635,1.6151289,1.2792225,-0.1841928,-0.12660486,-0.18239199,1.219026,-0.04141569
0.0,0.1,1.4,0.5235987755982988,0.5235987755982988,0,-0.1279766,-0.29219604,-0.4930386,0.45123672,0.45273808,1.1689711,0.18354139,1.7630136,1.3626251,-0.4378147,0.007267968,0.2073295,1.1306548,0.28664565
0.0,0.1,1.4,0.5235987755982988,0.5235987755982988,0,-0.12764862,-0.29198053,-0.49366567,0.43336177,0.81137323,1.2417029,0.11062999,1.8053545,1.173325,-0.17770837,-0.036307544,-0.08943703,0.9034871,0.45143607
0.0,0.1,1.4,0.5235987755982988,0.5235987755982988,0,-0.12745544,-0.29186183,-0.4921446,0.40038216,0.3313616,1.054876,-0.031094216,1.6204728,1.5020367,-0.29738218,-0.048966225,-0.19974189,1.1150671,0.9985459
0.0,0.1,1.4,0.5235987755982988,0.5235987755982988,0,-0.12690508,-0.2919999,-0.49990767,0.4075116,0.11925131,1.3720402,0.047082007,1.669131,1.3414724,-0.42528355,-0.020278845,-0.051196773,1.1820735,0.6700192
0.0,0.1,1.4,0.5235987755982988,0.5235987755982988,0,-0.12736136,-0.2919025,-0.4909659,0.44309038,0.71658236,1.2384653,0.3336591,1.6771057,1.2055761,-0.67273396,0.072365895,0.25672168,1.0680029,1.0815244
0.0,0.1,1.4,0.5235987755982988,0.5235987755982988,0,-0.12714782,-0.29193088,-0.4959737,0.42123547,0.6712816,1.2243044,1.1469418,1.6964598,1.0608901,-0.16974954,-0.056116633,-0.12372484,1.1078132,0.23214865
0.0,0.1,1.4,0.5235987755982988,0.5235987755982988,0,-0.12763643,-0.29196444,-0.49187002,0.3938425,0.35975963,1.1304998,0.38822174,1.7859194,1.1922501,-0.18884517,-0.04892874,0.11038274,1.4019629,-0.095024966
0.0,0.1,1.4,0.5235987755982988,0.5235987755982988,0,-0.12788337,-0.2922219,-0.4896528,0.43150723,0.10726542,1.1705302,0.14132231,1.5874392,1.5382303,-0.24558614,-0.15466489,0.16823815,1.2589,1.7916723
0.0,0.1,1.4,0.5235987755982988,0.5235987755982988,0,-0.12704751,-0.29202628,-0.4989638,0.48287553,0.34464538,1.2012876,-0.18938828,1.9096189,1.0926708,0.2356137,-0.19663604,0.12844053,1.270321,0.8058341
0.0,0.1,1.4,0.5235987755982988,0.5235987755982988,0,-0.1283819,-0.29211947,-0.49573523,0.44837528,0.9968937,1.1886623,1.3841255,1.6455055,1.3854693,0.18159153,0.07709049,0.30959556,1.1912286,0.2986412
0.0,0.1,1.4,0.5235987755982988,0.5235987755982988,0,-0.12749912,-0.29198176,-0.49740452,0.4688937,0.7363184,1.2744197,0.22469926,1.6177348,1.0610448,-0.2342584,-0.09634417,0.084354855,1.1180109,-0.37824425
0.0,0.1,1.4,0.5235987755982988,0.5235987755982988,0,-0.1277177,-0.29210323,-0.49691427,0.45936528,0.6871933,1.1950448,-0.34064803,1.700832,1.522679,-0.38578212,-0.0065427055,-0.07470581,1.1254485,0.7050146
0.0,0.1,1.4,0.5235987755982988,0.5235987755982988,0,-0.12699401,-0.29181194,-0.4882743,0.46424407,0.8490641,1.2512692,1.2066132,1.7483108,1.2447072,-0.20973213,-0.111350216,-0.048274893,1.3735334,0.051540315
0.0,0.1,1.4,0.5235987755982988,0.5235987755982988,0,-0.12825833,-0.29216343,-0.500958,0.44177797,0.70288914,1.2157803,0.2752764,1.7969446,1.62251,-0.10293462,0.05695657,0.2647095,1.1277691,-0.0006825826
0.0,0.1,1.4,0.5235987755982988,0.5235987755982988,0,-0.12782396,-0.29167965,-0.49312106,0.45290893,-0.10661486,1.0639675,1.0658424,1.9164588,1.188646,0.14418316,-0.11154633,-0.03992211,1.0314633,0.7371973
0.0,0.1,1.4,0.5235987755982988,0.5235987755982988,0,-0.12770024,-0.29202116,-0.49367183,0.46787658,0.7109382,1.2488924,1.1952266,1.7597768,1.0660927,-0.21099634,0.045781784,0.18274765,1.0746652,0.6479603
0.0,0.1,1.4,0.5235987755982988,0.5235987755982988,0,-0.12649833,-0.29189226,-0.49159923,0.3893127,0.7827414,1.280055,1.0005724,1.7102503,1.2926795,0.22938515,-0.16199237,0.42696607,1.1660008,1.0898871
0.0,0.1,1.4,0.5235987755982988,0.5235987755982988,0,-0.1280932,-0.292365,-0.4973371,0.47905502,-0.2492095,1.2435019,1.9071547,1.7459264,1.3997844,-0.7764613,0.030744918,-0.27785513,1.0857507,0.8760361
0.0,0.1,1.4,0.5235987755982988,0.5235987755982988,0,-0.12780458,-0.29195365,-0.5001271,0.4683841,1.0071449,1.2629563,-0.5813951,1.6984307,1.5255097,-0.6466413,-0.18811183,-0.046773896,1.094666,-0.6384683
0.0,0.1,1.4,0.5235987755982988,0.5235987755982988,0,-0.1274198,-0.29194677,-0.49527195,0.43641746,0.033696253,1.2222117,1.2376602,1.7604752,1.320135,-0.3112558,-0.070984535,-0.072506115,1.1778603,0.5640886
0.0,0.1,1.4,0.5235987755982988,0.5235987755982988,0,-0.12822309,-0.2917674,-0.49356312,0.44041175,0.2579985,1.2989542,1.1427294,1.7413749,1.1572511,-0.6080276,0.006271226,-0.04638109,1.0436306,-0.57842934
0.0,0.1,1.4,0.5235987755982988,0.5235987755982988,0,-0.12755501,-0.2917468,-0.49863675,0.4673821,0.71752113,1.0812849,0.22233993,1.7012054,1.2807678,-0.41251853,-0.11535182,0.1384723,1.1231549,0.39425623
0.0,0.1,1.4,0.5235987755982988,0.5235987755982988,0,-0.12758155,-0.29201376,-0.5011544,0.45384368,0.3588373,1.2441068,1.2822143,1.8409275,1.2949955,-0.26592752,-0.09091637,0.18180676,1.0112288,0.09389745
0.0,0.1,1.4,0.5235987755982988,0.5235987755982988,0,-0.12794542,-0.29203907,-0.4997398,0.41888145,0.7881781,1.1762028,-0.35850883,1.8018848,1.5439242,-0.43873614,-0.014502244,-0.048744377,0.9122889,-0.72345525
0.0,0.1,1.4,0.5235987755982988,0.5235987755982988,0,-0.12792306,-0.29204068,-0.49270698,0.4234888,0.7527323,1.1341221,-0.41626528,1.721341,1.1928934,-0.5925999,-0.017030781,-0.07462443,1.2692704,-0.5556087
0.0,0.1,1.4,0.5235987755982988,0.5235987755982988,0,-0.12721129,-0.291873,-0.49301752,0.40128648,0.34578475,1.2335378,-0.63790476,1.7505394,1.4000603,0.014187637,-0.11438972,0.17850596,1.0432782,-0.3660434
0.0,0.1,1.4,0.5235987755982988,0.5235987755982988,0,-0.12790373,-0.29193884,-0.49473473,0.4268866,0.9150493,1.135396,1.2483954,1.5935525,1.2486849,-0.21267453,-0.119264774,-0.16496693,1.0351628,0.3614213
0.0,0.1,1.4,0.5235987755982988,0.5235987755982988,0,-0.12648019,-0.2920343,-0.49350917,0.38679639,0.86073935,1.1804684,0.2663493,1.6697607,1.4766934,0.3478533,-0.11342627,0.09889245,1.1396679,-0.1789666
0.0,0.1,1.4,0.5235987755982988,0.5235987755982988,0,-0.12861277,-0.29219505,-0.50027376,0.41717252,0.8335566,1.3008171,0.4227447,1.7735547,1.5149508,-0.26562843,-0.04839571,-0.049358223,1.2812383,-0.43824485
0.0,0.1,1.4,0.5235987755982988,0.5235987755982988,0,-0.12816727,-0.29194766,-0.49529168,0.44252706,0.19488715,1.0487703,2.2651699,1.7678666,1.0302626,-0.5918454,-0.0628327,-0.42141485,1.3718718,-0.1936871
0.0,0.1,1.4,0.5235987755982988,0.5235987755982988,0,-0.1277115,-0.29190657,-0.4909756,0.40156773,0.074653715,1.2159364,-0.5597674,1.7163374,1.2883009,-0.5563842,-0.20482625,-0.109382324,1.1585431,-0.25878963
0.0,0.1,1.4,0.5235987755982988,0.5235987755982988,0,-0.12722541,-0.29179257,-0.49601153,0.4174896,1.0157595,1.3087447,-1.4334815,1.8278413,1.1857512,-0.43507206,-0.11906512,0.006962636,1.121069,0.5495203
0.0,0.1,1.4,0.5235987755982988,0.5235987755982988,0,-0.12655741,-0.2917684,-0.4923903,0.44173935,0.92544854,1.3387178,0.8600273,1.6392336,1.4470206,-0.37164608,-0.12886402,-0.09359805,1.232882,1.1214341
0.0,0.1,1.4,0.5235987755982988,0.5235987755982988,0,-0.126891,-0.29182246,-0.4925572,0.39494884,0.62186074,1.2433558,1.3893075,1.6818368,1.4563006,0.32307187,-0.026962994,0.09648102,0.924134,-0.7672141
0.0,0.1,1.4,0.5235987755982988,0.5235987755982988,0,-0.12777466,-0.29212245,-0.49189767,0.441798,0.438994,1.2443511,0.8962793,1.8199095,1.2901275,-0.119056284,-0.09424799,0.06105058,1.1557055,-0.94587594
0.0,0.1,1.4,0.5235987755982988,0.5235987755982988,0,-0.12765425,-0.2920061,-0.49575305,0.46281165,0.9133765,1.2232133,0.23957379,1.7068585,1.5048935,0.017046833,-0.035367254,0.238835,1.202496,0.20134695
0.0,0.1,1.4,0.5235987755982988,0.5235987755982988,0,-0.12770684,-0.29192343,-0.4946903,0.41057363,0.66555744,1.2321311,1.5018729,1.8090192,1.4271475,-0.058114346,-0.2886392,-0.13397561,1.2965844,-0.2253737
0.0,0.1,1.4,0.5235987755982988,0.5235987755982988,0,-0.12793638,-0.29204264,-0.48957667,0.4528898,0.8321349,1.172312,2.0020733,1.7136184,1.2780485,-0.23586158,-0.18558896,-0.032341536,1.09765,0.24626203
0.0,0.1,1.4,0.5235987755982988,0.5235987755982988,0,-0.12768754,-0.29181728,-0.48718518,0.50029737,0.5001474,1.1732308,0.0742807,1.8524542,1.5487366,-0.43013686,-0.16497916,0.35144034,1.2097243,-0.16282904
0.0,0.1,1.4,0.5235987755982988,0.5235987755982988,0,-0.12752284,-0.29176825,-0.49324673,0.35174304,0.19527085,1.142461,0.89137447,1.7095904,1.4225838,0.35944194,-0.21848519,-0.14401652,1.2016085,0.66121995
0.0,0.1,1.4,0.5235987755982988,0.5235987755982988,0,-0.12791678,-0.29191652,-0.4875218,0.40468302,0.24811569,1.2577828,0.643731,1.774265,1.2985243,-0.3984583,-0.024563584,0.26605615,1.1576945,-0.5751546
0.0,0.1,1.4,0.5235987755982988,0.5235987755982988,0,-0.1267799,-0.29189122,-0.49789527,0.4671301,0.10155377,1.2048665,-0.589225,1.6482052,1.3312967,-0.37091905,-0.08829074,0.13873574,1.0755417,0.07416944
0.0,0.1,1.4,0.5235987755982988,0.5235987755982988,0,-0.12671936,-0.29201883,-0.48431545,0.3930696,0.57637167,1.1734872,1.1657667,1.7377129,1.3652258,-0.2507537,0.07498661,-0.053291712,1.0549747,0.54601985
0.0,0.1,1.4,0.5235987755982988,0.5235987755982988,0,-0.12724812,-0.2918711,-0.49123833,0.47631198,0.54296076,1.2103025,0.23848985,1.7769887,1.3960477,0.0138322,-0.20575815,0.113922656,1.2458146,0.9674115
0.0,0.1,1.4,0.5235987755982988,0.5235987755982988,0,-0.1276267,-0.29171777,-0.48872003,0.4796536,0.5369174,1.335363,0.7510629,1.8206276,1.3596001,-0.08507714,-0.03365912,0.11716442,0.963022,-0.20915727
0.0,0.1,1.4,0.5235987755982988,0.5235987755982988,0,-0.12913913,-0.29220718,-0.50077933,0.41679844,0.52401656,1.214729,-0.25095388,1.6681738,1.2564259,0.040929675,-0.11109049,-0.2698905,1.0322559,-0.6714553
0.0,0.1,1.4,0.5235987755982988,0.5235987755982988,0,-0.12813321,-0.29210433,-0.49420163,0.48942515,0.40970463,1.1161094,-0.63866407,1.9006864,1.4416819,-0.15107788,-0.04523023,0.18668324,1.1702894,-0.39886993
0.0,0.1,1.4,0.5235987755982988,0.5235987755982988,0,-0.12773058,-0.29202944,-0.50114614,0.448852,0.44942868,1.3101757,0.40017924,1.6062504,1.3146839,-0.1059582,-0.012905488,0.26843187,1.066275,0.3565973
0.0,0.1,1.4,0.5235987755982988,0.5235987755982988,0,-0.12738793,-0.2917796,-0.4892312,0.4485737,0.6906219,1.1745706,0.82028157,1.680414,1.519401,-0.47491354,-0.05233944,0.09732284,1.1610528,-0.10911541
0.0,0.1,1.4,0.5235987755982988,0.5235987755982988,0,-0.12785883,-0.2920972,-0.49194044,0.48344323,0.42714617,1.2046915,0.036988895,1.6388354,1.2303743,0.22581688,-0.030767968,0.30963787,1.3066161,-0.9384432
0.0,0.1,1.4,0.5235987755982988,0.5235987755982988,0,-0.12776764,-0.29197016,-0.4964074,0.40966985,0.7066893,1.1817005,-0.22134869,1.8399438,1.3671858,-0.33445856,-0.23421428,0.06891381,1.3164763,0.8473604
0.0,0.1,1.4,0.5235987755982988,0.5235987755982988,0,-0.12755671,-0.29222324,-0.4994861,0.3676113,0.4592824,1.310852,-0.46303618,1.7982848,1.1793112,-0.8957294,-0.12972921,0.09266272,0.9622504,-0.7304149
0.0,0.1,1.4,0.5235987755982988,0.5235987755982988,0,-0.12786339,-0.29197466,-0.4948888,0.46317446,0.46497834,1.2735268,0.9796303,1.7144542,1.3706528,-0.07604223,0.008087915,-0.35738102,0.9521395,-0.091420636
0.0,0.1,1.4,0.5235987755982988,0.5235987755982988,0,-0.12808247,-0.29181626,-0.49310428,0.41851676,0.0139512895,1.2587574,1.5173811,1.7127442,1.1645855,-0.6274096,0.03452257,0.35076118,0.9697531,0.6898683
0.0,0.1,1.4,0.5235987755982988,0.5235987755982988,0,-0.1269163,-0.29176965,-0.49433866,0.43835133,0.7733406,1.114093,-0.035490356,1.8238982,1.6065867,0.19953862,-0.13451391,-0.012298406,1.1116436,0.43254647
0.0,0.1,1.4,0.5235987755982988,0.5235987755982988,0,-0.12741499,-0.29186162,-0.49952394,0.48250327,0.16788879,1.2682755,0.0229883,1.6619062,1.1620066,-0.5815562,-0.00039870935,0.34462532,1.1123967,-0.37805268
0.0,0.1,1.4,0.5235987755982988,0.5235987755982988,0,-0.12715058,-0.29190192,-0.49505606,0.45550615,0.48566872,1.2363437,-0.12271983,1.8035756,1.2006195,-0.48312703,0.026967587,-0.026800647,1.0527632,1.0373443
0.0,0.1,1.4,0.5235987755982988,0.5235987755982988,0,-0.12740852,-0.29185653,-0.49041146,0.42283124,0.43504602,1.2169421,1.2387354,1.5853629,1.1390781,-0.1997513,-0.13963035,-0.18417366,0.8946325,0.69343805
0.0,0.1,1.4,0.5235987755982988,0.5235987755982988,0,-0.12860179,-0.29185638,-0.497367,0.47003055,1.1265271,1.16392,0.48846558,1.7966899,1.5764502,-0.25164092,-0.0899133,0.035284486,1.1881644,-0.5710662
0.0,0.1,1.4,0.5235987755982988,0.5235987755982988,0,-0.12810814,-0.29179507,-0.49570006,0.43293118,0.46825346,1.195286,0.0005529417,1.7396033,1.3290652,-0.6559334,-0.07654823,-0.32277754,1.2798293,1.3147763
0.0,0.1,1.4,0.5235987755982988,0.5235987755982988,0,-0.12795609,-0.29181522,-0.49545425,0.4602112,0.8848399,1.2299848,-0.58041906,1.7978581,1.1325946,0.5357645,-0.1150871,-0.1372448,1.3519112,0.38612887
0.0,0.1,1.4,0.5235987755982988,0.5235987755982988,0,-0.12796736,-0.29197475,-0.48919404,0.45854828,0.41216764,1.2097948,-1.2306376,1.90594,1.395661,-0.3207118,0.13723941,0.14493917,1.0176733,0.14332302
0.0,0.1,1.4,0.5235987755982988,0.5235987755982988,0,-0.12694037,-0.2920638,-0.4853103,0.47565052,0.2777672,1.2255492,0.37726542,1.7415843,1.3259307,0.14376222,-0.1994407,-0.051696062,1.1619663,-0.660466
0.0,0.1,1.4,0.5235987755982988,0.5235987755982988,0,-0.12705012,-0.29176593,-0.49181506,0.4685489,0.70308113,1.0907041,0.56243736,1.6955292,1.2370859,0.5650324,0.052152485,0.05971532,1.3096964,0.20333335
0.0,0.1,1.4,0.5235987755982988,0.5235987755982988,0,-0.12760569,-0.29195753,-0.49274364,0.472429,0.6560006,1.1090125,0.79701185,1.822633,1.0296506,-0.20465222,-0.11393632,-0.4441458,1.1168951,0.9278823
0.0,0.1,1.4,0.5235987755982988,0.5235987755982988,0,-0.12800708,-0.29187527,-0.49524403,0.48916546,0.26438826,1.1756669,0.8520721,1.6155425,1.3498725,-0.22471263,-0.018433018,-0.11783307,1.1987756,-0.29517722
0.0,0.1,1.4,0.5235987755982988,0.5235987755982988,0,-0.12772262,-0.29179412,-0.49868265,0.39818394,0.5178949,1.2445458,-0.10602405,1.7949328,1.3500172,0.0016243539,-0.16012019,0.2531425,1.1773611,1.2912034
0.0,0.1,1.4,0.5235987755982988,0.5235987755982988,0,-0.12756902,-0.29171485,-0.50068694,0.43484363,0.61888325,1.1632807,0.68799376,1.7192533,1.4446069,-0.07111564,0.016297797,-0.030504158,1.0448958,0.6818147
0.0,0.1,1.4,0.5235987755982988,0.5235987755982988,0,-0.12825035,-0.29190946,-0.4930405,0.46726084,0.7596976,1.2200243,0.71954465,1.7122202,1.3743043,-1.0713096,-0.16319208,-0.20485559,1.0587404,-0.51635224
0.0,0.1,1.4,0.5235987755982988,0.5235987755982988,0,-0.12837172,-0.29188368,-0.494577,0.4742716,0.7346992,1.2672026,-0.17030583,1.6041684,1.246824,-0.27248847,-0.097648114,0.00999484,1.0735674,-0.94061506
0.0,0.1,1.4,0.5235987755982988,0.5235987755982988,0,-0.1278424,-0.2918852,-0.50145566,0.4833664,0.64222074,1.0729383,1.3045435,1.7484968,1.3385202,0.058925323,0.105680384,0.2288919,1.0711026,-0.7514441
0.0,0.1,1.4,0.5235987755982988,0.5235987755982988,0,-0.12747672,-0.29186043,-0.48824647,0.4815405,-0.03364658,1.1977632,1.5861436,1.7788718,1.1956928,-0.11367251,-0.12700301,0.11993334,0.994543,0.26198512
0.0,0.1,1.4,0.5235987755982988,0.5235987755982988,0,-0.12767464,-0.29216364,-0.49521002,0.31801224,0.07898983,1.1516076,0.25546554,1.6797477,1.4301151,-0.4157354,-0.19680989,-0.14205918,1.0933588,-0.47806293
0.0,0.1,1.4,0.5235987755982988,0.5235987755982988,0,-0.12766571,-0.29172784,-0.4915166,0.41514543,0.7135716,1.1039586,1.7657683,1.7308928,1.583594,-0.3738946,0.0068621356,0.0046278825,1.1644007,0.7987268
0.0,0.1,1.4,0.5235987755982988,0.5235987755982988,0,-0.1275166,-0.29179683,-0.49827337,0.5061367,0.3175897,1.012666,0.7014923,1.5792826,1.2639118,-0.48221123,-0.14605407,0.31898245,1.0942967,0.406239
0.0,0.1,1.4,0.5235987755982988,0.5235987755982988,0,-0.1277271,-0.29183313,-0.49667957,0.35962322,0.44917998,1.2061011,1.2142516,1.7044361,1.3809805,-0.060791876,0.040916916,-0.015181643,0.98843783,0.79376656
0.0,0.1,1.4,0.5235987755982988,0.5235987755982988,0,-0.12772384,-0.29163748,-0.4915816,0.4621699,0.5838267,1.1055712,1.4378864,1.6116024,1.0927612,-0.8168195,-0.16690624,0.045888484,1.1681666,1.0153409
0.0,0.1,1.4,0.5235987755982988,0.5235987755982988,0,-0.1280557,-0.29202303,-0.49258745,0.31917578,1.4832262,1.1237701,0.3380887,1.5596596,1.2772548,-0.9707542,0.020183424,-0.0695995,0.96319497,-0.59201646
0.0,0.1,1.4,0.5235987755982988,0.5235987755982988,0,-0.12784311,-0.29194924,-0.49575683,0.448822,0.91254836,1.1813177,0.6761545,1.6705635,1.0880735,-0.29876196,-0.12560768,0.08282213,0.963498,-1.1140715
0.0,0.1,1.4,0.5235987755982988,0.5235987755982988,0,-0.12841432,-0.29194403,-0.49005046,0.4764602,0.4889801,1.251398,1.6457932,1.6702954,1.3565158,-0.29340184,-0.12522747,0.113565736,0.9150095,0.40094677
0.0,0.1,1.4,0.5235987755982988,0.5235987755982988,0,-0.12813954,-0.2919027,-0.49816298,0.4175451,0.06707796,1.1556003,0.77645904,1.678782,1.2196338,0.13167332,0.12303992,-0.056427654,0.9901067,0.71129894
0.0,0.1,1.4,0.5235987755982988,0.5235987755982988,0,-0.12827587,-0.29190192,-0.49786243,0.43392056,1.048318,1.3494925,-0.062755115,1.7038492,1.3721545,-0.62364495,-0.1302113,-0.027600484,0.9707529,0.82103425
0.0,0.1,1.4,0.5235987755982988,0.5235987755982988,0,-0.12893556,-0.2917829,-0.4938889,0.42647594,0.36553192,1.1682109,1.0878584,1.6912957,1.4609226,-0.5600063,-0.023705898,-0.2376247,1.0724958,0.20101349
0.0,0.1,1.4,0.5235987755982988,0.5235987755982988,0,-0.12762916,-0.29194438,-0.49635834,0.44472766,0.59050655,1.1458219,0.24374291,1.6824081,1.2738254,-0.5418732,0.044980593,0.08830095,1.1409751,-0.18918921
0.0,0.1,1.4,0.5235987755982988,0.5235987755982988,0,-0.12802573,-0.29171634,-0.49769253,0.3849841,0.09815301,1.3763838,0.40648496,1.732437,1.3831557,0.14833976,0.015783604,0.2686862,0.83003384,0.7563349
0.0,0.1,1.4,0.5235987755982988,0.5235987755982988,0,-0.1283868,-0.29182082,-0.5004079,0.37452573,0.56452537,1.2499024,-0.65586853,1.6945666,1.3113302,-0.5937078,-0.10582215,0.15667959,1.0440698,-0.6663832
0.0,0.1,1.4,0.5235987755982988,0.5235987755982988,0,-0.12828259,-0.29194275,-0.5015902,0.47313046,0.68101853,1.1237359,0.5027865,1.5581992,1.3713653,-0.36144054,-0.14917846,0.011649394,1.1694429,-0.6961657
0.0,0.1,1.4,0.5235987755982988,0.5235987755982988,0,-0.12845443,-0.29186037,-0.4990321,0.45262736,0.5120591,1.0913466,-0.085872285,1.7900573,1.5649928,-0.15002835,-0.13387364,0.14886798,1.0409343,-0.9566209
0.0,0.1,1.4,0.5235987755982988,0.5235987755982988,0,-0.12814899,-0.29184023,-0.49751958,0.48426068,0.14895336,1.1262965,0.57530946,1.7264057,0.9910303,0.11780008,-0.07977922,0.13772531,1.337244,0.42307594
0.0,0.1,1.4,0.5235987755982988,0.5235987755982988,0,-0.1277908,-0.29163015,-0.4933599,0.45399305,0.32657227,1.2902899,1.0533562,1.6124442,1.4139266,0.3116084,-0.14013886,-0.14858219,1.1177015,-0.27261803
0.0,0.1,1.4,0.5235987755982988,0.5235987755982988,0,-0.12701732,-0.2917904,-0.4960217,0.44570974,0.5435994,1.3114847,-0.6009012,1.7509739,1.2676802,0.037590664,-0.05479511,0.03745071,1.3457005,-0.0791876
0.0,0.1,1.4,0.5235987755982988,0.5235987755982988,0,-0.12821554,-0.29177862,-0.493716,0.45500737,0.31911376,1.2126127,1.3062096,1.840831,1.3050301,-0.53394073,0.04380022,0.13841565,1.0663754,0.1905617
0.0,0.1,1.4,0.5235987755982988,0.5235987755982988,0,-0.12827024,-0.2918976,-0.4967504,0.4274761,-0.14360622,1.199422,0.6776635,1.6949679,1.311134,-0.12174592,-0.10959375,-0.15522265,1.1902148,0.41916305
0.0,0.1,1.4,0.5235987755982988,0.5235987755982988,0,-0.12848854,-0.29191986,-0.49943396,0.4782371,0.1831418,1.0985059,0.1475322,1.6072978,1.5233967,-0.43589908,-0.046779547,-0.013721785,1.0719823,0.62792134
0.0,0.1,1.4,0.5235987755982988,0.5235987755982988,0,-0.1264997,-0.2917249,-0.49933457,0.45320925,0.36058545,1.1442062,-0.11099759,1.821675,1.2608138,-0.27112094,0.055926576,0.045500875,1.1513715,0.010995805
0.0,0.1,1.4,0.5235987755982988,0.5235987755982988,0,-0.12770647,-0.29164374,-0.4884996,0.4248079,0.53367233,1.3039618,1.0770525,1.6953343,1.3188907,-0.63457125,-0.25392944,0.28099734,1.0741359,1.5995665
0.0,0.1,1.4,0.5235987755982988,0.5235987755982988,0,-0.12681574,-0.2916066,-0.49533388,0.5028464,0.68119735,1.1961862,1.3686305,1.7814571,1.5608394,0.037109915,-0.027215067,0.0631339,1.183987,0.41869807
0.0,0.1,1.4,0.5235987755982988,0.5235987755982988,0,-0.12836844,-0.29205304,-0.4942396,0.50304544,0.66750103,1.0776495,0.21530628,1.6357744,1.2630761,-0.024061881,-0.16666247,0.21054873,1.2469434,0.12843515
0.0,0.1,1.4,0.5235987755982988,0.5235987755982988,0,-0.12786993,-0.29177144,-0.48877394,0.4553627,0.81841487,1.2774974,0.15887013,1.9561437,1.3575118,-0.042586666,-0.15518337,0.06546626,1.1491086,1.0912551
0.0,0.1,1.4,0.5235987755982988,0.5235987755982988,0,-0.12770443,-0.29172182,-0.48936632,0.41963318,0.38678965,1.1276072,0.90536124,1.6095282,1.3684202,-0.037973028,-0.027726065,0.4101238,1.1590964,-0.41123903
0.0,0.1,1.4,0.5235987755982988,0.5235987755982988,0,-0.12784116,-0.29171476,-0.49519965,0.40451467,0.123271935,1.2319124,0.37920895,1.7458572,1.0839705,0.0031247982,-0.01116385,-0.109976366,1.154324,1.2565922
0.0,0.1,1.4,0.5235987755982988,0.5235987755982988,0,-0.12843855,-0.29172033,-0.49235332,0.45558745,0.88362765,0.9979995,2.147785,1.6590909,1.2100942,-0.33425185,-0.12942022,0.02851194,1.1052653,0.11513284
0.0,0.1,1.4,0.5235987755982988,0.5235987755982988,0,-0.12778443,-0.29174963,-0.4903049,0.4850823,1.056229,1.1152039,1.0898982,1.7892215,1.4088434,0.23483232,-0.23178288,-0.09568279,1.0400463,-0.43704385
0.0,0.1,1.4,0.5235987755982988,0.5235987755982988,0,-0.12841272,-0.29177147,-0.48817158,0.40598446,0.8101925,1.0207613,-0.0113210995,1.7071347,1.2266139,-0.09426379,0.0027152742,-0.17927198,1.2519593,0.10775958
0.0,0.1,1.4,0.5235987755982988,0.5235987755982988,0,-0.12788689,-0.29174858,-0.49105144,0.47320914,0.20522168,1.1522937,-0.78458446,1.7013794,1.1217296,0.10184157,-0.1251744,-0.015608117,1.2031267,-0.28446868
0.0,0.1,1.4,0.5235987755982988,0.5235987755982988,0,-0.12785096,-0.29185176,-0.48957327,0.40366358,0.36057618,1.2224607,-0.1727834,1.6354712,1.1173058,-0.05109335,-0.0058950423,-0.18265468,1.204479,-0.7938755
0.0,0.1,1.4,0.5235987755982988,0.5235987755982988,0,-0.12704606,-0.29181498,-0.4915851,0.5264013,0.84124285,1.318416,0.7086555,1.7454606,1.3671933,-0.104241125,-0.1475156,0.11286907,1.267114,-0.44713995
0.0,0.1,1.4,0.5235987755982988,0.5235987755982988,0,-0.12760411,-0.29195297,-0.4944289,0.4406566,0.4770248,1.1283484,-1.3437582,1.7795067,1.4186804,0.2099507,-0.11987221,-0.023299584,1.1949358,0.5761638
0.0,0.1,1.4,0.5235987755982988,0.5235987755982988,0,-0.12865828,-0.29195875,-0.49444088,0.35523877,0.27965572,1.1462942,-0.311489,1.5872072,1.1828654,-0.10432136,-0.014097813,-0.07284077,1.0465752,0.40045068
0.0,0.1,1.4,0.5235987755982988,0.5235987755982988,0,-0.12726381,-0.29185864,-0.49416724,0.47701266,0.43153185,1.3345326,1.4156312,1.791637,1.1089715,-0.19644217,-0.08547591,0.08213382,1.1625376,-0.39374214
0.0,0.1,1.4,0.5235987755982988,0.5235987755982988,0,-0.12854575,-0.29161668,-0.5007229,0.44522542,0.77517915,1.342136,1.6302199,1.748859,1.2715943,0.063712016,0.0193837,-0.004989649,1.0829769,0.76040506
0.0,0.1,1.4,0.5235987755982988,0.5235987755982988,0,-0.12860666,-0.29180446,-0.49401975,0.47894353,0.49095464,1.1070857,2.1457274,1.6958591,1.3438026,0.14083022,-0.09482002,-0.14641324,1.1017798,0.4783518
0.0,0.1,1.4,0.5235987755982988,0.5235987755982988,0,-0.12744786,-0.2920862,-0.49262506,0.38887024,0.31757283,1.1612209,0.887666,1.8231204,1.2048504,-0.2439205,-0.09676225,-0.3114761,1.4140608,0.37754247
0.0,0.1,1.4,0.5235987755982988,0.5235987755982988,0,-0.12814699,-0.2921542,-0.49072015,0.4385107,0.5455634,1.264602,0.068012066,1.782051,1.2744904,-0.4218801,-0.11716031,0.28388363,1.025706,0.94945437
0.0,0.1,1.4,0.5235987755982988,0.5235987755982988,0,-0.12824722,-0.29188508,-0.49470982,0.41838863,0.86957896,1.0837091,0.8848004,1.8380606,1.1445507,0.20006546,0.04222458,0.12054354,1.1599089,-0.3167482
0.0,0.1,1.4,0.5235987755982988,0.5235987755982988,0,-0.12755197,-0.2918265,-0.4944115,0.44535026,1.039408,1.0482306,0.82431483,1.7953322,1.3595911,-0.13960049,-0.14052787,0.10208027,1.1618778,1.3381338
0.0,0.1,1.4,0.5235987755982988,0.5235987755982988,0,-0.12833394,-0.29170462,-0.4918549,0.47982976,0.29002282,1.2421343,-0.15650761,1.7864275,1.2422504,-0.33707845,-0.08709345,0.35041493,1.1828587,1.1999506
0.0,0.1,1.4,0.5235987755982988,0.5235987755982988,0,-0.12729995,-0.29199925,-0.49802658,0.46581492,0.5655836,1.2908108,-0.94505715,1.8248404,1.1773232,-0.48021486,-0.028909232,0.14034042,1.0025604,0.20432776
0.0,0.1,1.4,0.5235987755982988,0.5235987755982988,0,-0.12738426,-0.2918966,-0.4934045,0.4664108,-0.042102765,1.238573,-0.8284806,1.7637343,1.627084,-0.23462571,0.1253397,-0.16472909,1.2205391,0.5054697
0.0,0.1,1.4,0.5235987755982988,0.5235987755982988,0,-0.12681782,-0.29182068,-0.49450865,0.43827197,0.97250855,1.1994929,0.1958162,1.7144994,1.1365057,-0.9509323,0.008436587,0.099421374,1.3404531,-0.07888887
0.0,0.1,1.4,0.5235987755982988,0.5235987755982988,0,-0.12706108,-0.29200932,-0.497103,0.40630665,0.43074512,1.1834534,2.584597,1.7508583,1.4284476,-0.7301816,-0.026101902,-0.053292736,0.9670109,0.04689437
0.0,0.1,1.4,0.5235987755982988,0.5235987755982988,0,-0.12678427,-0.2918616,-0.49103826,0.48056835,0.6117706,1.1969655,-0.012175446,1.7970159,1.5002246,-0.07330746,-0.18846457,-0.060354427,1.1843394,0.2838135
0.0,0.1,1.4,0.5235987755982988,0.5235987755982988,0,-0.1265725,-0.29184458,-0.49693817,0.44249883,0.52289414,1.2058882,0.6548725,1.8876013,1.3530253,-0.5751265,-0.06799979,0.080032796,1.0555074,0.42248625
0.0,0.1,1.4,0.5235987755982988,0.5235987755982988,0,-0.1275226,-0.29198083,-0.49872538,0.51339114,1.0161396,1.2168343,-0.14700045,1.8548031,1.234425,0.5384361,-0.009474918,0.22398043,1.013741,0.55758244
0.0,0.1,1.4,0.5235987755982988,0.5235987755982988,0,-0.12753923,-0.2920374,-0.4908929,0.45767006,0.8778874,1.1140087,-0.45902008,1.7059244,1.2819451,-0.2558638,0.06085426,-0.0752442,1.1548065,0.26795763
0.0,0.1,1.4,0.5235987755982988,0.5235987755982988,0,-0.12708849,-0.29197362,-0.49538115,0.47067472,0.8464435,1.279377,-0.1068163,1.7307507,1.3510195,-0.10296391,0.004110427,0.11138274,1.1619616,-0.2656289
0.0,0.1,1.4,0.5235987755982988,0.5235987755982988,0,-0.12714057,-0.2919184,-0.49300623,0.43899262,0.2586083,1.3264093,1.0884956,1.6959196,1.4174824,0.04650301,-0.05953234,-0.17116934,1.3557681,0.17139572
0.0,0.1,1.4,0.5235987755982988,0.5235987755982988,0,-0.12721203,-0.2920534,-0.49681225,0.44950664,0.51616716,1.2674074,-0.18484198,1.650434,1.3650658,-0.11775633,-0.057161618,-0.23023003,1.0745869,0.002590094
0.0,0.1,1.4,0.5235987755982988,0.5235987755982988,0,-0.12768136,-0.29188272,-0.49540943,0.44246808,0.47369313,1.2762727,1.7350498,1.7768294,1.333929,0.32961068,-0.063748784,0.11801631,1.1286485,-0.81913924
0.0,0.1,1.4,0.5235987755982988,0.5235987755982988,0,-0.12777685,-0.29195517,-0.49127474,0.48985457,0.33484814,1.1130658,0.26457775,1.7624295,1.3513464,-0.22602108,-0.04431053,-0.10730375,0.92097926,0.18769206
0.0,0.1,1.4,0.5235987755982988,0.5235987755982988,0,-0.12880962,-0.2916711,-0.48621464,0.50739956,0.35302505,1.194305,1.0725509,1.6498052,0.872633,-0.26219675,-0.11417627,0.01654811,1.0550444,0.023111401
0.0,0.1,1.4,0.5235987755982988,0.5235987755982988,0,-0.12761334,-0.29181004,-0.5005645,0.41247535,-0.010611916,1.2143801,1.0980594,1.7923276,1.3137687,-0.49799415,-0.13280909,0.1183471,1.2240509,0.16556366
0.0,0.1,1.4,0.5235987755982988,0.5235987755982988,0,-0.12730537,-0.29194567,-0.49629375,0.47075117,0.21051493,1.2489417,0.09544328,1.6720906,1.4870627,-0.43183538,-0.26679572,-0.27858424,1.2802331,-0.28180212
0.0,0.1,1.4,0.5235987755982988,0.5235987755982988,0,-0.1274444,-0.29168043,-0.49648914,0.40437034,0.54575264,1.3707424,1.6578479,1.74574,1.3075837,0.36153698,0.02375262,-0.15998183,1.2293589,-0.07624285
0.0,0.1,1.4,0.5235987755982988,0.5235987755982988,0,-0.12702584,-0.29180264,-0.48586577,0.46522722,0.8603304,1.1382613,1.9359598,1.7249435,1.2699531,0.21685202,-0.09269148,-0.22089683,1.0918071,-0.18645833
0.0,0.1,1.4,0.5235987755982988,0.5235987755982988,0,-0.1268567,-0.29159614,-0.49238467,0.41923344,0.6981025,1.3267683,0.24634153,1.6584587,1.3152542,-0.15411445,-0.2868922,0.23916063,1.1688083,0.77635026
0.0,0.1,1.4,0.5235987755982988,0.5235987755982988,0,-0.12781703,-0.2921386,-0.4913123,0.41428852,-0.2781144,1.1464233,0.73717374,1.7792343,1.1954169,-0.5078571,-0.1256416,-0.11108702,1.1307175,-0.64654684
0.0,0.1,1.4,0.5235987755982988,0.5235987755982988,0,-0.12803133,-0.29193807,-0.49571645,0.41484612,1.0522609,1.0332628,-0.19646373,1.7353946,1.5129964,-0.15106724,-0.11391056,-0.15086596,0.8325322,-0.07723816
0.0,0.1,1.4,0.5235987755982988,0.5235987755982988,0,-0.12795055,-0.2918305,-0.4887701,0.5078178,0.61082757,1.1627969,-0.73559606,1.6213002,1.1979365,-0.4492495,0.035173297,0.13236481,0.98197937,0.14421411
0.0,0.1,1.4,0.5235987755982988,0.5235987755982988,0,-0.12815166,-0.29189664,-0.49649033,0.48828986,0.9566824,1.3289725,0.6778033,1.7988452,1.2187543,-0.71362704,-0.09633389,0.21261823,1.2342957,-0.32585013
0.0,0.1,1.4,0.5235987755982988,0.5235987755982988,0,-0.12736084,-0.29182732,-0.49593645,0.42066857,0.2698855,1.1773449,1.0104717,1.6770024,1.3662905,-0.5658515,-0.12625691,0.16675356,1.2389958,-0.10456808
0.0,0.1,1.4,0.5235987755982988,0.5235987755982988,0,-0.12679297,-0.29180333,-0.49070054,0.4294358,0.3104527,1.2964113,0.5762653,1.889014,1.1940211,-0.0034223776,-0.0043797954,0.22808906,1.2269981,-0.03517153
0.0,0.1,1.4,0.5235987755982988,0.5235987755982988,0,-0.12785135,-0.2916396,-0.4882023,0.40035433,0.4976966,1.188996,-0.7554753,1.7623136,1.3183533,0.120569356,-0.030924486,-0.21814263,1.0907446,0.08750761
0.0,0.1,1.4,0.5235987755982988,0.5235987755982988,0,-0.12783965,-0.29166377,-0.4910431,0.45604727,0.49911788,1.2243884,1.334991,1.5441934,1.3069127,-0.19198559,-0.10575345,0.32089117,1.1056786,0.17284966
0.0,0.1,1.4,0.5235987755982988,0.5235987755982988,0,-0.12715471,-0.29180852,-0.49875286,0.3875179,0.64224046,1.0898072,-0.40698498,1.835588,1.1121838,-0.084472634,-0.17117688,-0.17917636,1.1078272,0.88043594
0.0,0.1,1.4,0.5235987755982988,0.5235987755982988,0,-0.12804596,-0.2918284,-0.49328455,0.47391817,0.5294572,1.1585553,0.8703547,1.8210416,1.4552243,0.061617933,-0.07204764,-0.0155124925,1.3126922,0.97581124
0.0,0.1,1.4,0.5235987755982988,0.5235987755982988,0,-0.12845087,-0.29187635,-0.49225712,0.5009596,0.66303146,1.148211,0.81819457,1.8248239,1.5080632,-0.49315083,-0.03410941,-0.07935129,1.2684675,0.8801532
0.0,0.1,1.4,0.5235987755982988,0.5235987755982988,0,-0.12787059,-0.29183972,-0.5007258,0.44266704,0.4602011,1.3745638,2.0256793,1.5832717,1.5953833,-0.34567013,-0.033312105,-0.105577804,1.3300172,0.7576323
0.0,0.1,1.4,0.5235987755982988,0.5235987755982988,0,-0.12789108,-0.29189304,-0.49827176,0.44331008,0.320827,1.1412696,1.6121244,1.726668,1.2972828,-0.13624057,-0.031870864,-0.0670284,1.1772008,0.51717746
0.0,0.1,1.4,0.5235987755982988,0.5235987755982988,0,-0.12896268,-0.29171064,-0.4941871,0.41713905,0.30521005,1.2597994,1.9576979,1.6230701,1.1893775,-0.35495067,-0.078756064,0.122157216,1.0974286,-0.0058043934
0.0,0.1,1.4,0.5235987755982988,0.5235987755982988,0,-0.12810573,-0.29180804,-0.49336776,0.48432457,0.2669919,1.1933779,1.2652181,1.6959664,1.2580965,0.016280992,-0.026727587,-0.011640164,1.0366824,-0.19450526
0.0,0.1,1.4,0.5235987755982988,0.5235987755982988,0,-0.12849513,-0.2917039,-0.49422795,0.39111808,0.19468346,1.1938865,-0.1431274,1.750105,1.5950339,0.17247158,-0.12293817,-0.20739897,0.95537305,-0.24722084
0.0,0.1,1.4,0.5235987755982988,0.5235987755982988,0,-0.12758179,-0.29180062,-0.4947737,0.4608752,0.3005271,1.1929235,0.23367828,1.6110381,1.2836378,0.058348887,-0.23011045,0.29651344,0.99837667,-0.74621296
0.0,0.1,1.4,0.5235987755982988,0.5235987755982988,0,-0.12722051,-0.29215112,-0.4890942,0.4853416,0.67529345,1.264821,-0.35640964,1.6603519,1.0742093,-0.24887279,-0.0756208,-0.011343841,1.246133,0.007441711
0.0,0.1,1.4,0.5235987755982988,0.5235987755982988,0,-0.12868226,-0.2917571,-0.4921258,0.44925022,0.85748744,1.3061432,0.36038285,1.5945702,1.3537585,-0.09855201,-0.037457127,0.40828028,0.997025,0.50125253
0.0,0.1,1.4,0.5235987755982988,0.5235987755982988,0,-0.12706138,-0.29165292,-0.49068046,0.40071455,0.32098374,1.1620241,0.8204753,1.8917755,1.6196057,-0.43413338,-0.020147003,0.039503694,1.0813185,0.13003533
0.0,0.1,1.4,0.5235987755982988,0.5235987755982988,0,-0.12729007,-0.2917564,-0.49494728,0.4821934,0.33399087,1.2436002,0.34419405,1.6947126,1.3950781,-0.6263433,-0.020600572,0.320582,1.2704034,-0.38901502
0.0,0.1,1.4,0.5235987755982988,0.5235987755982988,0,-0.12752931,-0.2923362,-0.49326605,0.4395944,0.55442417,1.2040104,-0.1916426,1.7204915,1.2392422,0.11645728,-0.044082727,0.04661463,1.2568816,0.3012273
0.0,0.1,1.4,0.5235987755982988,0.5235987755982988,0,-0.1259255,-0.29172632,-0.4952206,0.4780702,0.5155317,1.2175416,1.2740632,1.7074028,1.2440779,0.10320108,0.05055361,0.3116425,1.0145404,0.68441254
