sanky1234/BimanualDexCatch/isaacgymenvs/cem_results/football_pose_0.1_-0.1_1.2999999999999998_0.5235987755982988_0.0_0_2025-05-26.csv
x,y,z,roll,pitch,yaw,robot1/joint1,robot1/joint2,robot1/joint3,robot1/joint4,robot1/joint5,robot1/joint6,robot1/joint7,robot2/joint1,robot2/joint2,robot2/joint3,robot2/joint4,robot2/joint5,robot2/joint6,robot2/joint7
0.1,-0.1,1.2999999999999998,0.5235987755982988,0.0,0,-1.5583324,1.2339352,-0.5979193,0.67801154,-0.4010709,0.98424983,-0.25459087,-0.82729465,-1.0723871,1.4353553,-0.0022595879,-0.34469235,1.0628535,-0.1774548
0.1,-0.1,1.2999999999999998,0.5235987755982988,0.0,0,-1.5610873,1.2224625,-0.6000743,0.67276114,-0.41402036,0.9952458,-0.2733088,-0.82832414,-1.0725379,1.4412559,-0.0153352115,-0.07234638,1.1284289,-0.2388787
0.1,-0.1,1.2999999999999998,0.5235987755982988,0.0,0,-1.5607065,1.237886,-0.5943078,0.6800956,-0.387969,0.99225956,-0.19248289,-0.82866985,-1.0794287,1.4398813,-0.041763972,0.09456586,1.283009,-0.60792446
0.1,-0.1,1.2999999999999998,0.5235987755982988,0.0,0,-1.5605967,1.2381104,-0.5991728,0.6795625,-0.41866586,0.9893216,-0.19230337,-0.82827944,-1.0745168,1.4389867,-0.0012174771,-0.23486008,1.21495,-0.43054968
0.1,-0.1,1.2999999999999998,0.5235987755982988,0.0,0,-1.559252,1.2409672,-0.59305793,0.68029284,-0.4111516,0.99089897,-0.24923874,-0.82775354,-1.0784763,1.4399809,-0.044772543,0.15720966,0.9800486,-0.58904487
0.1,-0.1,1.2999999999999998,0.5235987755982988,0.0,0,-1.5624616,1.2311507,-0.5925026,0.6755771,-0.41289252,0.9945218,-0.18062736,-0.8280491,-1.07757,1.439573,-0.022002287,0.23455049,1.1341778,-0.9603985
0.1,-0.1,1.2999999999999998,0.5235987755982988,0.0,0,-1.5647413,1.2431598,-0.59173775,0.68249,-0.40276143,0.989402,-0.20034654,-0.8276452,-1.079494,1.4398918,-0.0046797837,0.029986108,1.3227044,-0.7823178
0.1,-0.1,1.2999999999999998,0.5235987755982988,0.0,0,-1.5582895,1.2296025,-0.6044609,0.67485297,-0.4060939,0.9956669,-0.21369919,-0.82861227,-1.0754546,1.4406234,-0.030636583,0.094718955,1.2368426,-0.8290512
0.1,-0.1,1.2999999999999998,0.5235987755982988,0.0,0,-1.5637233,1.2398977,-0.6002774,0.6750503,-0.40478307,0.9959779,-0.22129159,-0.8287801,-1.0729264,1.4392387,-0.016969861,0.010032542,1.1126726,-0.6567469
0.1,-0.1,1.2999999999999998,0.5235987755982988,0.0,0,-1.5630797,1.2343773,-0.59546614,0.6783686,-0.39860576,0.9958318,-0.1936186,-0.82783836,-1.0754976,1.4405098,-0.031602558,-0.15713835,1.1722314,-1.1635695
0.1,-0.1,1.2999999999999998,0.5235987755982988,0.0,0,-1.5616101,1.2314934,-0.6006262,0.67844385,-0.4119089,0.9924445,-0.34129703,-0.82688403,-1.0704885,1.4392968,-0.03133553,0.03990177,1.0789334,-1.4181571
0.1,-0.1,1.2999999999999998,0.5235987755982988,0.0,0,-1.5579027,1.232908,-0.59936094,0.67777586,-0.4187213,0.99502856,-0.31824574,-0.8284079,-1.0752066,1.4409997,-0.04397541,-0.20117135,1.1026726,-0.5842926
0.1,-0.1,1.2999999999999998,0.5235987755982988,0.0,0,-1.5571386,1.2450044,-0.60294026,0.67003924,-0.37749773,0.98578,-0.17945273,-0.8282131,-1.0736477,1.4424517,-0.04819062,-0.20707087,1.1851082,0.12656392
0.1,-0.1,1.2999999999999998,0.5235987755982988,0.0,0,-1.5620046,1.2282084,-0.604752,0.67277974,-0.3811304,0.99050355,-0.24056748,-0.8298578,-1.0763677,1.4388846,-0.061254907,-0.17753735,1.192774,-0.7741481
0.1,-0.1,1.2999999999999998,0.5235987755982988,0.0,0,-1.5600418,1.2266085,-0.5981684,0.6760132,-0.40320468,0.9956146,-0.27672058,-0.8278654,-1.0741582,1.4428918,-0.025311572,-0.09429366,1.0926745,0.44466326
0.1,-0.1,1.2999999999999998,0.5235987755982988,0.0,0,-1.5584829,1.2400163,-0.597814,0.6712078,-0.414114,0.9896969,-0.1611983,-0.8283733,-1.0707734,1.4403071,-0.033471044,0.16982104,0.92446357,-0.03536055
0.1,-0.1,1.2999999999999998,0.5235987755982988,0.0,0,-1.5606565,1.2234728,-0.60367423,0.67135775,-0.3937115,0.99469453,-0.24053057,-0.8294687,-1.0753417,1.4389771,-0.050621185,-0.17430948,1.3473957,-0.5844957
0.1,-0.1,1.2999999999999998,0.5235987755982988,0.0,0,-1.5581836,1.2455492,-0.59833974,0.67474556,-0.39114463,0.99047685,-0.21295919,-0.82873017,-1.0759301,1.4407609,-0.0041383007,-0.13566715,1.056538,-0.5542526
0.1,-0.1,1.2999999999999998,0.5235987755982988,0.0,0,-1.5597428,1.2425493,-0.5930056,0.6794394,-0.38663334,0.9896025,-0.2510492,-0.828905,-1.0751472,1.4402653,0.0018732322,-0.330253,1.0896652,-0.18086581
0.1,-0.1,1.2999999999999998,0.5235987755982988,0.0,0,-1.5577332,1.2375214,-0.60554546,0.67941177,-0.41145068,0.9954692,-0.2771756,-0.82927096,-1.076479,1.4387668,0.018862216,0.17131536,1.2414435,-0.42191288
0.1,-0.1,1.2999999999999998,0.5235987755982988,0.0,0,-1.5619004,1.2523644,-0.60326123,0.68356854,-0.39324975,0.9915495,-0.30715272,-0.8285049,-1.0730498,1.4420747,-0.028065959,-0.009797854,1.0706674,0.34429502
0.1,-0.1,1.2999999999999998,0.5235987755982988,0.0,0,-1.558759,1.2381018,-0.59413236,0.68303365,-0.39553824,0.9913861,-0.27280664,-0.8282176,-1.0744073,1.4425033,-0.012275081,-0.07039333,1.1340938,-0.512432
0.1,-0.1,1.2999999999999998,0.5235987755982988,0.0,0,-1.5626163,1.2287946,-0.60204166,0.6794822,-0.38394317,0.99263847,-0.17733315,-0.8292175,-1.0772195,1.4378675,-0.023499124,-0.04282685,1.027882,-0.32893148
0.1,-0.1,1.2999999999999998,0.5235987755982988,0.0,0,-1.5584892,1.2303184,-0.595919,0.6751834,-0.4175425,0.99567246,-0.22396748,-0.8281156,-1.0722953,1.4416809,-0.031427436,-0.15569891,1.2519479,-0.2944393
0.1,-0.1,1.2999999999999998,0.5235987755982988,0.0,0,-1.5613422,1.2432585,-0.5867198,0.68278027,-0.3982767,0.99263847,-0.26549307,-0.82861054,-1.0745745,1.4392902,-0.036428206,-0.031126698,0.90589625,-0.028441623
0.1,-0.1,1.2999999999999998,0.5235987755982988,0.0,0,-1.5563977,1.2349992,-0.5877301,0.68224716,-0.40043306,0.9959688,-0.3182285,-0.8293723,-1.0731801,1.4378971,-0.047425173,-0.09343364,1.1076268,-0.49142578
0.1,-0.1,1.2999999999999998,0.5235987755982988,0.0,0,-1.5593531,1.2343743,-0.5947419,0.6741617,-0.42462337,0.996865,-0.20904554,-0.8280763,-1.0732126,1.4400002,-0.039440487,0.028275574,1.204346,-0.09443762
0.1,-0.1,1.2999999999999998,0.5235987755982988,0.0,0,-1.5586517,1.2394494,-0.59354216,0.67921793,-0.41465393,0.9925434,-0.25035918,-0.82892907,-1.0744554,1.4395832,0.0034126616,-0.21303551,1.1877272,-0.049588557
0.1,-0.1,1.2999999999999998,0.5235987755982988,0.0,0,-1.5575954,1.2385077,-0.5961761,0.68287104,-0.41261345,0.9877703,-0.25552493,-0.82775503,-1.0725894,1.4425704,-0.020315886,-0.1184128,1.210202,0.08829293
0.1,-0.1,1.2999999999999998,0.5235987755982988,0.0,0,-1.5583972,1.2407849,-0.58866215,0.6783998,-0.39553016,0.98678106,-0.19469711,-0.8293195,-1.078564,1.437782,-0.005825382,-0.02008389,1.176683,0.5021752
0.1,-0.1,1.2999999999999998,0.5235987755982988,0.0,0,-1.5588385,1.2344774,-0.5993189,0.6682314,-0.41788265,0.9931729,-0.23830931,-0.8292059,-1.0772634,1.440584,-0.016436426,-0.10617903,1.0486895,-1.3015816
0.1,-0.1,1.2999999999999998,0.5235987755982988,0.0,0,-1.5617329,1.24504,-0.60203606,0.67842394,-0.40863457,0.9913549,-0.21199146,-0.82904935,-1.0721219,1.4394841,-0.0049821087,0.009082954,1.1109585,-1.2134836
0.1,-0.1,1.2999999999999998,0.5235987755982988,0.0,0,-1.5581764,1.2300149,-0.60423744,0.67157555,-0.38766742,0.98689824,-0.20467618,-0.82780135,-1.0746635,1.4419612,-0.044789735,-0.029580304,1.2554541,-0.9810219
0.1,-0.1,1.2999999999999998,0.5235987755982988,0.0,0,-1.5609648,1.2306231,-0.59510034,0.67812985,-0.37727472,0.9897794,-0.18801261,-0.8283056,-1.0748993,1.4421128,-0.018471418,-0.10476037,1.0527493,-0.05449421
0.1,-0.1,1.2999999999999998,0.5235987755982988,0.0,0,-1.5609604,1.2345442,-0.5992602,0.6660693,-0.4051528,0.99577487,-0.19140375,-0.82950425,-1.0830488,1.4404094,-0.00047929006,0.023285467,1.0756571,-0.40163764
0.1,-0.1,1.2999999999999998,0.5235987755982988,0.0,0,-1.5576235,1.2396762,-0.5992466,0.6726436,-0.41067842,0.9936892,-0.19886388,-0.8280885,-1.0737022,1.4426169,-0.05958486,-0.2403505,1.1345664,-0.6358579
0.1,-0.1,1.2999999999999998,0.5235987755982988,0.0,0,-1.5593237,1.241825,-0.59605545,0.68135744,-0.38504842,0.9978142,-0.251492,-0.8291736,-1.0699965,1.4406095,-0.042626217,0.22734818,1.034723,0.08176956
0.1,-0.1,1.2999999999999998,0.5235987755982988,0.0,0,-1.558948,1.2385446,-0.59541035,0.67842233,-0.39940953,0.9916072,-0.2913019,-0.8278136,-1.0769626,1.4411246,-0.05177118,0.117328554,1.1996884,-1.5548893
0.1,-0.1,1.2999999999999998,0.5235987755982988,0.0,0,-1.5583293,1.2418437,-0.6081465,0.67595786,-0.41249776,0.99265116,-0.22353032,-0.82846695,-1.075295,1.4375386,0.031057289,-0.038629733,1.0443604,-0.62161773
0.1,-0.1,1.2999999999999998,0.5235987755982988,0.0,0,-1.5578529,1.2346381,-0.5854099,0.6814686,-0.37379435,0.9952144,-0.23357905,-0.82775074,-1.0768261,1.4380494,-0.041922767,-0.025286961,1.0218397,0.94218343
0.1,-0.1,1.2999999999999998,0.5235987755982988,0.0,0,-1.5616441,1.2251737,-0.5940069,0.6781446,-0.41241696,0.9970471,-0.2421385,-0.82719,-1.0709149,1.4378859,-0.0016269094,0.051547013,1.188265,-1.3499217
0.1,-0.1,1.2999999999999998,0.5235987755982988,0.0,0,-1.557642,1.2315301,-0.6010078,0.6754962,-0.3868042,1.0007968,-0.22301526,-0.8275091,-1.072752,1.4394784,0.0065922947,-0.009540365,1.0982419,-0.6354279
0.1,-0.1,1.2999999999999998,0.5235987755982988,0.0,0,-1.5613341,1.2380464,-0.58989143,0.67862976,-0.41695932,0.9990084,-0.17661405,-0.8278985,-1.0763208,1.4422846,-0.031094287,0.10399455,1.1697602,-0.6216426
0.1,-0.1,1.2999999999999998,0.5235987755982988,0.0,0,-1.5589461,1.2404242,-0.59338903,0.66880065,-0.40892127,0.9970905,-0.19046049,-0.82761985,-1.078813,1.4406507,-0.07690413,-0.20650455,0.94893557,-0.44697157
0.1,-0.1,1.2999999999999998,0.5235987755982988,0.0,0,-1.5563828,1.2360418,-0.58897156,0.6833939,-0.4175184,0.986206,-0.2615654,-0.82848084,-1.0762315,1.4423687,-0.006190131,0.19454314,1.0922576,-1.6067038
0.1,-0.1,1.2999999999999998,0.5235987755982988,0.0,0,-1.5568181,1.2326018,-0.5978416,0.68438506,-0.37414035,0.98965937,-0.24816343,-0.8288062,-1.0753297,1.440046,-0.058374695,-0.13949433,1.1320225,-0.98203164
0.1,-0.1,1.2999999999999998,0.5235987755982988,0.0,0,-1.5583184,1.2405126,-0.5986878,0.6724863,-0.41075277,0.992514,-0.22537772,-0.82730967,-1.077887,1.4368558,0.033564117,0.09281318,1.1434381,0.71043706
0.1,-0.1,1.2999999999999998,0.5235987755982988,0.0,0,-1.5593973,1.227759,-0.59354746,0.6843302,-0.41159695,0.99878377,-0.266817,-0.8281876,-1.074613,1.4404479,-0.023236236,0.04487831,1.1009064,-0.25872687
0.1,-0.1,1.2999999999999998,0.5235987755982988,0.0,0,-1.561619,1.2389498,-0.5899408,0.6845007,-0.41484317,0.99012303,-0.17753421,-0.8283946,-1.0803558,1.4371545,-0.030662837,-0.008975368,1.0491295,-0.6420163
0.1,-0.1,1.2999999999999998,0.5235987755982988,0.0,0,-1.5565274,1.2384325,-0.60064125,0.6659102,-0.4100501,0.9889016,-0.18583247,-0.8286493,-1.0762007,1.4391979,-0.034536134,-0.051566705,1.1576221,0.10176966
0.1,-0.1,1.2999999999999998,0.5235987755982988,0.0,0,-1.5617933,1.2321628,-0.5997352,0.67515165,-0.40677014,0.9877275,-0.17488433,-0.8293248,-1.0739223,1.4378448,-0.012387506,-0.14058235,1.1168894,-0.9696893
0.1,-0.1,1.2999999999999998,0.5235987755982988,0.0,0,-1.5587014,1.2348757,-0.5888781,0.6818861,-0.36932197,0.9945307,-0.21559103,-0.8286221,-1.0739614,1.4434302,-0.018411752,0.0331188,1.1309903,0.1627462
0.1,-0.1,1.2999999999999998,0.5235987755982988,0.0,0,-1.5599629,1.2366501,-0.59637505,0.67762226,-0.39571422,0.99174166,-0.16966438,-0.829248,-1.0765029,1.4413098,0.0020198054,-0.06442265,1.090766,-0.57547253
0.1,-0.1,1.2999999999999998,0.5235987755982988,0.0,0,-1.5573666,1.2347296,-0.5914339,0.68108505,-0.42045367,0.99166244,-0.193787,-0.8296035,-1.0798595,1.4419445,-0.0029213235,0.046083003,1.1336995,-0.21282777
0.1,-0.1,1.2999999999999998,0.5235987755982988,0.0,0,-1.5594069,1.2353647,-0.5960535,0.67845094,-0.38036492,0.996399,-0.2429436,-0.82641315,-1.0767266,1.4426806,0.015971249,0.1408899,1.0667117,-0.45154068
0.1,-0.1,1.2999999999999998,0.5235987755982988,0.0,0,-1.5592511,1.2298962,-0.59289926,0.6807406,-0.39701375,0.9960272,-0.2003467,-0.82834804,-1.0765425,1.4414524,-0.03443412,-0.06172663,0.95119065,-1.6598047
0.1,-0.1,1.2999999999999998,0.5235987755982988,0.0,0,-1.5565046,1.2418294,-0.5902221,0.6794993,-0.39098978,1.0013859,-0.18105862,-0.82916194,-1.0814418,1.4412224,-0.02166996,-0.08683474,0.94240856,-0.768638
0.1,-0.1,1.2999999999999998,0.5235987755982988,0.0,0,-1.5591677,1.2439874,-0.5942781,0.6763211,-0.41130325,0.9912116,-0.2285938,-0.82801807,-1.0732559,1.439756,-0.047815222,0.26180992,1.0270132,-0.50213647
0.1,-0.1,1.2999999999999998,0.5235987755982988,0.0,0,-1.5597088,1.2373024,-0.592175,0.6725852,-0.4045135,0.99373156,-0.21342447,-0.82843614,-1.0795525,1.4413983,-0.021769434,-0.15979007,1.2105111,-0.53160566
0.1,-0.1,1.2999999999999998,0.5235987755982988,0.0,0,-1.5596445,1.2406081,-0.5966831,0.67725736,-0.42501152,1.0005324,-0.22824486,-0.8288578,-1.0740073,1.4390562,0.0026259464,-0.029903868,1.1401191,-0.5068382
0.1,-0.1,1.2999999999999998,0.5235987755982988,0.0,0,-1.5563635,1.2357363,-0.5977076,0.67268544,-0.3830808,0.99618816,-0.22661611,-0.8280504,-1.0762941,1.4416856,-0.011370701,-0.07001737,0.9623817,-1.3760582
0.1,-0.1,1.2999999999999998,0.5235987755982988,0.0,0,-1.5614631,1.2326318,-0.5986636,0.6800738,-0.38724872,0.9933974,-0.23651601,-0.8274375,-1.0793651,1.4393705,-0.056647725,0.027881544,1.1531589,-0.65084726
0.1,-0.1,1.2999999999999998,0.5235987755982988,0.0,0,-1.5593058,1.2265579,-0.5927215,0.6820854,-0.4092442,1.0003314,-0.21990955,-0.82814544,-1.0793284,1.443654,-0.019978035,0.15915787,1.2202048,-1.3653374
0.1,-0.1,1.2999999999999998,0.5235987755982988,0.0,0,-1.5592268,1.227002,-0.6075351,0.667542,-0.408686,0.9881967,-0.18316303,-0.8284391,-1.0750213,1.4414158,-0.04228635,-0.051319573,1.1623359,-0.23689285
0.1,-0.1,1.2999999999999998,0.5235987755982988,0.0,0,-1.5602341,1.2250657,-0.59845763,0.67681843,-0.40603033,0.9934295,-0.22134669,-0.8284078,-1.0777422,1.4407226,-0.016151426,-0.08597326,1.2247689,-0.61502945
0.1,-0.1,1.2999999999999998,0.5235987755982988,0.0,0,-1.558055,1.2444212,-0.60874486,0.6804966,-0.40077496,0.99546355,-0.24396035,-0.82861924,-1.0787109,1.4383537,0.01113578,-0.123921104,1.1309373,-0.24510635
0.1,-0.1,1.2999999999999998,0.5235987755982988,0.0,0,-1.559086,1.2396053,-0.5969709,0.66971827,-0.4166705,0.9966739,-0.19680177,-0.8286784,-1.0810587,1.4414614,-0.05479955,-0.08038634,1.0912808,-0.7614692
0.1,-0.1,1.2999999999999998,0.5235987755982988,0.0,0,-1.5597105,1.2401909,-0.5942028,0.67264575,-0.3946028,0.99219996,-0.21742414,-0.82763404,-1.0744131,1.4406816,-0.030030642,0.08319798,0.92896014,0.14762367
0.1,-0.1,1.2999999999999998,0.5235987755982988,0.0,0,-1.5582608,1.2391542,-0.59404194,0.68128836,-0.36597657,0.99851555,-0.25256792,-0.8281953,-1.0786777,1.4398961,-0.04498588,-0.02991328,1.1255625,0.034423962
0.1,-0.1,1.2999999999999998,0.5235987755982988,0.0,0,-1.561002,1.2375667,-0.6083107,0.66825587,-0.4158788,0.99720806,-0.23009963,-0.826976,-1.0752319,1.440922,-0.044755187,-0.19680351,1.0952107,-0.8251232
0.1,-0.1,1.2999999999999998,0.5235987755982988,0.0,0,-1.5572664,1.2336477,-0.59168106,0.6782087,-0.4038342,0.98842514,-0.21823376,-0.82733405,-1.0750071,1.4386771,-0.0067501394,0.12181731,1.1499319,-0.7445085
0.1,-0.1,1.2999999999999998,0.5235987755982988,0.0,0,-1.5612663,1.2349337,-0.6004028,0.67610896,-0.4002968,0.9933335,-0.23170835,-0.8279615,-1.0765982,1.4409952,-0.028307466,-0.16733558,1.0950904,0.22764532
0.1,-0.1,1.2999999999999998,0.5235987755982988,0.0,0,-1.5571094,1.2361454,-0.5987415,0.67468905,-0.41769165,0.9917562,-0.24015169,-0.82929343,-1.0748163,1.4445745,-0.018200018,-0.055034872,1.1388925,-0.7626117
0.1,-0.1,1.2999999999999998,0.5235987755982988,0.0,0,-1.5601377,1.2494375,-0.60500014,0.67608476,-0.41427296,0.99002725,-0.19621733,-0.8276152,-1.0757085,1.4400265,-0.029905282,-0.1309123,1.232071,-0.39467305
0.1,-0.1,1.2999999999999998,0.5235987755982988,0.0,0,-1.5619214,1.2367477,-0.59780467,0.6770048,-0.3813755,0.99259156,-0.23582448,-0.828407,-1.0780869,1.4403311,-0.018356867,-0.11019176,0.9750699,-0.06960879
0.1,-0.1,1.2999999999999998,0.5235987755982988,0.0,0,-1.5578736,1.2355349,-0.5907263,0.68427354,-0.4132768,0.99331844,-0.25846455,-0.8282411,-1.0745054,1.4434594,-0.033841684,0.003926533,0.8601089,-0.5249058
0.1,-0.1,1.2999999999999998,0.5235987755982988,0.0,0,-1.5591745,1.2414945,-0.60140306,0.67241824,-0.4078884,0.9899248,-0.26239732,-0.8288031,-1.0790483,1.4425099,-0.015128503,0.08318448,1.0139481,-0.6306498
0.1,-0.1,1.2999999999999998,0.5235987755982988,0.0,0,-1.5636307,1.2222258,-0.5933566,0.6805955,-0.41279367,0.9954253,-0.255274,-0.8287835,-1.0757122,1.4405901,-0.027579546,-0.30489433,1.1594588,-0.18175246
0.1,-0.1,1.2999999999999998,0.5235987755982988,0.0,0,-1.5600445,1.237201,-0.6070626,0.68424016,-0.38488495,0.9917934,-0.17443125,-0.82827574,-1.074799,1.4442396,-0.028575962,0.1994472,1.1466653,-0.0618025
0.1,-0.1,1.2999999999999998,0.5235987755982988,0.0,0,-1.5558405,1.2337719,-0.6014049,0.6777358,-0.38943532,0.99962384,-0.24041227,-0.82743806,-1.0755708,1.4428493,-0.0155029,-0.06918365,1.2462007,-0.0520515
0.1,-0.1,1.2999999999999998,0.5235987755982988,0.0,0,-1.5559077,1.233381,-0.59626836,0.6750364,-0.3994516,0.9928361,-0.23754005,-0.8272417,-1.0702928,1.4421712,0.0136939315,0.03629822,1.1678236,-0.2643865
0.1,-0.1,1.2999999999999998,0.5235987755982988,0.0,0,-1.5600867,1.2415783,-0.59661615,0.6766328,-0.42578903,0.9872947,-0.19493379,-0.82842433,-1.075968,1.4452375,-0.0257862,-0.18557824,1.1774155,-0.8673281
0.1,-0.1,1.2999999999999998,0.5235987755982988,0.0,0,-1.5597241,1.2286975,-0.5995255,0.6720156,-0.42456192,0.99144775,-0.15445942,-0.82824105,-1.07235,1.4410669,-0.017576568,-0.02192433,1.039817,-0.2823923
0.1,-0.1,1.2999999999999998,0.5235987755982988,0.0,0,-1.5605575,1.2302186,-0.6043757,0.6752568,-0.40040722,0.9931178,-0.30739668,-0.8273382,-1.0762976,1.4395648,-0.0022946417,-0.38920704,1.1222804,0.2275667
0.1,-0.1,1.2999999999999998,0.5235987755982988,0.0,0,-1.5655307,1.2449754,-0.5959383,0.6756781,-0.400742,0.98824155,-0.1795474,-0.8289283,-1.0731432,1.438504,-0.023500904,-0.111516364,1.1559027,0.00091510784
0.1,-0.1,1.2999999999999998,0.5235987755982988,0.0,0,-1.5556983,1.238726,-0.59434974,0.6858388,-0.37059045,0.9919537,-0.2330353,-0.82835716,-1.0757029,1.4400395,0.0024405632,0.052699324,1.183034,-0.39010713
0.1,-0.1,1.2999999999999998,0.5235987755982988,0.0,0,-1.5574875,1.2368953,-0.59368646,0.6819469,-0.3927172,0.9911616,-0.24103808,-0.82819223,-1.0775107,1.4409945,-0.023893137,-0.05626721,1.1034375,-0.57548136
0.1,-0.1,1.2999999999999998,0.5235987755982988,0.0,0,-1.5616482,1.2320817,-0.5991257,0.6730172,-0.42074382,0.98525083,-0.16839875,-0.82856387,-1.0753149,1.4360461,-0.02903829,-0.13011721,1.0270623,-0.31617585
0.1,-0.1,1.2999999999999998,0.5235987755982988,0.0,0,-1.5556285,1.2364047,-0.59624535,0.6720782,-0.40098906,0.9986662,-0.2175885,-0.8291363,-1.0733519,1.4396791,-0.00066098705,-0.38041127,1.100359,-0.8013774
0.1,-0.1,1.2999999999999998,0.5235987755982988,0.0,0,-1.558392,1.2338339,-0.5953936,0.6716031,-0.40470925,0.9961007,-0.22442514,-0.82783103,-1.0794235,1.4394304,-0.0010738997,-0.18556027,1.1156055,-0.24194184
0.1,-0.1,1.2999999999999998,0.5235987755982988,0.0,0,-1.5604987,1.22655,-0.5969021,0.6715846,-0.406407,1.0000865,-0.1783872,-0.82856435,-1.0778393,1.4383295,-0.036714945,0.0013412741,1.0782118,-0.012637021
0.1,-0.1,1.2999999999999998,0.5235987755982988,0.0,0,-1.5598488,1.2483475,-0.60201323,0.67803156,-0.37155706,0.9924559,-0.25643405,-0.8281617,-1.0764909,1.4424448,-0.033933867,0.079619184,1.2238005,0.03857577
0.1,-0.1,1.2999999999999998,0.5235987755982988,0.0,0,-1.5624541,1.2228869,-0.597136,0.68165576,-0.41233245,0.99454474,-0.22824107,-0.82797414,-1.0711986,1.439066,-0.0028155246,-0.028764505,1.0837804,-1.0412586
0.1,-0.1,1.2999999999999998,0.5235987755982988,0.0,0,-1.5564301,1.2335607,-0.60201514,0.6759911,-0.39536977,0.9912771,-0.1785492,-0.82876676,-1.0734357,1.444263,0.0028489009,-0.22282186,1.2020205,0.46022245
0.1,-0.1,1.2999999999999998,0.5235987755982988,0.0,0,-1.5558298,1.2353017,-0.5994203,0.67662877,-0.41725332,0.9881676,-0.20215306,-0.8278527,-1.0743908,1.4437761,-0.030969298,-0.082577914,1.1813555,-1.011024
0.1,-0.1,1.2999999999999998,0.5235987755982988,0.0,0,-1.557161,1.236714,-0.59217864,0.6905486,-0.39406818,0.9963194,-0.22534448,-0.82820714,-1.0742062,1.4432383,-0.043818045,0.15942301,0.920489,-0.271613
0.1,-0.1,1.2999999999999998,0.5235987755982988,0.0,0,-1.5608983,1.2346971,-0.5954335,0.67766976,-0.41072178,0.99399173,-0.19752485,-0.8285398,-1.0758622,1.4402205,-0.025847366,0.045325987,1.2421253,-0.4581141
0.1,-0.1,1.2999999999999998,0.5235987755982988,0.0,0,-1.5613015,1.2236038,-0.59997374,0.6811733,-0.37489244,0.9938865,-0.17652404,-0.82792175,-1.0809988,1.4403937,-0.04593556,0.078590676,1.1056552,-0.40396127
0.1,-0.1,1.2999999999999998,0.5235987755982988,0.0,0,-1.5626938,1.2377532,-0.59612876,0.6709798,-0.39372966,0.9939838,-0.15032692,-0.8278699,-1.0738798,1.4385828,-0.0264394,-0.09656569,1.0075283,-0.67671186
0.1,-0.1,1.2999999999999998,0.5235987755982988,0.0,0,-1.5606644,1.2361188,-0.59624106,0.6796071,-0.39508504,1.0004504,-0.22333275,-0.82857406,-1.0742424,1.4387766,-0.005639494,-0.23894747,1.1729356,-1.8081554
0.1,-0.1,1.2999999999999998,0.5235987755982988,0.0,0,-1.5561888,1.2380012,-0.6048194,0.66771877,-0.37911624,0.9967872,-0.21816036,-0.8284768,-1.0798688,1.4440342,-0.014747175,-0.20691381,1.3424671,0.36862552
0.1,-0.1,1.2999999999999998,0.5235987755982988,0.0,0,-1.5559074,1.2314044,-0.5993909,0.67339545,-0.41049838,0.9887215,-0.1981014,-0.8280961,-1.0740322,1.4385506,0.0059395316,0.09690686,1.1996757,-1.0605985
0.1,-0.1,1.2999999999999998,0.5235987755982988,0.0,0,-1.5559455,1.2352483,-0.5966604,0.680885,-0.39980066,0.99095565,-0.20214255,-0.827623,-1.0768714,1.4413236,0.009829892,0.0048614047,0.8693618,-0.22879486
0.1,-0.1,1.2999999999999998,0.5235987755982988,0.0,0,-1.5572307,1.2305827,-0.6004322,0.68441045,-0.40592217,0.9882866,-0.19855992,-0.8277952,-1.0764691,1.4375651,0.004896697,-0.119920656,1.1302058,-1.1244955
0.1,-0.1,1.2999999999999998,0.5235987755982988,0.0,0,-1.5597888,1.234735,-0.5984345,0.675788,-0.39529246,0.99872166,-0.19492069,-0.82871747,-1.0752487,1.4419755,-0.004885694,-0.13509583,1.2357373,-0.7103452
0.1,-0.1,1.2999999999999998,0.5235987755982988,0.0,0,-1.5599302,1.2434282,-0.5939645,0.67989504,-0.39755765,0.99278456,-0.20999625,-0.8288807,-1.0772812,1.438526,-0.032973222,-0.03102355,1.2424308,-0.44440523
0.1,-0.1,1.2999999999999998,0.5235987755982988,0.0,0,-1.5549662,1.2394496,-0.5930277,0.679447,-0.40655437,0.9953724,-0.2564794,-0.8284222,-1.0752586,1.4420985,-0.06355746,0.04590021,1.1757321,-0.42852667
0.1,-0.1,1.2999999999999998,0.5235987755982988,0.0,0,-1.5628843,1.2363205,-0.5987031,0.6743932,-0.39422888,1.0030261,-0.20322573,-0.82921875,-1.0772516,1.4418113,-0.022158349,-0.0849089,1.2712028,-0.7685777
0.1,-0.1,1.2999999999999998,0.5235987755982988,0.0,0,-1.5591345,1.236601,-0.5935479,0.68055236,-0.40533522,0.988129,-0.15799855,-0.8287803,-1.0774904,1.4418068,-0.017286561,-0.1620413,1.036254,-0.11950751
0.1,-0.1,1.2999999999999998,0.5235987755982988,0.0,0,-1.5606426,1.2404634,-0.5919386,0.67587495,-0.4136293,0.99774325,-0.22948767,-0.8283326,-1.0793918,1.438634,-0.018950822,0.07308321,1.1208909,-0.2020178
0.1,-0.1,1.2999999999999998,0.5235987755982988,0.0,0,-1.5590483,1.2257792,-0.60061425,0.6837231,-0.3962029,0.99235773,-0.20460829,-0.82855225,-1.0737524,1.4364741,0.0011516627,0.1818379,1.2040849,-0.9993848
0.1,-0.1,1.2999999999999998,0.5235987755982988,0.0,0,-1.5615549,1.2327522,-0.60022783,0.673214,-0.407741,0.99141383,-0.1655681,-0.8274438,-1.0717456,1.4394857,-0.028351415,-0.20384817,0.90186846,-0.9595511
0.1,-0.1,1.2999999999999998,0.5235987755982988,0.0,0,-1.5556734,1.2306166,-0.5958216,0.67651623,-0.40312204,0.99782085,-0.20267828,-0.8281186,-1.0719455,1.4434818,-0.067050636,-0.16305548,1.2288655,-0.33539036
0.1,-0.1,1.2999999999999998,0.5235987755982988,0.0,0,-1.5572633,1.2320681,-0.60402966,0.6731659,-0.4040378,0.99730253,-0.19708061,-0.8290843,-1.0756427,1.4409007,-0.018427445,-0.30621186,1.0127548,-1.4274682
0.1,-0.1,1.2999999999999998,0.5235987755982988,0.0,0,-1.5601425,1.2301354,-0.5999237,0.67548245,-0.40465638,0.9943507,-0.2033819,-0.8288967,-1.0775514,1.4400673,-0.039635006,-0.30789983,1.1854508,-0.7774053
0.1,-0.1,1.2999999999999998,0.5235987755982988,0.0,0,-1.5557394,1.2246014,-0.60298926,0.6749228,-0.404801,0.99791044,-0.22396669,-0.82902503,-1.0743381,1.4410057,-0.03471352,-0.33110145,1.116329,-0.6050197
0.1,-0.1,1.2999999999999998,0.5235987755982988,0.0,0,-1.5603515,1.2345927,-0.6004544,0.67963386,-0.41735882,0.9890401,-0.23119737,-0.82837987,-1.0760137,1.4383409,-0.036853027,0.12149241,1.1624964,-0.94466865
0.1,-0.1,1.2999999999999998,0.5235987755982988,0.0,0,-1.5569791,1.2379194,-0.58319193,0.6830299,-0.40276447,0.99628556,-0.19905555,-0.8280903,-1.0757762,1.438754,-0.02236241,-0.046920326,1.0770528,-0.2292595
0.1,-0.1,1.2999999999999998,0.5235987755982988,0.0,0,-1.5598563,1.235742,-0.595374,0.6815417,-0.4149484,0.9948994,-0.21984746,-0.82919323,-1.0759776,1.4398979,-0.032892868,-0.16194747,1.1074768,-1.2738452
0.1,-0.1,1.2999999999999998,0.5235987755982988,0.0,0,-1.5623736,1.2395601,-0.60335433,0.6831513,-0.4230497,0.9962029,-0.33810872,-0.82712394,-1.0765553,1.4416857,-0.023473047,0.13413623,1.0624465,-0.4221583
0.1,-0.1,1.2999999999999998,0.5235987755982988,0.0,0,-1.5596423,1.2301303,-0.59628016,0.6811197,-0.39859694,0.9967994,-0.27334657,-0.82796955,-1.076569,1.4384888,-0.036441527,0.08881799,1.0093515,-0.7182636
0.1,-0.1,1.2999999999999998,0.5235987755982988,0.0,0,-1.5561703,1.2282411,-0.5994587,0.6839375,-0.40111566,0.99979746,-0.29992163,-0.82835823,-1.0756198,1.4385496,-0.025997778,-0.017760044,0.99193496,-1.6370635
0.1,-0.1,1.2999999999999998,0.5235987755982988,0.0,0,-1.5579474,1.2358555,-0.59358907,0.68786484,-0.4021736,0.9888878,-0.22347985,-0.82796305,-1.0749367,1.438055,-0.015793428,-0.105404444,1.2280428,0.10646175
0.1,-0.1,1.2999999999999998,0.5235987755982988,0.0,0,-1.5574086,1.2434138,-0.6044852,0.6796305,-0.4040561,0.99424183,-0.25671712,-0.8287764,-1.0782671,1.4402024,-0.023649389,0.08624568,1.1895664,0.15547228
0.1,-0.1,1.2999999999999998,0.5235987755982988,0.0,0,-1.5609547,1.2335658,-0.59518254,0.6772734,-0.39980143,0.99356556,-0.16842271,-0.8287476,-1.071916,1.4369701,-0.029646866,0.08048183,1.1109514,-0.17610998
0.1,-0.1,1.2999999999999998,0.5235987755982988,0.0,0,-1.5573698,1.2460752,-0.6017998,0.67551595,-0.40637654,0.9938402,-0.23873964,-0.82848376,-1.0751185,1.4412708,-0.045943484,0.18337189,1.1920476,0.0014747819
0.1,-0.1,1.2999999999999998,0.5235987755982988,0.0,0,-1.5550945,1.2402972,-0.59839904,0.66955656,-0.3948331,0.99759257,-0.17626877,-0.8284492,-1.0752761,1.4401051,-0.029274203,0.00084031915,1.1315271,-0.41922182
0.1,-0.1,1.2999999999999998,0.5235987755982988,0.0,0,-1.562715,1.2332736,-0.59777737,0.6777733,-0.40954253,0.9979464,-0.17529711,-0.8294156,-1.0737038,1.438458,-0.042906445,0.07288298,1.1743072,0.08699197
0.1,-0.1,1.2999999999999998,0.5235987755982988,0.0,0,-1.5598383,1.2451658,-0.59693086,0.68194366,-0.40071535,1.000239,-0.20320427,-0.8286748,-1.0766134,1.4435127,-0.036877934,-0.24840787,1.1224669,0.032452956
0.1,-0.1,1.2999999999999998,0.5235987755982988,0.0,0,-1.559171,1.2416991,-0.5985636,0.67935073,-0.41315922,0.99747235,-0.29858848,-0.82808805,-1.0755492,1.4398774,-0.021356631,-0.059563987,1.1237215,-0.49073628
0.1,-0.1,1.2999999999999998,0.5235987755982988,0.0,0,-1.5592493,1.2456985,-0.60025513,0.6818922,-0.38377866,1.004609,-0.2512483,-0.82969904,-1.0789118,1.4389927,-0.04202809,-0.09302702,1.2522447,-0.85621595
0.1,-0.1,1.2999999999999998,0.5235987755982988,0.0,0,-1.5572793,1.2279528,-0.6078673,0.68039083,-0.39478612,0.9959694,-0.24706525,-0.8285432,-1.0801334,1.4396967,0.025824066,0.01339213,1.2356553,0.9318769
0.1,-0.1,1.2999999999999998,0.5235987755982988,0.0,0,-1.5630807,1.230526,-0.60986304,0.6789188,-0.39140338,0.9966818,-0.24672334,-0.8284718,-1.0752337,1.4403775,0.025825672,-0.14761785,1.2418855,0.058118578
0.1,-0.1,1.2999999999999998,0.5235987755982988,0.0,0,-1.5614586,1.2263422,-0.60260683,0.67955846,-0.38020116,0.99098724,-0.27889276,-0.82732123,-1.0764725,1.4375695,-0.012233165,-0.2118772,1.2655189,-1.6228856
0.1,-0.1,1.2999999999999998,0.5235987755982988,0.0,0,-1.5571971,1.2420697,-0.60188156,0.6691721,-0.39778185,1.001473,-0.21590954,-0.82882696,-1.0726722,1.4389404,-0.013603276,-0.087860756,1.1754402,-0.32729846
0.1,-0.1,1.2999999999999998,0.5235987755982988,0.0,0,-1.5585316,1.2449051,-0.60602695,0.6767009,-0.3989846,0.9914551,-0.21749772,-0.82786995,-1.0783064,1.4425533,-0.040802915,-0.130699,1.1128097,-0.21564865
0.1,-0.1,1.2999999999999998,0.5235987755982988,0.0,0,-1.5590543,1.2242194,-0.59589565,0.6781506,-0.3864328,1.0011466,-0.19554394,-0.8269518,-1.0760134,1.4395676,-0.04188854,-0.2809525,1.3328676,-0.3930582
0.1,-0.1,1.2999999999999998,0.5235987755982988,0.0,0,-1.5596348,1.2469848,-0.6014175,0.681112,-0.38394484,0.9913795,-0.22629103,-0.82867336,-1.0740901,1.4424496,-0.045653712,-0.21183877,1.0776592,-0.5988725
0.1,-0.1,1.2999999999999998,0.5235987755982988,0.0,0,-1.5605757,1.2308177,-0.6004944,0.68475956,-0.4044926,0.99403614,-0.18669319,-0.82898164,-1.0735565,1.4378924,0.012452991,0.07802414,1.2530111,-0.8612369
0.1,-0.1,1.2999999999999998,0.5235987755982988,0.0,0,-1.5549917,1.2333127,-0.5997143,0.67842513,-0.38772961,0.99159116,-0.19584757,-0.8285737,-1.0744601,1.4376172,0.010973751,-0.13556804,1.3463757,-0.37950101
0.1,-0.1,1.2999999999999998,0.5235987755982988,0.0,0,-1.5597547,1.2443533,-0.6014843,0.67864513,-0.4074032,0.994426,-0.18599223,-0.8290017,-1.0752672,1.4411682,-0.011706425,-0.17802338,1.1422619,-0.4684628
0.1,-0.1,1.2999999999999998,0.5235987755982988,0.0,0,-1.5598853,1.2304789,-0.6053133,0.67943335,-0.39925465,0.99964,-0.25820366,-0.8277149,-1.0759163,1.4416547,-0.015388103,-0.08819935,1.2001532,0.01974053
0.1,-0.1,1.2999999999999998,0.5235987755982988,0.0,0,-1.5578476,1.2466848,-0.6023172,0.6817358,-0.40901038,0.98934484,-0.22450392,-0.8290985,-1.0748223,1.4403813,0.0074901604,0.03132964,1.1469011,-0.017528243
0.1,-0.1,1.2999999999999998,0.5235987755982988,0.0,0,-1.5583674,1.2393527,-0.59622276,0.6788478,-0.39120343,0.9935088,-0.19250488,-0.8281461,-1.0760957,1.441864,-0.0076021072,-0.022350553,1.2607951,0.010627586
0.1,-0.1,1.2999999999999998,0.5235987755982988,0.0,0,-1.558788,1.2415956,-0.600084,0.6770062,-0.40351933,0.99891883,-0.17629679,-0.82872736,-1.0735661,1.4392787,-0.044595096,0.12821895,1.145215,-0.31711796
0.1,-0.1,1.2999999999999998,0.5235987755982988,0.0,0,-1.5591227,1.2369428,-0.5926955,0.68372077,-0.38794923,1.0009618,-0.20464663,-0.8280462,-1.0791761,1.4382713,0.027634148,-0.07425755,1.0905437,-1.4699527
0.1,-0.1,1.2999999999999998,0.5235987755982988,0.0,0,-1.5573754,1.2432775,-0.596745,0.6762003,-0.38150153,1.0086565,-0.21238442,-0.82762474,-1.0721133,1.43769,0.018233897,-0.13382432,1.043242,-0.36239392
0.1,-0.1,1.2999999999999998,0.5235987755982988,0.0,0,-1.5588722,1.234954,-0.59960145,0.6772734,-0.4090474,0.9986159,-0.19429883,-0.8284134,-1.0770535,1.4403247,-0.043893747,-0.11660917,1.2070951,-0.3562372
0.1,-0.1,1.2999999999999998,0.5235987755982988,0.0,0,-1.5603231,1.2379481,-0.6034471,0.6749874,-0.40367687,0.9957441,-0.23920499,-0.8276669,-1.0791619,1.440706,-0.032781154,-0.17313972,1.1861985,0.55643487
0.1,-0.1,1.2999999999999998,0.5235987755982988,0.0,0,-1.5575241,1.2336653,-0.60818285,0.67352855,-0.42189354,0.9970469,-0.2375836,-0.8280691,-1.0744071,1.4432064,-0.02122421,-0.046844073,1.0444409,-0.8077549
0.1,-0.1,1.2999999999999998,0.5235987755982988,0.0,0,-1.5575486,1.2427164,-0.5975223,0.6861433,-0.41443506,0.9916086,-0.24905133,-0.8279739,-1.0755569,1.4396758,-0.04222376,-0.04032867,1.1569043,0.7811389
0.1,-0.1,1.2999999999999998,0.5235987755982988,0.0,0,-1.5598176,1.2432567,-0.60556525,0.6803742,-0.40229583,0.9945633,-0.24901399,-0.82860863,-1.0752733,1.4389908,-0.058103185,-0.35569528,1.0175264,-0.08026566
0.1,-0.1,1.2999999999999998,0.5235987755982988,0.0,0,-1.5575588,1.2402298,-0.6041196,0.6740473,-0.40403965,0.9908541,-0.13298577,-0.82786816,-1.0770663,1.4420648,-0.027741116,-0.06568613,1.16333,-1.2631193
0.1,-0.1,1.2999999999999998,0.5235987755982988,0.0,0,-1.5551956,1.2453842,-0.6060584,0.66856974,-0.43822855,0.9914838,-0.182688,-0.8291639,-1.0807189,1.4401512,-0.0039020558,-0.22765923,1.1667892,1.2201607
0.1,-0.1,1.2999999999999998,0.5235987755982988,0.0,0,-1.5599988,1.2438079,-0.60390466,0.6849471,-0.3777973,0.9964837,-0.23987202,-0.82807595,-1.0719348,1.4367708,-0.034284264,-0.013601843,1.1675514,-0.16855076
0.1,-0.1,1.2999999999999998,0.5235987755982988,0.0,0,-1.5580616,1.2354475,-0.6057431,0.68591726,-0.3782894,0.9997484,-0.17827494,-0.82717067,-1.0784215,1.4436113,-0.015354606,-0.20129544,1.0063497,-0.30082542
0.1,-0.1,1.2999999999999998,0.5235987755982988,0.0,0,-1.561531,1.2248757,-0.6069172,0.67897844,-0.38813055,1.0029205,-0.20668265,-0.8265037,-1.076401,1.4424218,-0.012224773,-0.038805027,1.1545348,-0.78783256
0.1,-0.1,1.2999999999999998,0.5235987755982988,0.0,0,-1.558551,1.2287647,-0.6013169,0.68165123,-0.394237,0.99619716,-0.21557787,-0.8290666,-1.0771205,1.4407939,-0.077368625,-0.21584845,1.1245587,-0.77560794
0.1,-0.1,1.2999999999999998,0.5235987755982988,0.0,0,-1.5573975,1.2308502,-0.6069462,0.67764837,-0.40891457,0.9973052,-0.20327047,-0.8281331,-1.0729258,1.4393404,-0.02205986,-0.095489584,1.1165543,-1.1532589
0.1,-0.1,1.2999999999999998,0.5235987755982988,0.0,0,-1.5569746,1.2398651,-0.59465903,0.6790936,-0.40382376,1.0002016,-0.15202177,-0.8288624,-1.0734646,1.4379987,-0.0028846725,-0.10439461,1.0013369,-1.3298243
0.1,-0.1,1.2999999999999998,0.5235987755982988,0.0,0,-1.5557365,1.2377627,-0.5946184,0.6794802,-0.40065542,0.994942,-0.16352753,-0.8289538,-1.0772504,1.4413384,-0.018963974,-0.051319752,1.1091001,-0.08961219
0.1,-0.1,1.2999999999999998,0.5235987755982988,0.0,0,-1.5599571,1.2500083,-0.60385066,0.68005633,-0.39604297,0.9945386,-0.1972986,-0.8276157,-1.0717547,1.4395685,-0.058612663,-0.009532182,1.1472529,0.2732228
0.1,-0.1,1.2999999999999998,0.5235987755982988,0.0,0,-1.5594666,1.2392216,-0.601187,0.68080103,-0.3966578,0.9887512,-0.12502481,-0.8292949,-1.0751882,1.4417092,-0.02479859,0.22705047,1.1177799,-0.6607169
0.1,-0.1,1.2999999999999998,0.5235987755982988,0.0,0,-1.5612881,1.2328993,-0.6034348,0.6814277,-0.40791285,0.995077,-0.22822595,-0.8281444,-1.0749716,1.4384433,-0.0033865655,-0.07706653,1.0384575,-0.5477099
0.1,-0.1,1.2999999999999998,0.5235987755982988,0.0,0,-1.5584143,1.2403581,-0.6023831,0.6806011,-0.4097096,0.9905163,-0.16142738,-0.8289401,-1.0771842,1.4403417,-0.030968169,0.05454719,1.0404463,0.35358
0.1,-0.1,1.2999999999999998,0.5235987755982988,0.0,0,-1.560248,1.225715,-0.59884506,0.67695177,-0.41615102,1.0060607,-0.2055868,-0.8288858,-1.0744358,1.4397025,-0.057280283,-0.086575784,1.0847684,-1.2461307
0.1,-0.1,1.2999999999999998,0.5235987755982988,0.0,0,-1.563041,1.2314923,-0.6038303,0.6836343,-0.4076082,0.9915349,-0.2382484,-0.8281975,-1.0745718,1.437502,-0.0062660864,-0.052236907,1.0575823,-0.8570544
0.1,-0.1,1.2999999999999998,0.5235987755982988,0.0,0,-1.5592738,1.2347063,-0.60764873,0.67372113,-0.38610193,0.99842465,-0.21348293,-0.82824135,-1.0742778,1.4388592,-0.051477127,0.15310712,1.1000098,-1.1879601
0.1,-0.1,1.2999999999999998,0.5235987755982988,0.0,0,-1.5581561,1.2404948,-0.60838383,0.6798588,-0.3874724,0.99431866,-0.19222328,-0.8289251,-1.0767963,1.4439224,-0.043283194,-0.077934146,1.0569658,-1.3877149
0.1,-0.1,1.2999999999999998,0.5235987755982988,0.0,0,-1.555169,1.2484264,-0.60564077,0.68672514,-0.39557326,0.9958082,-0.21927184,-0.82778984,-1.0730231,1.4418454,-0.011351537,-0.22209391,1.0041729,0.4335652
0.1,-0.1,1.2999999999999998,0.5235987755982988,0.0,0,-1.5611651,1.2333207,-0.5980528,0.6669347,-0.39032093,0.9937752,-0.21017173,-0.82793325,-1.0729088,1.4394109,0.017860264,-0.10679516,1.1089067,-1.098093
0.1,-0.1,1.2999999999999998,0.5235987755982988,0.0,0,-1.5564328,1.224448,-0.5916202,0.66808283,-0.3829379,1.0008098,-0.29509357,-0.828729,-1.0792174,1.4416335,0.019088874,-0.24245182,1.2173946,0.034187194
0.1,-0.1,1.2999999999999998,0.5235987755982988,0.0,0,-1.5610543,1.2440926,-0.5881751,0.67718303,-0.40543094,0.98529005,-0.2646955,-0.8290281,-1.0722082,1.4407017,-0.049545757,-0.21167675,1.0909971,0.36941224
0.1,-0.1,1.2999999999999998,0.5235987755982988,0.0,0,-1.5626305,1.235995,-0.5916193,0.6707749,-0.3827948,0.9885651,-0.32213837,-0.8292601,-1.0731585,1.4389099,0.0060372595,0.05224025,1.1440138,0.009197004
0.1,-0.1,1.2999999999999998,0.5235987755982988,0.0,0,-1.5570815,1.2301009,-0.5984728,0.6725462,-0.38727206,0.98774767,-0.32527918,-0.82893074,-1.0733536,1.4423686,-0.019860571,-0.06525453,1.1470505,-0.8246184
0.1,-0.1,1.2999999999999998,0.5235987755982988,0.0,0,-1.5606719,1.2372476,-0.5950161,0.66798156,-0.4061001,0.9918603,-0.2472954,-0.82840735,-1.0753671,1.4386344,-0.047666807,-0.12303717,1.132272,1.6031507
0.1,-0.1,1.2999999999999998,0.5235987755982988,0.0,0,-1.56118,1.2306384,-0.5887756,0.6778978,-0.40754592,0.98606116,-0.24225193,-0.8280595,-1.0756856,1.4421103,-0.03085543,-0.36121255,1.1197723,-0.03697201
0.1,-0.1,1.2999999999999998,0.5235987755982988,0.0,0,-1.5599335,1.2316568,-0.5941485,0.6733505,-0.39561048,0.99161994,-0.23136355,-0.82840735,-1.0751326,1.4436085,-0.051401846,-0.2747262,1.1574339,-0.7402314
0.1,-0.1,1.2999999999999998,0.5235987755982988,0.0,0,-1.5612713,1.2427377,-0.58623993,0.6705782,-0.395287,0.9910956,-0.14457832,-0.8273396,-1.0771114,1.4390029,0.013426882,0.09005696,1.2199945,-0.6873079
0.1,-0.1,1.2999999999999998,0.5235987755982988,0.0,0,-1.5611795,1.2377901,-0.59158397,0.66237575,-0.38343894,0.99420196,-0.28090388,-0.8279829,-1.0756438,1.4417446,-0.00026110336,-0.33111194,0.999863,-0.79997885
0.1,-0.1,1.2999999999999998,0.5235987755982988,0.0,0,-1.5641146,1.2369311,-0.59349054,0.6688771,-0.39476112,0.9941483,-0.27678403,-0.828098,-1.0782511,1.4398582,-0.08054983,-0.18548435,1.2196642,-1.5014257
0.1,-0.1,1.2999999999999998,0.5235987755982988,0.0,0,-1.5627046,1.2325923,-0.5937009,0.6722054,-0.40964213,0.99626863,-0.27451706,-0.8290934,-1.0768476,1.4425926,-0.0062363544,0.059367467,0.9436328,-1.3834815
0.1,-0.1,1.2999999999999998,0.5235987755982988,0.0,0,-1.5632477,1.2383415,-0.59075,0.6763029,-0.38691077,0.9881464,-0.23174337,-0.8284254,-1.0780692,1.4429537,0.0023177555,0.09850745,1.0248071,-1.2649343
0.1,-0.1,1.2999999999999998,0.5235987755982988,0.0,0,-1.5600787,1.2404313,-0.5933334,0.6715905,-0.38027412,0.9910854,-0.28391498,-0.82829803,-1.0728945,1.4397442,0.008161507,0.07456769,1.1427603,0.14124617
0.1,-0.1,1.2999999999999998,0.5235987755982988,0.0,0,-1.5544304,1.2297214,-0.5907386,0.68200016,-0.40491956,1.0008806,-0.22266212,-0.8289222,-1.071799,1.441459,0.016813196,-0.007279234,1.0588777,-1.5793719
0.1,-0.1,1.2999999999999998,0.5235987755982988,0.0,0,-1.5637841,1.2379557,-0.59052575,0.6696659,-0.41791204,0.99296767,-0.18577817,-0.8278208,-1.0763226,1.4406288,-0.006819476,0.091919884,1.242112,-1.130383
0.1,-0.1,1.2999999999999998,0.5235987755982988,0.0,0,-1.558742,1.2190238,-0.59803236,0.66297954,-0.38895327,1.0001998,-0.23833294,-0.8296296,-1.0739768,1.4393117,-0.041152,-0.13266538,1.0777494,-0.22310798
0.1,-0.1,1.2999999999999998,0.5235987755982988,0.0,0,-1.5579162,1.2375895,-0.5992191,0.66750485,-0.41003865,0.99755055,-0.27797654,-0.82850504,-1.0706164,1.4443148,-0.05139779,-0.12182389,1.1959877,0.43088356
0.1,-0.1,1.2999999999999998,0.5235987755982988,0.0,0,-1.5651616,1.2340807,-0.5927881,0.6770959,-0.41414365,0.9950259,-0.30217725,-0.82799286,-1.0760502,1.439316,-0.021650143,0.007443488,1.0497847,-0.24376948
0.1,-0.1,1.2999999999999998,0.5235987755982988,0.0,0,-1.561543,1.2334111,-0.6003967,0.67158306,-0.39416155,0.99250937,-0.26852977,-0.82847,-1.0733505,1.4404666,-0.049765818,-0.05398106,1.2282879,0.030452585
0.1,-0.1,1.2999999999999998,0.5235987755982988,0.0,0,-1.5594535,1.24343,-0.5912373,0.67338234,-0.39510313,0.9895372,-0.22840257,-0.8281852,-1.0727966,1.4411763,-0.024764867,-0.028496126,1.0372884,-0.22034135
0.1,-0.1,1.2999999999999998,0.5235987755982988,0.0,0,-1.5624075,1.2400719,-0.5955043,0.6719661,-0.4078255,0.98985946,-0.25638038,-0.82905984,-1.0761436,1.4394258,-0.050725438,0.06786471,1.2366905,-0.81745964
0.1,-0.1,1.2999999999999998,0.5235987755982988,0.0,0,-1.5570346,1.2367228,-0.5861587,0.6747742,-0.40965164,0.98498434,-0.25513533,-0.8286487,-1.0725061,1.4425902,-0.0065217405,-0.1547729,1.0478029,-1.0393531
0.1,-0.1,1.2999999999999998,0.5235987755982988,0.0,0,-1.5613495,1.238419,-0.5878293,0.6756644,-0.38866782,0.9997306,-0.24956268,-0.82850766,-1.0779709,1.4398813,-0.033111855,-0.07833704,1.1708645,-0.5337772
0.1,-0.1,1.2999999999999998,0.5235987755982988,0.0,0,-1.560036,1.234598,-0.5932169,0.6760683,-0.4130815,0.9896529,-0.25013116,-0.8274005,-1.0746914,1.4405524,-0.015190973,0.20689978,1.2486228,-2.190075
0.1,-0.1,1.2999999999999998,0.5235987755982988,0.0,0,-1.5614883,1.2436092,-0.58938634,0.6788009,-0.40420243,0.9968651,-0.31742933,-0.8276343,-1.0739958,1.4434328,-0.025056774,0.002353546,1.1847707,-1.1111213
0.1,-0.1,1.2999999999999998,0.5235987755982988,0.0,0,-1.560149,1.2384641,-0.6071853,0.6709944,-0.38231328,0.989241,-0.2715816,-0.8275308,-1.07772,1.438488,-0.0013462704,-0.079483494,0.96987766,0.9600708
0.1,-0.1,1.2999999999999998,0.5235987755982988,0.0,0,-1.5587956,1.2300719,-0.5821022,0.6796163,-0.42135665,0.99666667,-0.1953989,-0.82793146,-1.0724871,1.4400764,-0.04861801,-0.010423995,1.0283554,0.1376807
0.1,-0.1,1.2999999999999998,0.5235987755982988,0.0,0,-1.5601408,1.2269436,-0.6054473,0.66567516,-0.40524024,0.9973301,-0.2559539,-0.82764125,-1.0753706,1.4368012,-0.0054165577,-0.1103342,1.0821289,0.82096946
0.1,-0.1,1.2999999999999998,0.5235987755982988,0.0,0,-1.5571964,1.2397953,-0.5959296,0.67491484,-0.40204132,0.9863206,-0.23227017,-0.829142,-1.080004,1.444203,-0.024342079,-0.20197971,1.1833631,-0.63661814
0.1,-0.1,1.2999999999999998,0.5235987755982988,0.0,0,-1.5592325,1.2328209,-0.59663534,0.67158353,-0.40422356,0.99545467,-0.289431,-0.8277551,-1.0711869,1.4406794,-0.0112327365,-0.07880057,1.2041447,-1.4796605
0.1,-0.1,1.2999999999999998,0.5235987755982988,0.0,0,-1.5597463,1.2419666,-0.5980025,0.6781122,-0.40428138,0.9917863,-0.25607052,-0.8282743,-1.0724977,1.4397509,0.0056443233,-0.1443546,1.283835,-0.1597936
0.1,-0.1,1.2999999999999998,0.5235987755982988,0.0,0,-1.561768,1.2327231,-0.5946394,0.6710714,-0.4159144,0.99133414,-0.21567036,-0.8285039,-1.0791695,1.4407896,0.00027350403,0.07250917,1.1325411,-0.7413014
0.1,-0.1,1.2999999999999998,0.5235987755982988,0.0,0,-1.5591851,1.2285422,-0.5953157,0.6833714,-0.3770513,0.98707765,-0.23570181,-0.8276922,-1.0760095,1.4425203,-0.014674598,-0.02407798,1.1630964,-0.12919432
0.1,-0.1,1.2999999999999998,0.5235987755982988,0.0,0,-1.5610081,1.2363701,-0.59867334,0.6746234,-0.39145496,0.99079764,-0.22994408,-0.8289448,-1.0755484,1.4410577,-0.0069242744,-0.059236407,1.1686677,-0.4003346
0.1,-0.1,1.2999999999999998,0.5235987755982988,0.0,0,-1.5574523,1.230756,-0.5998584,0.6760162,-0.4002682,0.99210167,-0.31220374,-0.82876194,-1.0712123,1.4414327,-0.028516885,0.03371232,1.0761794,-0.85455644
0.1,-0.1,1.2999999999999998,0.5235987755982988,0.0,0,-1.5637468,1.2350255,-0.5930048,0.67585015,-0.39975962,0.98644215,-0.2507243,-0.8281122,-1.0811242,1.4409,-0.0056783576,0.3789861,1.049885,-0.7704288
0.1,-0.1,1.2999999999999998,0.5235987755982988,0.0,0,-1.5551035,1.2337735,-0.58963394,0.67506117,-0.39182183,0.99222416,-0.18565929,-0.82875043,-1.0738158,1.4366894,-0.010712963,-0.107744925,1.0142809,-0.6393966
0.1,-0.1,1.2999999999999998,0.5235987755982988,0.0,0,-1.5562673,1.2331667,-0.59669983,0.6704076,-0.38814974,0.9850171,-0.14195696,-0.8289396,-1.0747428,1.443841,-0.0068490054,-0.23388775,1.0863253,-0.033856373
0.1,-0.1,1.2999999999999998,0.5235987755982988,0.0,0,-1.5642811,1.242958,-0.5953198,0.66992366,-0.42108622,0.9938248,-0.22910312,-0.826581,-1.0754989,1.4388424,0.0006691665,0.05789006,1.1044854,1.2891511
0.1,-0.1,1.2999999999999998,0.5235987755982988,0.0,0,-1.5578821,1.2322108,-0.599931,0.67868227,-0.38683802,0.9913953,-0.27668303,-0.82768244,-1.0717596,1.4406922,0.008004242,-0.2330486,1.027655,-0.04516692
0.1,-0.1,1.2999999999999998,0.5235987755982988,0.0,0,-1.5607502,1.2394098,-0.5993003,0.6739019,-0.4169286,0.9867876,-0.19751514,-0.82937336,-1.0762966,1.441059,-0.01989176,-0.08959637,1.2894726,-0.43809652
0.1,-0.1,1.2999999999999998,0.5235987755982988,0.0,0,-1.5571924,1.2337425,-0.5971295,0.6770078,-0.3954839,0.9982884,-0.31279832,-0.828258,-1.076643,1.4434965,-0.025915457,-0.2538559,1.0692415,0.16862321
0.1,-0.1,1.2999999999999998,0.5235987755982988,0.0,0,-1.5574706,1.2416542,-0.5929279,0.6716371,-0.3964665,0.9945956,-0.22197238,-0.8280931,-1.0762509,1.4410863,0.0024547915,-0.37102777,1.2018774,-0.6943116
0.1,-0.1,1.2999999999999998,0.5235987755982988,0.0,0,-1.5604867,1.242429,-0.59358263,0.6731622,-0.39894682,0.9941882,-0.3031486,-0.8279196,-1.0768597,1.4418418,-0.0514238,-0.2481515,1.0818222,-1.538679
0.1,-0.1,1.2999999999999998,0.5235987755982988,0.0,0,-1.5608145,1.233997,-0.5941798,0.66656816,-0.41257352,0.9954178,-0.2505947,-0.82853353,-1.0786939,1.4386324,-0.016663076,-0.020702247,1.1741906,-1.1163913
0.1,-0.1,1.2999999999999998,0.5235987755982988,0.0,0,-1.5605636,1.2404175,-0.5963682,0.67113143,-0.39119056,0.99342644,-0.23251812,-0.8286983,-1.0719388,1.4422853,-0.010751012,-0.10351116,0.91100335,0.99804276
0.1,-0.1,1.2999999999999998,0.5235987755982988,0.0,0,-1.5596998,1.2400081,-0.5954329,0.6693429,-0.4204091,0.99376494,-0.22177844,-0.828735,-1.0756412,1.4369466,-0.021899693,-0.066686444,1.3747848,0.2287844
0.1,-0.1,1.2999999999999998,0.5235987755982988,0.0,0,-1.561306,1.2309351,-0.60559905,0.6658681,-0.39649412,0.98772985,-0.18718211,-0.8286048,-1.0728807,1.4383386,-0.018872961,0.072272114,1.1206912,-0.71613485
0.1,-0.1,1.2999999999999998,0.5235987755982988,0.0,0,-1.5623673,1.2336715,-0.59760463,0.6746704,-0.4096246,0.9907884,-0.29196498,-0.8280177,-1.0809906,1.4420792,-0.020816661,-0.16588585,1.0871601,0.43105605
0.1,-0.1,1.2999999999999998,0.5235987755982988,0.0,0,-1.5607328,1.2430772,-0.59258187,0.6804572,-0.4026858,0.9884216,-0.21451902,-0.8279812,-1.0687848,1.4386442,-0.014190083,0.13406557,1.1448891,0.17314301
0.1,-0.1,1.2999999999999998,0.5235987755982988,0.0,0,-1.5594262,1.2428788,-0.5980417,0.6740519,-0.41008234,0.9970119,-0.20157003,-0.828842,-1.0768317,1.4409289,-0.00847826,-0.0115944715,1.324246,0.31395057
0.1,-0.1,1.2999999999999998,0.5235987755982988,0.0,0,-1.5585225,1.2338601,-0.5977998,0.66541344,-0.40352643,1.003643,-0.18213342,-0.82901174,-1.0713917,1.4385476,-0.0077022663,-0.005614726,1.0830013,-0.30745104
0.1,-0.1,1.2999999999999998,0.5235987755982988,0.0,0,-1.5616472,1.2253766,-0.5985229,0.6775916,-0.3913992,0.9949184,-0.32795224,-0.82784903,-1.0729502,1.4398531,-0.033391144,-0.103707716,1.1891959,-0.672744
0.1,-0.1,1.2999999999999998,0.5235987755982988,0.0,0,-1.5600016,1.2287302,-0.6001862,0.68082714,-0.41463014,0.9861683,-0.25374797,-0.8275354,-1.0764436,1.4428129,-0.02818858,-0.28868935,1.1698588,0.1294
0.1,-0.1,1.2999999999999998,0.5235987755982988,0.0,0,-1.5579308,1.2393425,-0.60458493,0.6735632,-0.4055639,0.993777,-0.22160077,-0.82825625,-1.0729866,1.443744,-0.015878484,-0.027744751,1.1467333,-0.107919164
0.1,-0.1,1.2999999999999998,0.5235987755982988,0.0,0,-1.559004,1.2384003,-0.5944099,0.67756206,-0.41243878,0.99568814,-0.21119118,-0.8290817,-1.0743756,1.4401118,-0.044691768,-0.21020629,1.245102,-0.6214267
0.1,-0.1,1.2999999999999998,0.5235987755982988,0.0,0,-1.5581979,1.2352029,-0.59325194,0.68122244,-0.413003,0.9886932,-0.24533802,-0.8283549,-1.074739,1.4404432,-0.06693436,0.11993082,1.1426178,-1.3633242
0.1,-0.1,1.2999999999999998,0.5235987755982988,0.0,0,-1.5613997,1.2330322,-0.5938072,0.67656225,-0.40703192,0.99889475,-0.2503536,-0.828525,-1.0739456,1.4365633,-0.011493251,-0.05739244,1.2123642,-0.25491744
0.1,-0.1,1.2999999999999998,0.5235987755982988,0.0,0,-1.5592355,1.2414519,-0.60023373,0.6709755,-0.38128537,0.99420774,-0.23574351,-0.8282026,-1.0726489,1.4439678,-0.008143047,0.18674389,1.1837218,-0.3404815
0.1,-0.1,1.2999999999999998,0.5235987755982988,0.0,0,-1.5590714,1.2413224,-0.59691244,0.6778541,-0.40416223,0.9997254,-0.22748479,-0.82750356,-1.071573,1.440561,-0.052475818,-0.058169276,1.0945634,-0.46517223
0.1,-0.1,1.2999999999999998,0.5235987755982988,0.0,0,-1.55847,1.2278031,-0.59621334,0.67756474,-0.42677322,0.9899039,-0.20787068,-0.8282771,-1.0784953,1.4396012,0.01023215,0.1455906,0.996621,-0.9346333
0.1,-0.1,1.2999999999999998,0.5235987755982988,0.0,0,-1.5585227,1.2318047,-0.59532154,0.6824905,-0.42250496,0.9920112,-0.17590208,-0.8283365,-1.072733,1.440748,-0.03480811,-0.07045353,1.0937923,0.13778615
0.1,-0.1,1.2999999999999998,0.5235987755982988,0.0,0,-1.5613207,1.241494,-0.6056316,0.674526,-0.39019427,0.99460125,-0.29641953,-0.8283672,-1.0788722,1.4402704,-0.03038039,-0.19137079,1.1474255,-1.0308022
0.1,-0.1,1.2999999999999998,0.5235987755982988,0.0,0,-1.5577481,1.2330409,-0.60394394,0.67659533,-0.38664263,0.99042094,-0.20637561,-0.828421,-1.0751276,1.4414742,-0.020678518,0.11829923,1.0545408,-1.6121544
0.1,-0.1,1.2999999999999998,0.5235987755982988,0.0,0,-1.5562229,1.2327502,-0.5974641,0.67978776,-0.40484744,0.99630916,-0.23276445,-0.8277635,-1.0766147,1.438749,0.0034703095,-0.16052476,1.0960388,-0.60394174
0.1,-0.1,1.2999999999999998,0.5235987755982988,0.0,0,-1.5594237,1.2414289,-0.5984142,0.6851599,-0.40573436,0.991944,-0.25114578,-0.82824576,-1.0740554,1.4381485,-0.02666871,-0.13627851,1.123095,-1.6835899
0.1,-0.1,1.2999999999999998,0.5235987755982988,0.0,0,-1.5580276,1.2394054,-0.59233457,0.6774474,-0.38621002,0.9942501,-0.17196025,-0.8278389,-1.0750498,1.4426067,-0.018451665,0.22042003,1.2825396,0.8547474
0.1,-0.1,1.2999999999999998,0.5235987755982988,0.0,0,-1.5584666,1.2330967,-0.5863986,0.6774169,-0.4135921,0.9918594,-0.14671251,-0.8277015,-1.0762774,1.4369782,-0.07839466,-0.037493225,1.429335,-0.00625288
0.1,-0.1,1.2999999999999998,0.5235987755982988,0.0,0,-1.5574894,1.2434099,-0.5952637,0.68196,-0.40368056,0.99262327,-0.19084606,-0.827677,-1.0760055,1.4396262,-0.017642055,0.20752116,1.1201972,0.5760892
0.1,-0.1,1.2999999999999998,0.5235987755982988,0.0,0,-1.5566965,1.2415142,-0.59462434,0.671978,-0.40466926,0.99846625,-0.17455281,-0.8282922,-1.0750269,1.4421902,-0.025981361,-0.06412554,1.0636108,-1.5318341
0.1,-0.1,1.2999999999999998,0.5235987755982988,0.0,0,-1.5602456,1.2326853,-0.59669286,0.6800614,-0.40702632,0.99086475,-0.1848984,-0.8281927,-1.0796783,1.4421093,-0.031280093,-0.297213,1.186095,-0.43363443
0.1,-0.1,1.2999999999999998,0.5235987755982988,0.0,0,-1.5597714,1.243453,-0.59477836,0.6853094,-0.41610512,0.99670523,-0.23763147,-0.82828164,-1.0729965,1.439229,-0.013775407,-0.16179025,1.0613736,0.48253182
0.1,-0.1,1.2999999999999998,0.5235987755982988,0.0,0,-1.5613829,1.2407267,-0.5947994,0.6782608,-0.4159339,1.0005485,-0.2173367,-0.828672,-1.0739205,1.4358817,-0.04256501,-0.21756387,1.2351737,-0.38005435
0.1,-0.1,1.2999999999999998,0.5235987755982988,0.0,0,-1.5579102,1.2365593,-0.5944446,0.6758771,-0.39351285,0.99761236,-0.21245559,-0.8286926,-1.0769902,1.4395506,-0.049960315,-0.19824526,1.0019695,-0.73481625
0.1,-0.1,1.2999999999999998,0.5235987755982988,0.0,0,-1.557179,1.243172,-0.5966648,0.68175584,-0.3997014,0.9970541,-0.21820109,-0.8284592,-1.0699869,1.4411336,-0.004845396,-0.11165223,1.1210124,-0.9810331
0.1,-0.1,1.2999999999999998,0.5235987755982988,0.0,0,-1.5590069,1.2286768,-0.60706943,0.6753638,-0.3907334,0.99236006,-0.22270761,-0.82900006,-1.0777832,1.4408317,-0.03894617,0.0060202666,1.2847582,0.51448256
0.1,-0.1,1.2999999999999998,0.5235987755982988,0.0,0,-1.5589039,1.2387494,-0.5967059,0.68515366,-0.43120888,0.99797904,-0.23572531,-0.8285984,-1.0770406,1.4380479,-0.002939391,-0.12838656,1.0201063,0.062101964
0.1,-0.1,1.2999999999999998,0.5235987755982988,0.0,0,-1.5587937,1.2372022,-0.6011564,0.6780666,-0.37945822,0.9982681,-0.19971676,-0.8278132,-1.0766413,1.4445204,-0.032883056,-0.059997037,1.0705452,-0.606927
0.1,-0.1,1.2999999999999998,0.5235987755982988,0.0,0,-1.5552392,1.2409594,-0.5900376,0.6716666,-0.40726626,0.9868097,-0.2614246,-0.8292421,-1.0755192,1.4429452,0.023076655,0.029870244,1.2691321,-0.30951673
0.1,-0.1,1.2999999999999998,0.5235987755982988,0.0,0,-1.5588335,1.2336371,-0.5953814,0.6732817,-0.41891378,0.9916963,-0.22271211,-0.8286992,-1.0748882,1.4404339,-0.049022608,-0.0039248043,1.1433034,-1.1202275
0.1,-0.1,1.2999999999999998,0.5235987755982988,0.0,0,-1.5624405,1.2253135,-0.59290415,0.67902255,-0.40886393,0.99310523,-0.19787714,-0.8287113,-1.074776,1.4401964,-0.01586738,-0.1032787,1.2621096,-0.39482823
0.1,-0.1,1.2999999999999998,0.5235987755982988,0.0,0,-1.5591449,1.2338911,-0.5933492,0.68122286,-0.4081268,0.9957241,-0.29715025,-0.82814515,-1.0747097,1.4405235,-0.051637072,-0.12413885,1.0579715,-1.3624285
0.1,-0.1,1.2999999999999998,0.5235987755982988,0.0,0,-1.5593358,1.2398372,-0.58998704,0.6784501,-0.40456578,0.99741304,-0.20550069,-0.8279012,-1.0745401,1.4420664,-0.02956075,0.081269525,1.298808,0.042084545
0.1,-0.1,1.2999999999999998,0.5235987755982988,0.0,0,-1.5646989,1.2314736,-0.59248614,0.6817581,-0.39007485,0.9966516,-0.23616745,-0.82853323,-1.075165,1.4391245,-0.020241179,-0.017860288,1.1374469,0.049091056
0.1,-0.1,1.2999999999999998,0.5235987755982988,0.0,0,-1.5633684,1.2380378,-0.6009365,0.6742684,-0.42581537,0.9939559,-0.2209331,-0.8282299,-1.0705466,1.4375377,-0.01650032,-0.16965361,1.0245476,-0.043222487
