sanky1234/BimanualDexCatch/isaacgymenvs/cem_results/football_pose_-0.2_-0.2_1.2999999999999998_-0.5235987755982988_0.0_0_2025-05-24.csv
x,y,z,roll,pitch,yaw,robot1/joint1,robot1/joint2,robot1/joint3,robot1/joint4,robot1/joint5,robot1/joint6,robot1/joint7,robot2/joint1,robot2/joint2,robot2/joint3,robot2/joint4,robot2/joint5,robot2/joint6,robot2/joint7
-0.2,-0.2,1.2999999999999998,-0.5235987755982988,0.0,0,-0.13900107,1.451091,0.48503333,-0.09806885,-0.23692636,1.1680249,-0.30074295,0.055508357,0.054061476,-1.4241905,0.53643405,-1.2830328,0.30794188,0.046748653
-0.2,-0.2,1.2999999999999998,-0.5235987755982988,0.0,0,0.30317798,1.3063825,-0.15508635,-0.09339587,0.3495057,1.2360641,-1.3896549,0.046702765,0.057162654,-1.419299,0.54036945,-1.279087,0.30291617,0.029257463
-0.2,-0.2,1.2999999999999998,-0.5235987755982988,0.0,0,0.29599375,1.522586,0.42146677,-0.12295906,0.3070541,1.1602561,-0.09441687,0.037775934,0.055240136,-1.4245257,0.53743064,-1.3083547,0.2976632,0.06614005
-0.2,-0.2,1.2999999999999998,-0.5235987755982988,0.0,0,0.63176346,1.4133519,0.23067273,-0.11636775,-0.26514566,1.0476688,-1.2199057,0.042854074,0.054156076,-1.4186782,0.5398151,-1.2827767,0.30278066,0.0100880135
-0.2,-0.2,1.2999999999999998,-0.5235987755982988,0.0,0,0.32687417,1.3275461,-0.31817022,-0.23769937,-0.11733121,1.2151058,0.9194781,0.041161615,0.054450206,-1.4243047,0.5384507,-1.2613745,0.30350485,0.014765375
-0.2,-0.2,1.2999999999999998,-0.5235987755982988,0.0,0,-0.21288468,1.3151253,-0.19282418,-0.08243604,0.21733601,1.1330867,-0.38680875,0.045588084,0.053343125,-1.4234033,0.5388552,-1.2477117,0.30179742,0.024432313
-0.2,-0.2,1.2999999999999998,-0.5235987755982988,0.0,0,0.4081017,1.5858319,0.2868062,-0.23733217,-0.12644756,1.2037086,-1.0648022,0.046071224,0.05700879,-1.4218365,0.5393014,-1.2744244,0.29016078,0.024537137
-0.2,-0.2,1.2999999999999998,-0.5235987755982988,0.0,0,0.01886637,1.4406629,-0.16105656,-0.089037254,0.040283825,1.265951,-0.6214165,0.044333536,0.054057565,-1.4247137,0.5412723,-1.2732692,0.29292324,0.030890396
-0.2,-0.2,1.2999999999999998,-0.5235987755982988,0.0,0,0.21151206,1.2050093,0.13035424,-0.077569954,-0.14698985,1.1493024,-0.09140678,0.041523576,0.052637752,-1.4184458,0.5395517,-1.2937902,0.29331064,0.014597179
-0.2,-0.2,1.2999999999999998,-0.5235987755982988,0.0,0,-0.0877043,1.5241114,0.18613733,-0.1235765,-0.71934134,1.235017,-0.4919212,0.043785017,0.05641261,-1.422453,0.53792673,-1.2550927,0.29499456,0.024925113
-0.2,-0.2,1.2999999999999998,-0.5235987755982988,0.0,0,-0.0377398,1.4325185,1.0097814,-0.11025654,-0.059010834,1.1253488,-1.5883662,0.04353427,0.054119896,-1.4247557,0.53861994,-1.2683294,0.30969796,0.020698402
-0.2,-0.2,1.2999999999999998,-0.5235987755982988,0.0,0,0.2211125,1.3380035,-0.20274968,-0.17474689,-0.1881369,1.1511807,-0.2585268,0.046489596,0.05480534,-1.422673,0.54128796,-1.2629322,0.30152747,0.030035432
-0.2,-0.2,1.2999999999999998,-0.5235987755982988,0.0,0,0.098733656,1.248068,0.40842518,-0.08182675,-0.25590777,1.1707242,0.04985403,0.051464707,0.0562638,-1.4229832,0.53940547,-1.2703906,0.29851797,0.028229939
-0.2,-0.2,1.2999999999999998,-0.5235987755982988,0.0,0,0.22528867,1.1905843,0.16879888,0.004049698,0.122118324,1.2591511,-0.5003186,0.043044712,0.055060394,-1.4232156,0.53842634,-1.2791212,0.31702206,0.03994845
-0.2,-0.2,1.2999999999999998,-0.5235987755982988,0.0,0,0.014584122,1.2831692,0.29257026,-0.14529091,0.17115472,1.2674437,0.30233935,0.05323021,0.05333114,-1.4252228,0.5411764,-1.3007828,0.3053074,0.023093598
-0.2,-0.2,1.2999999999999998,-0.5235987755982988,0.0,0,0.13506582,1.4011503,0.34536365,-0.04093041,-0.10379849,1.0534384,-0.29595134,0.04114666,0.05373905,-1.4162575,0.53768253,-1.269986,0.3025158,0.039728764
-0.2,-0.2,1.2999999999999998,-0.5235987755982988,0.0,0,0.34286448,1.2007608,0.015991885,-0.07655113,0.29577723,1.2357596,-0.86422616,0.04222428,0.05249382,-1.4188391,0.5388187,-1.2734078,0.30876982,0.0171058
-0.2,-0.2,1.2999999999999998,-0.5235987755982988,0.0,0,0.14274137,1.3194574,0.41977674,-0.11832447,-0.17387852,1.1334794,0.055531763,0.05014765,0.053409662,-1.4217539,0.54112625,-1.2886909,0.30716428,0.041829675
-0.2,-0.2,1.2999999999999998,-0.5235987755982988,0.0,0,-0.029389502,1.403541,-0.09027859,-0.07567728,0.033758678,1.1612117,0.65266424,0.041400276,0.053234663,-1.4229082,0.53918725,-1.2815098,0.30757248,0.020361483
-0.2,-0.2,1.2999999999999998,-0.5235987755982988,0.0,0,0.06439394,1.292527,0.6966692,-0.067048855,-0.008922529,1.2271782,0.0018138692,0.043679524,0.051544823,-1.4218905,0.5371382,-1.2685919,0.30402306,0.023041032
-0.2,-0.2,1.2999999999999998,-0.5235987755982988,0.0,0,0.1992716,1.2474208,0.44156566,-0.0055140974,0.019590413,1.1466849,-0.065573856,0.047050875,0.05463967,-1.4226528,0.538458,-1.2750145,0.29679516,0.039246738
-0.2,-0.2,1.2999999999999998,-0.5235987755982988,0.0,0,-0.2176974,1.3430237,-0.24539717,-0.054894134,0.3228016,1.122152,-0.44813928,0.04607982,0.055066634,-1.4229481,0.54006076,-1.2524796,0.2990479,0.051406305
-0.2,-0.2,1.2999999999999998,-0.5235987755982988,0.0,0,-0.12264455,1.2941897,0.41718006,0.027850274,0.19837426,1.1131172,-0.9182041,0.046519764,0.057490762,-1.4258455,0.53908855,-1.2803124,0.30480608,0.04627274
-0.2,-0.2,1.2999999999999998,-0.5235987755982988,0.0,0,0.38695672,1.244177,0.15720089,0.03520961,0.30995333,1.2345128,-0.1788819,0.051534582,0.05528745,-1.4242734,0.53941995,-1.2758286,0.304943,0.014794831
-0.2,-0.2,1.2999999999999998,-0.5235987755982988,0.0,0,0.050768867,1.2309644,-0.25019896,-0.10270868,0.43256336,1.2449919,-0.9248632,0.042658225,0.054873105,-1.4211956,0.5384369,-1.2701497,0.2944847,0.011444694
-0.2,-0.2,1.2999999999999998,-0.5235987755982988,0.0,0,0.5950094,1.3502692,0.21997471,-0.13230738,-0.021592828,1.139079,-0.9229118,0.052051973,0.05333242,-1.4213372,0.53922284,-1.2790409,0.30396798,0.033717155
-0.2,-0.2,1.2999999999999998,-0.5235987755982988,0.0,0,0.19492151,1.3211044,-0.29401338,-0.15391462,-0.47282776,1.0898829,0.75850546,0.04375667,0.054055743,-1.4223452,0.53913504,-1.2850487,0.30228356,0.040820677
-0.2,-0.2,1.2999999999999998,-0.5235987755982988,0.0,0,-0.058810413,1.2258707,0.029855136,-0.16108806,-0.16390578,1.20388,-1.0978487,0.042313747,0.05421906,-1.4248902,0.539924,-1.2776866,0.2981273,0.052139472
-0.2,-0.2,1.2999999999999998,-0.5235987755982988,0.0,0,0.14578262,1.3145005,0.051856283,-0.049827404,0.24956992,1.0678446,0.17340018,0.04770756,0.0560957,-1.4230539,0.5389795,-1.2603817,0.29817522,0.052153513
-0.2,-0.2,1.2999999999999998,-0.5235987755982988,0.0,0,0.13492955,1.4392483,0.65997565,-0.089066975,-0.12524034,1.0914506,0.27061743,0.04871032,0.05354517,-1.422274,0.54135555,-1.3075142,0.30473027,0.016827997
-0.2,-0.2,1.2999999999999998,-0.5235987755982988,0.0,0,-0.42048538,1.4201636,-0.047976613,-0.13680092,-0.17482966,1.0730088,-0.590574,0.045376148,0.05673243,-1.4200099,0.54019475,-1.2705864,0.29709658,0.026120791
-0.2,-0.2,1.2999999999999998,-0.5235987755982988,0.0,0,0.092329994,1.2684832,0.21845412,-0.07059355,0.37884998,1.2245457,0.45682016,0.051117342,0.05395789,-1.421019,0.5386582,-1.2904453,0.30570722,0.03962793
-0.2,-0.2,1.2999999999999998,-0.5235987755982988,0.0,0,0.7851443,1.3582387,0.08831839,-0.07811973,0.4628195,1.1974767,-1.0782526,0.04587693,0.05417494,-1.4215486,0.54106784,-1.3049129,0.30464098,-0.0013177611
-0.2,-0.2,1.2999999999999998,-0.5235987755982988,0.0,0,-0.3668487,1.3248589,-0.15029232,-0.09985986,-0.21886662,1.1352571,-1.138058,0.046581358,0.051696863,-1.4187617,0.5389574,-1.2627823,0.2963756,0.036143184
-0.2,-0.2,1.2999999999999998,-0.5235987755982988,0.0,0,0.31246263,1.4091467,0.382179,0.056919795,-0.24926087,1.1963795,-0.8441348,0.043753937,0.052798983,-1.4231565,0.53843534,-1.2684668,0.30247787,0.029854266
-0.2,-0.2,1.2999999999999998,-0.5235987755982988,0.0,0,0.25301737,1.2734598,0.13795982,-0.1684098,0.40058526,1.2264456,-0.2345988,0.03788397,0.054719526,-1.4226037,0.53704476,-1.2448076,0.2948365,0.014104009
-0.2,-0.2,1.2999999999999998,-0.5235987755982988,0.0,0,0.17037906,1.4619349,0.15716581,-0.18412045,-0.12680683,1.1243864,-0.25617126,0.042854507,0.053312108,-1.4206333,0.5383868,-1.2783886,0.29527077,0.011336011
-0.2,-0.2,1.2999999999999998,-0.5235987755982988,0.0,0,0.09134543,1.3337779,0.4914571,-0.01208365,0.18191177,1.2315573,-0.100111015,0.04350949,0.052273754,-1.4245468,0.5365441,-1.2770655,0.310312,0.035230745
-0.2,-0.2,1.2999999999999998,-0.5235987755982988,0.0,0,0.11763221,1.442053,-0.16901354,-0.22733273,0.1948435,1.2798053,-0.7531069,0.04731374,0.055243433,-1.4232682,0.5353063,-1.2617407,0.29823536,0.01912875
-0.2,-0.2,1.2999999999999998,-0.5235987755982988,0.0,0,0.19990401,1.3951669,0.027522907,-0.107311174,-0.34024835,1.2177817,0.079795524,0.052119777,0.052436095,-1.4256012,0.5389797,-1.2705674,0.29711217,0.02687535
-0.2,-0.2,1.2999999999999998,-0.5235987755982988,0.0,0,-0.2719881,1.4066483,-0.66036105,-0.091657825,-0.15981606,1.2393937,0.0014714412,0.047033682,0.051397473,-1.4247042,0.5369246,-1.2814113,0.30048677,0.045035165
-0.2,-0.2,1.2999999999999998,-0.5235987755982988,0.0,0,0.3967954,1.5025403,0.09933229,0.031221023,0.04863604,1.2242476,-0.61943704,0.048006408,0.055322707,-1.4197857,0.538395,-1.2852962,0.30874705,0.036017165
-0.2,-0.2,1.2999999999999998,-0.5235987755982988,0.0,0,0.5837123,1.5254359,0.045213845,-0.06640852,0.20586924,1.2203616,-0.10590615,0.04790611,0.055822246,-1.4227775,0.5409679,-1.2636591,0.29779148,0.034783106
-0.2,-0.2,1.2999999999999998,-0.5235987755982988,0.0,0,-0.061222743,1.4070084,0.5298374,-0.027682299,0.53339505,1.2470182,-0.6654494,0.037022535,0.05445533,-1.4247278,0.5395488,-1.2803408,0.3010589,0.015337685
-0.2,-0.2,1.2999999999999998,-0.5235987755982988,0.0,0,0.06296564,1.320629,-0.29085907,-0.078499444,-0.45665386,1.0326533,-0.09962941,0.04160189,0.054583896,-1.4215335,0.5387045,-1.2824795,0.30714956,0.040654425
-0.2,-0.2,1.2999999999999998,-0.5235987755982988,0.0,0,0.05361553,1.2850664,-0.33880264,-0.10783957,0.41574734,1.2202408,-0.761238,0.047376566,0.05307997,-1.42502,0.53853923,-1.2740698,0.3035853,0.04244035
-0.2,-0.2,1.2999999999999998,-0.5235987755982988,0.0,0,0.24993029,1.4036719,0.5325024,-0.11951484,0.16969007,1.1321894,-1.2267171,0.044524956,0.055604197,-1.4209839,0.53930515,-1.2927969,0.30802503,0.05411487
-0.2,-0.2,1.2999999999999998,-0.5235987755982988,0.0,0,-0.034409672,1.0746562,0.9137681,-0.023528483,-0.13232021,1.3108157,-0.14759058,0.042991113,0.055417404,-1.4207178,0.5391582,-1.2930676,0.297229,0.034355402
-0.2,-0.2,1.2999999999999998,-0.5235987755982988,0.0,0,0.06373701,1.4665223,0.37557462,-0.15114196,0.27069494,1.1142501,-1.0164386,0.04494934,0.055260167,-1.4179572,0.53943974,-1.2558217,0.29717478,0.03738172
-0.2,-0.2,1.2999999999999998,-0.5235987755982988,0.0,0,0.30687794,1.381788,-0.013979149,-0.08917902,0.16982181,1.0565581,0.3374445,0.047431853,0.053583436,-1.4247885,0.5411943,-1.2628748,0.3072958,0.04819386
-0.2,-0.2,1.2999999999999998,-0.5235987755982988,0.0,0,-0.18909936,1.4060735,0.11214974,-0.13003173,0.19780847,1.1232303,-0.14949208,0.0513214,0.05269965,-1.4223725,0.53824997,-1.2657747,0.3033287,0.008402276
-0.2,-0.2,1.2999999999999998,-0.5235987755982988,0.0,0,0.5572237,1.2662547,0.07581694,-0.13543068,-0.63162464,1.2548043,-0.43407884,0.039297126,0.054856136,-1.4227549,0.53949225,-1.2679241,0.29873896,0.020956853
-0.2,-0.2,1.2999999999999998,-0.5235987755982988,0.0,0,0.47024307,1.2484835,-0.07713645,-0.09645973,0.19590905,1.2583702,-1.1312718,0.044571854,0.052770324,-1.4221607,0.5399113,-1.2813936,0.29284242,0.03425153
-0.2,-0.2,1.2999999999999998,-0.5235987755982988,0.0,0,0.0615152,1.2589698,0.017888596,-0.11803265,-0.5494981,1.3259023,-0.3237563,0.05044447,0.054027088,-1.4207352,0.5371122,-1.3077567,0.30562997,0.04692012
-0.2,-0.2,1.2999999999999998,-0.5235987755982988,0.0,0,-0.26541793,1.2902557,0.044465464,-0.052237555,-0.1985157,1.184608,-1.306215,0.048364718,0.053915184,-1.4237893,0.5372717,-1.2672457,0.2975793,0.019330446
-0.2,-0.2,1.2999999999999998,-0.5235987755982988,0.0,0,0.2968004,1.2380735,0.17547156,-0.043910187,0.22399999,1.2283787,-0.3531596,0.046673365,0.054006163,-1.4250886,0.5412438,-1.2658942,0.3012615,0.022560213
-0.2,-0.2,1.2999999999999998,-0.5235987755982988,0.0,0,0.4089364,1.3715863,0.63866603,-0.10187452,0.00868594,1.3045958,-0.5266618,0.04899042,0.054455396,-1.4242266,0.5380617,-1.2838732,0.29412347,0.04787335
-0.2,-0.2,1.2999999999999998,-0.5235987755982988,0.0,0,0.49924287,1.2904791,0.12685893,-0.0486481,0.3917077,1.2467927,-1.0249935,0.04538653,0.05670106,-1.4255632,0.5392873,-1.2622802,0.29450867,0.043612044
-0.2,-0.2,1.2999999999999998,-0.5235987755982988,0.0,0,-0.05591679,1.350464,0.43832052,-0.10736668,0.30383953,1.0133872,-0.7101061,0.04389491,0.05404568,-1.4221576,0.5393048,-1.2534137,0.30014542,0.030991953
-0.2,-0.2,1.2999999999999998,-0.5235987755982988,0.0,0,0.11137852,1.3032835,0.13956347,0.0047926656,0.10097966,1.1611485,-1.3432602,0.04642104,0.055499956,-1.4227734,0.53768224,-1.2662194,0.30190805,0.01912933
-0.2,-0.2,1.2999999999999998,-0.5235987755982988,0.0,0,0.36248302,1.2947975,0.23752633,-0.112342894,-0.022723023,1.2200031,0.3187904,0.041949645,0.05537951,-1.4240125,0.5390445,-1.3010266,0.2999728,0.030080592
-0.2,-0.2,1.2999999999999998,-0.5235987755982988,0.0,0,-0.027460001,1.1960355,0.5976631,-0.14275867,-0.12629119,1.1217227,-1.2392887,0.047303554,0.05408778,-1.4256563,0.54004645,-1.3096386,0.30987287,0.033176597
-0.2,-0.2,1.2999999999999998,-0.5235987755982988,0.0,0,0.189166,1.2521175,0.04548368,-0.100044146,0.07088473,1.1010934,-1.2730072,0.047818754,0.05620654,-1.4251955,0.5384229,-1.2609993,0.30300835,0.04697105
-0.2,-0.2,1.2999999999999998,-0.5235987755982988,0.0,0,-0.10221066,1.3865031,0.67840993,-0.193068,0.04257506,1.1468467,-1.2251464,0.048641197,0.05467997,-1.4223756,0.5400834,-1.2644768,0.3131005,0.02577627
-0.2,-0.2,1.2999999999999998,-0.5235987755982988,0.0,0,0.29144788,1.4717205,0.35252875,-0.1708489,0.53604054,1.2442621,-1.0440588,0.039684292,0.054548077,-1.4262285,0.5383079,-1.2849165,0.29880166,0.035768535
-0.2,-0.2,1.2999999999999998,-0.5235987755982988,0.0,0,-0.13830915,1.2016356,0.38657287,-0.042701483,0.055806402,1.280644,-1.1022674,0.040785015,0.05487889,-1.4286882,0.53800434,-1.2576745,0.31163213,0.008898687
-0.2,-0.2,1.2999999999999998,-0.5235987755982988,0.0,0,0.03491118,1.4224237,-0.15323475,-0.12149481,-0.26551813,1.2730535,-0.44885933,0.044633333,0.05315728,-1.4206729,0.5407415,-1.2929054,0.3014218,0.04080968
-0.2,-0.2,1.2999999999999998,-0.5235987755982988,0.0,0,0.21994747,1.3311366,-0.05636054,-0.0345163,-0.09916308,1.1678733,-0.9708009,0.049081445,0.057345044,-1.4258496,0.5381767,-1.2825999,0.30213678,0.03695376
-0.2,-0.2,1.2999999999999998,-0.5235987755982988,0.0,0,0.18196554,1.4243779,0.40282774,-0.02223072,0.35407758,1.2309617,-1.0818925,0.043302067,0.056817167,-1.4208621,0.5396507,-1.2899675,0.30393058,0.03160049
-0.2,-0.2,1.2999999999999998,-0.5235987755982988,0.0,0,0.11589818,1.2922459,0.48923323,-0.09721422,0.11434656,1.0782225,-0.29852802,0.047433395,0.052207485,-1.4208256,0.53842473,-1.2622272,0.30633622,0.03523936
-0.2,-0.2,1.2999999999999998,-0.5235987755982988,0.0,0,0.08271881,1.0896716,0.62870765,-0.09662837,0.17124954,1.1666932,-0.13810733,0.04650995,0.05422058,-1.4257231,0.5389565,-1.2989931,0.30358696,0.015115576
-0.2,-0.2,1.2999999999999998,-0.5235987755982988,0.0,0,0.10068405,1.1715202,-0.069664605,-0.11783754,-0.0044057094,1.1217085,-0.30141547,0.046055753,0.05267949,-1.4224602,0.538165,-1.2675132,0.3096117,0.022301128
-0.2,-0.2,1.2999999999999998,-0.5235987755982988,0.0,0,0.20769814,1.3533831,-0.2580571,0.027026808,0.04221413,1.1516664,-0.4932119,0.05153141,0.051057544,-1.4216394,0.53773385,-1.2740618,0.29837653,0.035738993
-0.2,-0.2,1.2999999999999998,-0.5235987755982988,0.0,0,0.005772508,1.2963802,0.10473057,-0.043088548,-0.1873414,1.2593178,-0.07535078,0.04923369,0.05388334,-1.4231265,0.5380214,-1.2807299,0.30065387,0.02221541
-0.2,-0.2,1.2999999999999998,-0.5235987755982988,0.0,0,0.62073344,1.1905156,0.7710142,0.008922144,0.14692517,1.1381619,0.21211468,0.042737786,0.056535933,-1.4252111,0.53737575,-1.2999259,0.29959625,0.029021211
-0.2,-0.2,1.2999999999999998,-0.5235987755982988,0.0,0,-0.27853042,1.3338035,-0.007385909,-0.06131772,0.13503006,1.2599366,0.8610215,0.044999927,0.056972913,-1.4224955,0.5392079,-1.2937981,0.29844102,0.021570228
-0.2,-0.2,1.2999999999999998,-0.5235987755982988,0.0,0,0.28295353,1.28481,0.046369255,-0.20551918,0.09518586,1.1481317,-0.108609304,0.04644737,0.05531189,-1.4245744,0.53885543,-1.2783233,0.29527244,0.03621969
-0.2,-0.2,1.2999999999999998,-0.5235987755982988,0.0,0,0.37806347,1.4312395,0.25222963,-0.057260156,0.18815695,1.1844969,-0.24038552,0.04491023,0.0530182,-1.422623,0.53837734,-1.2984338,0.30324978,0.031947993
-0.2,-0.2,1.2999999999999998,-0.5235987755982988,0.0,0,0.036072955,1.2879391,0.3474476,-0.0820436,0.117669225,1.2983811,-0.53350127,0.040154316,0.05557385,-1.4197713,0.53725183,-1.2632134,0.29063556,0.03711385
-0.2,-0.2,1.2999999999999998,-0.5235987755982988,0.0,0,0.29250583,1.2930502,0.29570216,-0.058673754,-0.029026411,1.2266154,-1.3189892,0.04424191,0.056410484,-1.4255388,0.53897494,-1.2499431,0.28975838,0.016304934
-0.2,-0.2,1.2999999999999998,-0.5235987755982988,0.0,0,-0.22822994,1.385584,-0.19551274,-0.14183494,0.10441051,1.2530292,0.22138166,0.049923874,0.05534601,-1.4232532,0.53822607,-1.278721,0.3144212,-0.006815881
-0.2,-0.2,1.2999999999999998,-0.5235987755982988,0.0,0,0.16230758,1.3153805,0.57501286,-0.009081687,-0.18565297,1.1408889,-0.74002457,0.038699765,0.05634365,-1.4210936,0.5387567,-1.2745993,0.29050726,0.009460864
-0.2,-0.2,1.2999999999999998,-0.5235987755982988,0.0,0,0.28525504,1.1372958,-0.5651286,-0.09970984,-0.03560617,1.225723,-0.9695736,0.0454364,0.05312904,-1.4242882,0.5386336,-1.2855612,0.30240077,0.03443433
-0.2,-0.2,1.2999999999999998,-0.5235987755982988,0.0,0,0.5014776,1.3751447,0.089658394,-0.13742031,0.25253803,1.253283,-0.6650585,0.04671887,0.055628523,-1.4241087,0.5374943,-1.2784692,0.30408436,0.019200064
-0.2,-0.2,1.2999999999999998,-0.5235987755982988,0.0,0,-0.29066676,1.3898051,0.43511128,-0.092321716,-0.36839437,1.1334946,0.044452038,0.043899253,0.056095496,-1.4233941,0.53696334,-1.2663443,0.2992226,0.034745164
-0.2,-0.2,1.2999999999999998,-0.5235987755982988,0.0,0,0.5405344,1.5338042,0.14857593,-0.04060634,0.20529461,1.3221244,-0.5172708,0.04301782,0.054708518,-1.4233406,0.5406155,-1.272051,0.29329544,0.028259745
-0.2,-0.2,1.2999999999999998,-0.5235987755982988,0.0,0,-0.0967164,1.3771225,0.622067,-0.19907674,-0.39676082,1.1390526,-1.404992,0.044415493,0.056238797,-1.4247503,0.54091454,-1.3020325,0.2949722,0.037268497
-0.2,-0.2,1.2999999999999998,-0.5235987755982988,0.0,0,0.2139361,1.3013155,-0.72638583,-0.16290209,0.18791312,1.1331959,-1.4205084,0.036825884,0.0563759,-1.4211849,0.539062,-1.2946415,0.29189956,0.0069427397
-0.2,-0.2,1.2999999999999998,-0.5235987755982988,0.0,0,-0.19798441,1.4434879,-0.062139247,0.013734189,0.02549373,1.3162907,-0.06818985,0.04513557,0.054470424,-1.4245206,0.5388705,-1.2618101,0.29434523,0.027159179
-0.2,-0.2,1.2999999999999998,-0.5235987755982988,0.0,0,0.057632223,1.249809,0.050854094,-0.0729968,0.3314757,1.1982878,0.38306513,0.038216554,0.056186907,-1.4208856,0.53760225,-1.2740644,0.2921481,0.011447655
-0.2,-0.2,1.2999999999999998,-0.5235987755982988,0.0,0,-0.04388369,1.4239565,0.33321416,-0.16117999,-0.314078,1.153241,-0.5026564,0.04173114,0.05425332,-1.4236705,0.53922343,-1.2627828,0.29641834,0.0061680274
-0.2,-0.2,1.2999999999999998,-0.5235987755982988,0.0,0,-0.090746105,1.2704355,0.5203593,-0.0852049,0.27584165,1.1157497,-0.29035392,0.038401756,0.05428466,-1.4216193,0.5388509,-1.2717406,0.30416143,0.04265968
-0.2,-0.2,1.2999999999999998,-0.5235987755982988,0.0,0,-0.14206395,1.3486849,0.04181536,-0.14708799,-0.21425147,1.2061094,0.01169126,0.04056625,0.055533465,-1.4217994,0.5404459,-1.2760121,0.29903668,0.043000933
-0.2,-0.2,1.2999999999999998,-0.5235987755982988,0.0,0,0.111164734,1.4904897,0.13714653,0.070355594,0.032073524,1.2522495,-0.60483986,0.043638755,0.053379685,-1.4213399,0.53800017,-1.2821933,0.29871133,0.030485405
-0.2,-0.2,1.2999999999999998,-0.5235987755982988,0.0,0,-0.07989238,1.3563005,0.18996237,-0.15117759,-0.3621581,1.2661208,-1.2969253,0.042452045,0.053220563,-1.420516,0.53974134,-1.2833438,0.296941,0.0099384645
-0.2,-0.2,1.2999999999999998,-0.5235987755982988,0.0,0,-0.18723191,1.2926692,-0.024037909,-0.10948888,-0.11264018,1.1541693,-1.4739515,0.04450451,0.052660655,-1.4215709,0.5399426,-1.2853794,0.3009402,0.041330453
-0.2,-0.2,1.2999999999999998,-0.5235987755982988,0.0,0,0.17752044,1.4470333,0.26917458,-0.120650366,-0.374723,1.2908517,0.1095252,0.04251969,0.054364122,-1.4263318,0.53937906,-1.2735546,0.303169,0.023594912
-0.2,-0.2,1.2999999999999998,-0.5235987755982988,0.0,0,0.02338582,1.2333207,-0.04460444,-0.0720377,0.024577245,1.086117,-1.4910053,0.045320656,0.05391448,-1.4228021,0.5374122,-1.2771319,0.2983806,0.028913401
-0.2,-0.2,1.2999999999999998,-0.5235987755982988,0.0,0,0.11185265,1.3837268,-0.032147996,-0.12314051,-0.08611568,1.2326247,-1.1184357,0.04815665,0.05538451,-1.4215462,0.53955173,-1.2991021,0.2965136,0.03710621
-0.2,-0.2,1.2999999999999998,-0.5235987755982988,0.0,0,0.27549738,1.2283088,0.00088421314,-0.18919793,0.18603,1.2165236,-0.6623943,0.04434204,0.05693556,-1.4245702,0.53880066,-1.2558922,0.29965243,0.030974008
-0.2,-0.2,1.2999999999999998,-0.5235987755982988,0.0,0,0.18658715,1.2894335,-0.2997016,-0.087619595,0.3517168,1.3684969,0.07973839,0.04361829,0.05542084,-1.4231797,0.5403679,-1.2667713,0.2984159,0.032817826
-0.2,-0.2,1.2999999999999998,-0.5235987755982988,0.0,0,0.10275828,1.5479244,0.069431044,-0.00015311792,0.011727593,1.2306954,-0.32924065,0.038122028,0.053791087,-1.4234542,0.5402874,-1.2709613,0.30363992,0.0054749986
-0.2,-0.2,1.2999999999999998,-0.5235987755982988,0.0,0,0.29386103,1.4027011,-0.24830392,-0.17404039,-0.0375536,1.1247818,-0.23842931,0.03741546,0.055611227,-1.4220111,0.53850013,-1.2645452,0.30038255,0.002788708
-0.2,-0.2,1.2999999999999998,-0.5235987755982988,0.0,0,0.21788897,1.2907748,0.27090335,-0.029256174,0.22705017,1.1617895,-1.4615704,0.041196894,0.053938434,-1.4208483,0.5405193,-1.2501323,0.29825845,0.019607378
-0.2,-0.2,1.2999999999999998,-0.5235987755982988,0.0,0,-0.22077486,1.3860509,-0.25503948,-0.14672792,-0.26152676,1.1684784,-0.10429037,0.050189983,0.053807627,-1.4243461,0.5384475,-1.2875402,0.29021537,0.018490005
-0.2,-0.2,1.2999999999999998,-0.5235987755982988,0.0,0,0.573097,1.3894998,0.39036483,-0.11454553,-0.28612602,1.191311,-0.30191943,0.049541008,0.053062886,-1.4205095,0.53854036,-1.2916595,0.29511723,0.021445535
-0.2,-0.2,1.2999999999999998,-0.5235987755982988,0.0,0,-0.26525947,1.4055425,0.57936376,0.027801655,-0.17707981,1.3009204,-0.3535949,0.047312513,0.05236588,-1.4232856,0.5399939,-1.2969354,0.30221918,0.023159979
-0.2,-0.2,1.2999999999999998,-0.5235987755982988,0.0,0,0.16392082,1.190781,-0.057024613,-0.12475657,-0.19883926,1.1224139,0.089873105,0.05022536,0.052144818,-1.4223973,0.5389445,-1.2882094,0.29764748,0.015234673
-0.2,-0.2,1.2999999999999998,-0.5235987755982988,0.0,0,0.21926486,1.2055367,0.03594549,-0.021632502,-0.03540268,1.1964445,-0.39711165,0.036712147,0.053577304,-1.4199877,0.5385682,-1.2877874,0.28843403,0.023897614
-0.2,-0.2,1.2999999999999998,-0.5235987755982988,0.0,0,0.20974557,1.6957403,-0.2331981,-0.07685307,0.71821284,1.258103,-0.86733437,0.0460783,0.054168504,-1.4245096,0.53808933,-1.2909944,0.31165722,0.042663474
-0.2,-0.2,1.2999999999999998,-0.5235987755982988,0.0,0,0.35950622,1.2565906,0.0959068,-0.14143576,0.108131446,1.2092277,-1.2207448,0.05007729,0.05266716,-1.42666,0.5396375,-1.2936834,0.29083133,0.031194549
-0.2,-0.2,1.2999999999999998,-0.5235987755982988,0.0,0,-0.14088587,1.3216898,-0.19066827,-0.06720197,0.06694189,1.2023474,-0.64883244,0.045780547,0.054799236,-1.4254651,0.53948474,-1.2878888,0.2997124,0.022000436
-0.2,-0.2,1.2999999999999998,-0.5235987755982988,0.0,0,0.2083797,1.3967983,0.117362894,0.01108118,0.08452015,1.2799278,-0.7647323,0.04463989,0.05254455,-1.4178342,0.5382052,-1.3023192,0.29663604,0.030549498
-0.2,-0.2,1.2999999999999998,-0.5235987755982988,0.0,0,0.11938412,1.3392973,0.06737306,-0.16892529,0.3343265,1.2428005,0.013486846,0.04276619,0.053802747,-1.4235437,0.5408388,-1.2779211,0.30446407,0.031142712
-0.2,-0.2,1.2999999999999998,-0.5235987755982988,0.0,0,-0.28443336,1.2196858,0.7970227,-0.16151507,-0.06235656,1.2879187,-0.4778352,0.04030276,0.054481786,-1.4200593,0.5399235,-1.282676,0.3015051,0.01957424
-0.2,-0.2,1.2999999999999998,-0.5235987755982988,0.0,0,-0.41032362,1.380042,-0.2360924,-0.20177369,-0.21847098,1.1569762,-1.0365889,0.048269458,0.054849427,-1.423635,0.5382098,-1.2741216,0.3007158,0.0077475295
-0.2,-0.2,1.2999999999999998,-0.5235987755982988,0.0,0,-0.20969756,1.3337595,0.3546465,-0.1611611,0.22778028,1.1994618,-0.60239756,0.043061797,0.057111528,-1.4218141,0.53627074,-1.2718685,0.29607108,0.0011607028
-0.2,-0.2,1.2999999999999998,-0.5235987755982988,0.0,0,0.38464844,1.3050426,0.27659753,-0.08082177,-0.42707142,1.1056882,-0.23266928,0.04400984,0.052088555,-1.4223182,0.5383668,-1.2739319,0.29784188,0.018623833
-0.2,-0.2,1.2999999999999998,-0.5235987755982988,0.0,0,0.19711332,1.3734539,-0.041024793,-0.1279217,0.031155998,1.3583385,-0.45965886,0.044755347,0.05254789,-1.4223613,0.5382256,-1.2882466,0.2965061,0.011683232
-0.2,-0.2,1.2999999999999998,-0.5235987755982988,0.0,0,0.6767613,1.2077794,0.6691859,-0.10080393,0.35776985,1.0518885,-0.5075591,0.0434251,0.055040684,-1.419112,0.5382808,-1.2755333,0.2953565,0.011764587
-0.2,-0.2,1.2999999999999998,-0.5235987755982988,0.0,0,0.12591237,1.3788246,0.117485575,-0.053500872,0.32867965,1.2743975,-0.6844284,0.043468732,0.054323036,-1.4208288,0.53609014,-1.2604135,0.30504662,0.022933844
-0.2,-0.2,1.2999999999999998,-0.5235987755982988,0.0,0,0.42076087,1.4691577,-0.3238143,-0.17011982,0.39321858,1.3218359,-0.5512144,0.049142025,0.05495084,-1.4255111,0.539132,-1.2668533,0.29806033,0.026260488
-0.2,-0.2,1.2999999999999998,-0.5235987755982988,0.0,0,0.34742555,1.285579,-0.031396545,-0.08506353,-0.28708842,1.1730453,-1.5354493,0.04550418,0.055310197,-1.4235382,0.5358737,-1.3021178,0.30935866,0.034683477
-0.2,-0.2,1.2999999999999998,-0.5235987755982988,0.0,0,-0.38994458,1.4109267,-0.052097254,-0.15476803,0.24455623,1.127225,0.050658274,0.04705188,0.05244117,-1.4266955,0.5400895,-1.2712928,0.3116724,0.020585265
-0.2,-0.2,1.2999999999999998,-0.5235987755982988,0.0,0,-0.0903244,1.2816389,-0.08532123,-0.13077562,0.5692105,1.1095085,0.47710535,0.04279668,0.056248024,-1.4236654,0.5383381,-1.2884723,0.30551428,0.023104772
-0.2,-0.2,1.2999999999999998,-0.5235987755982988,0.0,0,0.10140381,1.1987474,0.29154783,-0.08730262,-0.111903846,1.1002581,-0.19457543,0.040936507,0.052013088,-1.4226917,0.53881663,-1.2674689,0.30820367,0.011899851
-0.2,-0.2,1.2999999999999998,-0.5235987755982988,0.0,0,0.46735507,1.36346,0.62570167,-0.08986645,-0.055825233,1.297311,-0.6912211,0.048165374,0.052575413,-1.4235342,0.5382193,-1.291984,0.2961737,0.040925413
-0.2,-0.2,1.2999999999999998,-0.5235987755982988,0.0,0,0.18426071,1.1510314,-0.22015694,-0.062995195,0.37843126,1.2502661,0.20335707,0.04369442,0.05331421,-1.4216135,0.53948796,-1.2947208,0.30371484,0.02852503
-0.2,-0.2,1.2999999999999998,-0.5235987755982988,0.0,0,-0.016381491,1.2546697,-0.07077449,-0.008742519,-0.40714353,1.2124964,-1.0307258,0.044228416,0.053990822,-1.4247514,0.5408732,-1.2757183,0.30478254,0.01970656
-0.2,-0.2,1.2999999999999998,-0.5235987755982988,0.0,0,0.40606207,1.3195559,0.2775637,-0.057145357,-0.29871237,1.0463169,-0.5740423,0.045974698,0.053913515,-1.4227427,0.5377501,-1.2901205,0.2990025,0.021572893
-0.2,-0.2,1.2999999999999998,-0.5235987755982988,0.0,0,0.104015924,1.3809483,0.27999133,-0.018553087,0.42392063,1.2201334,-0.6661748,0.041102376,0.054230265,-1.4216989,0.5372311,-1.2837869,0.2945493,0.018725203
-0.2,-0.2,1.2999999999999998,-0.5235987755982988,0.0,0,0.048863143,1.2790169,0.4644138,-0.17786202,0.036273103,1.0495539,0.09470333,0.040801566,0.056677215,-1.4238477,0.5402901,-1.2702584,0.30440733,0.030978786
-0.2,-0.2,1.2999999999999998,-0.5235987755982988,0.0,0,-0.73597383,1.3336593,0.40905935,-0.09364104,-0.07377883,1.2484107,-1.9085866,0.04449659,0.055415377,-1.4222498,0.5376427,-1.2920353,0.2989,0.03809351
-0.2,-0.2,1.2999999999999998,-0.5235987755982988,0.0,0,-0.12800021,1.3432453,-0.1156126,-0.038463596,-0.14874133,1.2152686,0.30974415,0.038905773,0.055788912,-1.4214313,0.5388187,-1.282502,0.30007163,0.019309716
-0.2,-0.2,1.2999999999999998,-0.5235987755982988,0.0,0,0.5592171,1.2187791,0.120508686,-0.09232667,-0.15988827,1.2264886,-1.1126144,0.043583874,0.054238535,-1.4222889,0.5387006,-1.2930584,0.29056713,-0.0027292497
-0.2,-0.2,1.2999999999999998,-0.5235987755982988,0.0,0,0.7143485,1.2328289,-0.16954635,-0.1759984,-0.32039735,1.1849055,0.12027249,0.03999388,0.05599586,-1.4251294,0.5386836,-1.3076304,0.29705325,0.02245729
-0.2,-0.2,1.2999999999999998,-0.5235987755982988,0.0,0,0.4718595,1.1325113,0.07794498,-0.025121493,0.041617576,1.0739067,0.5281159,0.042708103,0.05380616,-1.4221327,0.53822774,-1.2680199,0.30179915,0.027942792
-0.2,-0.2,1.2999999999999998,-0.5235987755982988,0.0,0,-0.30623353,1.2431203,0.23442693,-0.08269662,0.30152082,1.2496103,-1.4537084,0.04319565,0.05182747,-1.4198143,0.53759503,-1.295669,0.30047268,0.009110405
-0.2,-0.2,1.2999999999999998,-0.5235987755982988,0.0,0,0.13361494,1.43948,0.34273368,-0.13728285,0.065892026,1.2538533,-0.8939303,0.049042996,0.04970523,-1.4252899,0.5388196,-1.2999424,0.29984832,0.02861887
-0.2,-0.2,1.2999999999999998,-0.5235987755982988,0.0,0,0.3668044,1.4374726,0.17780027,0.008031422,-0.13159144,1.1446916,-1.2822024,0.039053213,0.055679165,-1.4216082,0.53824115,-1.2752103,0.30036527,0.007420117
-0.2,-0.2,1.2999999999999998,-0.5235987755982988,0.0,0,0.42978352,1.4183992,0.5237871,-0.120651655,0.13115568,1.1528118,0.28287715,0.041581947,0.0528767,-1.4184805,0.5384412,-1.2844008,0.30307174,0.0223213
-0.2,-0.2,1.2999999999999998,-0.5235987755982988,0.0,0,0.5245516,1.2513078,0.7577533,-0.017112367,-0.19033459,1.062472,-0.75294393,0.040692586,0.055791248,-1.4222236,0.537113,-1.3060467,0.30139083,0.018367393
-0.2,-0.2,1.2999999999999998,-0.5235987755982988,0.0,0,0.2612638,1.2181319,0.19873166,-0.16335177,0.083334476,1.2000209,-0.0013561138,0.04476589,0.055433277,-1.423992,0.537012,-1.2887633,0.2936018,0.024942817
-0.2,-0.2,1.2999999999999998,-0.5235987755982988,0.0,0,0.23522332,1.296257,-0.28305438,-0.13815585,-0.09100068,1.1198289,-0.7907391,0.045093752,0.053615592,-1.422548,0.5409518,-1.2597585,0.30902594,0.027172342
-0.2,-0.2,1.2999999999999998,-0.5235987755982988,0.0,0,-0.3801141,1.5411174,0.09148315,-0.07324356,-0.23476185,1.2387424,-2.0097017,0.04750406,0.0547591,-1.4249308,0.5396787,-1.2729142,0.30996293,0.020934066
-0.2,-0.2,1.2999999999999998,-0.5235987755982988,0.0,0,-0.38159248,1.2371105,-0.085202806,-0.15780109,-0.39334637,1.4224175,-0.9076098,0.043033976,0.05278712,-1.4209645,0.5405843,-1.2758503,0.29662618,0.03235072
-0.2,-0.2,1.2999999999999998,-0.5235987755982988,0.0,0,0.29228485,1.2239146,0.25909787,-0.045194287,0.32376984,1.2320715,-0.8708447,0.04378192,0.053055026,-1.4267663,0.53698426,-1.2585682,0.30458286,0.01740124
-0.2,-0.2,1.2999999999999998,-0.5235987755982988,0.0,0,0.15980008,1.40889,0.045431457,0.0029915294,0.27335837,1.114108,-0.38027352,0.04207526,0.05552839,-1.4227785,0.5369639,-1.282429,0.30980766,0.041796014
-0.2,-0.2,1.2999999999999998,-0.5235987755982988,0.0,0,-0.026877174,1.5444721,0.48641565,-0.14805657,0.4171034,1.0517894,-0.6746042,0.04298526,0.052428536,-1.4236591,0.5387163,-1.2834849,0.3000611,0.022496989
-0.2,-0.2,1.2999999999999998,-0.5235987755982988,0.0,0,0.12489837,1.2553935,0.6139528,-0.1328505,0.08813217,1.0907477,-0.22798324,0.037229497,0.05431322,-1.4178743,0.5375666,-1.2843767,0.30162418,0.00797441
-0.2,-0.2,1.2999999999999998,-0.5235987755982988,0.0,0,0.21021746,1.3031214,0.44129658,-0.1130322,0.2526542,1.2824128,-1.4989375,0.043279402,0.056408633,-1.4243093,0.5409329,-1.2626821,0.29709414,0.008653024
-0.2,-0.2,1.2999999999999998,-0.5235987755982988,0.0,0,0.6429009,1.2766669,0.43281516,-0.15272103,0.31927636,1.2722906,-0.16238488,0.036196128,0.054451734,-1.4223044,0.5383127,-1.2841233,0.303653,0.006836368
-0.2,-0.2,1.2999999999999998,-0.5235987755982988,0.0,0,0.11399557,1.3173274,0.2774543,-0.12565106,0.08023193,1.2578382,-0.78889006,0.04179342,0.053364012,-1.4238434,0.5385,-1.2596971,0.3068527,0.018854907
-0.2,-0.2,1.2999999999999998,-0.5235987755982988,0.0,0,-0.053978447,1.351227,0.34834158,-0.1343495,-0.09174064,1.2486378,0.27972305,0.041812014,0.05080901,-1.4218005,0.53702384,-1.2827659,0.2992891,0.015995873
-0.2,-0.2,1.2999999999999998,-0.5235987755982988,0.0,0,-0.02718286,1.4165053,-0.04761694,-0.17446843,-0.40632918,1.2357014,0.5498033,0.047634356,0.053441327,-1.4206127,0.5425697,-1.2841297,0.3032802,0.011290061
-0.2,-0.2,1.2999999999999998,-0.5235987755982988,0.0,0,-0.25658327,1.4644744,0.23929857,-0.050875913,0.017074173,1.2085682,0.11334947,0.03934868,0.055258054,-1.4222366,0.5395284,-1.2790948,0.30325374,0.022537151
-0.2,-0.2,1.2999999999999998,-0.5235987755982988,0.0,0,0.2657035,1.3017206,-0.12093642,-0.09435115,-0.3878245,1.2284281,-0.7717562,0.040551405,0.05133963,-1.4222004,0.5406752,-1.2856477,0.29651847,0.05258529
-0.2,-0.2,1.2999999999999998,-0.5235987755982988,0.0,0,0.5312135,1.3325418,0.15060917,-0.112151496,-0.26172107,1.2476264,-0.2938487,0.038955055,0.05564317,-1.4255673,0.53958946,-1.2697985,0.3010996,-0.0023177376
-0.2,-0.2,1.2999999999999998,-0.5235987755982988,0.0,0,0.017275684,1.508052,0.23174635,-0.02100007,0.48755354,1.1277989,-0.13029517,0.05005567,0.056209162,-1.4247259,0.5393545,-1.2582017,0.2987543,0.018969886
-0.2,-0.2,1.2999999999999998,-0.5235987755982988,0.0,0,0.272165,1.3284134,-0.09604151,-0.25161844,-0.18548557,1.1340342,-0.95515513,0.04275397,0.05254985,-1.4211459,0.5398921,-1.2765296,0.30303097,0.02665634
-0.2,-0.2,1.2999999999999998,-0.5235987755982988,0.0,0,0.075461656,1.2802289,0.4528127,-0.113470264,-0.09952163,1.3594906,-1.2082034,0.047915522,0.052501865,-1.4246336,0.5388189,-1.2979966,0.30389217,0.023561748
-0.2,-0.2,1.2999999999999998,-0.5235987755982988,0.0,0,0.20331655,1.2627134,0.25626907,-0.025822036,0.09498976,1.2313602,0.39036414,0.046751812,0.054783564,-1.4238927,0.53982604,-1.2767711,0.30642617,0.011166967
-0.2,-0.2,1.2999999999999998,-0.5235987755982988,0.0,0,-0.04062687,1.3224406,0.1755358,-0.10831338,0.23817566,1.1092854,-0.50912255,0.04576151,0.054811217,-1.4271277,0.54096085,-1.2964966,0.31208548,0.034765936
-0.2,-0.2,1.2999999999999998,-0.5235987755982988,0.0,0,0.098934576,1.3106339,0.22618881,-0.03921803,-0.23506081,1.3904214,-0.72283465,0.0435919,0.05448367,-1.422691,0.5380056,-1.2822777,0.2923003,0.009253897
-0.2,-0.2,1.2999999999999998,-0.5235987755982988,0.0,0,-0.10981974,1.3345443,0.9931403,-0.112403676,-0.030757096,1.2169076,-0.7210442,0.04488964,0.05453666,-1.4229925,0.53933346,-1.2869108,0.31213015,0.029776381
-0.2,-0.2,1.2999999999999998,-0.5235987755982988,0.0,0,0.27538955,1.2176024,-0.24600765,-0.0010277978,0.4693909,1.1271785,-0.29307118,0.042019516,0.056524295,-1.4212711,0.5404741,-1.2851912,0.3039297,0.02235124
-0.2,-0.2,1.2999999999999998,-0.5235987755982988,0.0,0,-0.11612226,1.3277651,-0.01280878,-0.18529367,-0.20670222,1.1924137,-0.66884494,0.045168445,0.054317478,-1.4222549,0.5393793,-1.2926158,0.29630816,0.014074172
-0.2,-0.2,1.2999999999999998,-0.5235987755982988,0.0,0,0.28118625,1.2192156,0.20548822,-0.18333521,0.03886905,1.218881,-0.80516183,0.0382826,0.05758476,-1.4178777,0.5393082,-1.3070914,0.30188698,0.023846604
-0.2,-0.2,1.2999999999999998,-0.5235987755982988,0.0,0,0.098265685,1.3684106,0.025804257,-0.042952552,-0.08013399,1.2423762,-1.0325893,0.044656023,0.055455606,-1.4228377,0.5387047,-1.2939947,0.3105627,0.005071115
-0.2,-0.2,1.2999999999999998,-0.5235987755982988,0.0,0,0.22643575,1.2838855,0.32371557,-0.013054523,0.2299862,1.3242064,-1.3276414,0.036629446,0.05414255,-1.4241755,0.53609693,-1.2721189,0.30639288,0.025636861
-0.2,-0.2,1.2999999999999998,-0.5235987755982988,0.0,0,-0.62951416,1.3450432,0.75946176,-0.027165353,0.31590798,1.1829118,-0.48282936,0.039635144,0.05484355,-1.4252285,0.5415975,-1.3105905,0.29672012,0.025442183
-0.2,-0.2,1.2999999999999998,-0.5235987755982988,0.0,0,0.19347472,1.2543436,0.31135237,-0.052528594,0.47169906,1.3675505,-1.9246527,0.034996927,0.0561811,-1.4261346,0.5402586,-1.290874,0.29993024,0.018510783
-0.2,-0.2,1.2999999999999998,-0.5235987755982988,0.0,0,0.38640982,1.1903393,-0.04373659,-0.08149842,-0.14815132,1.1937543,-0.41097546,0.049329806,0.053032078,-1.4256136,0.53909326,-1.2741697,0.30621883,0.036977224
-0.2,-0.2,1.2999999999999998,-0.5235987755982988,0.0,0,-0.022690985,1.2428758,-0.1480262,0.031357467,-0.10848874,1.3201796,-0.9763683,0.044286773,0.053501062,-1.4210817,0.5358324,-1.268926,0.30164316,0.013485164
-0.2,-0.2,1.2999999999999998,-0.5235987755982988,0.0,0,0.32115644,1.3429339,-0.031826362,-0.10150223,0.19244903,1.2075338,0.436835,0.044311978,0.054194756,-1.4213525,0.5382946,-1.2983367,0.29198062,0.015241768
-0.2,-0.2,1.2999999999999998,-0.5235987755982988,0.0,0,-0.07198512,1.4848843,-0.06178465,-0.015112271,0.0063251,1.2657945,-0.438305,0.041550748,0.05156814,-1.4227996,0.5387994,-1.2984735,0.30432606,0.02530529
-0.2,-0.2,1.2999999999999998,-0.5235987755982988,0.0,0,-0.19854508,1.2787629,0.0074740523,-0.05133932,0.047594722,1.4073216,-0.029491812,0.04275031,0.055928282,-1.4223536,0.53788525,-1.296466,0.293866,0.015497952
-0.2,-0.2,1.2999999999999998,-0.5235987755982988,0.0,0,-0.31529653,1.5377553,-0.14450379,-0.29870993,-0.055726502,1.1338108,0.02827554,0.040059805,0.054085854,-1.4225594,0.5394687,-1.2949076,0.29277024,0.022173798
-0.2,-0.2,1.2999999999999998,-0.5235987755982988,0.0,0,0.24030113,1.3148035,0.13188338,-0.0447799,0.40613893,1.2270063,-0.8126775,0.04507464,0.054681793,-1.4245255,0.54026157,-1.2636149,0.3015142,-0.008830651
-0.2,-0.2,1.2999999999999998,-0.5235987755982988,0.0,0,0.45846754,1.3118775,0.13211463,-0.14952035,0.35346043,1.3464738,-0.5842542,0.043029934,0.055926606,-1.4213576,0.5390037,-1.2728482,0.31072292,0.035456434
-0.2,-0.2,1.2999999999999998,-0.5235987755982988,0.0,0,0.22533081,1.462755,0.01577121,-0.061448596,-0.18754338,1.1724215,0.11652162,0.045660872,0.054821838,-1.4233513,0.5366274,-1.2652105,0.31088167,0.015233726
-0.2,-0.2,1.2999999999999998,-0.5235987755982988,0.0,0,0.10867263,1.442302,0.64070207,-0.16302165,0.38638002,1.140463,-0.45372912,0.044711664,0.054710977,-1.4227302,0.5383244,-1.2727928,0.301297,0.009003201
-0.2,-0.2,1.2999999999999998,-0.5235987755982988,0.0,0,0.65098125,1.2718005,0.54202354,-0.14454374,0.19203989,1.2907038,-0.40476686,0.03834242,0.056488328,-1.4201459,0.5404672,-1.3169917,0.305912,0.012399274
-0.2,-0.2,1.2999999999999998,-0.5235987755982988,0.0,0,0.25175238,1.3096635,-0.3466923,-0.13609433,-0.13009863,1.3047292,0.12122317,0.045593403,0.05397338,-1.4216259,0.5396171,-1.2800047,0.30333322,0.013457048
-0.2,-0.2,1.2999999999999998,-0.5235987755982988,0.0,0,0.3579331,1.2466763,-0.26654258,-0.13640064,0.1057296,1.2910583,-0.91259825,0.044057854,0.055539332,-1.4220936,0.5365423,-1.2637626,0.30485013,0.0121928025
-0.2,-0.2,1.2999999999999998,-0.5235987755982988,0.0,0,0.12240228,1.2859828,0.046464097,-0.18991682,0.13343953,1.2378633,0.0059434823,0.04492271,0.054558095,-1.4275525,0.5383171,-1.2748775,0.30083174,0.017483043
-0.2,-0.2,1.2999999999999998,-0.5235987755982988,0.0,0,-0.16975127,1.3310314,0.12726507,-0.08451693,0.4591741,1.2896986,-0.13583088,0.042937335,0.05489076,-1.4217281,0.5362328,-1.2753949,0.3064333,0.026636276
-0.2,-0.2,1.2999999999999998,-0.5235987755982988,0.0,0,0.27316317,1.4692391,-0.053732708,-0.10028296,-0.059478953,1.1821924,-1.2089992,0.04631118,0.053532705,-1.4236994,0.5372411,-1.273973,0.30642763,-0.0074145226
-0.2,-0.2,1.2999999999999998,-0.5235987755982988,0.0,0,0.11615,1.4655412,-0.48953792,-0.07538973,-0.39180383,1.1358206,-1.1067468,0.04428037,0.055623792,-1.421203,0.5387157,-1.291932,0.3011122,0.014409822
-0.2,-0.2,1.2999999999999998,-0.5235987755982988,0.0,0,-0.17751797,1.3256923,0.15209837,-0.2996574,-0.24559075,1.1648775,-0.17478491,0.03894357,0.053796124,-1.4221427,0.5395675,-1.2937022,0.31003198,0.032053653
-0.2,-0.2,1.2999999999999998,-0.5235987755982988,0.0,0,0.39130208,1.3377179,0.25464463,-0.13307928,-0.29945543,1.3078983,-0.69879067,0.044835564,0.05460151,-1.4256196,0.5404199,-1.2886325,0.3015945,0.015755432
-0.2,-0.2,1.2999999999999998,-0.5235987755982988,0.0,0,0.33420637,1.4004529,0.46087256,-0.14888619,0.6592278,1.2551063,0.3427723,0.0368484,0.053760808,-1.4262297,0.53868073,-1.2801546,0.30600467,-0.022129402
-0.2,-0.2,1.2999999999999998,-0.5235987755982988,0.0,0,0.124166474,1.3970681,0.6128914,-0.07925665,0.3308426,1.1160876,-0.30472353,0.044997074,0.05400281,-1.4240313,0.5395954,-1.3014225,0.30818775,0.016398026
-0.2,-0.2,1.2999999999999998,-0.5235987755982988,0.0,0,0.24954969,1.3004593,0.37599027,-0.029040972,0.13102402,1.2803733,-1.0628802,0.046045635,0.05455474,-1.4232801,0.5354014,-1.2855816,0.2918374,0.00011894409
-0.2,-0.2,1.2999999999999998,-0.5235987755982988,0.0,0,-0.06585425,1.3860658,-0.37123924,-0.09777932,0.13721392,1.2536502,-1.0291854,0.04108732,0.052745216,-1.4259483,0.53769565,-1.2808017,0.30057347,-0.004909095
-0.2,-0.2,1.2999999999999998,-0.5235987755982988,0.0,0,-0.46438822,1.1082442,0.42557874,0.039253104,0.1596342,1.3807478,0.88244677,0.036560174,0.05362305,-1.4230995,0.5381221,-1.2699649,0.3020912,0.015463746
-0.2,-0.2,1.2999999999999998,-0.5235987755982988,0.0,0,-0.11615526,1.3866836,0.35940465,-0.07598725,0.2935092,1.1562496,-0.7366224,0.046248097,0.053690806,-1.4207431,0.53830534,-1.2892617,0.31529033,0.022783032
-0.2,-0.2,1.2999999999999998,-0.5235987755982988,0.0,0,0.28652805,1.1315074,0.37478966,-0.030376246,-0.28586835,1.17216,0.0067667975,0.040667344,0.052900538,-1.4241198,0.5388279,-1.2832206,0.30882484,0.05569359
-0.2,-0.2,1.2999999999999998,-0.5235987755982988,0.0,0,0.068965524,1.3773249,0.1316911,0.073642105,-0.3419973,1.2543663,-1.2150756,0.0388442,0.05520956,-1.4215552,0.53936154,-1.2918173,0.29839727,0.00049886556
-0.2,-0.2,1.2999999999999998,-0.5235987755982988,0.0,0,0.302519,1.2654923,0.02755582,-0.08716709,-0.06424251,1.2839812,-0.58654165,0.04313898,0.05309375,-1.4230117,0.537546,-1.2887456,0.29929644,0.016349914
-0.2,-0.2,1.2999999999999998,-0.5235987755982988,0.0,0,0.09163253,1.3878763,0.5438967,-0.024217984,-0.15524739,1.1677738,0.49206764,0.04615634,0.056001756,-1.4232683,0.5381168,-1.3045005,0.29250228,0.00961596
-0.2,-0.2,1.2999999999999998,-0.5235987755982988,0.0,0,0.34181964,1.3284193,0.6466649,-0.1507762,0.13638973,1.2826579,-0.5377259,0.041144792,0.05350414,-1.4223783,0.5370829,-1.2919585,0.29948485,0.015465205
-0.2,-0.2,1.2999999999999998,-0.5235987755982988,0.0,0,0.055506315,1.38572,0.8806219,-0.07062507,0.20412776,1.2386007,-1.5438178,0.051174417,0.05438417,-1.4231713,0.54051363,-1.2832137,0.29286045,0.020250844
-0.2,-0.2,1.2999999999999998,-0.5235987755982988,0.0,0,0.27503628,1.2744672,-0.33163112,-0.09179028,-0.39768454,1.2583681,0.29451853,0.041489027,0.05802658,-1.4226928,0.53676796,-1.2839682,0.31248665,0.0037236498
-0.2,-0.2,1.2999999999999998,-0.5235987755982988,0.0,0,-0.041464947,1.3150237,0.092897184,-0.06766515,-0.17264196,1.1700785,-0.86008215,0.036904372,0.053880848,-1.4232025,0.53942996,-1.2968476,0.30059636,0.008307117
-0.2,-0.2,1.2999999999999998,-0.5235987755982988,0.0,0,0.1438486,1.2896308,0.41393036,-0.09601956,0.21156757,1.1301703,-0.69572365,0.04402073,0.052487545,-1.422257,0.54121196,-1.2863982,0.30172628,0.013076226
-0.2,-0.2,1.2999999999999998,-0.5235987755982988,0.0,0,0.39115977,1.2576686,-0.07097709,-0.07224239,-0.24088594,1.2061297,-1.5552336,0.041718867,0.05405964,-1.419748,0.5378066,-1.2858081,0.2990859,0.028201852
-0.2,-0.2,1.2999999999999998,-0.5235987755982988,0.0,0,-0.41088188,1.0496413,-0.09946973,0.012898374,0.33841103,1.2398949,-0.049527217,0.047494154,0.056548122,-1.4236896,0.53801906,-1.2724302,0.30511832,-0.00409144
-0.2,-0.2,1.2999999999999998,-0.5235987755982988,0.0,0,0.17509742,1.415731,-0.24068476,-0.14484234,-0.21654698,1.1435776,-0.37673625,0.046964336,0.053684298,-1.4190445,0.53903687,-1.2966095,0.3012494,0.035906166
-0.2,-0.2,1.2999999999999998,-0.5235987755982988,0.0,0,0.21143858,1.3734715,0.0141272815,-0.1498314,-0.08613897,1.1558015,-1.029188,0.04703721,0.055208635,-1.4206667,0.5394889,-1.2672104,0.30094805,0.0053054076
-0.2,-0.2,1.2999999999999998,-0.5235987755982988,0.0,0,0.12401848,1.3988502,-0.09349416,-0.15263529,-0.25692677,1.1263512,-0.92234343,0.043305438,0.0532099,-1.4281558,0.5387672,-1.2884727,0.2985753,-0.016434673
-0.2,-0.2,1.2999999999999998,-0.5235987755982988,0.0,0,0.14988424,1.4185878,0.20083064,-0.11487257,0.06672765,1.2193353,-0.1849021,0.035718404,0.052043658,-1.4195299,0.53879416,-1.2857492,0.30068228,0.02010307
-0.2,-0.2,1.2999999999999998,-0.5235987755982988,0.0,0,0.5114355,1.1534479,-0.0928046,-0.1716339,-0.0057573966,1.2187037,-0.091257885,0.03624216,0.057748307,-1.4217901,0.5394649,-1.276811,0.30662602,0.010444205
-0.2,-0.2,1.2999999999999998,-0.5235987755982988,0.0,0,-0.12746282,1.2643263,0.023942405,-0.078546606,-0.10106531,1.2327001,-0.98489344,0.040878322,0.052885573,-1.4248347,0.53610873,-1.2655752,0.30624405,0.020276528
-0.2,-0.2,1.2999999999999998,-0.5235987755982988,0.0,0,0.14334299,1.3964472,0.14961618,-0.07605718,-0.29040813,1.1372699,-0.65697557,0.045334287,0.05334146,-1.4211283,0.535808,-1.2943704,0.2950132,-0.0015697588
-0.2,-0.2,1.2999999999999998,-0.5235987755982988,0.0,0,0.29648,1.453918,-0.23193522,-0.10378959,0.026071139,1.2603729,0.041802965,0.038730823,0.05623888,-1.4236094,0.5375685,-1.2499588,0.31168887,0.0012085965
-0.2,-0.2,1.2999999999999998,-0.5235987755982988,0.0,0,0.13231874,1.2681081,0.14450751,-0.17262726,0.12213547,1.3094065,-0.56060266,0.04296431,0.05221485,-1.4225206,0.53990597,-1.2840116,0.30757666,-0.0034911907
-0.2,-0.2,1.2999999999999998,-0.5235987755982988,0.0,0,0.57823414,1.2328161,0.17289616,-0.01228332,-0.19498302,1.1491792,-1.1794443,0.036966622,0.054610264,-1.4218985,0.53815013,-1.2726907,0.29749203,0.009980839
-0.2,-0.2,1.2999999999999998,-0.5235987755982988,0.0,0,0.24178684,1.3239465,-0.35472664,-0.118507504,0.08081171,1.2149289,-0.7718676,0.041409735,0.05229208,-1.4226482,0.5393579,-1.2828908,0.30745685,0.0042620003
-0.2,-0.2,1.2999999999999998,-0.5235987755982988,0.0,0,0.1476613,1.4136407,0.22507451,-0.056776293,0.15930744,1.1290516,0.087364934,0.04474899,0.05575662,-1.4190283,0.5392649,-1.2955998,0.2914726,0.018988723
-0.2,-0.2,1.2999999999999998,-0.5235987755982988,0.0,0,0.167822,1.269984,0.26367658,0.050726045,-0.4983268,1.2256235,-0.5956542,0.043071773,0.056240946,-1.4180683,0.5379354,-1.2783949,0.30833334,0.010083449
-0.2,-0.2,1.2999999999999998,-0.5235987755982988,0.0,0,0.21057437,1.219644,0.44504878,-0.017844554,0.07946455,1.1678883,-0.2089917,0.04601283,0.05380219,-1.4218256,0.53938025,-1.2661406,0.30158812,0.025035312
-0.2,-0.2,1.2999999999999998,-0.5235987755982988,0.0,0,0.06971452,1.3897479,0.26001212,-0.059800945,0.40125266,1.4148881,-1.1287938,0.04655147,0.05528939,-1.4196178,0.5415769,-1.2609015,0.3033265,0.022656608
-0.2,-0.2,1.2999999999999998,-0.5235987755982988,0.0,0,0.07950261,1.4483385,0.24821837,-0.0024081755,-0.06919551,1.1885146,0.20451604,0.039497364,0.054939218,-1.4221478,0.5385767,-1.281999,0.30043277,0.033189043
-0.2,-0.2,1.2999999999999998,-0.5235987755982988,0.0,0,-0.07476776,1.3002619,0.754843,-0.09407474,-0.086925946,1.1713028,-0.58548695,0.04331801,0.051486135,-1.4226006,0.5381813,-1.2777631,0.29733,0.042106673
-0.2,-0.2,1.2999999999999998,-0.5235987755982988,0.0,0,-0.12266669,1.2511393,0.0996921,-0.0155822905,-0.109991565,1.393785,-1.3559066,0.04839863,0.05551886,-1.4229486,0.5395261,-1.2782884,0.30196452,0.031260993
-0.2,-0.2,1.2999999999999998,-0.5235987755982988,0.0,0,0.55054754,1.3939174,0.36071506,-0.027669502,0.23796827,1.1524035,0.16624184,0.037447,0.05600638,-1.4214935,0.54029644,-1.286203,0.29751894,0.014273234
-0.2,-0.2,1.2999999999999998,-0.5235987755982988,0.0,0,0.16945684,1.3045666,-0.1304061,-0.20645016,0.3267605,1.2364361,-1.1855221,0.04338445,0.053048454,-1.4231486,0.53940815,-1.2881814,0.29668123,0.007496323
-0.2,-0.2,1.2999999999999998,-0.5235987755982988,0.0,0,0.19475308,1.277925,-0.2952031,-0.074757315,0.111000806,1.1594797,-0.6464929,0.04625418,0.05807784,-1.4227563,0.5407772,-1.3028008,0.29684576,0.04883836
-0.2,-0.2,1.2999999999999998,-0.5235987755982988,0.0,0,0.27151418,1.2909718,0.20148385,-0.14842829,0.2837957,1.0342516,0.82130957,0.043508414,0.05294662,-1.4237953,0.54019374,-1.2846096,0.2932754,-0.0130168805
-0.2,-0.2,1.2999999999999998,-0.5235987755982988,0.0,0,0.05855246,1.3346391,0.25453785,-0.08719623,0.116572805,1.2141855,0.97445154,0.043476474,0.05297192,-1.4213972,0.53922,-1.2748009,0.31179616,-0.0011079604
-0.2,-0.2,1.2999999999999998,-0.5235987755982988,0.0,0,0.26429933,1.5841539,-0.21888304,-0.21386027,0.29237995,1.1358151,-1.0644166,0.04796678,0.054069802,-1.4209634,0.53777725,-1.2714512,0.308773,0.007851895
-0.2,-0.2,1.2999999999999998,-0.5235987755982988,0.0,0,0.17725116,1.3599017,0.24761191,-0.15934221,0.16475928,1.2488021,0.035845324,0.04265375,0.053686127,-1.423397,0.5357813,-1.2623892,0.30820808,-0.004967281
-0.2,-0.2,1.2999999999999998,-0.5235987755982988,0.0,0,0.12387729,1.3812827,0.00783219,-0.16394247,0.24258813,1.1604909,-0.23968105,0.03574651,0.056775805,-1.4235907,0.53822285,-1.2664813,0.29578117,0.023360066
-0.2,-0.2,1.2999999999999998,-0.5235987755982988,0.0,0,0.4404932,1.2602098,0.60954344,-0.12841153,-0.022413524,1.1943297,-0.5153402,0.03414687,0.054631412,-1.4236865,0.53825635,-1.2968181,0.2940582,0.019767355
-0.2,-0.2,1.2999999999999998,-0.5235987755982988,0.0,0,0.035399724,1.383325,0.011369867,-0.16966067,-0.061767854,1.2930171,-0.0319529,0.03293894,0.05512896,-1.4251462,0.53860056,-1.2759861,0.2960588,0.043845017
-0.2,-0.2,1.2999999999999998,-0.5235987755982988,0.0,0,0.18652754,1.3280904,0.15595177,-0.12864111,0.2925787,1.2723585,-1.4392328,0.032653496,0.05281165,-1.4219669,0.5374535,-1.2695649,0.29629782,0.039220233
-0.2,-0.2,1.2999999999999998,-0.5235987755982988,0.0,0,0.18111265,1.1825349,0.28515375,-0.025202136,-0.16278699,1.1854738,-0.49674827,0.048994135,0.056107875,-1.42389,0.5383499,-1.2975801,0.30240604,0.03780569
-0.2,-0.2,1.2999999999999998,-0.5235987755982988,0.0,0,0.23048677,1.3407123,0.27285787,-0.16740209,0.073130496,1.1933045,-0.17842871,0.044278923,0.051991902,-1.4237831,0.5368662,-1.271848,0.3003947,0.014800764
-0.2,-0.2,1.2999999999999998,-0.5235987755982988,0.0,0,0.05825946,1.4212767,-0.013404807,-0.17276022,-0.15209465,1.2735909,-0.4253737,0.042191606,0.054164793,-1.4211394,0.53728384,-1.2793173,0.29920855,0.03128672
-0.2,-0.2,1.2999999999999998,-0.5235987755982988,0.0,0,-0.01813745,1.3494174,0.12689379,-0.09747683,0.4538527,1.4453511,-0.75234085,0.036870115,0.0526346,-1.4254217,0.5374512,-1.2810526,0.30426657,0.0029426413
-0.2,-0.2,1.2999999999999998,-0.5235987755982988,0.0,0,0.43443093,1.4124862,0.44630158,-0.03696291,-0.15599728,1.2862129,-0.1632743,0.04714674,0.055033065,-1.4195995,0.53570527,-1.2733171,0.3031768,0.029010007
-0.2,-0.2,1.2999999999999998,-0.5235987755982988,0.0,0,0.35040265,1.4160876,0.3068774,-0.08023396,0.2395509,1.364828,-0.54933494,0.038212944,0.054013856,-1.4271891,0.53848517,-1.2848147,0.3133279,0.007771215
-0.2,-0.2,1.2999999999999998,-0.5235987755982988,0.0,0,0.6700016,1.2267711,0.84566236,-0.03326332,0.050530024,1.376621,-0.33450025,0.04516924,0.04985829,-1.423218,0.53992116,-1.2912251,0.3068591,0.028345851
-0.2,-0.2,1.2999999999999998,-0.5235987755982988,0.0,0,0.31964186,1.2739385,-0.13954885,-0.034633536,-0.13578586,1.0635738,-1.0302883,0.040372383,0.053753514,-1.420796,0.5393436,-1.2690544,0.29696503,0.024954915
-0.2,-0.2,1.2999999999999998,-0.5235987755982988,0.0,0,-0.08244507,1.3883293,-0.017088875,-0.1210242,-0.003322339,1.2892011,0.4381012,0.042503282,0.05316105,-1.423635,0.5372302,-1.2728068,0.2974804,0.010016828
-0.2,-0.2,1.2999999999999998,-0.5235987755982988,0.0,0,-0.15506874,1.2523794,0.19354157,-0.072649494,-0.50041467,1.0213504,-0.8994972,0.048371755,0.05391682,-1.4225231,0.53831816,-1.2640301,0.30032098,0.045377847
-0.2,-0.2,1.2999999999999998,-0.5235987755982988,0.0,0,-0.14875323,1.4479773,0.2772238,-0.03555416,-0.19620386,1.1018535,-0.8678671,0.04523376,0.057413816,-1.4247812,0.5372417,-1.286081,0.30008322,-0.001203676
-0.2,-0.2,1.2999999999999998,-0.5235987755982988,0.0,0,0.13192092,1.4109294,0.27143872,-0.23109348,0.2640453,1.1878076,-0.12580013,0.0436909,0.056585997,-1.4223442,0.54010093,-1.2945281,0.29938394,0.039222207
-0.2,-0.2,1.2999999999999998,-0.5235987755982988,0.0,0,0.12403526,1.3372799,-0.16512056,-0.07521524,0.31866816,1.2513849,-0.9516057,0.04810221,0.053015213,-1.421916,0.5395966,-1.2744205,0.30744022,0.023786077
-0.2,-0.2,1.2999999999999998,-0.5235987755982988,0.0,0,0.39873105,1.2190518,0.023707615,-0.07645657,0.15515584,1.1272788,-0.864841,0.040018257,0.056128677,-1.4193532,0.53896105,-1.2753431,0.29813197,0.017877555
-0.2,-0.2,1.2999999999999998,-0.5235987755982988,0.0,0,0.050191104,1.4007251,-0.009446275,-0.016756162,-0.10696956,1.093612,-0.6209939,0.050105743,0.0551693,-1.4207594,0.53948927,-1.2852721,0.30142537,0.024982285
-0.2,-0.2,1.2999999999999998,-0.5235987755982988,0.0,0,0.018239757,1.0941193,-0.35155216,-0.1170072,0.6192503,1.1684723,-1.1535299,0.043366462,0.054497167,-1.4218047,0.53575706,-1.2912992,0.3008085,0.020818505
-0.2,-0.2,1.2999999999999998,-0.5235987755982988,0.0,0,-0.4528831,1.3413529,0.23269726,-0.009591009,-0.15228952,1.2733567,-0.3530692,0.043105338,0.054309532,-1.4193214,0.54107594,-1.3085567,0.29918253,0.036395345
-0.2,-0.2,1.2999999999999998,-0.5235987755982988,0.0,0,-0.25206345,1.3552433,0.41354737,-0.22429205,-0.2039943,1.2385473,-0.3702314,0.041903973,0.05333671,-1.4241028,0.5383687,-1.2814827,0.30431578,0.014405581
-0.2,-0.2,1.2999999999999998,-0.5235987755982988,0.0,0,-0.1301594,1.386458,-0.058916356,-0.19695583,0.37371334,1.2316731,-0.86558926,0.04559994,0.054087713,-1.4230596,0.5392639,-1.2908068,0.29565293,0.020975797
