sanky1234/BimanualDexCatch/isaacgymenvs/cem_results/football_pose_-0.2_0.0_1.0999999999999999_-0.5235987755982988_0.0_0_2025-05-24.csv
x,y,z,roll,pitch,yaw,robot1/joint1,robot1/joint2,robot1/joint3,robot1/joint4,robot1/joint5,robot1/joint6,robot1/joint7,robot2/joint1,robot2/joint2,robot2/joint3,robot2/joint4,robot2/joint5,robot2/joint6,robot2/joint7
-0.2,0.0,1.0999999999999999,-0.5235987755982988,0.0,0,-0.642529,-0.045908835,1.149914,0.6349791,0.979433,0.5970044,0.23030135,-0.6584208,1.1743114,-0.05443859,-0.13784084,0.03342465,1.3537511,-0.14001288
-0.2,0.0,1.0999999999999999,-0.5235987755982988,0.0,0,-0.640123,-0.039637726,1.1497151,0.63489944,0.9780183,0.59375685,0.22648247,0.23983823,1.143642,0.31669006,-0.07365407,0.007957261,1.2261804,0.35315654
-0.2,0.0,1.0999999999999999,-0.5235987755982988,0.0,0,-0.64430916,-0.038990602,1.148212,0.6340157,0.97750336,0.59576094,0.22554867,-0.5163506,1.1856312,0.11279086,-0.117164545,0.0293548,1.1490648,-1.38681
-0.2,0.0,1.0999999999999999,-0.5235987755982988,0.0,0,-0.64189076,-0.04092107,1.1522253,0.63496524,0.9789211,0.59515554,0.21961187,-0.52943236,1.2459272,0.64249146,-0.0071732467,-0.037548542,1.3622323,-0.61173034
-0.2,0.0,1.0999999999999999,-0.5235987755982988,0.0,0,-0.6456396,-0.041543096,1.1525444,0.6379944,0.97522455,0.5960869,0.22384846,-0.2656035,1.2965437,0.20938723,-0.04104829,0.07934735,1.2390264,1.5099448
-0.2,0.0,1.0999999999999999,-0.5235987755982988,0.0,0,-0.64469993,-0.04319089,1.1515768,0.63610476,0.9826791,0.59728193,0.23852283,0.15562704,1.2652545,0.197997,-0.06800173,0.08250281,1.2113438,0.79950184
-0.2,0.0,1.0999999999999999,-0.5235987755982988,0.0,0,-0.6456833,-0.03960489,1.1488097,0.6341564,0.98179233,0.5985745,0.22995423,-0.63750964,1.4130396,0.4845998,-0.07074255,0.06056356,1.1877584,0.2631608
-0.2,0.0,1.0999999999999999,-0.5235987755982988,0.0,0,-0.6409527,-0.044865996,1.152901,0.63426924,0.9747664,0.59676194,0.22947682,-0.43281618,1.3303171,0.17997624,-0.013323277,-0.07115584,1.1664425,0.54922026
-0.2,0.0,1.0999999999999999,-0.5235987755982988,0.0,0,-0.6422623,-0.04483806,1.148675,0.63425595,0.9832447,0.59746194,0.21323414,-0.46062946,1.3250949,-0.46051067,-0.15290515,-0.1042573,1.2230806,0.3698627
-0.2,0.0,1.0999999999999999,-0.5235987755982988,0.0,0,-0.64527756,-0.0404648,1.1488932,0.63614637,0.9798525,0.5968297,0.23746678,-0.051114693,1.3115276,0.5227598,-0.048551872,-0.013130626,1.2376316,-0.9778859
-0.2,0.0,1.0999999999999999,-0.5235987755982988,0.0,0,-0.64161533,-0.041368138,1.1506556,0.63536566,0.9756474,0.59593475,0.24250251,-0.6338138,1.3531337,0.26127207,-0.09521152,-0.12636264,1.3898917,-0.3359716
-0.2,0.0,1.0999999999999999,-0.5235987755982988,0.0,0,-0.64369684,-0.039918616,1.1484896,0.63561565,0.9804752,0.59486645,0.241095,-0.7168766,1.4604083,0.067380406,-0.09368763,-0.042730507,1.3081033,-0.21470281
-0.2,0.0,1.0999999999999999,-0.5235987755982988,0.0,0,-0.641468,-0.04219918,1.1515847,0.6357711,0.98686266,0.5953791,0.24353418,-0.7217776,1.1168294,0.06453994,0.0024255917,-0.18153813,1.2926298,0.70017254
-0.2,0.0,1.0999999999999999,-0.5235987755982988,0.0,0,-0.64114493,-0.03717149,1.1476121,0.6356561,0.97648996,0.5947829,0.22129254,-0.27366143,1.3747258,-0.12803733,-0.104226686,0.019593136,1.2737536,-1.0925316
-0.2,0.0,1.0999999999999999,-0.5235987755982988,0.0,0,-0.64458746,-0.037917987,1.1471126,0.6343174,0.9766443,0.59610516,0.23081997,-0.06928849,1.2358357,0.539077,-0.02658105,-0.022945184,1.321485,-0.78887004
-0.2,0.0,1.0999999999999999,-0.5235987755982988,0.0,0,-0.64055103,-0.040561933,1.1461763,0.6361405,0.9672219,0.59603935,0.24672678,0.13719036,1.2966696,0.52742773,-0.095360726,-0.044221133,1.2802098,0.38479733
-0.2,0.0,1.0999999999999999,-0.5235987755982988,0.0,0,-0.6428861,-0.042544752,1.1487808,0.6370103,0.975991,0.5948023,0.23331255,0.201128,1.3223047,0.09703772,-0.18025906,0.10202107,1.2875146,1.2873896
-0.2,0.0,1.0999999999999999,-0.5235987755982988,0.0,0,-0.6461378,-0.043126762,1.1509268,0.6352023,0.9786642,0.59826094,0.23055673,0.26335108,1.2677878,0.27198267,-0.13320673,0.079602554,1.2189664,-0.22020349
-0.2,0.0,1.0999999999999999,-0.5235987755982988,0.0,0,-0.64255786,-0.03981266,1.1500072,0.6353818,0.972912,0.59520143,0.23064314,-0.05573755,1.3224576,0.48443028,-0.15853065,0.024922842,1.2845801,-0.69920635
-0.2,0.0,1.0999999999999999,-0.5235987755982988,0.0,0,-0.64309174,-0.04074271,1.1493336,0.6352588,0.9837586,0.5940562,0.24095128,-0.84556204,1.3731352,-0.15708627,-0.044048235,0.09027971,1.1608769,-0.15862823
-0.2,0.0,1.0999999999999999,-0.5235987755982988,0.0,0,-0.6446872,-0.040822033,1.1475968,0.6347058,0.9764156,0.59434915,0.23947166,-0.39605683,1.4076389,0.426332,-0.008441983,0.0014485898,1.3180413,1.0106342
-0.2,0.0,1.0999999999999999,-0.5235987755982988,0.0,0,-0.640761,-0.041530214,1.1510448,0.6342581,0.977818,0.59499395,0.22743213,-0.068584904,1.4597625,0.08469481,-0.046445098,0.049321797,1.2798101,0.06217796
-0.2,0.0,1.0999999999999999,-0.5235987755982988,0.0,0,-0.6468128,-0.041634135,1.1516081,0.6357231,0.9766847,0.5981964,0.2320542,-0.413436,1.2792538,0.24143027,-0.07601697,-0.07393314,1.2641976,0.7824201
-0.2,0.0,1.0999999999999999,-0.5235987755982988,0.0,0,-0.6430023,-0.040529195,1.150294,0.63434094,0.9820565,0.59761,0.22185472,-0.829737,1.3211687,0.20841537,-0.13071781,0.21697098,1.1781431,-0.66005856
-0.2,0.0,1.0999999999999999,-0.5235987755982988,0.0,0,-0.6383711,-0.040743444,1.148893,0.6354061,0.9741829,0.5948218,0.21786475,-0.1961422,1.1556457,0.23635411,-0.083345376,-0.15989122,1.267916,1.5960947
-0.2,0.0,1.0999999999999999,-0.5235987755982988,0.0,0,-0.63956237,-0.040251248,1.1471878,0.6361898,0.97551423,0.5942931,0.24492747,0.4349107,1.1290333,0.06288636,0.054401156,-0.230635,1.3536656,0.47909442
-0.2,0.0,1.0999999999999999,-0.5235987755982988,0.0,0,-0.6461851,-0.04376976,1.1519748,0.6354835,0.9796861,0.59334725,0.22963664,-0.11902433,1.3114915,0.21141204,0.008793745,-0.012587563,1.2342185,0.34054682
-0.2,0.0,1.0999999999999999,-0.5235987755982988,0.0,0,-0.643952,-0.038813807,1.1499717,0.63469094,0.9703429,0.59528375,0.2341983,0.34098333,1.1377283,0.5508742,-0.1198453,-0.23724999,1.310484,0.98262006
-0.2,0.0,1.0999999999999999,-0.5235987755982988,0.0,0,-0.64515626,-0.044624403,1.1486411,0.63633204,0.9746455,0.5963488,0.2338637,-0.21213342,1.3768872,-0.3614092,-0.044177063,-0.07981584,1.1261351,0.25424084
-0.2,0.0,1.0999999999999999,-0.5235987755982988,0.0,0,-0.64483076,-0.043857634,1.1502461,0.6342604,0.98070407,0.59278315,0.25803462,-0.40034816,1.3285269,-0.08291565,0.026640672,-0.04642588,1.1640632,-0.45527107
-0.2,0.0,1.0999999999999999,-0.5235987755982988,0.0,0,-0.6454175,-0.04390447,1.148876,0.63511,0.9771795,0.59684145,0.23750319,-0.7981366,1.3399057,0.39151198,-0.10521815,0.30047145,1.2325273,-1.1004331
-0.2,0.0,1.0999999999999999,-0.5235987755982988,0.0,0,-0.6418295,-0.04107162,1.1507025,0.6348496,0.97729886,0.5954711,0.23587061,-0.13878252,1.3098087,0.5600403,-0.12098891,0.10181115,1.3124746,-0.16043493
-0.2,0.0,1.0999999999999999,-0.5235987755982988,0.0,0,-0.6422612,-0.04192463,1.1507967,0.63578695,0.98082554,0.59677076,0.23119374,-0.6649966,1.2846521,0.29036644,-0.03583377,-0.26108354,1.2251111,1.2446501
-0.2,0.0,1.0999999999999999,-0.5235987755982988,0.0,0,-0.64437217,-0.042109814,1.1494832,0.6347118,0.98153144,0.59600073,0.2352021,0.13936305,1.3843709,0.09625103,0.06328426,0.1013071,1.3191836,-0.025967088
-0.2,0.0,1.0999999999999999,-0.5235987755982988,0.0,0,-0.64234906,-0.0425165,1.1485202,0.6356858,0.98227,0.59636986,0.24508558,-0.044637036,1.4787049,0.6773269,-0.18370897,0.16935244,1.2169528,0.06472723
-0.2,0.0,1.0999999999999999,-0.5235987755982988,0.0,0,-0.6452426,-0.040046867,1.1491325,0.63619566,0.98254496,0.59683585,0.23600963,0.7105196,1.26708,0.07778643,-0.11754085,-0.06808852,1.1547272,0.031598166
-0.2,0.0,1.0999999999999999,-0.5235987755982988,0.0,0,-0.63982964,-0.04128409,1.1488526,0.6351765,0.9751936,0.5947873,0.24647607,0.09670051,1.366271,0.26564455,0.0357056,-0.0648873,1.0800912,1.9365106
-0.2,0.0,1.0999999999999999,-0.5235987755982988,0.0,0,-0.6450271,-0.039544795,1.1533588,0.63442934,0.9793919,0.5963006,0.23167945,-0.18285662,1.1870506,0.36820275,-0.11099572,-0.07867651,1.3601099,0.16558258
-0.2,0.0,1.0999999999999999,-0.5235987755982988,0.0,0,-0.64949495,-0.041285835,1.148813,0.6344339,0.98028165,0.59285605,0.20796329,0.1401679,1.1434366,0.051236346,-0.078745976,-0.05750633,1.2627969,-2.0276127
-0.2,0.0,1.0999999999999999,-0.5235987755982988,0.0,0,-0.6485839,-0.04144386,1.1450987,0.63596654,0.9787535,0.59366786,0.24164934,0.011453526,1.0984752,0.13389498,-0.024393793,-0.08464915,1.3120096,-0.3937363
-0.2,0.0,1.0999999999999999,-0.5235987755982988,0.0,0,-0.64849293,-0.040042695,1.1484325,0.6346209,0.9750688,0.5927771,0.21884605,-0.14919922,1.4255424,0.4012568,-0.040195193,-0.07643437,1.2068928,-1.3058642
-0.2,0.0,1.0999999999999999,-0.5235987755982988,0.0,0,-0.6483617,-0.03883584,1.1441811,0.63518125,0.98851675,0.59193057,0.2289139,0.1950081,1.335631,0.27247065,-0.0857476,-0.062233344,1.1177938,2.7648854
-0.2,0.0,1.0999999999999999,-0.5235987755982988,0.0,0,-0.64550483,-0.046880063,1.1470003,0.6339559,0.98166436,0.5932578,0.21845657,0.080340736,1.1764601,0.4309146,-0.10554191,-0.11838006,1.2314606,-0.21710828
-0.2,0.0,1.0999999999999999,-0.5235987755982988,0.0,0,-0.64935756,-0.043389086,1.1478208,0.6361741,0.9819073,0.59435797,0.22151347,-0.71150506,1.1209902,0.21242298,-0.02442995,-0.061782975,1.2057377,0.31710166
-0.2,0.0,1.0999999999999999,-0.5235987755982988,0.0,0,-0.6453383,-0.035832636,1.1446383,0.6358898,0.98451376,0.5949236,0.2115949,-0.85562474,1.2257105,0.64475304,-0.008275386,-0.21597068,1.1855721,-0.9474008
-0.2,0.0,1.0999999999999999,-0.5235987755982988,0.0,0,-0.6433235,-0.04246569,1.145854,0.6364508,0.9744693,0.5926418,0.22090043,0.3140899,1.265763,0.5518606,-0.19745491,-0.26880828,1.2792908,0.2316033
-0.2,0.0,1.0999999999999999,-0.5235987755982988,0.0,0,-0.64974767,-0.044520587,1.1481528,0.6369376,0.97707134,0.59081423,0.24050766,-0.15972261,1.219289,0.5091441,-0.088081434,0.05895002,1.2257314,0.9972535
-0.2,0.0,1.0999999999999999,-0.5235987755982988,0.0,0,-0.64894164,-0.04178941,1.147849,0.63679487,0.9857773,0.59330684,0.21859631,-0.2943446,1.2626092,0.2565595,-0.06613657,-0.24607682,1.1536452,-1.0321847
-0.2,0.0,1.0999999999999999,-0.5235987755982988,0.0,0,-0.64643425,-0.04140797,1.1473,0.63605756,0.97593355,0.59257793,0.22791052,-0.032429926,1.2287565,0.3976351,-0.12456349,0.08335211,1.2790092,-1.0297507
-0.2,0.0,1.0999999999999999,-0.5235987755982988,0.0,0,-0.64682394,-0.04150719,1.1493226,0.63532233,0.9774345,0.5939177,0.21873145,0.056804128,1.3296324,0.6379417,-0.09147086,0.031620596,1.1990235,0.82319
-0.2,0.0,1.0999999999999999,-0.5235987755982988,0.0,0,-0.6447116,-0.043668516,1.1478579,0.63532275,0.973168,0.5963836,0.21125384,-0.26854947,1.314629,-0.42354932,-0.069098994,0.091369085,1.229702,0.12397774
-0.2,0.0,1.0999999999999999,-0.5235987755982988,0.0,0,-0.64690936,-0.041356057,1.1498817,0.63371617,0.9752224,0.5944556,0.22171499,-0.29933587,1.3145189,0.12161807,0.033783488,-0.11974342,1.2793841,1.3848802
-0.2,0.0,1.0999999999999999,-0.5235987755982988,0.0,0,-0.6465876,-0.0426836,1.1476519,0.6348008,0.9725601,0.59414184,0.23638527,-0.40038532,1.1646357,-0.14805093,-0.12098559,0.028039433,1.4491873,0.6545177
-0.2,0.0,1.0999999999999999,-0.5235987755982988,0.0,0,-0.646473,-0.037872173,1.1469133,0.6344672,0.9721294,0.594146,0.23784353,-0.16631101,1.3489485,0.098061725,-0.038312122,-0.32941273,1.2076776,-0.33353582
-0.2,0.0,1.0999999999999999,-0.5235987755982988,0.0,0,-0.64502317,-0.043939486,1.1483737,0.6334488,0.9815807,0.594967,0.21479662,-0.7972302,1.1227006,0.09808171,-0.105928816,0.18707469,1.1582762,2.2480187
-0.2,0.0,1.0999999999999999,-0.5235987755982988,0.0,0,-0.64867693,-0.04426763,1.148257,0.6360245,0.9819013,0.5960989,0.22366145,0.010428895,1.3733922,0.3321338,-0.1442383,0.013109297,1.2506635,-0.3046756
-0.2,0.0,1.0999999999999999,-0.5235987755982988,0.0,0,-0.64508235,-0.043355167,1.1454693,0.63505137,0.9819144,0.593211,0.23194024,-0.17411768,1.165456,-0.11616634,-0.12357817,-0.12978145,1.3568547,0.5528968
-0.2,0.0,1.0999999999999999,-0.5235987755982988,0.0,0,-0.6466763,-0.042819086,1.1488378,0.6360914,0.97773933,0.5940912,0.22260454,0.055173904,1.2716258,0.18867949,-0.09515883,-0.17270583,1.2408906,0.17888664
-0.2,0.0,1.0999999999999999,-0.5235987755982988,0.0,0,-0.6418052,-0.04104553,1.1459953,0.6348203,0.969908,0.59322184,0.22704104,-0.583633,1.2605374,-0.016219396,-0.024325658,-0.045800313,1.2660846,-1.0918658
-0.2,0.0,1.0999999999999999,-0.5235987755982988,0.0,0,-0.6444207,-0.038522474,1.1469859,0.635362,0.9739727,0.59549195,0.22472028,-0.53816575,1.2418765,0.8349993,0.02128805,0.0318062,1.35907,0.56542224
-0.2,0.0,1.0999999999999999,-0.5235987755982988,0.0,0,-0.6463088,-0.04361186,1.1457571,0.6370583,0.9806369,0.5961456,0.22714093,-0.50710654,1.2885389,0.33381727,-0.02313647,-0.21146426,1.1895516,0.25513205
-0.2,0.0,1.0999999999999999,-0.5235987755982988,0.0,0,-0.64368993,-0.03971436,1.1480519,0.63632935,0.97154087,0.5941498,0.22014375,0.13032009,1.3221799,0.8331601,-0.058963966,-0.11397083,1.2644984,0.4306506
-0.2,0.0,1.0999999999999999,-0.5235987755982988,0.0,0,-0.6450009,-0.03881415,1.1486195,0.6346083,0.97841454,0.59198105,0.2249008,-0.7611715,1.3727916,0.5100121,-0.063438654,0.21224588,1.3210428,-0.93331873
-0.2,0.0,1.0999999999999999,-0.5235987755982988,0.0,0,-0.64538103,-0.04179699,1.1463062,0.6357634,0.97683465,0.59320545,0.23606212,0.014467855,1.2801945,0.18736076,0.016827064,-0.13208106,1.2170169,-0.55703187
-0.2,0.0,1.0999999999999999,-0.5235987755982988,0.0,0,-0.6449481,-0.040157862,1.1482216,0.63384914,0.97583276,0.59522516,0.22313963,-1.0975586,1.2210436,0.46824262,-0.018731186,-0.062240023,1.3144538,0.920666
-0.2,0.0,1.0999999999999999,-0.5235987755982988,0.0,0,-0.64744097,-0.043651316,1.1492887,0.6361489,0.9805298,0.59228396,0.23250552,-0.56029314,1.2011559,0.26102903,-0.10448723,0.05478679,1.2095909,0.7447824
-0.2,0.0,1.0999999999999999,-0.5235987755982988,0.0,0,-0.6466982,-0.043091156,1.1482909,0.6349775,0.98451424,0.59408396,0.24851362,-0.0062249787,1.1767223,0.36445504,-0.18762393,-0.15927579,1.1722108,1.250939
-0.2,0.0,1.0999999999999999,-0.5235987755982988,0.0,0,-0.6431504,-0.043057285,1.1478637,0.6347294,0.97069865,0.5954079,0.22445937,-0.06358656,1.24264,-0.1853851,-0.19080701,0.064269565,1.3066127,-0.25211215
-0.2,0.0,1.0999999999999999,-0.5235987755982988,0.0,0,-0.64736444,-0.045156736,1.1499236,0.63499564,0.9837361,0.596892,0.21247397,-0.32791856,1.252212,0.26512477,0.02939704,-0.076917395,1.3180168,-0.08349348
-0.2,0.0,1.0999999999999999,-0.5235987755982988,0.0,0,-0.6494674,-0.041315634,1.1501272,0.6357573,0.97946995,0.5928662,0.23749352,-0.8998911,1.2869607,-0.06300904,-0.17799383,0.057262454,1.2521849,0.69460565
-0.2,0.0,1.0999999999999999,-0.5235987755982988,0.0,0,-0.6470626,-0.039718464,1.1500487,0.63538903,0.98064744,0.5946175,0.21969694,-0.5592409,1.3699635,0.004218578,-0.07826206,-0.036792252,1.252658,0.65892214
-0.2,0.0,1.0999999999999999,-0.5235987755982988,0.0,0,-0.6471733,-0.03794943,1.1512525,0.63645756,0.9830665,0.592111,0.21406801,0.09209029,1.2468781,-0.026607733,-0.121920966,0.038929142,1.3183722,0.40774977
-0.2,0.0,1.0999999999999999,-0.5235987755982988,0.0,0,-0.6418653,-0.041311327,1.1466937,0.63420504,0.9780967,0.59292585,0.22567241,0.22980118,1.2731162,0.609183,-0.035404097,-0.20253499,1.3103826,-0.529832
-0.2,0.0,1.0999999999999999,-0.5235987755982988,0.0,0,-0.6456298,-0.040981468,1.1483133,0.63521165,0.9780123,0.5944892,0.22913677,-0.27027634,1.3290496,-0.018563367,-0.02516216,-0.11021403,1.2786499,-0.54759514
-0.2,0.0,1.0999999999999999,-0.5235987755982988,0.0,0,-0.64422965,-0.04143071,1.1451199,0.63719845,0.98240733,0.595555,0.22585423,0.17276119,1.1670212,-0.12257787,-0.007863159,0.049880877,1.1564219,0.16692518
-0.2,0.0,1.0999999999999999,-0.5235987755982988,0.0,0,-0.6433176,-0.043221246,1.1484363,0.6349515,0.97771394,0.5938494,0.2217489,-0.47931355,1.4313555,0.3477323,-0.06888289,0.076574236,1.258367,0.5843132
-0.2,0.0,1.0999999999999999,-0.5235987755982988,0.0,0,-0.64245397,-0.04253134,1.1455178,0.63425696,0.98433983,0.592697,0.22901222,-0.6228975,1.3665664,0.29092556,-0.15129645,-0.095424905,1.14478,-0.2216181
-0.2,0.0,1.0999999999999999,-0.5235987755982988,0.0,0,-0.6431415,-0.04204849,1.1475252,0.6353056,0.97937065,0.59433293,0.22230041,-0.31103855,1.196038,0.37197822,0.0054883715,-0.14370002,1.3654913,1.7954532
-0.2,0.0,1.0999999999999999,-0.5235987755982988,0.0,0,-0.6443887,-0.043466225,1.1494206,0.63326246,0.98170555,0.59227747,0.22672474,-0.34614345,1.3157988,0.35672468,-0.1408472,-0.10063161,1.2180026,-0.304994
-0.2,0.0,1.0999999999999999,-0.5235987755982988,0.0,0,-0.6459669,-0.040607926,1.1495053,0.6348112,0.98051846,0.5960075,0.21702476,-0.7965457,1.291407,0.028662596,-0.1234648,0.15464129,1.1989661,-0.57152814
-0.2,0.0,1.0999999999999999,-0.5235987755982988,0.0,0,-0.65019405,-0.04082845,1.1491184,0.63658404,0.9817852,0.59454036,0.24025995,-0.8834559,1.4256271,0.35707015,-0.052181058,-0.19548199,1.248148,-0.016700713
-0.2,0.0,1.0999999999999999,-0.5235987755982988,0.0,0,-0.6430489,-0.043627035,1.1458472,0.63591707,0.97441673,0.5948934,0.23563778,-0.7033842,1.3674626,0.44506726,-0.053780902,0.010050167,1.2344928,-1.889203
-0.2,0.0,1.0999999999999999,-0.5235987755982988,0.0,0,-0.6455737,-0.043783277,1.1478738,0.63532007,0.9822266,0.59296805,0.23570737,-0.53158784,1.3839587,0.02482261,-0.0926013,-0.20849425,1.345332,0.2556888
-0.2,0.0,1.0999999999999999,-0.5235987755982988,0.0,0,-0.6482826,-0.041793466,1.1498307,0.63689077,0.9821728,0.5971137,0.22221571,-0.05644235,1.3622173,0.13368626,-0.07023018,0.13393307,1.4157157,-1.1192709
-0.2,0.0,1.0999999999999999,-0.5235987755982988,0.0,0,-0.64570993,-0.040775876,1.1485593,0.63462305,0.98038816,0.5946159,0.23137586,-0.4041228,1.3013706,0.36377957,-0.07963873,-0.15385267,1.267616,0.90780413
-0.2,0.0,1.0999999999999999,-0.5235987755982988,0.0,0,-0.64501923,-0.041730862,1.1479828,0.6352886,0.97970194,0.5936522,0.23541209,-0.062195532,1.1730821,-0.3922512,-0.048404854,-0.15656321,1.2356002,0.014788829
-0.2,0.0,1.0999999999999999,-0.5235987755982988,0.0,0,-0.64586043,-0.043400913,1.1494045,0.6340074,0.9808526,0.5948066,0.23023221,-0.20935686,1.2401754,0.48715743,-0.06799394,0.13442896,1.3296838,-0.045596752
-0.2,0.0,1.0999999999999999,-0.5235987755982988,0.0,0,-0.643897,-0.03922712,1.1478131,0.6345949,0.98665166,0.5922376,0.22513492,0.14514099,1.4160335,0.3201397,0.04479678,0.039865114,1.313611,-1.6898894
-0.2,0.0,1.0999999999999999,-0.5235987755982988,0.0,0,-0.64486897,-0.042906083,1.1488203,0.6340924,0.98069215,0.5959827,0.22235036,-0.17336276,1.2990817,0.04246728,-0.1486777,0.15657158,1.2814308,-0.4146018
-0.2,0.0,1.0999999999999999,-0.5235987755982988,0.0,0,-0.6449889,-0.040083453,1.148815,0.636079,0.98165375,0.59499365,0.21879844,-0.43243468,1.2874801,0.38516596,-0.1368548,0.026907034,1.3188592,0.6773096
-0.2,0.0,1.0999999999999999,-0.5235987755982988,0.0,0,-0.64481366,-0.040402398,1.1482103,0.63596916,0.97929585,0.5942191,0.22758327,-0.53031707,1.2785786,-0.09763614,-0.10518013,-0.022055978,1.24757,-0.5672108
-0.2,0.0,1.0999999999999999,-0.5235987755982988,0.0,0,-0.64837533,-0.046512283,1.1496338,0.63251793,0.9885587,0.5929641,0.23841229,-0.17612627,1.2246144,0.25809214,-0.15055613,-0.11857448,1.2958286,-0.4895987
-0.2,0.0,1.0999999999999999,-0.5235987755982988,0.0,0,-0.6436856,-0.04519206,1.1495191,0.635656,0.9768698,0.59204865,0.23736979,-0.42077735,1.5565134,-0.10490244,-0.14564705,-0.08897142,1.4372281,-0.73278356
-0.2,0.0,1.0999999999999999,-0.5235987755982988,0.0,0,-0.6442056,-0.04209702,1.1487653,0.63525367,0.97986597,0.59409267,0.22777295,-0.32343426,1.3264806,0.48081255,-0.07694935,0.13941026,1.1597854,-0.18957923
-0.2,0.0,1.0999999999999999,-0.5235987755982988,0.0,0,-0.6427643,-0.03849836,1.1472359,0.6331505,0.9766375,0.5944929,0.23338783,0.27278695,1.2673093,0.46798873,-0.12099633,-0.22533315,1.3585631,-0.1434523
-0.2,0.0,1.0999999999999999,-0.5235987755982988,0.0,0,-0.6431794,-0.04012916,1.148337,0.63565207,0.97319627,0.5918899,0.23922561,-0.5768344,1.2343357,0.30600774,-0.048001286,0.1790047,1.2050883,1.5325105
-0.2,0.0,1.0999999999999999,-0.5235987755982988,0.0,0,-0.64463204,-0.03837906,1.149484,0.63565636,0.9768074,0.59366244,0.22845885,0.110853024,1.2409194,0.42694554,-0.115952745,-0.055254646,1.2230906,-1.0198035
-0.2,0.0,1.0999999999999999,-0.5235987755982988,0.0,0,-0.64195746,-0.042366847,1.1467254,0.63610107,0.9747226,0.5967459,0.22411434,-0.59486306,1.3065085,-0.21227562,-0.2222322,0.027787086,1.196432,-0.16974047
-0.2,0.0,1.0999999999999999,-0.5235987755982988,0.0,0,-0.647689,-0.040047992,1.1486815,0.6354089,0.98527324,0.59452236,0.2370491,-0.5384341,1.0697824,0.5852699,-0.04526812,0.033857636,1.3386666,0.29446563
-0.2,0.0,1.0999999999999999,-0.5235987755982988,0.0,0,-0.64905477,-0.040080495,1.1496652,0.63579214,0.98021734,0.5952346,0.23923373,0.3130224,1.2058923,0.17690967,-0.020849496,0.06158244,1.2162691,-0.10673081
-0.2,0.0,1.0999999999999999,-0.5235987755982988,0.0,0,-0.64438826,-0.03755019,1.1498903,0.6360342,0.9755004,0.5946965,0.22135623,-0.42203355,1.3621925,0.06281399,-0.08124805,-0.025968427,1.3847408,-0.5602907
-0.2,0.0,1.0999999999999999,-0.5235987755982988,0.0,0,-0.6449217,-0.034765694,1.147808,0.6345761,0.976323,0.5965249,0.22914661,-0.4585806,1.2195882,0.22573976,-0.1240024,0.09841678,1.2681994,-0.18473485
-0.2,0.0,1.0999999999999999,-0.5235987755982988,0.0,0,-0.64500284,-0.040319778,1.1491189,0.63640195,0.9862414,0.5931309,0.22099425,-0.16577208,1.1846982,-0.047294915,-0.06676596,0.1683698,1.2690327,0.4095258
-0.2,0.0,1.0999999999999999,-0.5235987755982988,0.0,0,-0.6411515,-0.039172318,1.1483212,0.63534826,0.9718251,0.591749,0.23268616,-0.051517222,1.3127477,0.11436005,-0.14087383,-0.105910406,1.2302047,-1.0352225
-0.2,0.0,1.0999999999999999,-0.5235987755982988,0.0,0,-0.6454324,-0.03607388,1.1482974,0.6351616,0.9778679,0.5958424,0.2312588,-0.16499336,1.3963699,-0.017509148,0.011581842,-0.19860631,1.2325859,-0.80192596
-0.2,0.0,1.0999999999999999,-0.5235987755982988,0.0,0,-0.64279646,-0.03621568,1.1463956,0.6364612,0.9843823,0.593089,0.22869438,-0.33256316,1.3986125,0.7518384,-0.206472,0.050774314,1.1629398,-0.5697739
-0.2,0.0,1.0999999999999999,-0.5235987755982988,0.0,0,-0.64605224,-0.037662446,1.148457,0.63545364,0.98310417,0.59632933,0.22852176,-0.39690563,1.2019324,0.19639617,-0.19658321,-0.11890845,1.0650566,-0.49001446
-0.2,0.0,1.0999999999999999,-0.5235987755982988,0.0,0,-0.6415036,-0.038880687,1.1460849,0.6338476,0.97732,0.596859,0.22568314,-0.59461284,1.2811341,0.2668312,-0.09831887,-0.035310667,1.1814928,0.1252164
-0.2,0.0,1.0999999999999999,-0.5235987755982988,0.0,0,-0.6448843,-0.043251753,1.1504266,0.634758,0.98628384,0.5931456,0.22458406,-0.0035064851,1.2403971,0.40952912,-0.19332826,0.009358879,1.2840569,-0.46645328
-0.2,0.0,1.0999999999999999,-0.5235987755982988,0.0,0,-0.6428609,-0.03912402,1.1462455,0.63567936,0.98185056,0.59727657,0.222251,-0.5831342,1.2463537,0.52611476,-0.13986306,0.0023982634,1.2380226,0.024549304
-0.2,0.0,1.0999999999999999,-0.5235987755982988,0.0,0,-0.644635,-0.04180492,1.1480157,0.63524026,0.97683597,0.5922945,0.24716711,0.08164908,1.3385719,0.78985804,-0.069372825,0.13999514,1.1905695,-0.2754514
-0.2,0.0,1.0999999999999999,-0.5235987755982988,0.0,0,-0.64295405,-0.040075425,1.1465719,0.6344865,0.97688293,0.5947774,0.23812857,0.41549185,1.3249846,0.11820722,-0.0755675,-0.15652525,1.2057998,0.11411404
-0.2,0.0,1.0999999999999999,-0.5235987755982988,0.0,0,-0.6418011,-0.042998068,1.1477094,0.6347111,0.9739217,0.59408677,0.24023184,-0.56574893,1.2037889,0.7815324,-0.11834818,0.002227341,1.1648736,-0.33231175
-0.2,0.0,1.0999999999999999,-0.5235987755982988,0.0,0,-0.6451383,-0.041562054,1.1503774,0.63729703,0.9749481,0.5974695,0.22543271,-0.37900764,1.1580626,0.70691186,-0.055169467,-0.009064902,1.2589486,-1.4748454
-0.2,0.0,1.0999999999999999,-0.5235987755982988,0.0,0,-0.6462724,-0.03974615,1.1499072,0.6345989,0.97919893,0.5939655,0.2352672,-0.32753393,1.3464209,-0.30112326,-0.09190672,-0.013168396,1.2716494,0.37678593
-0.2,0.0,1.0999999999999999,-0.5235987755982988,0.0,0,-0.6440278,-0.045230873,1.1470962,0.63442165,0.9797894,0.59531915,0.2401018,-0.4397347,1.308932,0.49360338,-0.032403782,0.13583817,1.3535671,-0.90521735
-0.2,0.0,1.0999999999999999,-0.5235987755982988,0.0,0,-0.64364487,-0.043022368,1.1505086,0.6365046,0.9767708,0.59168094,0.23130292,-0.35561138,1.2459329,-0.027745394,-0.034008764,0.081001304,1.325845,1.5637347
-0.2,0.0,1.0999999999999999,-0.5235987755982988,0.0,0,-0.64248025,-0.040710844,1.1495769,0.6333304,0.97654927,0.59537613,0.2215752,-0.29169503,1.2603518,-0.28933704,-0.09885359,-0.18598925,1.3361568,0.12502782
-0.2,0.0,1.0999999999999999,-0.5235987755982988,0.0,0,-0.64827156,-0.04285592,1.150066,0.6361363,0.9776315,0.5941126,0.24591233,-0.4431186,1.2707599,-0.08574594,-0.11217384,0.10221252,1.286079,-1.7671996
-0.2,0.0,1.0999999999999999,-0.5235987755982988,0.0,0,-0.64206195,-0.038903363,1.1483641,0.63404626,0.9753465,0.5944279,0.2305102,-0.23263414,1.403411,0.39280438,0.031971805,0.038788497,1.3050605,1.1583226
-0.2,0.0,1.0999999999999999,-0.5235987755982988,0.0,0,-0.64861697,-0.042100504,1.1491667,0.6346551,0.97493064,0.5981276,0.24604452,-0.5187151,1.3330401,-0.24527395,-0.17919964,-0.073077485,1.2794713,-0.27623692
-0.2,0.0,1.0999999999999999,-0.5235987755982988,0.0,0,-0.6428747,-0.04380908,1.150002,0.6362207,0.97944206,0.59236634,0.22887579,0.102945305,1.176388,0.5576192,-0.06518028,0.030790318,1.3477021,0.039072536
-0.2,0.0,1.0999999999999999,-0.5235987755982988,0.0,0,-0.64185596,-0.04206899,1.1488454,0.6340741,0.9731746,0.5955058,0.23136845,-0.12661736,1.253724,-0.043313198,0.10675744,-0.101088166,1.185867,-0.27508655
-0.2,0.0,1.0999999999999999,-0.5235987755982988,0.0,0,-0.6423394,-0.038499415,1.1506014,0.63419735,0.97358733,0.5936333,0.22609918,0.05935347,1.276111,0.5034888,-0.030883836,-0.13362014,1.2925628,0.5179143
-0.2,0.0,1.0999999999999999,-0.5235987755982988,0.0,0,-0.64258784,-0.04080006,1.1494104,0.635913,0.9743152,0.59538364,0.22214119,-0.30980614,1.3850161,0.2610516,0.00929097,0.08049495,1.2069565,-0.70486
-0.2,0.0,1.0999999999999999,-0.5235987755982988,0.0,0,-0.64635986,-0.039711136,1.150506,0.6348513,0.9812303,0.5943323,0.23137708,0.4966227,1.3385525,0.0027494866,-0.07383839,-0.13571575,1.3170003,-1.3692759
-0.2,0.0,1.0999999999999999,-0.5235987755982988,0.0,0,-0.6443284,-0.042183515,1.149339,0.6360369,0.9724103,0.5962954,0.2372894,-0.5356615,1.5347053,0.46622708,-0.0937753,-0.2863317,1.2317497,1.4481242
-0.2,0.0,1.0999999999999999,-0.5235987755982988,0.0,0,-0.64624727,-0.035092205,1.14484,0.63544065,0.9851792,0.59672326,0.24252541,-0.4705701,1.3647026,0.32077837,-0.1640577,0.08035911,1.1455595,-1.2059418
-0.2,0.0,1.0999999999999999,-0.5235987755982988,0.0,0,-0.6462001,-0.03769909,1.1493624,0.63470256,0.98500615,0.5933695,0.23385154,0.2390668,1.3382989,0.13049267,-0.10770945,0.102529936,1.295905,1.4176706
-0.2,0.0,1.0999999999999999,-0.5235987755982988,0.0,0,-0.64816886,-0.037408516,1.1471539,0.6343847,0.9859281,0.59722245,0.24303529,-0.34628537,1.1460124,0.40042818,0.010776108,0.081214115,1.3009784,0.26408213
-0.2,0.0,1.0999999999999999,-0.5235987755982988,0.0,0,-0.6449099,-0.042391893,1.1497276,0.6343339,0.97459555,0.59621596,0.23822042,0.18672273,1.2782607,0.34055582,-0.1344226,0.10231172,1.2998801,-0.56361
-0.2,0.0,1.0999999999999999,-0.5235987755982988,0.0,0,-0.64218396,-0.04484871,1.1474648,0.6356516,0.98617196,0.59549385,0.22338253,0.079917416,1.384577,0.43706197,0.0143227875,-0.048121773,1.1465105,-1.206799
-0.2,0.0,1.0999999999999999,-0.5235987755982988,0.0,0,-0.6448805,-0.03612689,1.1481248,0.63449126,0.98363596,0.59729826,0.22438145,0.02284055,1.3741328,0.36941344,-0.12614988,-0.07813702,1.3207752,1.1268748
-0.2,0.0,1.0999999999999999,-0.5235987755982988,0.0,0,-0.6439384,-0.03842026,1.1487479,0.6344519,0.9752515,0.5958745,0.23597802,-0.2271996,1.2558969,0.29770297,0.009301879,0.07232143,1.3176725,0.018977214
-0.2,0.0,1.0999999999999999,-0.5235987755982988,0.0,0,-0.64163554,-0.0424483,1.1470878,0.63536686,0.9768482,0.595019,0.23654036,-0.007878071,1.3248845,0.53993607,0.0051182397,-0.09267697,1.2061472,0.92329234
-0.2,0.0,1.0999999999999999,-0.5235987755982988,0.0,0,-0.64411134,-0.039537296,1.1501554,0.63549644,0.98095465,0.59227276,0.23236328,-0.6918957,1.2557802,0.2735085,-0.10001247,0.17828274,1.1332774,0.531916
-0.2,0.0,1.0999999999999999,-0.5235987755982988,0.0,0,-0.6436336,-0.041378856,1.1495644,0.63484216,0.97628945,0.59615517,0.23084657,-0.064782664,1.2306496,0.45185214,0.024870815,-0.09760022,1.1625057,1.3146102
-0.2,0.0,1.0999999999999999,-0.5235987755982988,0.0,0,-0.6461589,-0.041027583,1.1516026,0.6350883,0.97942376,0.5947333,0.23348302,0.045959998,1.331569,0.16087332,-0.07346154,-0.04359331,1.3197628,-0.87568736
-0.2,0.0,1.0999999999999999,-0.5235987755982988,0.0,0,-0.64296263,-0.0417363,1.150006,0.63721544,0.97664154,0.59434134,0.2289487,-0.7129039,1.3483603,0.09283939,-0.045906175,-0.18110004,1.1456081,-1.7398022
-0.2,0.0,1.0999999999999999,-0.5235987755982988,0.0,0,-0.648187,-0.03686596,1.1530665,0.6356943,0.9786822,0.59799135,0.21590747,-0.63945687,1.4239805,0.05869051,0.012709013,0.07478283,1.1899276,1.1649095
-0.2,0.0,1.0999999999999999,-0.5235987755982988,0.0,0,-0.64164406,-0.039281853,1.1504287,0.63402,0.9685003,0.5940875,0.23547226,-0.21917048,1.4117085,0.19578889,-0.015352573,0.17063278,1.2437675,0.16670348
-0.2,0.0,1.0999999999999999,-0.5235987755982988,0.0,0,-0.6440177,-0.041196365,1.1483388,0.6357692,0.9788785,0.59500605,0.2380139,-0.53816736,1.2988566,0.14003548,-0.07000532,0.14802897,1.2025417,-0.84623355
-0.2,0.0,1.0999999999999999,-0.5235987755982988,0.0,0,-0.6433461,-0.0446965,1.1507225,0.63653195,0.9849458,0.59475243,0.21539812,0.18572415,1.4206536,0.19970037,-0.17646128,0.011516789,1.2580881,-0.40737253
-0.2,0.0,1.0999999999999999,-0.5235987755982988,0.0,0,-0.6432425,-0.04346048,1.1481326,0.63560706,0.98204654,0.5984825,0.22053438,-0.5456012,1.2802489,0.49084798,-0.078133985,0.047003172,1.2992786,0.4012786
-0.2,0.0,1.0999999999999999,-0.5235987755982988,0.0,0,-0.64664567,-0.040434923,1.1535994,0.6367451,0.98307854,0.5948603,0.21531785,-0.43871588,1.1678075,0.1101985,-0.10492437,-0.13360626,1.1838294,0.48282897
-0.2,0.0,1.0999999999999999,-0.5235987755982988,0.0,0,-0.64432126,-0.03961474,1.1492927,0.6353893,0.98581916,0.5968339,0.21921624,-0.34445456,1.3754033,0.03767914,-0.07504994,0.07460363,1.2227435,0.18930142
-0.2,0.0,1.0999999999999999,-0.5235987755982988,0.0,0,-0.64287955,-0.041938704,1.1484212,0.63467175,0.9834296,0.59457254,0.23187356,0.65880644,1.2810897,0.20140707,-0.13919994,0.048065014,1.2351772,-0.20957094
-0.2,0.0,1.0999999999999999,-0.5235987755982988,0.0,0,-0.647389,-0.041200638,1.1530557,0.6350988,0.98085403,0.59561634,0.22749698,0.102645285,1.1926113,0.1086882,-0.098186724,0.21373597,1.2865965,-0.9622252
-0.2,0.0,1.0999999999999999,-0.5235987755982988,0.0,0,-0.64524454,-0.042340484,1.1476759,0.63477075,0.9795371,0.5955376,0.2466659,-0.12035684,1.195985,0.046278387,-0.006187677,0.11243843,1.3283534,-0.39132407
-0.2,0.0,1.0999999999999999,-0.5235987755982988,0.0,0,-0.6450243,-0.042043667,1.1489128,0.6345419,0.9823972,0.59644735,0.23422624,-0.26441574,1.3478247,0.3387736,-0.17092966,-0.048006892,1.222789,-1.1152202
-0.2,0.0,1.0999999999999999,-0.5235987755982988,0.0,0,-0.64074194,-0.040337395,1.1487417,0.63470405,0.9751576,0.59633017,0.22445823,-0.3257979,1.3015856,0.46163714,-0.18020031,-0.049957637,1.1207713,-0.5499839
-0.2,0.0,1.0999999999999999,-0.5235987755982988,0.0,0,-0.64620507,-0.039774295,1.1509098,0.63533944,0.97745776,0.5974376,0.2301679,-0.30708733,1.2938181,0.094723925,-0.15519397,-0.081120744,1.2496201,0.18259226
-0.2,0.0,1.0999999999999999,-0.5235987755982988,0.0,0,-0.64516497,-0.041852694,1.1508553,0.6360942,0.98265064,0.5943102,0.23204762,-0.33800113,1.2199101,0.4187854,0.097469375,0.1265486,1.2505163,-0.3970232
-0.2,0.0,1.0999999999999999,-0.5235987755982988,0.0,0,-0.64409244,-0.04313705,1.1493435,0.6357007,0.98510647,0.59565735,0.22838902,0.49145213,1.196324,0.37526196,-0.07082115,0.009654775,1.2057852,1.1232445
-0.2,0.0,1.0999999999999999,-0.5235987755982988,0.0,0,-0.6428254,-0.0373794,1.149204,0.63488805,0.9842733,0.5957474,0.22888201,-0.47397226,1.3945096,0.26233754,-0.15388633,-0.15417083,1.1850376,0.32157695
-0.2,0.0,1.0999999999999999,-0.5235987755982988,0.0,0,-0.64321184,-0.04233914,1.1506772,0.6345174,0.9791843,0.5957149,0.22960761,-0.01791815,1.333346,0.28800365,-0.18546389,-0.26433045,1.2504655,1.6381525
-0.2,0.0,1.0999999999999999,-0.5235987755982988,0.0,0,-0.6428539,-0.039558187,1.1529405,0.63511384,0.9775756,0.5932378,0.22996317,-0.2841276,1.3838686,0.09117637,-0.19624875,0.03061303,1.1894569,0.92362446
-0.2,0.0,1.0999999999999999,-0.5235987755982988,0.0,0,-0.6422744,-0.041528787,1.1486738,0.6366308,0.98240936,0.59531254,0.23326068,-0.71121854,1.4165651,0.5146678,-0.17710876,-0.05526473,1.4060607,1.4535831
-0.2,0.0,1.0999999999999999,-0.5235987755982988,0.0,0,-0.6397081,-0.043561067,1.1519881,0.6349679,0.9696295,0.59411514,0.22765629,-1.0975325,1.0891722,0.30011967,-0.17882827,-0.014553655,1.3035586,-0.24015029
-0.2,0.0,1.0999999999999999,-0.5235987755982988,0.0,0,-0.6394721,-0.04272183,1.1464502,0.636857,0.9865942,0.59600675,0.22187777,-0.2478244,1.3437994,-0.03827099,-0.051269326,-0.055370715,1.3113904,-1.572313
-0.2,0.0,1.0999999999999999,-0.5235987755982988,0.0,0,-0.639523,-0.04713494,1.149307,0.6367087,0.9761191,0.59490573,0.22971483,-0.008758287,1.321513,-0.07053942,-0.07357978,-0.047242295,1.0161538,1.9842649
-0.2,0.0,1.0999999999999999,-0.5235987755982988,0.0,0,-0.640714,-0.045585886,1.1477968,0.6345187,0.9764951,0.5925686,0.24928516,-0.19596924,1.2931644,0.22435494,-0.04552279,-0.055224728,1.2278782,1.7127216
-0.2,0.0,1.0999999999999999,-0.5235987755982988,0.0,0,-0.64363915,-0.039025422,1.1523503,0.63682747,0.9753322,0.593745,0.23709205,-0.34002152,1.3136462,0.25730714,-0.11156778,0.16406803,1.2692556,0.3817423
-0.2,0.0,1.0999999999999999,-0.5235987755982988,0.0,0,-0.6430205,-0.04135311,1.1494651,0.63642836,0.9794199,0.5966703,0.23254676,-0.019916257,1.3253809,0.23396184,-0.12463956,0.33079928,1.3604704,0.27267262
-0.2,0.0,1.0999999999999999,-0.5235987755982988,0.0,0,-0.64369535,-0.042907953,1.1508819,0.6349916,0.97877806,0.599655,0.22516775,-0.18350384,1.2974477,0.0239096,-0.036256857,-0.019101642,1.2277122,0.2660607
-0.2,0.0,1.0999999999999999,-0.5235987755982988,0.0,0,-0.6443321,-0.038507998,1.1500033,0.63366485,0.98005384,0.593441,0.2525024,-0.086965606,1.4091523,0.05283677,-0.011535235,-0.2277672,1.3529925,-0.7883934
-0.2,0.0,1.0999999999999999,-0.5235987755982988,0.0,0,-0.6446749,-0.043445416,1.1528293,0.63634706,0.978363,0.59644556,0.24158974,-0.0012244234,1.1818366,0.31427008,-0.017844755,-0.106228836,1.243774,-1.6221981
-0.2,0.0,1.0999999999999999,-0.5235987755982988,0.0,0,-0.6460178,-0.041298367,1.143967,0.63581145,0.9795629,0.5936256,0.21503523,-0.5944121,1.3729186,0.36864194,-0.15803733,0.019244527,1.2691772,1.298567
-0.2,0.0,1.0999999999999999,-0.5235987755982988,0.0,0,-0.6424753,-0.04596829,1.150133,0.6352295,0.9870637,0.5993784,0.23833396,0.7327287,1.3148851,0.25214309,-0.07350768,0.0450364,1.2010297,0.28001174
-0.2,0.0,1.0999999999999999,-0.5235987755982988,0.0,0,-0.6483824,-0.04142728,1.1494708,0.633214,0.9766741,0.59559613,0.24326077,-0.16994153,1.4494917,0.44350764,-0.23558977,-0.16149424,1.2730186,0.16721183
-0.2,0.0,1.0999999999999999,-0.5235987755982988,0.0,0,-0.6481582,-0.04261629,1.1500392,0.6341799,0.97572434,0.5952159,0.22388199,-0.46666726,1.377039,0.088394634,-0.055789858,-0.071496546,1.2426076,0.7864444
-0.2,0.0,1.0999999999999999,-0.5235987755982988,0.0,0,-0.6462889,-0.040385827,1.150165,0.6345727,0.9779586,0.594036,0.24083625,-0.6923948,1.3037382,-0.24598058,-0.07046847,0.23193564,1.2557923,0.017010929
-0.2,0.0,1.0999999999999999,-0.5235987755982988,0.0,0,-0.6487892,-0.03850445,1.1479396,0.6359569,0.97811615,0.59709895,0.23683007,-0.37789202,1.251348,0.34969878,-0.24971078,0.007332389,1.2878093,-0.48561946
-0.2,0.0,1.0999999999999999,-0.5235987755982988,0.0,0,-0.64127743,-0.0355889,1.1494849,0.63484,0.97239614,0.5941384,0.23065871,-0.30835146,1.2884337,0.28764883,-0.05407728,0.27447543,1.2681497,-0.032677233
-0.2,0.0,1.0999999999999999,-0.5235987755982988,0.0,0,-0.64460135,-0.041520115,1.1490878,0.6368734,0.98168135,0.5920377,0.22116171,-0.5864563,1.2479284,0.59560746,-0.13136622,-0.010776125,1.2946717,-0.7016202
-0.2,0.0,1.0999999999999999,-0.5235987755982988,0.0,0,-0.64722383,-0.038744252,1.1490732,0.63759387,0.97761524,0.59781915,0.2405524,0.33376572,1.2590679,0.8901319,-0.11535942,-0.14389864,1.3971559,-2.3298793
-0.2,0.0,1.0999999999999999,-0.5235987755982988,0.0,0,-0.642253,-0.04408043,1.144405,0.6360022,0.97971976,0.5977191,0.23268469,-0.14326599,1.2692473,0.36874762,-0.16657443,-0.24576597,1.2397349,-0.0832646
-0.2,0.0,1.0999999999999999,-0.5235987755982988,0.0,0,-0.6425428,-0.043320727,1.1476369,0.6354717,0.97763544,0.5971486,0.22465283,-0.19808194,1.3192253,0.14763168,-0.0026243096,-0.03403264,1.3573332,-0.435891
-0.2,0.0,1.0999999999999999,-0.5235987755982988,0.0,0,-0.64795154,-0.044896092,1.1499468,0.63520014,0.97938025,0.5974041,0.23478848,-0.31529117,1.1694868,-0.15908681,-0.08461171,0.20192334,1.3189269,0.715285
-0.2,0.0,1.0999999999999999,-0.5235987755982988,0.0,0,-0.64531165,-0.04221789,1.1470091,0.6362236,0.9755442,0.5931174,0.23039407,-0.5976539,1.3117042,0.3019047,-0.1121618,-0.023600169,1.2331436,-0.34537876
-0.2,0.0,1.0999999999999999,-0.5235987755982988,0.0,0,-0.64890695,-0.04164022,1.1517315,0.6368174,0.97888464,0.5944965,0.24234423,-0.9332952,1.312034,0.12963031,-0.002165314,0.09374634,1.2134062,-0.39519694
-0.2,0.0,1.0999999999999999,-0.5235987755982988,0.0,0,-0.64215195,-0.04527854,1.1490288,0.6347188,0.9873811,0.59286255,0.22289233,-0.45920432,1.204792,0.13535528,-0.124176465,0.040568322,1.2969209,0.8460728
-0.2,0.0,1.0999999999999999,-0.5235987755982988,0.0,0,-0.6447748,-0.038926058,1.1472996,0.6353359,0.98684883,0.59592766,0.23594378,-0.19530274,1.292514,0.27160668,-0.0022662778,-0.04147194,1.2696657,-0.46875566
-0.2,0.0,1.0999999999999999,-0.5235987755982988,0.0,0,-0.6391826,-0.0385004,1.1481314,0.6366056,0.97730964,0.5925168,0.24057215,0.039034802,1.2442328,0.40692264,-0.035737522,-0.07597624,1.3473715,0.098950565
-0.2,0.0,1.0999999999999999,-0.5235987755982988,0.0,0,-0.64510244,-0.041675255,1.1516734,0.63531864,0.9777506,0.59473383,0.22795998,-1.197297,1.2761414,0.11272498,-0.111494675,0.26889768,1.1991812,-0.3156873
-0.2,0.0,1.0999999999999999,-0.5235987755982988,0.0,0,-0.64635444,-0.040582273,1.1513557,0.6348985,0.9775896,0.59655696,0.23064257,0.80461365,1.229004,-0.24618962,-0.061484102,-0.15997443,1.3355747,0.22210035
-0.2,0.0,1.0999999999999999,-0.5235987755982988,0.0,0,-0.64391667,-0.040346414,1.1501215,0.6355961,0.97796816,0.5952437,0.22928569,-0.35436475,1.3506495,0.21453126,-0.021197528,0.2239017,1.2757658,1.587366
-0.2,0.0,1.0999999999999999,-0.5235987755982988,0.0,0,-0.643359,-0.038337838,1.1478642,0.6358205,0.98330414,0.5960646,0.2279295,-0.4945596,1.1917074,0.2628978,-0.032529633,0.118435994,1.2691239,-0.6267623
-0.2,0.0,1.0999999999999999,-0.5235987755982988,0.0,0,-0.6435846,-0.040019915,1.1513622,0.6357506,0.9843293,0.59205014,0.22539869,0.25664192,1.36238,0.16014785,-0.05841155,0.12985462,1.3108692,-0.68246853
-0.2,0.0,1.0999999999999999,-0.5235987755982988,0.0,0,-0.64315605,-0.040648557,1.1528436,0.6348329,0.9718132,0.59735125,0.24429007,0.89910597,1.2294513,0.11260649,-0.16092315,0.10184846,1.3842103,0.3128116
-0.2,0.0,1.0999999999999999,-0.5235987755982988,0.0,0,-0.6439526,-0.046724897,1.151081,0.63500094,0.9830707,0.5959468,0.23613256,0.1640412,1.280696,0.15302198,-0.007838847,0.01975683,1.1244231,0.4435953
-0.2,0.0,1.0999999999999999,-0.5235987755982988,0.0,0,-0.64278805,-0.042135186,1.150582,0.6354729,0.97714365,0.596474,0.24046491,0.017600046,1.4631631,-0.05119439,-0.017312054,-0.009615324,1.157882,-0.9605062
-0.2,0.0,1.0999999999999999,-0.5235987755982988,0.0,0,-0.64536715,-0.039308123,1.1459948,0.6347627,0.97807944,0.59358466,0.20657103,-0.72254044,1.4006648,0.5727229,-0.060642865,0.021223798,1.2990048,-0.9509768
-0.2,0.0,1.0999999999999999,-0.5235987755982988,0.0,0,-0.64855474,-0.03681082,1.1462123,0.63643956,0.97214395,0.59400415,0.22234683,-0.11719762,1.3221486,-0.002914588,-0.111185774,-0.041201767,1.2892396,0.51334393
-0.2,0.0,1.0999999999999999,-0.5235987755982988,0.0,0,-0.648891,-0.04106624,1.1483992,0.6360792,0.97462773,0.5952111,0.21424009,0.3750144,1.3749956,-0.061494023,-0.09551226,-0.07030594,1.3155706,-1.5821719
-0.2,0.0,1.0999999999999999,-0.5235987755982988,0.0,0,-0.64654636,-0.041199718,1.148127,0.6349944,0.97341424,0.5938344,0.21487778,-0.16109149,1.3170503,0.3395545,-0.15853803,0.056637157,1.1897895,0.856759
-0.2,0.0,1.0999999999999999,-0.5235987755982988,0.0,0,-0.6453657,-0.041844446,1.1476637,0.6338317,0.981359,0.5923103,0.21088733,-0.019784922,1.3765305,-0.028542759,0.019805644,-0.029342042,1.375954,-1.7388967
-0.2,0.0,1.0999999999999999,-0.5235987755982988,0.0,0,-0.647356,-0.039340753,1.146772,0.6365879,0.9736772,0.5944906,0.22118774,-0.3670005,1.2806326,0.0710597,-0.06288606,-0.23870301,1.2466797,0.8413912
-0.2,0.0,1.0999999999999999,-0.5235987755982988,0.0,0,-0.6454915,-0.0430104,1.1471845,0.6343513,0.97388285,0.59447217,0.22414319,-0.01960653,1.4444412,-0.16636905,-0.09082886,-0.25324416,1.2684367,0.22228955
-0.2,0.0,1.0999999999999999,-0.5235987755982988,0.0,0,-0.6469763,-0.045553103,1.148696,0.63345253,0.97894573,0.59247154,0.23228863,0.28816274,1.2678881,-0.08791939,-0.19392903,-0.41567272,1.244924,0.22453475
-0.2,0.0,1.0999999999999999,-0.5235987755982988,0.0,0,-0.6463869,-0.041301075,1.1487907,0.63602066,0.97604924,0.59533876,0.21233688,-0.33971056,1.3397071,0.3067562,0.026922017,-0.25936434,1.1976722,0.7381329
-0.2,0.0,1.0999999999999999,-0.5235987755982988,0.0,0,-0.6459627,-0.04556851,1.1504704,0.63513964,0.98018265,0.5916735,0.21337926,-0.3958487,1.3154956,0.26657572,-0.15871799,0.030177038,1.3118138,-0.9777659
-0.2,0.0,1.0999999999999999,-0.5235987755982988,0.0,0,-0.6461391,-0.040087815,1.1477873,0.6354265,0.97579885,0.59411925,0.22552663,-0.5239377,1.4733948,0.27627802,-0.18487923,-0.021350266,1.1216735,-0.006406856
-0.2,0.0,1.0999999999999999,-0.5235987755982988,0.0,0,-0.64718664,-0.044918697,1.1504567,0.6341395,0.97077,0.59259844,0.23395993,-0.20648253,1.2233171,0.38841212,-0.13980258,-0.028947493,1.2475488,0.42187318
-0.2,0.0,1.0999999999999999,-0.5235987755982988,0.0,0,-0.6473656,-0.040516872,1.1482106,0.6359539,0.9804653,0.5954624,0.21457598,0.17979223,1.3244122,-0.09844988,-0.05068645,-0.27696598,1.2471721,-0.5233773
-0.2,0.0,1.0999999999999999,-0.5235987755982988,0.0,0,-0.64597714,-0.045051627,1.1461674,0.63366234,0.98434377,0.59723276,0.22204965,-0.41265795,1.3684096,-0.3275378,-0.011938165,-0.4643602,1.2736748,-0.90888876
-0.2,0.0,1.0999999999999999,-0.5235987755982988,0.0,0,-0.6464596,-0.03998544,1.1492776,0.6348361,0.97656006,0.5952682,0.2210735,-0.14631109,1.3477181,0.10729019,-0.12757324,-0.23402604,1.2115307,0.10540437
-0.2,0.0,1.0999999999999999,-0.5235987755982988,0.0,0,-0.6441053,-0.03974969,1.1478399,0.63559747,0.97761697,0.59276706,0.22218658,-0.5434362,1.3304032,0.23875506,-0.09610916,0.14392167,1.2821978,-1.5569834
-0.2,0.0,1.0999999999999999,-0.5235987755982988,0.0,0,-0.64698404,-0.04219031,1.1482947,0.63539594,0.98100585,0.5971865,0.22180131,0.017175108,1.3514163,0.24761848,-0.17754592,-0.15990904,1.2562912,2.188137
-0.2,0.0,1.0999999999999999,-0.5235987755982988,0.0,0,-0.6418889,-0.04055014,1.1464386,0.6359793,0.97799325,0.5939805,0.22251642,0.089452654,1.2581998,0.17073171,-0.25940552,-0.04605341,1.2322522,0.32004
-0.2,0.0,1.0999999999999999,-0.5235987755982988,0.0,0,-0.6486609,-0.04409879,1.1511544,0.6359451,0.9862392,0.5938109,0.22292766,-0.53659743,1.3833319,0.38630548,-0.16782886,-0.014417428,1.3502673,0.66129285
-0.2,0.0,1.0999999999999999,-0.5235987755982988,0.0,0,-0.64870954,-0.046356842,1.1483138,0.6371782,0.983168,0.5963219,0.23402922,-0.7353871,1.0487751,-0.26348013,-0.014959702,0.1657337,1.1679466,0.33235624
-0.2,0.0,1.0999999999999999,-0.5235987755982988,0.0,0,-0.6467789,-0.039636523,1.1478938,0.6362782,0.9803931,0.59266406,0.23840319,-0.086412236,1.2347301,0.5435989,-0.06685998,-0.27926847,1.1928923,-0.52112573
-0.2,0.0,1.0999999999999999,-0.5235987755982988,0.0,0,-0.64413875,-0.05053276,1.1472574,0.6341264,0.9789957,0.59520245,0.23620534,-0.67528594,1.3597839,0.28106108,-0.11486887,-0.021530287,1.1833274,-0.18137649
-0.2,0.0,1.0999999999999999,-0.5235987755982988,0.0,0,-0.64713717,-0.036898375,1.1471916,0.63385475,0.98403823,0.59430045,0.23843667,0.12768634,1.3291218,0.5066912,-0.038758617,0.020711537,1.3794653,0.2840094
-0.2,0.0,1.0999999999999999,-0.5235987755982988,0.0,0,-0.64807886,-0.043331947,1.150175,0.63445073,0.98118246,0.59673375,0.2285194,-0.4116398,1.320995,0.15587029,-0.05223048,-0.07803362,1.3457841,0.81314826
-0.2,0.0,1.0999999999999999,-0.5235987755982988,0.0,0,-0.64614177,-0.04587225,1.1489166,0.6339962,0.9742436,0.59693563,0.23997483,-0.30400252,1.434575,0.48358917,-0.09468594,0.09150403,1.3387694,0.93708044
-0.2,0.0,1.0999999999999999,-0.5235987755982988,0.0,0,-0.6456859,-0.04092557,1.1508247,0.63501346,0.9764187,0.5964706,0.21775673,0.090367995,1.2960305,0.6075416,-0.14828123,-0.36152917,1.1864749,-1.3608466
-0.2,0.0,1.0999999999999999,-0.5235987755982988,0.0,0,-0.6422361,-0.045493703,1.1461514,0.6340918,0.98168766,0.5950421,0.23097256,-0.47509918,1.2124766,0.291398,-0.019402457,-0.19699313,1.3132163,1.007315
-0.2,0.0,1.0999999999999999,-0.5235987755982988,0.0,0,-0.6426698,-0.04458248,1.1486169,0.6346755,0.9743581,0.5969935,0.22133125,-0.15798828,1.2637066,0.100691594,-0.11504362,-0.100260705,1.2481344,-0.42019743
-0.2,0.0,1.0999999999999999,-0.5235987755982988,0.0,0,-0.6463805,-0.041503448,1.1490372,0.63579404,0.98667914,0.5960285,0.22507188,-0.3497976,1.2375441,0.69742435,-0.168931,0.31472996,1.3220985,-1.6637061
-0.2,0.0,1.0999999999999999,-0.5235987755982988,0.0,0,-0.6433016,-0.040232103,1.1487868,0.63678473,0.98046136,0.59646434,0.21112867,-0.5257874,1.121493,-0.018761998,-0.012717493,0.1663427,1.3779417,0.6739274
-0.2,0.0,1.0999999999999999,-0.5235987755982988,0.0,0,-0.6452978,-0.039836463,1.1495521,0.63613856,0.9734967,0.5967422,0.22928485,-0.050663516,1.1791033,0.27247775,0.0053497837,-0.001579698,1.1902207,0.50622845
-0.2,0.0,1.0999999999999999,-0.5235987755982988,0.0,0,-0.64623857,-0.040567603,1.1504586,0.635718,0.976749,0.5959952,0.23208548,-0.54611164,1.2583091,0.97547644,-8.950345e-05,-0.1521368,1.2887266,1.1210598
-0.2,0.0,1.0999999999999999,-0.5235987755982988,0.0,0,-0.64448607,-0.039716393,1.1493751,0.63449985,0.97964084,0.5904023,0.2427311,0.020733884,1.3270366,-0.00953072,-0.05871821,0.24722552,1.1606998,-0.9401456
-0.2,0.0,1.0999999999999999,-0.5235987755982988,0.0,0,-0.64185035,-0.040942907,1.1456891,0.6362652,0.9780965,0.5955751,0.23518313,0.020918636,1.3080627,0.2071514,0.027815197,0.012838371,1.2311305,0.25327563
-0.2,0.0,1.0999999999999999,-0.5235987755982988,0.0,0,-0.6432355,-0.044623293,1.148641,0.633718,0.9839884,0.59512985,0.22944376,0.5642185,1.3915613,0.5302279,-0.0053489697,-0.051242407,1.2639122,-0.5443827
-0.2,0.0,1.0999999999999999,-0.5235987755982988,0.0,0,-0.64861083,-0.04443795,1.1501118,0.6347815,0.9803324,0.59624636,0.2469232,-0.35412323,1.1639836,0.05409793,-0.21571516,-0.022499662,1.1186547,0.2454235
-0.2,0.0,1.0999999999999999,-0.5235987755982988,0.0,0,-0.6444021,-0.043803073,1.148997,0.63509107,0.9799309,0.5962942,0.23161402,0.058118567,1.1814784,0.56791276,-0.033757564,0.08688858,1.2844744,-0.24056295
-0.2,0.0,1.0999999999999999,-0.5235987755982988,0.0,0,-0.6427793,-0.044920366,1.1492347,0.6352539,0.9824827,0.59508085,0.2257156,0.43148276,1.235348,0.20681797,-0.03387231,-0.36473843,1.1300211,0.31143165
-0.2,0.0,1.0999999999999999,-0.5235987755982988,0.0,0,-0.64524853,-0.037905417,1.1484145,0.63374853,0.981022,0.59702665,0.23425928,0.40913427,1.1998854,0.33699232,-0.05720662,0.10800927,1.2921253,2.6848147
-0.2,0.0,1.0999999999999999,-0.5235987755982988,0.0,0,-0.64486635,-0.03760286,1.1505786,0.63400364,0.97882634,0.5931256,0.24117696,-0.59542173,1.1931107,0.101041995,-0.060006738,-0.20344733,1.1959786,-0.9079602
-0.2,0.0,1.0999999999999999,-0.5235987755982988,0.0,0,-0.6433773,-0.04374047,1.1485356,0.6357141,0.9821077,0.5943343,0.24029574,0.4866926,1.2288421,0.41078913,0.036511816,-0.35747647,1.258356,-0.7095774
-0.2,0.0,1.0999999999999999,-0.5235987755982988,0.0,0,-0.64121467,-0.04086625,1.1494738,0.6338703,0.97732264,0.5955241,0.23001145,-0.24675557,1.2064852,-0.06570797,-0.06509272,0.07833779,1.2335827,0.7450528
-0.2,0.0,1.0999999999999999,-0.5235987755982988,0.0,0,-0.64159495,-0.038541853,1.1489097,0.63566506,0.98577374,0.5932906,0.22680685,-0.21754847,1.314227,0.24008913,-0.009619762,-0.061565146,1.2334722,0.47633365
-0.2,0.0,1.0999999999999999,-0.5235987755982988,0.0,0,-0.6410229,-0.0420951,1.1499708,0.6367967,0.9792412,0.5946757,0.22791979,0.3432054,1.3359791,0.54083914,-0.077928826,0.060867067,1.3110968,1.283638
-0.2,0.0,1.0999999999999999,-0.5235987755982988,0.0,0,-0.63706994,-0.036970302,1.1480533,0.6359627,0.97702163,0.59432274,0.22509356,0.10370358,1.4141793,0.034031734,-0.113499396,0.21234609,1.1754445,-0.5832428
-0.2,0.0,1.0999999999999999,-0.5235987755982988,0.0,0,-0.63991535,-0.043884106,1.1495196,0.63482547,0.9759493,0.59525037,0.24219444,-0.44004703,1.1583239,0.2889485,-0.119377546,-0.013891486,1.2103125,0.049935497
-0.2,0.0,1.0999999999999999,-0.5235987755982988,0.0,0,-0.6447305,-0.040453378,1.1503447,0.6355811,0.98033625,0.5969117,0.2501133,-0.12606916,1.120839,0.06360486,-0.028437512,-0.08774603,1.2384773,-0.6465019
-0.2,0.0,1.0999999999999999,-0.5235987755982988,0.0,0,-0.64904815,-0.044472203,1.1486248,0.6361768,0.9742628,0.5966393,0.2234004,-0.33394712,1.345222,0.02837123,-0.12603383,0.33051717,1.28741,0.5763607
-0.2,0.0,1.0999999999999999,-0.5235987755982988,0.0,0,-0.6465533,-0.04289109,1.1495208,0.63413215,0.98457265,0.5929815,0.23216528,-0.702215,1.2980646,0.21198323,-0.18614168,-0.11091489,1.3365734,1.565564
-0.2,0.0,1.0999999999999999,-0.5235987755982988,0.0,0,-0.6424102,-0.044873666,1.1480895,0.6340871,0.9816021,0.5919702,0.22362429,-0.44776237,1.2783773,-0.32696933,-0.09131121,-0.08215064,1.2568303,0.041672293
-0.2,0.0,1.0999999999999999,-0.5235987755982988,0.0,0,-0.649715,-0.0389645,1.1511836,0.63586044,0.9773334,0.5966486,0.23671931,0.782614,1.294515,0.35863903,-0.090705246,-0.24485897,1.2624714,-0.061702754
-0.2,0.0,1.0999999999999999,-0.5235987755982988,0.0,0,-0.6443923,-0.03930634,1.1500684,0.63561076,0.98263466,0.59325725,0.23379295,-0.13882299,1.4070755,0.30558038,0.07379673,-0.13258386,1.401422,-0.29967114
-0.2,0.0,1.0999999999999999,-0.5235987755982988,0.0,0,-0.64436483,-0.042395644,1.1470039,0.6340433,0.97594935,0.59314483,0.22857279,0.35459197,1.1976417,0.023730014,-0.08401397,-0.1012025,1.250015,1.4472055
-0.2,0.0,1.0999999999999999,-0.5235987755982988,0.0,0,-0.6472188,-0.044054408,1.148664,0.6345108,0.97408074,0.5974014,0.22442485,-0.00050590385,1.3812165,0.18338884,-0.13004,0.12139606,1.2526684,0.94112456
-0.2,0.0,1.0999999999999999,-0.5235987755982988,0.0,0,-0.64396304,-0.03568779,1.144093,0.63593966,0.9801436,0.5964621,0.22223257,0.07136702,1.3722658,0.31622463,-0.15103662,-0.25858864,1.1901065,0.15782127
-0.2,0.0,1.0999999999999999,-0.5235987755982988,0.0,0,-0.64400053,-0.04234781,1.147387,0.6347161,0.973084,0.5930536,0.23688634,0.04588065,1.4144802,0.103399135,-0.105207734,-0.07356739,1.2790906,0.8572887
-0.2,0.0,1.0999999999999999,-0.5235987755982988,0.0,0,-0.64415264,-0.042309355,1.1455029,0.63441974,0.9801208,0.5927204,0.24166021,-0.65595543,1.2446042,0.33821866,-0.1329268,0.19414178,1.4132233,-1.0108768
-0.2,0.0,1.0999999999999999,-0.5235987755982988,0.0,0,-0.6434899,-0.039954145,1.1463937,0.6349977,0.98087704,0.5947083,0.230614,0.036215,1.2473046,0.40534353,-0.09539983,-0.042159334,1.2754258,-1.0210829
-0.2,0.0,1.0999999999999999,-0.5235987755982988,0.0,0,-0.6453708,-0.041551437,1.1510941,0.6349437,0.98108584,0.5947284,0.22572449,-0.15640607,1.3598318,-0.40897083,-0.010614604,0.044177104,1.2854338,-0.069168
-0.2,0.0,1.0999999999999999,-0.5235987755982988,0.0,0,-0.6448879,-0.041246615,1.1478745,0.63454515,0.9754399,0.59606886,0.2429581,-0.4397132,1.3323271,0.01736136,-0.10998923,-0.09724215,1.2752022,-0.09649604
-0.2,0.0,1.0999999999999999,-0.5235987755982988,0.0,0,-0.6409328,-0.041276056,1.1488469,0.6376778,0.9794423,0.59354156,0.23627318,0.6013022,1.1789829,0.47976395,-0.10028249,-0.19624615,1.1828854,1.187513
-0.2,0.0,1.0999999999999999,-0.5235987755982988,0.0,0,-0.6440598,-0.037804887,1.1512283,0.6344274,0.98729527,0.5974823,0.2189038,-0.38190967,1.3200486,0.03944391,-0.043613292,-0.040140428,1.1508846,-0.5174109
-0.2,0.0,1.0999999999999999,-0.5235987755982988,0.0,0,-0.64757377,-0.040494177,1.1489438,0.635588,0.98244584,0.5966288,0.23713756,-0.4681104,1.2280957,-0.0018537325,-0.056134988,0.20904444,1.2878869,-1.7050139
-0.2,0.0,1.0999999999999999,-0.5235987755982988,0.0,0,-0.6456237,-0.047027044,1.1471956,0.6355619,0.9703376,0.5934567,0.22011867,-0.66736037,1.3285328,0.29273373,-0.14746733,0.018729113,1.2858137,-0.037314598
