sanky1234/BimanualDexCatch/isaacgymenvs/cem_results/football_pose_0.0_-0.1_0.7_0.5235987755982988_0.5235987755982988_0_2025-05-26.csv
x,y,z,roll,pitch,yaw,robot1/joint1,robot1/joint2,robot1/joint3,robot1/joint4,robot1/joint5,robot1/joint6,robot1/joint7,robot2/joint1,robot2/joint2,robot2/joint3,robot2/joint4,robot2/joint5,robot2/joint6,robot2/joint7
0.0,-0.1,0.7,0.5235987755982988,0.5235987755982988,0,-2.61801,1.9887882,0.08186644,-0.5453077,-0.029394634,1.0808389,-1.0367048,0.027448947,1.1728671,0.2656911,-0.30946723,-0.24171735,1.5310851,-2.5765712
0.0,-0.1,0.7,0.5235987755982988,0.5235987755982988,0,-2.558348,1.9943094,0.08719894,-0.5663537,-0.08585682,1.1041127,-0.945441,0.010637366,1.1687609,0.26176307,-0.30859125,-0.17223483,1.5395347,-2.613278
0.0,-0.1,0.7,0.5235987755982988,0.5235987755982988,0,-2.7575626,1.9919087,0.08044294,-0.558293,-0.047566306,1.0828106,-0.9389722,0.007001437,1.162385,0.27051225,-0.3094372,-0.1864662,1.5546643,-2.7339582
0.0,-0.1,0.7,0.5235987755982988,0.5235987755982988,0,-2.7738369,1.9900973,0.08593959,-0.5591274,-0.05009673,1.083759,-0.93251145,0.017103462,1.1701161,0.27107912,-0.30561185,-0.16776097,1.5377196,-2.660566
0.0,-0.1,0.7,0.5235987755982988,0.5235987755982988,0,-2.6933959,1.9920156,0.040026415,-0.54095155,-0.04298462,1.0566119,-0.93201816,0.03700653,1.1660713,0.27038264,-0.29746455,-0.22533195,1.5368552,-2.5307205
0.0,-0.1,0.7,0.5235987755982988,0.5235987755982988,0,-2.5514166,1.9931089,0.08655987,-0.5535713,-0.07534433,1.0866785,-1.0373803,0.020892508,1.1680988,0.2706275,-0.30549577,-0.14117134,1.5548334,-2.5698628
0.0,-0.1,0.7,0.5235987755982988,0.5235987755982988,0,-2.6067998,1.9964134,0.066929005,-0.5384992,-0.05913287,1.066028,-0.9917484,0.0249646,1.167983,0.2614751,-0.30512965,-0.17969699,1.5320383,-2.5221746
0.0,-0.1,0.7,0.5235987755982988,0.5235987755982988,0,-2.6907341,1.9922134,0.08453553,-0.5583497,-0.015532453,1.0935479,-1.00453,-0.0034918573,1.1590561,0.24808472,-0.30492145,-0.16516218,1.5298032,-2.6161742
0.0,-0.1,0.7,0.5235987755982988,0.5235987755982988,0,-2.7170703,1.9971461,0.062144697,-0.56385887,-0.046674903,1.0814874,-0.96621996,0.036300175,1.164678,0.27034423,-0.30939874,-0.20181383,1.5424469,-2.551285
0.0,-0.1,0.7,0.5235987755982988,0.5235987755982988,0,-2.6234791,1.994439,0.10026554,-0.5492773,-0.063694865,1.0910494,-0.95575076,0.0040210844,1.179854,0.27075133,-0.29631752,-0.15392564,1.5551444,-2.67332
0.0,-0.1,0.7,0.5235987755982988,0.5235987755982988,0,-2.7395887,1.9905908,0.04351563,-0.59323466,-0.028543197,1.1009912,-1.0506088,0.03054632,1.1608591,0.27240252,-0.30948487,-0.16084936,1.5460556,-2.6699145
0.0,-0.1,0.7,0.5235987755982988,0.5235987755982988,0,-2.7818854,1.9915075,0.067590125,-0.57494384,-0.018669965,1.0952711,-0.9420278,0.02079813,1.1639911,0.25066343,-0.32013428,-0.18861502,1.55407,-2.8894026
0.0,-0.1,0.7,0.5235987755982988,0.5235987755982988,0,-2.675337,1.9906627,0.08161097,-0.543083,-0.015628468,1.0832263,-1.0021302,0.026405314,1.1603347,0.26464078,-0.30442047,-0.13491267,1.5244954,-2.8247356
0.0,-0.1,0.7,0.5235987755982988,0.5235987755982988,0,-2.611983,1.9895235,0.066938385,-0.5538608,-0.052087236,1.0880438,-0.93463624,0.0075328425,1.1622953,0.2580722,-0.29838192,-0.13941874,1.5498112,-2.616088
0.0,-0.1,0.7,0.5235987755982988,0.5235987755982988,0,-2.7311301,1.996251,0.053971272,-0.5307639,-0.085374795,1.044446,-0.9003014,0.011402318,1.1550632,0.2611272,-0.29781115,-0.19719198,1.5338959,-2.8790245
0.0,-0.1,0.7,0.5235987755982988,0.5235987755982988,0,-2.6828597,1.9882363,0.04030275,-0.57305807,-0.017361267,1.1032213,-0.9229207,0.02227651,1.1605331,0.27784255,-0.3100719,-0.18261515,1.5488468,-2.8474808
0.0,-0.1,0.7,0.5235987755982988,0.5235987755982988,0,-2.6982703,1.9907739,0.041043226,-0.55770516,-0.068605,1.0634549,-0.98474824,-0.0054467972,1.161392,0.29215187,-0.31189847,-0.13699165,1.5494672,-2.5516856
0.0,-0.1,0.7,0.5235987755982988,0.5235987755982988,0,-2.6468832,1.9924532,0.0689633,-0.55245626,-0.030233335,1.0942255,-0.8911494,0.018189935,1.1617732,0.26520097,-0.31432807,-0.19403881,1.5415761,-2.5252943
0.0,-0.1,0.7,0.5235987755982988,0.5235987755982988,0,-2.7010283,1.9965833,0.05525434,-0.56850505,-0.049695726,1.0897465,-0.9146946,0.011714902,1.1519288,0.26841712,-0.29850376,-0.2408594,1.5602006,-2.6611526
0.0,-0.1,0.7,0.5235987755982988,0.5235987755982988,0,-2.619756,1.9901016,0.034672283,-0.56815535,-0.0705114,1.0773486,-0.9535684,0.012044805,1.151326,0.24812257,-0.30502877,-0.20485009,1.531825,-2.641805
0.0,-0.1,0.7,0.5235987755982988,0.5235987755982988,0,-2.6318321,1.9903575,0.07847736,-0.55324984,-0.064147905,1.0863506,-1.0094445,0.002078209,1.1649845,0.26270416,-0.31779894,-0.1462727,1.5287964,-2.6600196
0.0,-0.1,0.7,0.5235987755982988,0.5235987755982988,0,-2.776541,1.9883033,0.07315722,-0.553575,-0.021998081,1.0715743,-1.0216328,0.020766966,1.16254,0.2600663,-0.32575446,-0.18712936,1.5319997,-2.678714
0.0,-0.1,0.7,0.5235987755982988,0.5235987755982988,0,-2.6532104,1.9896253,0.05669945,-0.55311435,-0.0419093,1.071081,-1.0429076,0.020476433,1.1660781,0.25437024,-0.2954209,-0.1362241,1.5386508,-2.793566
0.0,-0.1,0.7,0.5235987755982988,0.5235987755982988,0,-2.6498663,1.9897752,0.0838222,-0.5448261,-0.04701204,1.0939603,-0.85609436,0.040574078,1.1604236,0.2747241,-0.3133862,-0.21612965,1.5468572,-2.5888329
0.0,-0.1,0.7,0.5235987755982988,0.5235987755982988,0,-2.790362,1.9937003,0.09193734,-0.56162715,-0.089007705,1.0726742,-0.98651886,0.020216003,1.1684045,0.26156732,-0.3074154,-0.17526041,1.5436574,-2.4688058
0.0,-0.1,0.7,0.5235987755982988,0.5235987755982988,0,-2.7897055,1.9955374,0.07089827,-0.5687212,-0.054193817,1.0813726,-0.93020135,0.0064746276,1.1629034,0.25746393,-0.30555493,-0.14663018,1.5315467,-2.522361
0.0,-0.1,0.7,0.5235987755982988,0.5235987755982988,0,-2.6948075,1.9935701,0.040075745,-0.57248724,-0.05575676,1.0836037,-0.94844025,0.034192167,1.1635559,0.26355588,-0.29312408,-0.23156805,1.5296433,-2.8580647
0.0,-0.1,0.7,0.5235987755982988,0.5235987755982988,0,-2.631515,1.9864872,0.04436852,-0.5565436,-0.022786036,1.0895026,-0.9424502,0.024501834,1.1533887,0.25649354,-0.30078456,-0.12109578,1.5369043,-2.616189
0.0,-0.1,0.7,0.5235987755982988,0.5235987755982988,0,-2.7262387,1.9897786,0.059037335,-0.5534245,-0.06649417,1.0716987,-0.9510974,0.01932511,1.1682297,0.27503297,-0.29562795,-0.15273824,1.5205667,-2.6319432
0.0,-0.1,0.7,0.5235987755982988,0.5235987755982988,0,-2.715176,1.9951552,0.05642479,-0.5716778,-0.053145207,1.0787486,-1.0268847,-0.0025695977,1.1626365,0.260834,-0.31108487,-0.18725361,1.5556189,-2.5494406
0.0,-0.1,0.7,0.5235987755982988,0.5235987755982988,0,-2.6961744,1.9964023,0.11211942,-0.53206605,-0.05592728,1.0852046,-0.86461985,0.013788745,1.1625792,0.25037488,-0.30379775,-0.16932845,1.5508074,-2.7511115
0.0,-0.1,0.7,0.5235987755982988,0.5235987755982988,0,-2.7860808,1.9927242,0.09884197,-0.5560118,-0.04988992,1.0860946,-0.94499576,0.0100803,1.1554263,0.27319536,-0.2938689,-0.19854201,1.5346582,-2.6317232
0.0,-0.1,0.7,0.5235987755982988,0.5235987755982988,0,-2.6451983,1.9926368,0.05381636,-0.56138223,-0.06955861,1.0780618,-0.9810313,0.017358866,1.1669476,0.28214344,-0.2960448,-0.16468759,1.5430459,-2.7088861
0.0,-0.1,0.7,0.5235987755982988,0.5235987755982988,0,-2.8001966,1.9933399,0.076664895,-0.5527149,-0.066911,1.0634229,-0.9635972,0.0053421687,1.1550852,0.25743845,-0.30394903,-0.2186656,1.5296334,-2.534231
0.0,-0.1,0.7,0.5235987755982988,0.5235987755982988,0,-2.7120113,1.9895953,0.08515492,-0.55146563,-0.07882079,1.0810566,-0.94720376,0.026186733,1.1653548,0.28174925,-0.29830784,-0.20211266,1.5348849,-2.6222742
0.0,-0.1,0.7,0.5235987755982988,0.5235987755982988,0,-2.5959795,1.9930851,0.06167069,-0.5320533,-0.047255144,1.0649655,-0.9853964,0.02232227,1.1579006,0.26818284,-0.2973807,-0.17708746,1.5314189,-2.7079964
0.0,-0.1,0.7,0.5235987755982988,0.5235987755982988,0,-2.644066,1.9930849,0.068248086,-0.56263316,-0.045805596,1.0894698,-1.0166631,0.029386906,1.1680541,0.26980564,-0.29974437,-0.17075384,1.5555987,-2.6346166
0.0,-0.1,0.7,0.5235987755982988,0.5235987755982988,0,-2.5598886,1.9932749,0.025018737,-0.5632983,-0.058948677,1.0826863,-0.93881136,0.018863944,1.1617831,0.2771018,-0.30834165,-0.16555956,1.5350217,-2.5773218
0.0,-0.1,0.7,0.5235987755982988,0.5235987755982988,0,-2.7195709,1.9929047,0.058887776,-0.5454707,-0.043077536,1.0647033,-0.9998543,0.009890567,1.1609054,0.27215028,-0.3117052,-0.23056038,1.5353167,-2.8097053
0.0,-0.1,0.7,0.5235987755982988,0.5235987755982988,0,-2.6458042,1.9951967,0.078425586,-0.53826934,-0.011225069,1.0931797,-0.892455,0.018945774,1.1670686,0.25802803,-0.3157505,-0.17660764,1.5291286,-2.5351164
0.0,-0.1,0.7,0.5235987755982988,0.5235987755982988,0,-2.695913,1.9986045,0.094379805,-0.5633079,-0.059661377,1.080602,-0.96331656,0.016622657,1.170704,0.26491165,-0.30659634,-0.20488073,1.513261,-2.7085836
0.0,-0.1,0.7,0.5235987755982988,0.5235987755982988,0,-2.7276325,1.9918045,0.11187924,-0.5583499,-0.02798918,1.1000378,-1.0383525,0.017211875,1.1683791,0.24781963,-0.31338704,-0.23030037,1.5394957,-2.7149174
0.0,-0.1,0.7,0.5235987755982988,0.5235987755982988,0,-2.6316674,1.9909623,0.046345875,-0.5959309,-0.05035214,1.1197138,-0.98442495,0.014343301,1.1640728,0.27228704,-0.30404755,-0.19038635,1.5290158,-2.5897698
0.0,-0.1,0.7,0.5235987755982988,0.5235987755982988,0,-2.659644,1.9950355,0.057911735,-0.5736278,-0.07728595,1.094087,-0.9421609,0.028517853,1.1639016,0.27563918,-0.31190518,-0.12506089,1.5488976,-2.5438137
0.0,-0.1,0.7,0.5235987755982988,0.5235987755982988,0,-2.7043283,1.9933953,0.058809802,-0.56895643,-0.022812538,1.0982583,-0.9609797,0.038168993,1.1619194,0.26270863,-0.3065652,-0.23565032,1.5443827,-2.6251106
0.0,-0.1,0.7,0.5235987755982988,0.5235987755982988,0,-2.6946084,1.9934295,0.04338609,-0.56244457,-0.06129973,1.079326,-0.92114085,0.009785586,1.1617321,0.2604077,-0.30515632,-0.14489336,1.5428715,-2.5722842
0.0,-0.1,0.7,0.5235987755982988,0.5235987755982988,0,-2.7376633,1.9942396,0.07638545,-0.57761925,-0.049761523,1.0986445,-0.97269946,0.008218042,1.1628032,0.2527337,-0.31063953,-0.17740935,1.5296458,-2.688378
0.0,-0.1,0.7,0.5235987755982988,0.5235987755982988,0,-2.7087893,1.9915656,0.05829094,-0.5612809,-0.036305077,1.0820804,-0.97280914,0.028547293,1.176393,0.2500989,-0.29870138,-0.16135995,1.533933,-2.566421
0.0,-0.1,0.7,0.5235987755982988,0.5235987755982988,0,-2.7010605,1.9913917,0.07146044,-0.5451993,-0.043912593,1.0730721,-0.96812713,0.006359818,1.1727549,0.26196933,-0.302466,-0.16945799,1.5457716,-2.5918872
0.0,-0.1,0.7,0.5235987755982988,0.5235987755982988,0,-2.6419976,1.9928159,0.05884226,-0.56912285,-0.04600652,1.0960904,-0.9828889,0.02069164,1.157798,0.24182117,-0.3072529,-0.16151103,1.5486736,-2.5839171
0.0,-0.1,0.7,0.5235987755982988,0.5235987755982988,0,-2.696653,1.9914713,0.06378336,-0.57058185,-0.07011671,1.0894712,-0.9027765,0.010788461,1.1755021,0.24546467,-0.30376804,-0.16728084,1.523572,-2.7207553
0.0,-0.1,0.7,0.5235987755982988,0.5235987755982988,0,-2.660332,1.9878931,0.04525313,-0.5685368,-0.05168408,1.0878068,-0.93849593,0.017234541,1.1758276,0.24915145,-0.30799735,-0.15766658,1.5283943,-2.6415882
0.0,-0.1,0.7,0.5235987755982988,0.5235987755982988,0,-2.6224575,1.9914975,0.041199584,-0.5469708,-0.034848247,1.0669017,-1.0371431,0.0040693227,1.1641768,0.25287998,-0.29676974,-0.22633146,1.5296746,-2.6972477
0.0,-0.1,0.7,0.5235987755982988,0.5235987755982988,0,-2.7149868,1.9922373,0.029253691,-0.5507173,-0.057166107,1.0709988,-0.9750695,0.019843262,1.1618426,0.27128536,-0.31285745,-0.23119481,1.5298169,-2.4685764
0.0,-0.1,0.7,0.5235987755982988,0.5235987755982988,0,-2.6143453,1.9987854,0.08649966,-0.5619492,-0.0926091,1.0973344,-0.9562896,0.029380383,1.161232,0.26048142,-0.2987044,-0.23390104,1.5366141,-2.459495
0.0,-0.1,0.7,0.5235987755982988,0.5235987755982988,0,-2.7152762,1.9910419,0.06293503,-0.5584662,-0.040988784,1.0844939,-0.98924994,0.025914712,1.168592,0.25751305,-0.31599632,-0.14445189,1.558321,-2.8526747
0.0,-0.1,0.7,0.5235987755982988,0.5235987755982988,0,-2.6577752,1.9919788,0.07345257,-0.55050427,-0.058686696,1.0781432,-1.000107,0.028717266,1.1681526,0.27608836,-0.29972097,-0.17784183,1.5235974,-2.584586
0.0,-0.1,0.7,0.5235987755982988,0.5235987755982988,0,-2.6603663,1.9962298,0.07152712,-0.55974746,-0.056626737,1.0910912,-0.9718442,-0.011396977,1.1703032,0.25879246,-0.3073927,-0.15139869,1.532408,-2.4977992
0.0,-0.1,0.7,0.5235987755982988,0.5235987755982988,0,-2.6057544,1.9927717,0.062805384,-0.59533054,-0.048712373,1.0994798,-0.95349777,0.023225985,1.1769922,0.27881426,-0.3092286,-0.20985152,1.5410244,-2.7569215
0.0,-0.1,0.7,0.5235987755982988,0.5235987755982988,0,-2.7135124,1.9956639,0.11347568,-0.54201627,-0.04165432,1.0919174,-0.9641257,0.008790011,1.152455,0.24759062,-0.3095818,-0.17792472,1.5327563,-2.640248
0.0,-0.1,0.7,0.5235987755982988,0.5235987755982988,0,-2.7399225,1.9927315,0.10086257,-0.5400536,-0.044620942,1.0805498,-0.9524595,0.025630413,1.1655792,0.26880863,-0.2886213,-0.20865284,1.5400982,-2.6064556
0.0,-0.1,0.7,0.5235987755982988,0.5235987755982988,0,-2.7215753,1.9883358,0.05403054,-0.5719942,-0.029934378,1.1000602,-0.91387206,0.018974526,1.1720797,0.261978,-0.31038713,-0.19116712,1.5490565,-2.7657294
0.0,-0.1,0.7,0.5235987755982988,0.5235987755982988,0,-2.731873,1.9875472,0.09556935,-0.54510653,-0.021522177,1.0919667,-0.94017774,0.016900403,1.1576883,0.24977262,-0.30890492,-0.2849933,1.5439416,-2.5660682
0.0,-0.1,0.7,0.5235987755982988,0.5235987755982988,0,-2.7034364,1.9916328,0.09001919,-0.5552699,-0.04585219,1.0977776,-0.94866663,0.034661625,1.1734009,0.26518825,-0.29984775,-0.19258192,1.5395501,-2.6029997
0.0,-0.1,0.7,0.5235987755982988,0.5235987755982988,0,-2.6300566,1.9915558,0.06554555,-0.5489394,-0.07961944,1.0661323,-1.0575569,0.011895283,1.1635588,0.27160063,-0.31203365,-0.19132386,1.5521656,-2.7521293
0.0,-0.1,0.7,0.5235987755982988,0.5235987755982988,0,-2.7961876,1.9933296,0.05565127,-0.53440565,-0.02307846,1.0571358,-0.935636,0.010059964,1.1631422,0.25823453,-0.30093548,-0.16055155,1.5547217,-2.6846879
0.0,-0.1,0.7,0.5235987755982988,0.5235987755982988,0,-2.746914,1.9927572,0.05778593,-0.56784177,-0.035185788,1.0895609,-0.95154345,0.029116824,1.1810863,0.24802732,-0.3039033,-0.2120828,1.54985,-2.5474415
0.0,-0.1,0.7,0.5235987755982988,0.5235987755982988,0,-2.7037392,1.9908645,0.09998027,-0.53885454,-0.049880102,1.0832217,-0.96521497,0.017375926,1.1726655,0.2707745,-0.29959756,-0.1957256,1.5299906,-2.6056821
0.0,-0.1,0.7,0.5235987755982988,0.5235987755982988,0,-2.731687,1.9906894,0.086395025,-0.58221143,-0.03750434,1.1126391,-0.9995042,0.012876322,1.1728305,0.2699597,-0.3017808,-0.216925,1.5372669,-2.6759279
0.0,-0.1,0.7,0.5235987755982988,0.5235987755982988,0,-2.6898994,1.9938481,0.065665476,-0.56420106,-0.052839033,1.0851616,-0.99986297,0.004814806,1.1678872,0.2515568,-0.29935205,-0.18676025,1.550834,-2.539734
0.0,-0.1,0.7,0.5235987755982988,0.5235987755982988,0,-2.6844347,1.991282,0.06268511,-0.56123006,-0.009546263,1.1004778,-0.9374166,0.03392994,1.1660426,0.26663426,-0.30737528,-0.20021152,1.5146867,-2.5326722
0.0,-0.1,0.7,0.5235987755982988,0.5235987755982988,0,-2.6575267,1.9954811,0.053425245,-0.56813353,-0.046792258,1.0930054,-0.971083,0.013317348,1.1718804,0.2604236,-0.29972744,-0.17936614,1.5474116,-2.6522377
0.0,-0.1,0.7,0.5235987755982988,0.5235987755982988,0,-2.6093109,1.9922869,0.08171129,-0.55447584,-0.071702495,1.0935248,-0.95639724,-0.0016580014,1.1772842,0.25366005,-0.312234,-0.15417092,1.5420815,-2.47727
0.0,-0.1,0.7,0.5235987755982988,0.5235987755982988,0,-2.731004,1.9919713,0.052270185,-0.5767636,-0.068710566,1.0699261,-0.92985433,0.020144295,1.1650884,0.24809168,-0.2859319,-0.28655547,1.5524703,-2.651068
0.0,-0.1,0.7,0.5235987755982988,0.5235987755982988,0,-2.6760802,1.99105,0.07990117,-0.5787649,-0.030940777,1.1135075,-1.018036,0.015093373,1.1693006,0.24610719,-0.28613812,-0.2173109,1.5324898,-2.670114
0.0,-0.1,0.7,0.5235987755982988,0.5235987755982988,0,-2.6224918,1.9905066,0.07925189,-0.5406782,-0.025818435,1.0902945,-0.94702595,0.032409683,1.1641802,0.27324235,-0.28567222,-0.20098354,1.5227109,-2.7553642
0.0,-0.1,0.7,0.5235987755982988,0.5235987755982988,0,-2.5941536,1.9960428,0.090251066,-0.5544505,-0.022350729,1.0627884,-0.99822795,0.023103438,1.1538343,0.25560692,-0.3073256,-0.24959877,1.538691,-2.7668045
0.0,-0.1,0.7,0.5235987755982988,0.5235987755982988,0,-2.648986,1.9941459,0.060342293,-0.5435,-0.06640853,1.0618621,-1.0441447,0.013141913,1.1617078,0.2305331,-0.2964688,-0.109734796,1.5438044,-2.688737
0.0,-0.1,0.7,0.5235987755982988,0.5235987755982988,0,-2.6400006,1.9915063,0.06795348,-0.55053353,-0.046728678,1.0842015,-0.9801474,0.011461509,1.1696752,0.2695005,-0.2987091,-0.2000141,1.5343537,-2.796338
0.0,-0.1,0.7,0.5235987755982988,0.5235987755982988,0,-2.6964912,1.993422,0.08010347,-0.5668477,-0.020627199,1.1116028,-0.9364223,0.040120065,1.1717254,0.25979376,-0.29496574,-0.20104478,1.5531594,-2.6525426
0.0,-0.1,0.7,0.5235987755982988,0.5235987755982988,0,-2.6383688,1.9904488,0.047018964,-0.54281497,-0.052660853,1.0654061,-0.99599785,0.005995754,1.1667826,0.28154793,-0.2981932,-0.18419538,1.5401818,-2.6660535
0.0,-0.1,0.7,0.5235987755982988,0.5235987755982988,0,-2.6798203,1.9879588,0.087046385,-0.55547655,-0.037167814,1.0974134,-0.9704204,0.030805364,1.1834213,0.2619345,-0.30534747,-0.14999263,1.5444688,-2.6303895
0.0,-0.1,0.7,0.5235987755982988,0.5235987755982988,0,-2.599271,1.9903619,0.07443126,-0.5667909,-0.050958462,1.1052057,-0.9920298,0.014706501,1.1712943,0.26257852,-0.3056999,-0.16234346,1.5363259,-2.892603
0.0,-0.1,0.7,0.5235987755982988,0.5235987755982988,0,-2.579733,1.9918549,0.09610729,-0.56135505,-0.07179429,1.1091273,-0.98186016,0.0061565116,1.1590503,0.27275404,-0.2981036,-0.22744994,1.5356723,-2.702804
0.0,-0.1,0.7,0.5235987755982988,0.5235987755982988,0,-2.6097364,1.9911985,0.067332566,-0.53276557,-0.06642999,1.0648682,-0.9903937,0.021298239,1.173765,0.2706761,-0.29828444,-0.21632804,1.5370404,-2.6500254
0.0,-0.1,0.7,0.5235987755982988,0.5235987755982988,0,-2.6393044,1.9896294,0.09491506,-0.5352965,-0.08468814,1.0754663,-0.97535545,0.00813495,1.1695808,0.26977387,-0.3045825,-0.21123224,1.5262884,-2.731611
0.0,-0.1,0.7,0.5235987755982988,0.5235987755982988,0,-2.5747457,1.9893336,0.056477662,-0.5374296,-0.062107787,1.0681195,-1.0127845,0.051020924,1.1606668,0.25603098,-0.29893312,-0.25949335,1.5410372,-2.7445517
0.0,-0.1,0.7,0.5235987755982988,0.5235987755982988,0,-2.7233205,1.990749,0.112922065,-0.53901756,-0.025681943,1.0968932,-0.94194114,0.021751182,1.1756071,0.2575313,-0.3088883,-0.21479319,1.5389192,-2.5345864
0.0,-0.1,0.7,0.5235987755982988,0.5235987755982988,0,-2.7365522,1.9903631,0.16821942,-0.50798917,-0.057739604,1.074387,-1.064039,0.017293463,1.159066,0.26197845,-0.31077474,-0.23374744,1.5342618,-2.5495896
0.0,-0.1,0.7,0.5235987755982988,0.5235987755982988,0,-2.6150017,1.9972781,0.09219856,-0.5302252,-0.05145311,1.0915937,-0.87643415,0.023176014,1.1641145,0.26932564,-0.2944423,-0.2015348,1.5524226,-2.7871103
0.0,-0.1,0.7,0.5235987755982988,0.5235987755982988,0,-2.691948,1.9904188,0.0852263,-0.554242,-0.059512734,1.0948343,-0.9502245,0.03443102,1.1780478,0.24925674,-0.29878944,-0.20301327,1.5348766,-2.4641025
0.0,-0.1,0.7,0.5235987755982988,0.5235987755982988,0,-2.6588206,1.9912862,0.09603399,-0.52834326,-0.056044348,1.0701833,-1.0423186,0.008089057,1.1730294,0.26456904,-0.31755528,-0.25446662,1.5499336,-2.4709282
0.0,-0.1,0.7,0.5235987755982988,0.5235987755982988,0,-2.712504,1.99496,0.06574085,-0.5415974,-0.033838797,1.0515363,-0.9845099,0.01411058,1.1787963,0.26232684,-0.31304488,-0.20102061,1.5497755,-2.8592637
0.0,-0.1,0.7,0.5235987755982988,0.5235987755982988,0,-2.7066822,1.9889145,0.12822115,-0.5267006,-0.035610724,1.0906659,-0.9909514,0.0291413,1.16305,0.2591921,-0.29241034,-0.20017564,1.5290102,-2.5345042
0.0,-0.1,0.7,0.5235987755982988,0.5235987755982988,0,-2.6118147,1.9925015,0.038537886,-0.5553717,-0.05308598,1.0884341,-0.93940896,0.016281156,1.1680295,0.25529236,-0.30772504,-0.15264378,1.5580449,-2.7033305
0.0,-0.1,0.7,0.5235987755982988,0.5235987755982988,0,-2.7603402,1.9875175,0.11115739,-0.538577,-0.031360183,1.0864956,-0.99958634,0.007870059,1.1697116,0.24500087,-0.30968896,-0.16539134,1.5280043,-2.6406486
0.0,-0.1,0.7,0.5235987755982988,0.5235987755982988,0,-2.7205088,1.9922051,0.031505432,-0.58768487,-0.03912649,1.0951034,-1.0245684,0.013198922,1.1590434,0.26024395,-0.29499272,-0.13978726,1.5399598,-2.5279348
0.0,-0.1,0.7,0.5235987755982988,0.5235987755982988,0,-2.5285554,1.9948651,0.043977357,-0.54747695,-0.013347298,1.0948997,-0.97726977,0.020683274,1.1694682,0.25870243,-0.3116687,-0.19485527,1.5484059,-2.5757031
0.0,-0.1,0.7,0.5235987755982988,0.5235987755982988,0,-2.6786354,1.9898002,0.08803897,-0.5483637,-0.036478803,1.0938537,-1.023341,0.029535616,1.1721821,0.26399615,-0.29925883,-0.18705435,1.5373058,-2.7620778
0.0,-0.1,0.7,0.5235987755982988,0.5235987755982988,0,-2.57177,1.9893391,0.025906805,-0.5649267,-0.046702173,1.0983686,-0.9082302,0.014449151,1.1705947,0.26931813,-0.29397097,-0.11843017,1.5475268,-2.6073647
0.0,-0.1,0.7,0.5235987755982988,0.5235987755982988,0,-2.6641583,1.9930191,0.08178564,-0.5489308,-0.041877147,1.0979567,-0.94371253,0.007271708,1.1582254,0.26738557,-0.29941374,-0.16472948,1.5482866,-2.690633
0.0,-0.1,0.7,0.5235987755982988,0.5235987755982988,0,-2.7353766,1.9947127,0.13343224,-0.53149074,-0.05826914,1.0904886,-0.98107,-0.0016513712,1.1609012,0.2694546,-0.3094464,-0.24963728,1.5294235,-2.6938941
0.0,-0.1,0.7,0.5235987755982988,0.5235987755982988,0,-2.598894,1.9901298,0.05548003,-0.54037654,-0.069588445,1.06877,-1.0242922,0.0195029,1.1768368,0.2700168,-0.31073183,-0.13873743,1.5454504,-2.6933925
0.0,-0.1,0.7,0.5235987755982988,0.5235987755982988,0,-2.5497346,1.9910321,0.08147528,-0.5282281,-0.059753187,1.0733489,-1.0603586,0.001918412,1.1598027,0.2596335,-0.29986116,-0.22744434,1.5346661,-2.7039664
0.0,-0.1,0.7,0.5235987755982988,0.5235987755982988,0,-2.6404474,1.993274,0.05957845,-0.5614232,-0.03206252,1.1012938,-0.966461,0.020459464,1.1679372,0.2648192,-0.30156752,-0.118706174,1.5266702,-2.5027063
0.0,-0.1,0.7,0.5235987755982988,0.5235987755982988,0,-2.5703187,1.994144,0.07260989,-0.5375123,-0.019652607,1.0961394,-0.9570812,0.005526822,1.1596953,0.2617903,-0.30166093,-0.11893287,1.5349157,-2.7224548
0.0,-0.1,0.7,0.5235987755982988,0.5235987755982988,0,-2.6083682,1.9901407,0.060523313,-0.539306,-0.034021866,1.0810949,-0.98717296,0.023402134,1.1615199,0.26883566,-0.2953542,-0.1584005,1.5466006,-2.6462095
0.0,-0.1,0.7,0.5235987755982988,0.5235987755982988,0,-2.5912511,1.9921819,0.083824605,-0.54600465,-0.048254903,1.106202,-0.90243137,0.036234938,1.1662011,0.25352904,-0.30361986,-0.19225511,1.5464494,-2.76621
0.0,-0.1,0.7,0.5235987755982988,0.5235987755982988,0,-2.5955732,1.9958688,0.045232277,-0.55456334,-0.057943985,1.0874923,-0.9559351,0.02347394,1.1743906,0.26438558,-0.3112345,-0.17038268,1.5382318,-2.5730612
0.0,-0.1,0.7,0.5235987755982988,0.5235987755982988,0,-2.6568446,1.9887064,0.09147575,-0.5335616,-0.043031603,1.0867993,-0.9619637,0.022478336,1.1627637,0.26747614,-0.31079623,-0.14192519,1.5533111,-2.5370219
0.0,-0.1,0.7,0.5235987755982988,0.5235987755982988,0,-2.587368,1.9964345,0.10284411,-0.5531789,-0.035127174,1.1139435,-1.0590991,0.02360551,1.1764778,0.27292815,-0.30434865,-0.17629965,1.536185,-2.6308188
0.0,-0.1,0.7,0.5235987755982988,0.5235987755982988,0,-2.7136245,1.9913018,0.13132553,-0.51268715,-0.029969608,1.089723,-0.9009316,0.022255754,1.1707875,0.26295143,-0.29692754,-0.15265661,1.5426292,-2.5190752
0.0,-0.1,0.7,0.5235987755982988,0.5235987755982988,0,-2.7765148,1.9907217,0.06867111,-0.5669921,-0.04159307,1.0656811,-1.0222783,0.010537385,1.1584619,0.26071712,-0.30182076,-0.21529388,1.539219,-2.6109445
0.0,-0.1,0.7,0.5235987755982988,0.5235987755982988,0,-2.6396174,1.9920394,0.06411842,-0.5748561,-0.038770597,1.1100557,-1.0354806,0.0026770723,1.1635721,0.2578049,-0.31289795,-0.19251743,1.5449455,-2.581062
0.0,-0.1,0.7,0.5235987755982988,0.5235987755982988,0,-2.5257604,1.9895517,0.06209475,-0.52898526,-0.04117701,1.0924243,-0.8714436,0.0313753,1.1662178,0.27086875,-0.29376882,-0.15080051,1.5356797,-2.5889072
0.0,-0.1,0.7,0.5235987755982988,0.5235987755982988,0,-2.6671765,1.9956712,0.06545604,-0.5797426,-0.108502924,1.0854807,-0.8610531,0.0070086382,1.1613791,0.26059082,-0.31518584,-0.121495575,1.5319109,-2.5989695
0.0,-0.1,0.7,0.5235987755982988,0.5235987755982988,0,-2.64999,1.9909314,0.10655745,-0.5495896,-0.05447934,1.072152,-0.93417925,0.027099425,1.1761909,0.2479999,-0.30317527,-0.1806142,1.5372418,-2.801963
0.0,-0.1,0.7,0.5235987755982988,0.5235987755982988,0,-2.7532368,1.9932564,0.07466319,-0.5773656,-0.074005425,1.0851266,-0.9534933,0.041496564,1.1536126,0.2612026,-0.29525048,-0.115027934,1.5190461,-2.8327966
0.0,-0.1,0.7,0.5235987755982988,0.5235987755982988,0,-2.6041598,1.9899129,0.08050871,-0.52401966,-0.033207383,1.0768003,-1.0130602,0.030509198,1.1720079,0.26605213,-0.3054606,-0.16265956,1.5336819,-2.607449
0.0,-0.1,0.7,0.5235987755982988,0.5235987755982988,0,-2.6462133,1.991418,0.07281842,-0.54767185,-0.04373461,1.079214,-1.113956,0.010926183,1.1601282,0.24975897,-0.30107057,-0.17752405,1.530198,-2.4914484
0.0,-0.1,0.7,0.5235987755982988,0.5235987755982988,0,-2.5890803,1.990116,0.0720639,-0.5503888,-0.036008235,1.0988798,-1.0040104,0.0076861754,1.1563691,0.25844336,-0.29913622,-0.18734685,1.5476223,-2.8678498
0.0,-0.1,0.7,0.5235987755982988,0.5235987755982988,0,-2.6428864,1.9904977,0.054397833,-0.55202043,-0.019506358,1.1038649,-0.8867234,0.02427883,1.1591736,0.27389565,-0.30188435,-0.1187697,1.5293502,-2.6299317
0.0,-0.1,0.7,0.5235987755982988,0.5235987755982988,0,-2.6331997,1.9928691,0.10218232,-0.5426384,-0.07041851,1.093752,-1.0290667,0.024907004,1.168966,0.27647293,-0.30688205,-0.21715449,1.5327048,-2.6840537
0.0,-0.1,0.7,0.5235987755982988,0.5235987755982988,0,-2.5849407,1.9920619,0.068131424,-0.5535779,-0.039370112,1.1130812,-0.90479326,0.014850412,1.1583726,0.26348028,-0.29348767,-0.2489702,1.5435157,-2.4852583
0.0,-0.1,0.7,0.5235987755982988,0.5235987755982988,0,-2.6017761,1.9855186,0.071242034,-0.58874434,-0.0028429516,1.1164373,-0.9974055,0.023560444,1.1653469,0.26833746,-0.30812427,-0.20757084,1.5308062,-2.6075208
0.0,-0.1,0.7,0.5235987755982988,0.5235987755982988,0,-2.7326586,1.9950122,0.052638233,-0.55957514,-0.030193316,1.0614309,-1.038126,0.01607687,1.1682297,0.2641606,-0.3043383,-0.09794336,1.5387207,-2.4215882
0.0,-0.1,0.7,0.5235987755982988,0.5235987755982988,0,-2.6936412,1.9867164,0.10143927,-0.527476,-0.037470486,1.0934156,-0.94439715,0.025857307,1.17675,0.27246004,-0.30574185,-0.16132626,1.5426894,-2.65557
0.0,-0.1,0.7,0.5235987755982988,0.5235987755982988,0,-2.6905308,1.9895705,0.042814285,-0.55908746,-0.06390805,1.0696462,-0.9193945,0.019584842,1.1729555,0.26544005,-0.30799827,-0.18980452,1.5414777,-2.70432
0.0,-0.1,0.7,0.5235987755982988,0.5235987755982988,0,-2.7468848,1.9914808,0.09192956,-0.57134855,-0.053037554,1.0810077,-1.009867,0.020357406,1.1657693,0.26554394,-0.3014672,-0.22130916,1.5340585,-2.6866887
0.0,-0.1,0.7,0.5235987755982988,0.5235987755982988,0,-2.6661313,1.9887167,0.09239021,-0.5409383,-0.07002217,1.0892212,-0.9883193,0.027479978,1.1737779,0.26836693,-0.3114304,-0.23732547,1.5532982,-2.6952455
0.0,-0.1,0.7,0.5235987755982988,0.5235987755982988,0,-2.6625724,1.9934382,0.07896095,-0.57287765,-0.046624962,1.0839822,-1.0313228,0.0017142845,1.1745027,0.2730105,-0.30552292,-0.17284879,1.5395993,-2.6393461
0.0,-0.1,0.7,0.5235987755982988,0.5235987755982988,0,-2.683808,1.9932848,0.07376664,-0.5581938,-0.0875755,1.0711867,-1.0230813,0.0131373,1.1707858,0.27685863,-0.30216175,-0.22268564,1.5455652,-2.6875901
0.0,-0.1,0.7,0.5235987755982988,0.5235987755982988,0,-2.689774,1.9887139,0.12564714,-0.55521256,-0.07294177,1.0990278,-0.88398784,0.032398287,1.1648062,0.25009394,-0.30059096,-0.22825621,1.5438533,-2.583104
0.0,-0.1,0.7,0.5235987755982988,0.5235987755982988,0,-2.566034,1.9927274,0.07754746,-0.55287004,-0.024473393,1.0943682,-0.9617945,0.015484305,1.1652279,0.2520215,-0.2964659,-0.19910611,1.5280582,-2.7129
0.0,-0.1,0.7,0.5235987755982988,0.5235987755982988,0,-2.7545426,1.9942839,0.069280766,-0.52942854,-0.06152742,1.0348612,-0.9932386,0.024284212,1.1700034,0.2776185,-0.28945637,-0.18468001,1.5414021,-2.7457786
0.0,-0.1,0.7,0.5235987755982988,0.5235987755982988,0,-2.6070023,1.9905117,0.04836322,-0.5917288,-0.09326429,1.0795367,-0.95635873,-0.004120912,1.1667163,0.26206362,-0.29345447,-0.24838988,1.5497974,-2.45332
0.0,-0.1,0.7,0.5235987755982988,0.5235987755982988,0,-2.5941038,1.9933379,0.05207355,-0.6156529,-0.060133386,1.1054046,-1.0390828,0.017390337,1.1624882,0.2641478,-0.32769167,-0.13997176,1.530806,-2.635472
0.0,-0.1,0.7,0.5235987755982988,0.5235987755982988,0,-2.8154356,1.9908855,0.076019,-0.5404409,-0.07512856,1.0766112,-0.96829295,0.00073045323,1.1721483,0.26569176,-0.2939843,-0.25106385,1.5465534,-2.4741874
0.0,-0.1,0.7,0.5235987755982988,0.5235987755982988,0,-2.7001302,1.9927075,0.06494543,-0.5845633,-0.078008555,1.0926393,-0.9480347,0.030349217,1.1543777,0.2590015,-0.30603883,-0.16364719,1.5474895,-2.9524736
0.0,-0.1,0.7,0.5235987755982988,0.5235987755982988,0,-2.690968,1.9891262,0.0647035,-0.578057,-0.058760878,1.0810947,-0.99822056,0.0075467676,1.1643608,0.25232625,-0.30465192,-0.14899309,1.5237726,-2.7059405
0.0,-0.1,0.7,0.5235987755982988,0.5235987755982988,0,-2.7500794,1.9931062,0.036137138,-0.56711566,-0.0594237,1.0899708,-0.90402085,0.024132106,1.1536046,0.265191,-0.30002722,-0.21276742,1.5421964,-2.917972
0.0,-0.1,0.7,0.5235987755982988,0.5235987755982988,0,-2.6427882,1.9952226,0.05031634,-0.60566175,-0.026839167,1.1074363,-0.9755314,0.022888506,1.1693362,0.266379,-0.3108269,-0.21451458,1.5349106,-2.4991508
0.0,-0.1,0.7,0.5235987755982988,0.5235987755982988,0,-2.7432947,1.9904786,0.0898644,-0.5739738,-0.04765948,1.0830907,-0.9220108,0.016620645,1.1698531,0.2504455,-0.30776626,-0.15667745,1.5515279,-2.5330226
0.0,-0.1,0.7,0.5235987755982988,0.5235987755982988,0,-2.6233635,1.9895077,0.045681734,-0.57261777,-0.06028949,1.0890998,-0.9017676,0.023114946,1.1691778,0.2591992,-0.3026891,-0.2297114,1.5332463,-2.765279
0.0,-0.1,0.7,0.5235987755982988,0.5235987755982988,0,-2.6886518,1.9923334,0.08043637,-0.5653166,-0.05038854,1.0786725,-0.92532086,0.027385732,1.1589411,0.26317418,-0.2912848,-0.20144406,1.5461497,-2.5427558
0.0,-0.1,0.7,0.5235987755982988,0.5235987755982988,0,-2.7330093,1.9929899,0.047392506,-0.5634681,-0.04520492,1.0828158,-0.98364776,0.038609862,1.1648973,0.2608425,-0.30968258,-0.12884189,1.5444981,-2.9018955
0.0,-0.1,0.7,0.5235987755982988,0.5235987755982988,0,-2.7042272,1.9909369,0.06718333,-0.56393903,-0.005460892,1.0800891,-0.989553,0.029712358,1.1702641,0.2637199,-0.29670313,-0.21710972,1.5402797,-2.6940367
0.0,-0.1,0.7,0.5235987755982988,0.5235987755982988,0,-2.6735606,1.9893507,0.04901666,-0.5615661,-0.048793655,1.0840948,-0.8773505,0.033508807,1.1607578,0.2632059,-0.2988907,-0.22607008,1.5374764,-2.623692
0.0,-0.1,0.7,0.5235987755982988,0.5235987755982988,0,-2.6184392,1.9938024,0.04645998,-0.56704617,-0.05171078,1.0861055,-1.0107776,0.008076371,1.1671263,0.25145772,-0.29641593,-0.23680209,1.5459659,-2.500875
0.0,-0.1,0.7,0.5235987755982988,0.5235987755982988,0,-2.650703,1.9927007,0.05206655,-0.5955212,-0.0739744,1.0744163,-0.9626798,0.010334869,1.1752932,0.24193743,-0.31877342,-0.23885876,1.5514795,-2.4836333
0.0,-0.1,0.7,0.5235987755982988,0.5235987755982988,0,-2.707445,1.9957719,0.057876173,-0.58858234,-0.036835536,1.0809788,-0.9522002,0.0076914104,1.1807511,0.2674111,-0.3116667,-0.20819451,1.5143577,-2.7782047
0.0,-0.1,0.7,0.5235987755982988,0.5235987755982988,0,-2.836153,1.9948597,0.07265563,-0.54944664,-0.06724587,1.0603328,-0.9702474,0.013200524,1.1690757,0.2644197,-0.311585,-0.24050319,1.5310704,-2.5714488
0.0,-0.1,0.7,0.5235987755982988,0.5235987755982988,0,-2.7045352,1.991515,0.09820046,-0.5522591,-0.070636496,1.060089,-0.92357534,0.0057888487,1.1650714,0.26483586,-0.3168406,-0.22581889,1.5435259,-2.7896893
0.0,-0.1,0.7,0.5235987755982988,0.5235987755982988,0,-2.6248515,1.9982047,0.074981175,-0.5586353,-0.035531398,1.0848771,-1.0321842,0.025626834,1.1709391,0.26839814,-0.29950568,-0.24797527,1.5325778,-2.715158
0.0,-0.1,0.7,0.5235987755982988,0.5235987755982988,0,-2.736174,1.9913762,0.0644165,-0.5823266,-0.029845528,1.055179,-1.0004932,0.02507687,1.1670314,0.26167077,-0.2996873,-0.20146967,1.5239959,-2.719184
0.0,-0.1,0.7,0.5235987755982988,0.5235987755982988,0,-2.6903324,1.9909998,0.05071352,-0.5676523,-0.070454985,1.068159,-0.99624896,0.014662148,1.1561049,0.2721985,-0.29027048,-0.23998877,1.532385,-2.566478
0.0,-0.1,0.7,0.5235987755982988,0.5235987755982988,0,-2.7441547,1.9935486,0.0889101,-0.5719111,-0.04541083,1.065713,-0.9473207,0.019857781,1.171651,0.28634632,-0.30904183,-0.2325099,1.540755,-2.564264
0.0,-0.1,0.7,0.5235987755982988,0.5235987755982988,0,-2.7722619,1.996415,0.044397473,-0.5967995,-0.06381784,1.0709561,-1.0204661,0.02692305,1.1632825,0.24863103,-0.29346794,-0.20393403,1.5634223,-2.5526311
0.0,-0.1,0.7,0.5235987755982988,0.5235987755982988,0,-2.7469914,1.994155,0.05772404,-0.5667714,-0.023448627,1.0871478,-0.90391123,0.034776036,1.1608926,0.26303992,-0.30510044,-0.17583811,1.5317993,-2.6444726
0.0,-0.1,0.7,0.5235987755982988,0.5235987755982988,0,-2.6107786,1.9937298,0.092076026,-0.5681179,-0.05980846,1.082458,-1.0237583,0.0049342327,1.1739444,0.26779047,-0.2944913,-0.16410795,1.5359374,-2.8907018
0.0,-0.1,0.7,0.5235987755982988,0.5235987755982988,0,-2.7553792,1.9943004,0.06320904,-0.5882717,-0.04048799,1.0907484,-1.030119,0.010988905,1.167584,0.25573203,-0.2941761,-0.15717277,1.556404,-2.3202796
0.0,-0.1,0.7,0.5235987755982988,0.5235987755982988,0,-2.6256502,1.9973841,0.09918917,-0.5998519,-0.028499221,1.0859498,-0.94314194,0.03326657,1.1750637,0.25991657,-0.29241878,-0.2172825,1.5250514,-2.494986
0.0,-0.1,0.7,0.5235987755982988,0.5235987755982988,0,-2.6587589,1.9917784,0.08178476,-0.57422304,-0.06656301,1.0567006,-0.9161114,0.024516987,1.1678051,0.25064552,-0.2984773,-0.15900223,1.5533704,-2.725556
0.0,-0.1,0.7,0.5235987755982988,0.5235987755982988,0,-2.6323507,1.9897318,0.07008123,-0.5651366,-0.06033557,1.0684056,-0.9283831,0.03425521,1.164154,0.2726584,-0.31200588,-0.19849694,1.538323,-2.7360487
0.0,-0.1,0.7,0.5235987755982988,0.5235987755982988,0,-2.7399867,1.9918842,0.061122406,-0.5862339,-0.021243578,1.0743096,-0.9473453,0.01567524,1.1628207,0.27554232,-0.3046251,-0.18844363,1.518041,-2.6863177
0.0,-0.1,0.7,0.5235987755982988,0.5235987755982988,0,-2.6305358,1.9908508,0.0580188,-0.55034363,-0.04757298,1.0550894,-0.8767091,0.0028540676,1.1633356,0.26256824,-0.2970744,-0.22585051,1.5348552,-2.5730057
0.0,-0.1,0.7,0.5235987755982988,0.5235987755982988,0,-2.680506,1.986458,0.09505864,-0.57315326,-0.04595647,1.0753084,-1.0490656,0.00378116,1.1690502,0.26473758,-0.30532035,-0.19036233,1.5513395,-2.5964823
0.0,-0.1,0.7,0.5235987755982988,0.5235987755982988,0,-2.6100492,1.9908386,0.044287015,-0.5539223,-0.08333577,1.0374861,-0.95899105,0.013914501,1.1654116,0.27667728,-0.29650524,-0.17619728,1.5431588,-2.3725553
0.0,-0.1,0.7,0.5235987755982988,0.5235987755982988,0,-2.642713,1.993596,0.05272917,-0.5676147,-0.04470089,1.0778786,-0.96171075,0.012798488,1.1650202,0.28325027,-0.3115772,-0.21470155,1.5332098,-2.5932972
0.0,-0.1,0.7,0.5235987755982988,0.5235987755982988,0,-2.6160927,1.988449,0.09518475,-0.56459767,-0.057686217,1.0739566,-0.95663804,0.022465242,1.157596,0.25369343,-0.29896247,-0.13866729,1.5508227,-2.53524
0.0,-0.1,0.7,0.5235987755982988,0.5235987755982988,0,-2.5909653,1.9864341,0.074968964,-0.5587911,-0.068369165,1.0536777,-0.9148407,0.03208144,1.1665301,0.2550899,-0.32166174,-0.20549487,1.5346403,-2.5664253
0.0,-0.1,0.7,0.5235987755982988,0.5235987755982988,0,-2.6283085,1.9912833,0.0676904,-0.5676122,-0.035076622,1.0621486,-0.9367791,0.0109194815,1.1727406,0.24734755,-0.29692948,-0.18143068,1.5406389,-2.6959898
0.0,-0.1,0.7,0.5235987755982988,0.5235987755982988,0,-2.6537974,1.9895469,0.047930937,-0.57202846,-0.01795183,1.0662186,-0.90923876,0.015970172,1.1636223,0.2709056,-0.3022359,-0.16879609,1.5253597,-2.603747
0.0,-0.1,0.7,0.5235987755982988,0.5235987755982988,0,-2.6577673,1.9936805,0.026114615,-0.5706835,-0.09320367,1.0786388,-1.0264742,0.0036825214,1.1602789,0.27426964,-0.31665087,-0.18157904,1.5487841,-2.7840724
0.0,-0.1,0.7,0.5235987755982988,0.5235987755982988,0,-2.663132,1.99036,0.074025236,-0.5746242,-0.05650205,1.0708935,-0.8991798,0.025208553,1.160922,0.23907548,-0.30294865,-0.19729355,1.5288074,-2.69921
0.0,-0.1,0.7,0.5235987755982988,0.5235987755982988,0,-2.6777043,1.9887277,0.04415423,-0.5735545,-0.0386626,1.0660498,-0.98110825,-0.0048208176,1.1667532,0.23977785,-0.3011315,-0.15518676,1.55013,-2.6850007
0.0,-0.1,0.7,0.5235987755982988,0.5235987755982988,0,-2.653718,1.9957131,0.09307523,-0.5533559,-0.010371389,1.083954,-0.9906675,0.02821955,1.1601892,0.2631262,-0.3011602,-0.1855156,1.5435153,-2.5274503
0.0,-0.1,0.7,0.5235987755982988,0.5235987755982988,0,-2.5019805,1.9913802,0.058442634,-0.55517167,-0.0491681,1.0786122,-0.95581913,0.03629579,1.1595381,0.26246274,-0.29870924,-0.15361002,1.5539879,-2.60681
0.0,-0.1,0.7,0.5235987755982988,0.5235987755982988,0,-2.7116578,1.995945,0.08392523,-0.5843048,-0.03669941,1.0924754,-1.0472924,0.01913316,1.1665963,0.268249,-0.31710157,-0.20119804,1.5347066,-2.7095034
0.0,-0.1,0.7,0.5235987755982988,0.5235987755982988,0,-2.5915387,1.9912407,0.047602102,-0.55172914,-0.05635347,1.0854895,-0.8792213,0.01797886,1.1644987,0.2772731,-0.3099693,-0.20927025,1.514147,-2.4808364
0.0,-0.1,0.7,0.5235987755982988,0.5235987755982988,0,-2.5423293,1.99038,0.09640725,-0.5402063,-0.0331163,1.0842701,-0.95071346,-1.0712889e-05,1.1626436,0.27113062,-0.31457087,-0.22131033,1.5436642,-2.8225994
0.0,-0.1,0.7,0.5235987755982988,0.5235987755982988,0,-2.7215836,1.9872124,0.065541595,-0.5734419,-0.06552636,1.0895244,-0.9570261,0.019463424,1.1558397,0.27098003,-0.29322267,-0.18691117,1.5611954,-2.7734635
0.0,-0.1,0.7,0.5235987755982988,0.5235987755982988,0,-2.5711923,1.9883965,0.06070283,-0.58568275,-0.059835672,1.0858694,-1.022592,0.0032781844,1.1649157,0.26041806,-0.30295706,-0.2015049,1.5449866,-2.5970616
0.0,-0.1,0.7,0.5235987755982988,0.5235987755982988,0,-2.6594343,1.9969279,0.0588633,-0.5755763,-0.04596444,1.1058362,-1.0008671,0.022388473,1.1570278,0.28168753,-0.3056298,-0.21024427,1.5255574,-2.7469656
0.0,-0.1,0.7,0.5235987755982988,0.5235987755982988,0,-2.7740896,1.9909935,0.088122696,-0.5636559,-0.05010093,1.0853441,-1.0719961,0.011108101,1.1626892,0.2778409,-0.30906764,-0.21638742,1.548929,-2.915647
0.0,-0.1,0.7,0.5235987755982988,0.5235987755982988,0,-2.5327263,1.9926625,0.100113854,-0.5319111,-0.044551156,1.0535063,-0.948409,0.01175395,1.1731939,0.25725904,-0.31278127,-0.23027012,1.5321535,-2.5417356
0.0,-0.1,0.7,0.5235987755982988,0.5235987755982988,0,-2.6651444,1.9952862,0.101761706,-0.57788026,-0.06942448,1.1008042,-0.9195125,0.027425,1.153144,0.2768826,-0.30444762,-0.24238876,1.5346934,-2.6834238
0.0,-0.1,0.7,0.5235987755982988,0.5235987755982988,0,-2.6611934,1.9954715,0.07081999,-0.5756581,-0.06431215,1.0744393,-0.953615,0.005489212,1.1585226,0.27000868,-0.31739768,-0.238342,1.5570754,-2.7336576
0.0,-0.1,0.7,0.5235987755982988,0.5235987755982988,0,-2.6457694,1.9959068,0.055142473,-0.55265826,-0.06483846,1.102776,-0.9356686,0.020328889,1.1548717,0.23941243,-0.29986712,-0.23650908,1.5410472,-2.7567408
0.0,-0.1,0.7,0.5235987755982988,0.5235987755982988,0,-2.6327724,1.990825,0.07477251,-0.5795077,-0.0506898,1.1049768,-0.9635369,0.017149579,1.1692908,0.2565003,-0.30080903,-0.22176474,1.534295,-2.6433215
0.0,-0.1,0.7,0.5235987755982988,0.5235987755982988,0,-2.5372,1.9935223,0.06591656,-0.57564294,-0.07640091,1.0808814,-0.99654496,0.0070678103,1.1604606,0.25661993,-0.31313905,-0.2273763,1.5384809,-2.4513505
0.0,-0.1,0.7,0.5235987755982988,0.5235987755982988,0,-2.7221384,1.9919968,0.10148378,-0.5606215,-0.081897214,1.0872153,-1.0116087,-0.00994583,1.1651598,0.27792203,-0.30176023,-0.21825488,1.5418108,-2.7107437
0.0,-0.1,0.7,0.5235987755982988,0.5235987755982988,0,-2.5973969,1.9926835,0.08092005,-0.5475802,-0.056122717,1.0575532,-0.9829195,0.025510406,1.1533785,0.26841933,-0.2992735,-0.22372529,1.5322217,-2.8804555
0.0,-0.1,0.7,0.5235987755982988,0.5235987755982988,0,-2.6422312,1.9898168,0.059949066,-0.56201065,-0.07271835,1.1068274,-1.0338137,0.0063270377,1.1642652,0.2566264,-0.31309745,-0.23000236,1.5482987,-2.5301604
0.0,-0.1,0.7,0.5235987755982988,0.5235987755982988,0,-2.671403,1.9946454,0.065523304,-0.5641925,-0.025925215,1.067473,-1.0412539,0.013768225,1.1794645,0.2747034,-0.29725856,-0.18209608,1.5095373,-2.8523953
0.0,-0.1,0.7,0.5235987755982988,0.5235987755982988,0,-2.5772436,1.9968138,0.049424812,-0.5546585,-0.048007503,1.0890507,-0.99778455,0.0041377367,1.1601237,0.26156816,-0.30005845,-0.22975972,1.5379568,-2.5941055
0.0,-0.1,0.7,0.5235987755982988,0.5235987755982988,0,-2.7270386,1.9969883,0.0746447,-0.561212,-0.046106927,1.0655739,-0.96116596,0.031176576,1.1705922,0.25791842,-0.30912703,-0.20671062,1.5424899,-2.780287
0.0,-0.1,0.7,0.5235987755982988,0.5235987755982988,0,-2.6310596,1.9953537,0.037876077,-0.55003476,-0.0017889274,1.0977504,-0.9592142,0.016041778,1.1758528,0.26814872,-0.31843382,-0.19239058,1.5389417,-2.7281864
0.0,-0.1,0.7,0.5235987755982988,0.5235987755982988,0,-2.7739785,1.9919815,0.092698336,-0.54650116,-0.032889836,1.1003375,-0.95748353,0.021387054,1.1644788,0.26755095,-0.3163065,-0.2041191,1.527318,-2.5815516
0.0,-0.1,0.7,0.5235987755982988,0.5235987755982988,0,-2.7247918,1.9922961,0.06820451,-0.54427457,-0.03121223,1.1054829,-0.9570746,0.031783435,1.1530446,0.26442814,-0.30684665,-0.14853024,1.5419848,-2.8301778
0.0,-0.1,0.7,0.5235987755982988,0.5235987755982988,0,-2.6280293,1.9962469,0.050757784,-0.5707376,-0.02397982,1.0902106,-1.0022277,0.030067513,1.1760255,0.260946,-0.32053462,-0.17405583,1.5469478,-2.6697264
0.0,-0.1,0.7,0.5235987755982988,0.5235987755982988,0,-2.7830784,1.9919446,0.0655884,-0.5623467,-0.05168943,1.0897228,-0.99089813,0.016682604,1.1655239,0.25976107,-0.31128561,-0.21991146,1.5574251,-2.707752
0.0,-0.1,0.7,0.5235987755982988,0.5235987755982988,0,-2.5988853,1.9842021,0.072282046,-0.5776572,-0.016314905,1.0926377,-0.9773141,0.0112089645,1.1602868,0.26320705,-0.3022398,-0.22155505,1.5529586,-2.6305652
0.0,-0.1,0.7,0.5235987755982988,0.5235987755982988,0,-2.6284146,1.9970101,0.04311376,-0.5784379,-0.03443808,1.0998747,-1.0420271,0.018105065,1.1624684,0.25236857,-0.27988172,-0.21576265,1.5161476,-2.7611816
0.0,-0.1,0.7,0.5235987755982988,0.5235987755982988,0,-2.694757,1.9906528,0.06635932,-0.54543734,-0.028487947,1.1040467,-0.987264,0.0074193813,1.159762,0.25056648,-0.3176904,-0.18335885,1.5561122,-2.6167552
0.0,-0.1,0.7,0.5235987755982988,0.5235987755982988,0,-2.6777492,1.9920912,0.060482904,-0.5319056,-0.05158587,1.1113259,-1.032697,0.014459203,1.1644163,0.26889902,-0.3253941,-0.14260964,1.532972,-2.4364974
0.0,-0.1,0.7,0.5235987755982988,0.5235987755982988,0,-2.717106,1.9892693,0.05600283,-0.5580504,-0.042043343,1.0695474,-1.0119766,0.0056172693,1.1660267,0.27531868,-0.30203867,-0.21855186,1.5438126,-2.5994647
0.0,-0.1,0.7,0.5235987755982988,0.5235987755982988,0,-2.6832044,1.9921243,0.08409787,-0.5575561,-0.04443055,1.1062578,-1.006419,0.018878179,1.1635287,0.24708873,-0.3123448,-0.14214668,1.5249783,-2.6113672
0.0,-0.1,0.7,0.5235987755982988,0.5235987755982988,0,-2.5842352,1.9891757,0.045975402,-0.5522226,-0.070777036,1.0967101,-1.0530509,0.017074766,1.1610502,0.279766,-0.30467686,-0.16876546,1.5353452,-2.8150847
0.0,-0.1,0.7,0.5235987755982988,0.5235987755982988,0,-2.7293162,1.9940852,0.07438145,-0.5694263,-0.045100655,1.0969163,-1.067915,0.009087406,1.1683103,0.25104848,-0.30614123,-0.13320811,1.5335971,-2.7692554
0.0,-0.1,0.7,0.5235987755982988,0.5235987755982988,0,-2.6905754,1.992009,0.092290096,-0.5633461,-0.07596337,1.0611221,-0.97386223,0.0014844782,1.1655958,0.2687877,-0.3108276,-0.16650312,1.5405354,-2.7442935
0.0,-0.1,0.7,0.5235987755982988,0.5235987755982988,0,-2.6369302,1.9940712,0.07210385,-0.572729,-0.06271846,1.0573014,-0.93112653,0.016141973,1.1726904,0.2606196,-0.30847624,-0.17771177,1.5473199,-2.5661025
0.0,-0.1,0.7,0.5235987755982988,0.5235987755982988,0,-2.6872728,1.9941123,0.08639397,-0.5692835,-0.05515983,1.057514,-0.94123745,0.036691178,1.1793149,0.26986095,-0.30137217,-0.15051512,1.5442612,-2.8402662
0.0,-0.1,0.7,0.5235987755982988,0.5235987755982988,0,-2.6512845,1.9933255,0.069415666,-0.5813684,-0.092378154,1.0701078,-0.88696504,0.024638223,1.1741418,0.26297003,-0.2948505,-0.13133548,1.5243698,-2.7781527
0.0,-0.1,0.7,0.5235987755982988,0.5235987755982988,0,-2.520071,1.989461,0.07312526,-0.586656,-0.036465447,1.1042688,-1.0289576,0.003955215,1.1644866,0.27955094,-0.30347726,-0.14213613,1.5371604,-2.59689
0.0,-0.1,0.7,0.5235987755982988,0.5235987755982988,0,-2.6536114,1.9931403,0.045113634,-0.55076486,-0.018870698,1.0825639,-0.9666288,0.024249824,1.1487905,0.26129633,-0.31079003,-0.19760485,1.535663,-2.5289955
0.0,-0.1,0.7,0.5235987755982988,0.5235987755982988,0,-2.657184,1.991779,0.043855794,-0.5778266,-0.05839137,1.0751665,-0.907942,0.009171202,1.1606843,0.27076894,-0.30175808,-0.19725439,1.5200938,-2.5763643
0.0,-0.1,0.7,0.5235987755982988,0.5235987755982988,0,-2.6017005,1.9897212,0.03483451,-0.57664037,-0.063417666,1.0470152,-0.94769645,0.022298602,1.1590049,0.2744269,-0.31342056,-0.24676815,1.5607232,-2.6356807
0.0,-0.1,0.7,0.5235987755982988,0.5235987755982988,0,-2.7150376,1.989771,0.094654016,-0.5672418,-0.056171805,1.0922692,-1.0196674,0.0078023416,1.1727353,0.26534295,-0.30444914,-0.19844297,1.5305351,-2.68689
0.0,-0.1,0.7,0.5235987755982988,0.5235987755982988,0,-2.6596699,1.9906715,0.06337194,-0.563381,-0.04641284,1.0753894,-0.97846293,0.024678515,1.1740155,0.27857292,-0.29758507,-0.22723216,1.5285401,-2.683337
0.0,-0.1,0.7,0.5235987755982988,0.5235987755982988,0,-2.6201637,1.9902816,0.040658902,-0.52108246,-0.033962984,1.0436596,-0.92982405,0.017309895,1.1562041,0.25047237,-0.31316853,-0.18385313,1.540234,-2.7542508
0.0,-0.1,0.7,0.5235987755982988,0.5235987755982988,0,-2.5711823,1.9887428,0.063286096,-0.5686563,-0.05786425,1.0810642,-1.0135653,0.028433003,1.1714077,0.24968606,-0.30054927,-0.17103711,1.5291394,-2.794135
0.0,-0.1,0.7,0.5235987755982988,0.5235987755982988,0,-2.6894665,1.9901223,0.062476944,-0.57113695,-0.026014915,1.0680435,-0.9792568,0.015229618,1.1694901,0.25588298,-0.29563564,-0.18412827,1.5369691,-2.684486
0.0,-0.1,0.7,0.5235987755982988,0.5235987755982988,0,-2.6038752,1.9922668,0.06627609,-0.5559349,-0.084229015,1.1001753,-0.96730995,0.006692363,1.1627892,0.24845073,-0.29778692,-0.1806364,1.5221823,-2.6600106
0.0,-0.1,0.7,0.5235987755982988,0.5235987755982988,0,-2.6557746,1.9885427,0.04338948,-0.54981196,-0.03243518,1.0740399,-0.9483293,0.027813906,1.1662489,0.28533944,-0.31165084,-0.16265307,1.5435268,-2.8314722
0.0,-0.1,0.7,0.5235987755982988,0.5235987755982988,0,-2.615148,1.9959368,0.09518739,-0.5803641,-0.05286921,1.0723155,-0.9813709,0.0129655665,1.1691973,0.2723691,-0.30868208,-0.17085956,1.5262678,-2.514067
0.0,-0.1,0.7,0.5235987755982988,0.5235987755982988,0,-2.725802,1.9972664,0.055741977,-0.59802246,-0.058280997,1.0827107,-0.9844675,0.010064168,1.1576933,0.2745345,-0.29247618,-0.16718249,1.5583615,-2.7425883
0.0,-0.1,0.7,0.5235987755982988,0.5235987755982988,0,-2.6720774,1.9928238,0.087899484,-0.5628902,-0.045262594,1.0783936,-0.85753435,0.050434977,1.1669914,0.253301,-0.30108503,-0.15404865,1.5309042,-2.8239446
0.0,-0.1,0.7,0.5235987755982988,0.5235987755982988,0,-2.6963608,1.9918021,0.06582315,-0.59446406,-0.06233089,1.0926089,-0.95467156,0.024647838,1.1617445,0.2553488,-0.29688066,-0.16947567,1.5298643,-2.5446968
0.0,-0.1,0.7,0.5235987755982988,0.5235987755982988,0,-2.6075265,1.9918514,0.09349653,-0.56068194,-0.06651703,1.0666518,-0.92756766,0.015174521,1.1600423,0.26176998,-0.30034202,-0.16650087,1.5393387,-2.8331168
0.0,-0.1,0.7,0.5235987755982988,0.5235987755982988,0,-2.6350627,1.9907528,0.086397894,-0.56771857,-0.05865672,1.0437769,-0.9757961,0.042237278,1.1489127,0.28040287,-0.30995664,-0.23321413,1.5478563,-2.7157555
0.0,-0.1,0.7,0.5235987755982988,0.5235987755982988,0,-2.671875,1.9886105,0.081983715,-0.55315256,-0.050182972,1.0494603,-0.9693774,0.012180222,1.1643964,0.26561338,-0.3142243,-0.14249331,1.5341029,-2.607177
0.0,-0.1,0.7,0.5235987755982988,0.5235987755982988,0,-2.6461616,1.990263,0.047497787,-0.5697957,-0.054300923,1.0561072,-0.9015258,0.016940339,1.1672263,0.2709898,-0.31020975,-0.27039784,1.5397348,-2.5873964
0.0,-0.1,0.7,0.5235987755982988,0.5235987755982988,0,-2.6880016,1.9920957,0.05505309,-0.5565572,-0.062250454,1.038181,-1.0139903,0.011672852,1.1639178,0.2657145,-0.3071579,-0.21196823,1.5514122,-2.5777495
0.0,-0.1,0.7,0.5235987755982988,0.5235987755982988,0,-2.5838556,1.9987484,0.05769844,-0.563379,-0.043176424,1.0518134,-1.0633417,0.03579992,1.1597137,0.25892806,-0.29425257,-0.19017498,1.5343832,-2.6478717
0.0,-0.1,0.7,0.5235987755982988,0.5235987755982988,0,-2.7171288,1.9907427,0.07765971,-0.5662698,-0.040185664,1.056692,-0.9278642,0.032004945,1.1599467,0.27807075,-0.30059233,-0.18915878,1.5387934,-2.595052
0.0,-0.1,0.7,0.5235987755982988,0.5235987755982988,0,-2.6661,1.998086,0.0562596,-0.56946087,-0.033599675,1.0584366,-1.0384443,0.009356084,1.1615083,0.2511618,-0.30235288,-0.13855237,1.549522,-2.6262126
0.0,-0.1,0.7,0.5235987755982988,0.5235987755982988,0,-2.6428308,1.9960315,0.056934487,-0.5696196,-0.0261908,1.0569425,-0.9182946,0.034401793,1.1657151,0.25576273,-0.30353227,-0.15942203,1.5478482,-2.6510625
0.0,-0.1,0.7,0.5235987755982988,0.5235987755982988,0,-2.641031,1.9954314,0.05680137,-0.5464212,-0.028583543,1.0392836,-1.017384,0.045384046,1.1556996,0.2551522,-0.30128595,-0.15629885,1.5599518,-2.6633956
0.0,-0.1,0.7,0.5235987755982988,0.5235987755982988,0,-2.5708473,1.9924016,0.07533025,-0.5684032,-0.06276832,1.0654758,-0.9141095,0.027580578,1.1759318,0.2669356,-0.29787472,-0.22471343,1.5318699,-2.6912622
0.0,-0.1,0.7,0.5235987755982988,0.5235987755982988,0,-2.5982018,1.990272,0.059259385,-0.580673,-0.026208863,1.0698686,-0.8863969,0.0038929672,1.1595253,0.2528008,-0.32547212,-0.22373734,1.5331811,-2.567694
0.0,-0.1,0.7,0.5235987755982988,0.5235987755982988,0,-2.7819662,1.9952257,0.09051957,-0.5688436,-0.08301428,1.0622746,-0.956419,0.03148332,1.1666206,0.2726569,-0.30392003,-0.23461755,1.507977,-2.6224778
0.0,-0.1,0.7,0.5235987755982988,0.5235987755982988,0,-2.6640866,1.9886205,0.077375464,-0.59014475,-0.069759436,1.0821459,-0.99891955,0.02496752,1.1623396,0.25909066,-0.31067926,-0.21289706,1.5354588,-2.621885
0.0,-0.1,0.7,0.5235987755982988,0.5235987755982988,0,-2.6556275,1.9892688,0.07339494,-0.58170485,-0.07280186,1.0612262,-0.88427263,0.011715064,1.1669239,0.25596926,-0.3166132,-0.1743412,1.5296953,-2.5056152
0.0,-0.1,0.7,0.5235987755982988,0.5235987755982988,0,-2.5787678,1.9924852,0.08885123,-0.58818674,-0.044108246,1.1023177,-0.9029703,0.03335982,1.1613989,0.26730466,-0.32017034,-0.2193004,1.5515611,-2.6327977
0.0,-0.1,0.7,0.5235987755982988,0.5235987755982988,0,-2.6307962,1.9909717,0.050404985,-0.58510876,-0.030933432,1.0822375,-0.9588412,-0.0013829028,1.1757373,0.28497133,-0.3084115,-0.24587695,1.5331306,-2.5765853
0.0,-0.1,0.7,0.5235987755982988,0.5235987755982988,0,-2.5733001,1.9967777,0.11023955,-0.5812941,-0.057027135,1.083311,-0.95300585,0.030387092,1.1684086,0.2477258,-0.31487045,-0.18470329,1.5284241,-2.7531564
0.0,-0.1,0.7,0.5235987755982988,0.5235987755982988,0,-2.601784,1.988084,0.050226625,-0.5672998,-0.045704678,1.057227,-0.91971916,0.02945263,1.1678798,0.25879726,-0.30920666,-0.2119542,1.546928,-2.5392385
0.0,-0.1,0.7,0.5235987755982988,0.5235987755982988,0,-2.6093643,1.9950122,0.08136169,-0.574034,-0.056715623,1.0742161,-0.9892123,0.015610305,1.1614283,0.261865,-0.30391297,-0.18912959,1.5617238,-2.8146102
0.0,-0.1,0.7,0.5235987755982988,0.5235987755982988,0,-2.6856945,1.9929142,0.07675685,-0.5867156,-0.055853207,1.0939529,-0.9368269,0.036064,1.163618,0.26185894,-0.31157738,-0.15230972,1.5282279,-2.6378655
0.0,-0.1,0.7,0.5235987755982988,0.5235987755982988,0,-2.6522226,1.9917277,0.08365446,-0.54978293,-0.038116794,1.0554699,-0.92582613,0.012198897,1.1612384,0.23645084,-0.30186206,-0.1533208,1.5545003,-2.4303064
0.0,-0.1,0.7,0.5235987755982988,0.5235987755982988,0,-2.710224,1.9942971,0.08023942,-0.55385065,-0.03454004,1.0529339,-0.96728706,0.008184799,1.1625125,0.26234698,-0.3069819,-0.13683878,1.5301634,-2.7151732
0.0,-0.1,0.7,0.5235987755982988,0.5235987755982988,0,-2.6974242,1.9899769,0.048855536,-0.55095947,-0.05910304,1.0753772,-1.0261309,0.024701307,1.1590058,0.26408198,-0.3071878,-0.18595545,1.5265998,-2.6759667
0.0,-0.1,0.7,0.5235987755982988,0.5235987755982988,0,-2.6206267,1.9931046,0.067101166,-0.5684131,-0.055100072,1.0944939,-1.0020486,0.028526433,1.1589037,0.2744099,-0.31699494,-0.16133985,1.5431865,-2.6011164
0.0,-0.1,0.7,0.5235987755982988,0.5235987755982988,0,-2.7388048,1.9955646,0.069165334,-0.5711745,-0.033922557,1.0583851,-0.9371761,-0.0018584687,1.1635467,0.2816041,-0.30671534,-0.13889396,1.5351906,-2.6858578
0.0,-0.1,0.7,0.5235987755982988,0.5235987755982988,0,-2.670227,1.994498,0.0699488,-0.5689483,-0.068593316,1.0586556,-0.9630892,0.029220495,1.1533965,0.26434126,-0.29867843,-0.20728865,1.5278777,-2.6733541
