sanky1234/BimanualDexCatch/isaacgymenvs/cem_results/football_pose_0.1_-0.1_1.0999999999999999_0.0_0.0_0_2025-05-26.csv
x,y,z,roll,pitch,yaw,robot1/joint1,robot1/joint2,robot1/joint3,robot1/joint4,robot1/joint5,robot1/joint6,robot1/joint7,robot2/joint1,robot2/joint2,robot2/joint3,robot2/joint4,robot2/joint5,robot2/joint6,robot2/joint7
0.1,-0.1,1.0999999999999999,0.0,0.0,0,-1.165249,1.0979819,-0.57772315,0.65842456,-0.9084595,1.2595687,-2.4150488,-1.1482459,-1.547183,0.6472332,-0.030805212,-0.16139384,0.86602783,-0.06569021
0.1,-0.1,1.0999999999999999,0.0,0.0,0,-1.1618017,1.0973105,-0.569277,0.65912056,-0.8787061,1.2758784,-2.4596267,-1.1593679,-1.4920163,0.83832014,-0.013342011,-0.22167543,1.1501466,-1.0744871
0.1,-0.1,1.0999999999999999,0.0,0.0,0,-1.1770629,1.0688497,-0.5866044,0.65873224,-0.8921787,1.2492462,-2.4594414,-1.1622277,-1.5269377,0.59319216,0.053585216,0.17982493,1.502779,1.4181633
0.1,-0.1,1.0999999999999999,0.0,0.0,0,-1.1738344,1.0916682,-0.56932324,0.6590859,-0.8896693,1.2581631,-2.3474412,-1.1429771,-1.5448864,0.64300436,-0.25351956,-0.83136684,0.82107717,-1.7728515
0.1,-0.1,1.0999999999999999,0.0,0.0,0,-1.1724882,1.0925242,-0.6047828,0.6549378,-0.9023186,1.2331163,-2.498531,-1.1408985,-1.531793,0.6539447,0.15567571,-0.21443313,1.1711557,0.33412793
0.1,-0.1,1.0999999999999999,0.0,0.0,0,-1.1638604,1.0373771,-0.5811075,0.662511,-0.88671774,1.2246344,-2.4239097,-1.1560556,-1.532375,0.9412058,-0.13809097,0.022148686,0.84106,-1.2169354
0.1,-0.1,1.0999999999999999,0.0,0.0,0,-1.1590363,1.060995,-0.58542734,0.6595037,-0.8934714,1.2506969,-2.459585,-1.1485609,-1.5101253,1.0438497,-0.16495474,0.16897523,0.8293831,-0.6278101
0.1,-0.1,1.0999999999999999,0.0,0.0,0,-1.1554456,1.0824857,-0.5727285,0.6633841,-0.89312154,1.248845,-2.4032257,-1.1858912,-1.5226543,0.8922944,0.13368134,-0.14857803,1.2224267,-0.497559
0.1,-0.1,1.0999999999999999,0.0,0.0,0,-1.1585419,1.0893897,-0.5858336,0.6548189,-0.91032237,1.2441748,-2.439069,-1.1301544,-1.534018,0.42412323,-0.08693371,-0.37436154,1.0040095,0.6066942
0.1,-0.1,1.0999999999999999,0.0,0.0,0,-1.1526769,1.1019068,-0.58969945,0.6682067,-0.88845026,1.2523865,-2.4455397,-1.1487881,-1.5034467,0.7073543,-0.16286814,-0.5164375,1.0330093,0.6508854
0.1,-0.1,1.0999999999999999,0.0,0.0,0,-1.1599164,1.111491,-0.5918005,0.65727925,-0.88926834,1.2266853,-2.4787586,-1.139438,-1.5335362,0.7701499,-0.1529485,0.2526606,0.94622606,-1.3622736
0.1,-0.1,1.0999999999999999,0.0,0.0,0,-1.173113,1.0470265,-0.5715138,0.66831595,-0.87950116,1.2339685,-2.37828,-1.1347547,-1.45771,0.7351503,0.095495366,-0.08422546,0.6399784,0.62103415
0.1,-0.1,1.0999999999999999,0.0,0.0,0,-1.1500686,1.0847416,-0.5881715,0.668318,-0.89155376,1.258931,-2.39553,-1.148247,-1.5225207,0.85883826,0.0702785,-0.08252409,0.7815214,1.5151665
0.1,-0.1,1.0999999999999999,0.0,0.0,0,-1.1659895,1.0999036,-0.58931565,0.66490906,-0.9059189,1.2329073,-2.4382572,-1.1617609,-1.4946116,0.8547246,0.036126442,0.12960063,1.2302016,-1.0370116
0.1,-0.1,1.0999999999999999,0.0,0.0,0,-1.1555955,1.1045681,-0.5830103,0.6631161,-0.9189056,1.2581791,-2.4958096,-1.1257474,-1.5170412,0.74919444,-0.26936474,-0.02665455,0.9604947,0.21182199
0.1,-0.1,1.0999999999999999,0.0,0.0,0,-1.1660931,1.0524577,-0.58054745,0.66146755,-0.883668,1.2298182,-2.3828738,-1.1610477,-1.5154212,0.75224924,-0.030210473,0.5195306,0.88184947,1.0123498
0.1,-0.1,1.0999999999999999,0.0,0.0,0,-1.1585714,1.0795127,-0.59247226,0.6627674,-0.8785931,1.2559103,-2.4446895,-1.1559974,-1.5430455,0.7847022,-0.0017055568,0.1615263,1.0369495,-0.6010472
0.1,-0.1,1.0999999999999999,0.0,0.0,0,-1.1535228,1.0693245,-0.5940858,0.65902716,-0.8984982,1.2748938,-2.416665,-1.1703061,-1.5093105,0.7489602,-0.2114613,-0.18360099,1.1282538,-0.32130247
0.1,-0.1,1.0999999999999999,0.0,0.0,0,-1.1681772,1.0867684,-0.5699553,0.65431476,-0.8875397,1.2810838,-2.3863575,-1.1359909,-1.5502164,0.42277956,-0.15562896,-0.038434133,0.9283394,-0.51824594
0.1,-0.1,1.0999999999999999,0.0,0.0,0,-1.1615125,1.065357,-0.58891433,0.65564275,-0.89444137,1.2458085,-2.45119,-1.1043619,-1.4759125,1.0848949,-0.053735685,0.036808137,0.8128199,0.40443256
0.1,-0.1,1.0999999999999999,0.0,0.0,0,-1.1748006,1.0826241,-0.5901841,0.6551297,-0.90046656,1.2290536,-2.4680076,-1.1698979,-1.5128254,1.1752224,-0.19740565,-0.14337574,0.91372824,0.251824
0.1,-0.1,1.0999999999999999,0.0,0.0,0,-1.169217,1.0824459,-0.5831643,0.6568183,-0.88385266,1.2528421,-2.5042167,-1.1454259,-1.4918795,0.9239597,0.0020235404,-0.13240664,0.85983557,2.0307412
0.1,-0.1,1.0999999999999999,0.0,0.0,0,-1.1660916,1.0719166,-0.58756036,0.6580807,-0.8942913,1.2516799,-2.479879,-1.1346984,-1.528404,0.78718895,-0.2537958,-0.32798785,1.1056993,1.0791479
0.1,-0.1,1.0999999999999999,0.0,0.0,0,-1.1654861,1.0580418,-0.5970099,0.66881305,-0.8873009,1.2378035,-2.4492126,-1.1531918,-1.5193719,0.60027,0.18480247,-0.05459876,0.47491568,0.94333327
0.1,-0.1,1.0999999999999999,0.0,0.0,0,-1.1624107,1.1064216,-0.5718275,0.66306835,-0.87603223,1.2579191,-2.405968,-1.1220294,-1.551316,0.5713877,-0.08041909,-0.4804333,1.5374901,1.4040229
0.1,-0.1,1.0999999999999999,0.0,0.0,0,-1.166733,1.0481956,-0.5712023,0.6617931,-0.89323485,1.2485328,-2.439194,-1.1684929,-1.5152224,0.88292986,-0.07275219,0.058588073,1.1613994,0.05692671
0.1,-0.1,1.0999999999999999,0.0,0.0,0,-1.159745,1.1030139,-0.57258457,0.669572,-0.9021188,1.2548174,-2.458762,-1.1353143,-1.5206087,1.0268822,-0.18645681,-0.1658594,0.723126,2.2011056
0.1,-0.1,1.0999999999999999,0.0,0.0,0,-1.1639774,1.0890247,-0.5762725,0.6524692,-0.8957803,1.2594693,-2.384822,-1.1491038,-1.5260578,0.55228925,-0.12585728,-0.06625757,0.94135386,0.00886957
0.1,-0.1,1.0999999999999999,0.0,0.0,0,-1.1519899,1.0604014,-0.5838027,0.6712667,-0.89229816,1.2623504,-2.4324698,-1.1169155,-1.5309331,0.61933243,-0.14145742,0.21767719,0.94832563,0.082484215
0.1,-0.1,1.0999999999999999,0.0,0.0,0,-1.1616645,1.026602,-0.59065604,0.6648737,-0.90280694,1.2821178,-2.432943,-1.1498914,-1.5190027,0.5863754,-0.15640938,0.23960443,1.157071,1.6374804
0.1,-0.1,1.0999999999999999,0.0,0.0,0,-1.1615772,1.0742741,-0.56717247,0.6596837,-0.8868239,1.2459773,-2.465235,-1.1290392,-1.5335102,0.9189037,-0.19899586,0.16616274,0.8398122,1.249119
0.1,-0.1,1.0999999999999999,0.0,0.0,0,-1.1659148,1.0740616,-0.5794178,0.65316296,-0.8932453,1.259945,-2.4521587,-1.1309161,-1.5483905,0.88921434,0.071061,0.41221756,0.96298194,-0.25803092
0.1,-0.1,1.0999999999999999,0.0,0.0,0,-1.149502,1.0518299,-0.58851975,0.65788734,-0.895432,1.2504282,-2.4375029,-1.1536024,-1.5407975,0.7010036,-0.012534399,0.6351387,0.84812474,2.028368
0.1,-0.1,1.0999999999999999,0.0,0.0,0,-1.1534525,1.0612586,-0.5860083,0.663101,-0.89062417,1.2597035,-2.4239995,-1.1400548,-1.4904362,1.0530531,-0.20119531,-0.28311342,0.68846816,0.48619896
0.1,-0.1,1.0999999999999999,0.0,0.0,0,-1.1611894,1.0769535,-0.5697731,0.6544014,-0.8917246,1.2509301,-2.4570227,-1.1623033,-1.5421816,0.7580576,-0.07375241,0.677971,0.92702067,1.39274
0.1,-0.1,1.0999999999999999,0.0,0.0,0,-1.1659888,1.0697997,-0.5878289,0.66250056,-0.882284,1.267165,-2.483837,-1.1530579,-1.5159463,0.9187894,-0.124381214,-0.044215187,1.1332829,-0.22447132
0.1,-0.1,1.0999999999999999,0.0,0.0,0,-1.1549175,1.0747834,-0.5804689,0.65506417,-0.88311565,1.247661,-2.4378452,-1.1703002,-1.5223986,0.7089661,0.17307507,-0.17039168,0.8185245,0.52824837
0.1,-0.1,1.0999999999999999,0.0,0.0,0,-1.1517102,1.107671,-0.583489,0.67002285,-0.89910674,1.2463303,-2.4562626,-1.1653305,-1.540615,0.99991,-0.20901127,-0.5404581,0.9799517,1.0356685
0.1,-0.1,1.0999999999999999,0.0,0.0,0,-1.1499583,1.07703,-0.5949164,0.66353595,-0.8838223,1.252937,-2.4052782,-1.1382699,-1.5296707,0.44157287,-0.032391924,-0.3292521,0.8689178,-1.2194139
0.1,-0.1,1.0999999999999999,0.0,0.0,0,-1.1638353,1.0519347,-0.5801948,0.6636805,-0.88832366,1.2622588,-2.4829547,-1.160531,-1.5092322,0.94633687,0.06910268,-0.0016238762,0.7811917,1.5722284
0.1,-0.1,1.0999999999999999,0.0,0.0,0,-1.1568086,1.03577,-0.5785725,0.6513162,-0.8926138,1.2610521,-2.4193652,-1.11796,-1.5356207,0.7581986,-0.133413,-0.08661144,1.0696906,1.1736194
0.1,-0.1,1.0999999999999999,0.0,0.0,0,-1.1534189,1.0771388,-0.5849477,0.6616528,-0.9072187,1.2403009,-2.4052553,-1.156932,-1.5091966,0.5999289,0.09002802,-0.079366304,0.9099822,-0.10306326
0.1,-0.1,1.0999999999999999,0.0,0.0,0,-1.1735777,1.0944098,-0.58144814,0.64702696,-0.894289,1.2376683,-2.4430826,-1.147067,-1.5168556,1.0196277,0.20772418,-0.36241898,1.4043658,0.121122725
0.1,-0.1,1.0999999999999999,0.0,0.0,0,-1.1579523,1.0678861,-0.59150064,0.6574745,-0.8911929,1.2563444,-2.4334075,-1.1167021,-1.5376247,1.1613692,-0.0007212779,-0.13646853,0.49319395,1.0485336
0.1,-0.1,1.0999999999999999,0.0,0.0,0,-1.1686988,1.0245804,-0.5797487,0.6529913,-0.88445103,1.2525916,-2.373723,-1.1445177,-1.516039,0.8883285,0.05523014,-0.03318585,0.94214815,-0.21665157
0.1,-0.1,1.0999999999999999,0.0,0.0,0,-1.1531422,1.0732148,-0.586613,0.66088563,-0.88476217,1.2543579,-2.4527555,-1.1366534,-1.5209863,0.7871684,-0.28668848,-0.51848483,1.2973412,0.73710716
0.1,-0.1,1.0999999999999999,0.0,0.0,0,-1.1630163,1.0719718,-0.59150374,0.6649305,-0.89212966,1.2289841,-2.4226716,-1.1319236,-1.4936439,0.9003634,-0.176008,-0.088405155,0.58514774,1.3533914
0.1,-0.1,1.0999999999999999,0.0,0.0,0,-1.1665161,1.0793465,-0.5547866,0.6536897,-0.90474707,1.2574284,-2.4268763,-1.1115733,-1.5327204,1.083738,0.006223445,-0.10186768,0.7596672,1.6224054
0.1,-0.1,1.0999999999999999,0.0,0.0,0,-1.1609449,1.0743519,-0.5786453,0.66759485,-0.88702494,1.2450593,-2.4476247,-1.1663418,-1.4933422,0.8807004,-0.14463086,-0.026568213,0.7787144,0.4334994
0.1,-0.1,1.0999999999999999,0.0,0.0,0,-1.168272,1.0745254,-0.60559326,0.66019815,-0.8948165,1.2412328,-2.4737606,-1.169339,-1.5028278,1.0311334,-0.029148594,0.15320571,1.0205467,0.3375054
0.1,-0.1,1.0999999999999999,0.0,0.0,0,-1.154427,1.1032375,-0.5706156,0.66475695,-0.88511294,1.2759751,-2.4983754,-1.1327893,-1.519038,0.53573734,-0.04756827,0.29902303,0.9602278,-0.81410646
0.1,-0.1,1.0999999999999999,0.0,0.0,0,-1.1543722,1.0862625,-0.57070994,0.66360956,-0.89682084,1.2470397,-2.4820342,-1.1433237,-1.5291804,0.8139487,-0.14334027,-0.08544626,1.008013,0.94382095
0.1,-0.1,1.0999999999999999,0.0,0.0,0,-1.1750364,1.0729694,-0.59494936,0.65483195,-0.89064384,1.2469335,-2.4967601,-1.1461594,-1.5385945,0.7376805,-0.103603296,0.24476479,1.2153288,-0.13373043
0.1,-0.1,1.0999999999999999,0.0,0.0,0,-1.161477,1.0817302,-0.5473729,0.6626871,-0.89219445,1.2563318,-2.4825783,-1.1452825,-1.5297778,0.66320264,-0.37547234,-0.28761402,0.96614724,-0.373724
0.1,-0.1,1.0999999999999999,0.0,0.0,0,-1.1621679,1.0843029,-0.58473396,0.6572956,-0.89059067,1.2402457,-2.380757,-1.1497519,-1.5213397,0.4272331,0.16409749,-0.654741,0.87108,1.5719901
0.1,-0.1,1.0999999999999999,0.0,0.0,0,-1.1641299,1.0939407,-0.57355237,0.66321474,-0.8976653,1.2555155,-2.404863,-1.1337559,-1.5455421,0.9483974,-0.19304034,-0.1570357,0.79161614,0.43752596
0.1,-0.1,1.0999999999999999,0.0,0.0,0,-1.1553893,1.0546757,-0.591367,0.65314233,-0.90121585,1.2483122,-2.4057167,-1.1858675,-1.5034379,0.61836016,-0.017145168,-0.062563814,0.6121155,1.3184128
0.1,-0.1,1.0999999999999999,0.0,0.0,0,-1.1603885,1.0749444,-0.580968,0.6552772,-0.8977181,1.2535936,-2.4005764,-1.1632731,-1.5330193,0.9161897,-0.04642137,0.2813994,0.5808587,1.3995296
0.1,-0.1,1.0999999999999999,0.0,0.0,0,-1.1716018,1.0817074,-0.57193846,0.6567306,-0.8990249,1.2582582,-2.456985,-1.1626194,-1.5274985,0.4373925,0.091563,-0.5432151,0.38531968,1.6353557
0.1,-0.1,1.0999999999999999,0.0,0.0,0,-1.1481242,1.0583457,-0.58028567,0.6619424,-0.89187443,1.2513084,-2.4219573,-1.1529188,-1.5593921,0.65032697,-0.23428835,-0.4176266,0.78708625,0.89294076
0.1,-0.1,1.0999999999999999,0.0,0.0,0,-1.1613505,1.1060911,-0.5821424,0.6539744,-0.8706577,1.2296396,-2.4815264,-1.1607994,-1.4893178,0.4988108,-0.030272681,0.114228584,1.0828161,0.26316625
0.1,-0.1,1.0999999999999999,0.0,0.0,0,-1.1696374,1.0307137,-0.5837964,0.6527834,-0.8877923,1.2463056,-2.431841,-1.1415298,-1.5090352,0.85982764,-0.27796358,-0.18316506,0.72096205,1.1880786
0.1,-0.1,1.0999999999999999,0.0,0.0,0,-1.1501155,1.1131651,-0.5614398,0.65424365,-0.8986909,1.2500681,-2.3919773,-1.1334751,-1.5079767,1.3106346,-0.019545985,-0.25721785,0.7764482,-1.3068241
0.1,-0.1,1.0999999999999999,0.0,0.0,0,-1.1632775,1.0584226,-0.57649815,0.65006983,-0.88794816,1.2602698,-2.412127,-1.1556481,-1.4837477,0.6638586,0.033495855,-0.20861134,1.2765884,0.98935086
0.1,-0.1,1.0999999999999999,0.0,0.0,0,-1.1587551,1.0808704,-0.5827283,0.6595988,-0.9014411,1.2479515,-2.4159536,-1.1601388,-1.5468565,0.8391086,-0.014577134,-0.24344532,0.66646844,0.24900988
0.1,-0.1,1.0999999999999999,0.0,0.0,0,-1.1624634,1.0892981,-0.57881427,0.65235925,-0.895839,1.2363609,-2.4475632,-1.1581105,-1.57279,0.6162345,-0.32537317,0.269015,1.1614704,2.7744284
0.1,-0.1,1.0999999999999999,0.0,0.0,0,-1.1577353,1.0628242,-0.57032543,0.65664685,-0.90236336,1.262417,-2.3956325,-1.1316117,-1.5413989,0.9096216,-0.2770787,-0.049163364,0.9619135,0.28182387
0.1,-0.1,1.0999999999999999,0.0,0.0,0,-1.1517729,1.1109837,-0.58180195,0.6513436,-0.90371424,1.2389374,-2.4463313,-1.130589,-1.5186635,0.9509195,0.10585588,-0.5071597,1.1037822,0.44729567
0.1,-0.1,1.0999999999999999,0.0,0.0,0,-1.1708167,1.024417,-0.56976837,0.66385365,-0.9100975,1.2560745,-2.4208233,-1.1355284,-1.515914,0.631557,0.024053866,0.087476864,1.1894145,1.0721459
0.1,-0.1,1.0999999999999999,0.0,0.0,0,-1.1469575,1.0608177,-0.58048034,0.65068275,-0.9092246,1.2458705,-2.469145,-1.1383761,-1.5286862,1.3174837,0.22212514,-0.29702917,0.7996409,0.5168893
0.1,-0.1,1.0999999999999999,0.0,0.0,0,-1.165517,1.0955377,-0.5654916,0.6540117,-0.8910799,1.2602568,-2.47286,-1.1403766,-1.5310901,1.1037594,-0.06257858,-0.4759139,0.9050134,0.6760001
0.1,-0.1,1.0999999999999999,0.0,0.0,0,-1.1569257,1.1019051,-0.5737667,0.6585035,-0.8994747,1.248148,-2.460262,-1.1694571,-1.5096102,0.64171666,-0.25095138,-0.24809699,0.6199643,1.7299275
0.1,-0.1,1.0999999999999999,0.0,0.0,0,-1.1561755,1.0558237,-0.580202,0.66176945,-0.89116734,1.2424196,-2.4220736,-1.1454573,-1.5668846,0.8537107,-0.14785941,-0.97478306,1.4714115,0.5566717
0.1,-0.1,1.0999999999999999,0.0,0.0,0,-1.1710274,1.0846844,-0.5710632,0.6547301,-0.90169144,1.2386463,-2.411701,-1.1309263,-1.5374893,0.71690756,-0.12049466,0.36161438,0.8096055,1.2062311
0.1,-0.1,1.0999999999999999,0.0,0.0,0,-1.1657754,1.0768318,-0.6014933,0.6654025,-0.8864149,1.2331245,-2.471783,-1.155689,-1.5510045,0.45107463,-0.3035439,0.16747023,0.9572633,-0.6240176
0.1,-0.1,1.0999999999999999,0.0,0.0,0,-1.1561027,1.0816195,-0.58212644,0.6581844,-0.8900367,1.2334925,-2.4462166,-1.1378781,-1.5404012,0.87768215,-0.019756164,-0.75215656,0.7461031,1.7559309
0.1,-0.1,1.0999999999999999,0.0,0.0,0,-1.1674075,1.0532808,-0.5692728,0.65978044,-0.8930422,1.2531366,-2.4381578,-1.1765515,-1.518081,0.46410945,-0.08837107,-0.16558614,0.87171745,0.719023
0.1,-0.1,1.0999999999999999,0.0,0.0,0,-1.1695502,1.0290195,-0.58813065,0.65045905,-0.9077727,1.2496039,-2.406743,-1.1687402,-1.4990913,0.8283264,-0.12714402,0.17524351,0.92522854,-0.65917414
0.1,-0.1,1.0999999999999999,0.0,0.0,0,-1.1590545,1.082804,-0.5652018,0.66016954,-0.8836758,1.2536888,-2.3952146,-1.1683992,-1.5289661,0.7510667,-0.18160623,0.13544531,1.0270798,-1.1989089
0.1,-0.1,1.0999999999999999,0.0,0.0,0,-1.161571,1.0438765,-0.5882722,0.648427,-0.8952842,1.251235,-2.4439125,-1.1383548,-1.5128415,1.016806,-0.013055445,-0.1871476,0.9830145,-0.23769163
0.1,-0.1,1.0999999999999999,0.0,0.0,0,-1.1529046,1.0738378,-0.58559257,0.6554069,-0.89021116,1.2405814,-2.4626946,-1.1488405,-1.5167663,0.40157878,0.21107836,-0.4661725,1.2151265,1.0889022
0.1,-0.1,1.0999999999999999,0.0,0.0,0,-1.1626614,1.0873046,-0.59993804,0.6509104,-0.9067674,1.2435343,-2.4370568,-1.1463765,-1.526591,0.2998107,-0.034135774,-0.1177604,0.5901408,0.5187593
0.1,-0.1,1.0999999999999999,0.0,0.0,0,-1.1502283,1.1145853,-0.59499097,0.6574065,-0.8940508,1.2339652,-2.447704,-1.127322,-1.5366869,0.8895143,-0.15984994,-0.5280605,0.985519,2.8146787
0.1,-0.1,1.0999999999999999,0.0,0.0,0,-1.1467605,1.075761,-0.5878181,0.6679279,-0.8830218,1.2438979,-2.5055194,-1.1638352,-1.5382577,0.87204075,0.0021577512,-0.885312,0.4929367,0.45770207
0.1,-0.1,1.0999999999999999,0.0,0.0,0,-1.1677179,1.1172936,-0.57222724,0.6546353,-0.90131277,1.2572887,-2.4215603,-1.1864828,-1.5359105,0.6367581,-0.085235395,0.2568601,0.9836493,-0.79272497
0.1,-0.1,1.0999999999999999,0.0,0.0,0,-1.1592783,1.071073,-0.58051485,0.66188204,-0.8848757,1.2453686,-2.3897407,-1.1233239,-1.5165706,0.724112,0.18734111,0.047775667,0.8832887,0.8327737
0.1,-0.1,1.0999999999999999,0.0,0.0,0,-1.1504965,1.077151,-0.5837344,0.6555482,-0.88971686,1.2462811,-2.408892,-1.1403103,-1.5527045,0.65780026,-0.2507962,-0.05887028,0.79603374,2.6408303
0.1,-0.1,1.0999999999999999,0.0,0.0,0,-1.1556203,1.0797045,-0.57947886,0.66309357,-0.8870445,1.2272913,-2.412228,-1.1506625,-1.5259597,0.9026761,0.19338156,-0.48278978,0.91337794,-0.04330859
0.1,-0.1,1.0999999999999999,0.0,0.0,0,-1.1484314,1.1188824,-0.5799648,0.6552452,-0.9010129,1.2671611,-2.376952,-1.1444817,-1.5365895,0.5333407,0.13190559,-0.16629854,0.90874934,-0.0553735
0.1,-0.1,1.0999999999999999,0.0,0.0,0,-1.1601287,1.0593088,-0.57789385,0.6591959,-0.89213735,1.2551663,-2.4313343,-1.1686677,-1.5415871,0.8238679,0.14224315,-0.31467277,1.3281031,1.9627779
0.1,-0.1,1.0999999999999999,0.0,0.0,0,-1.1635133,1.0639184,-0.5708769,0.65495443,-0.908098,1.2615896,-2.4257133,-1.1827468,-1.5164268,0.96880597,-0.05623279,-0.5643612,1.2331502,0.3438074
0.1,-0.1,1.0999999999999999,0.0,0.0,0,-1.1719948,1.0703621,-0.5607855,0.6537862,-0.8940205,1.2566857,-2.519962,-1.1321708,-1.5579736,0.43778422,-0.18120584,0.5629381,0.89554936,2.0055985
0.1,-0.1,1.0999999999999999,0.0,0.0,0,-1.167323,1.0690682,-0.5819197,0.66578126,-0.88768363,1.2464317,-2.4135458,-1.1192178,-1.5098891,0.56830114,-0.06430151,-0.5262766,0.95598054,0.738761
0.1,-0.1,1.0999999999999999,0.0,0.0,0,-1.1597346,1.0848724,-0.5642488,0.65889424,-0.89405435,1.2478409,-2.4031398,-1.1596172,-1.4945296,0.9775488,0.11568148,-0.18991552,1.1100763,1.8033787
0.1,-0.1,1.0999999999999999,0.0,0.0,0,-1.1693475,1.0863271,-0.5616018,0.662973,-0.8926138,1.2422323,-2.4314804,-1.1733534,-1.5137199,0.50295496,-0.0804236,0.3426637,0.8519812,0.49009508
0.1,-0.1,1.0999999999999999,0.0,0.0,0,-1.1552558,1.071708,-0.5883088,0.66169995,-0.8874794,1.2183927,-2.4213157,-1.1355847,-1.5237124,0.8677532,0.057718303,-0.20774874,1.358196,1.1743559
0.1,-0.1,1.0999999999999999,0.0,0.0,0,-1.1689409,1.0766102,-0.5781588,0.65592575,-0.8955633,1.2607787,-2.4479702,-1.1121553,-1.5138066,0.6712135,-0.15053223,0.032573722,1.2361221,1.5488608
0.1,-0.1,1.0999999999999999,0.0,0.0,0,-1.1703559,1.0775517,-0.5761845,0.6567178,-0.89566797,1.2613317,-2.457019,-1.1186669,-1.5492896,1.1411772,-0.013198537,-0.5257597,0.8437108,1.9516035
0.1,-0.1,1.0999999999999999,0.0,0.0,0,-1.1636035,1.1261047,-0.570596,0.6536958,-0.8856926,1.2542075,-2.3632057,-1.1521105,-1.5316274,0.8300362,-0.05805521,-0.21762636,0.8126188,-0.755276
0.1,-0.1,1.0999999999999999,0.0,0.0,0,-1.1498517,1.0910997,-0.5821067,0.6583461,-0.8882663,1.230778,-2.411692,-1.1188397,-1.498319,0.60091925,-0.1448181,-0.35641128,1.49709,1.2417595
0.1,-0.1,1.0999999999999999,0.0,0.0,0,-1.1598735,1.0927494,-0.58212274,0.67020184,-0.89919555,1.2448635,-2.4781902,-1.1473955,-1.5346339,0.9168763,0.030581623,-0.11144243,0.7773571,0.7491109
0.1,-0.1,1.0999999999999999,0.0,0.0,0,-1.1601503,1.1092268,-0.5775873,0.6571168,-0.8915071,1.2613899,-2.481696,-1.1442707,-1.5079311,0.85296196,-0.07213678,-0.34197864,1.0938936,-0.5117507
0.1,-0.1,1.0999999999999999,0.0,0.0,0,-1.1547105,1.0586867,-0.5970747,0.6698797,-0.8930102,1.2545884,-2.3963041,-1.1732315,-1.5405164,0.8779125,-0.25881302,0.24047738,0.60849345,-0.9551523
0.1,-0.1,1.0999999999999999,0.0,0.0,0,-1.1603452,1.0557265,-0.5886923,0.6578075,-0.89077955,1.2323352,-2.4387908,-1.1376151,-1.5447197,0.8557896,-0.2629518,0.4194354,0.71654665,0.53156453
0.1,-0.1,1.0999999999999999,0.0,0.0,0,-1.1694838,1.0717722,-0.5665523,0.65432787,-0.8903475,1.2565894,-2.4083214,-1.1258743,-1.5805194,0.797927,-0.001779974,0.24013114,0.78963023,0.8521802
0.1,-0.1,1.0999999999999999,0.0,0.0,0,-1.1733792,1.0383588,-0.57109064,0.6646066,-0.9034723,1.2438724,-2.4325702,-1.1608055,-1.532245,0.62692565,0.0643585,-0.481626,0.7124601,0.6784602
0.1,-0.1,1.0999999999999999,0.0,0.0,0,-1.1535128,1.1015518,-0.58752626,0.6627093,-0.89693564,1.2538167,-2.4936752,-1.1703115,-1.5674921,0.70384496,0.20138863,0.36667812,1.3758492,-0.9334044
0.1,-0.1,1.0999999999999999,0.0,0.0,0,-1.1618822,1.0699757,-0.59581286,0.6585846,-0.89035624,1.254422,-2.3918629,-1.1611211,-1.5048058,0.8930533,0.26494437,0.7253322,1.5521574,-0.07656813
0.1,-0.1,1.0999999999999999,0.0,0.0,0,-1.161784,1.0933344,-0.5825372,0.6587945,-0.89828223,1.2370048,-2.4156356,-1.1854193,-1.5433167,0.96616256,-0.17784525,-0.42771792,1.4756021,-0.39387897
0.1,-0.1,1.0999999999999999,0.0,0.0,0,-1.1678194,1.095038,-0.5820411,0.65502137,-0.8928473,1.2505796,-2.36969,-1.182756,-1.543897,0.76417285,0.16392957,-0.14149804,0.74508184,0.14947315
0.1,-0.1,1.0999999999999999,0.0,0.0,0,-1.1620114,1.0604873,-0.5834432,0.66334313,-0.88747203,1.251051,-2.408014,-1.149721,-1.4938673,0.6534015,-0.12423172,-0.88542604,0.4001656,0.052530967
0.1,-0.1,1.0999999999999999,0.0,0.0,0,-1.161788,1.0744969,-0.5689266,0.6552518,-0.8870784,1.2513505,-2.3995388,-1.1398786,-1.5392997,0.5189173,-0.099047974,0.03595823,1.1546308,0.8647551
0.1,-0.1,1.0999999999999999,0.0,0.0,0,-1.1557552,1.0710628,-0.60955226,0.65506357,-0.89139354,1.2223828,-2.3898404,-1.1713209,-1.4967467,0.75243324,0.06697595,-0.14815964,0.88778937,0.87251496
0.1,-0.1,1.0999999999999999,0.0,0.0,0,-1.1489675,1.0971763,-0.5800747,0.658066,-0.8941785,1.2637415,-2.4374437,-1.168394,-1.5313474,0.70745534,-0.025377171,-1.057184,1.1884423,-0.43281832
0.1,-0.1,1.0999999999999999,0.0,0.0,0,-1.1634277,1.0700043,-0.58107954,0.664936,-0.883458,1.2483253,-2.4192162,-1.1202004,-1.535035,0.8497793,-0.07121442,-0.20554198,0.44239423,1.3938736
0.1,-0.1,1.0999999999999999,0.0,0.0,0,-1.1562264,1.0664369,-0.5824009,0.6643041,-0.8968109,1.2221655,-2.4683323,-1.1546768,-1.559584,0.54729265,-0.029539805,-0.14542273,0.9419472,0.22167403
0.1,-0.1,1.0999999999999999,0.0,0.0,0,-1.1477615,1.0681757,-0.58851045,0.668699,-0.8993878,1.2460655,-2.3814917,-1.1414936,-1.5386156,0.8572832,-0.031461336,0.042240944,1.3294725,2.208982
0.1,-0.1,1.0999999999999999,0.0,0.0,0,-1.1760293,1.061014,-0.57280993,0.64840305,-0.8927531,1.22406,-2.3614728,-1.1633556,-1.5156513,0.75655067,-0.1835852,0.48118067,1.3387164,1.7149729
0.1,-0.1,1.0999999999999999,0.0,0.0,0,-1.15567,1.0600239,-0.5718869,0.66317606,-0.9131506,1.2576162,-2.4977973,-1.1507708,-1.5152245,1.120882,0.1449582,0.16738673,0.96377486,0.64545786
0.1,-0.1,1.0999999999999999,0.0,0.0,0,-1.1694806,1.0656189,-0.5745328,0.6636833,-0.8856586,1.2482355,-2.434584,-1.1587148,-1.5344725,0.48409724,0.01530862,0.029221086,0.5989287,2.2212613
0.1,-0.1,1.0999999999999999,0.0,0.0,0,-1.1646155,1.0297233,-0.57061434,0.66309077,-0.9032494,1.2726297,-2.4226487,-1.18023,-1.5313104,0.86330146,-0.16891108,0.32805154,0.52691203,1.1248828
0.1,-0.1,1.0999999999999999,0.0,0.0,0,-1.1544162,1.027496,-0.5778016,0.65538573,-0.89359987,1.2555164,-2.4403393,-1.1471596,-1.5127181,0.7875609,-0.31938988,-0.5416703,1.148764,1.3479725
0.1,-0.1,1.0999999999999999,0.0,0.0,0,-1.1495398,1.0583553,-0.57801795,0.65888596,-0.8893304,1.2708064,-2.4614208,-1.1272278,-1.5266936,0.59845895,-0.22437203,-0.14906766,0.7628096,-0.7986145
0.1,-0.1,1.0999999999999999,0.0,0.0,0,-1.1558914,1.0673391,-0.591675,0.65704393,-0.8967673,1.2669744,-2.3913357,-1.1016937,-1.4869262,0.5816448,0.02544942,0.46386,0.4090153,0.6562354
0.1,-0.1,1.0999999999999999,0.0,0.0,0,-1.153903,1.0995547,-0.5826907,0.6609707,-0.90379405,1.2355847,-2.3929143,-1.1726763,-1.5567552,0.9573866,-0.11290932,-0.09412471,0.870041,0.8540054
0.1,-0.1,1.0999999999999999,0.0,0.0,0,-1.161607,1.0673631,-0.5656049,0.6586681,-0.8857679,1.2545562,-2.4568243,-1.13724,-1.522459,1.0967276,-0.06180798,0.10052094,1.2095633,1.199013
0.1,-0.1,1.0999999999999999,0.0,0.0,0,-1.1654083,1.0809654,-0.5856727,0.662521,-0.9025378,1.2530154,-2.4553726,-1.1556844,-1.4968857,1.06699,-0.22129196,0.6722555,0.48442242,1.0685536
0.1,-0.1,1.0999999999999999,0.0,0.0,0,-1.1643617,1.1132013,-0.57806945,0.66757935,-0.90072566,1.2489252,-2.504009,-1.1644404,-1.5530334,0.4172206,-0.2749909,0.201828,1.1733172,2.410991
0.1,-0.1,1.0999999999999999,0.0,0.0,0,-1.1657656,1.0543058,-0.58707887,0.65059274,-0.893773,1.2424749,-2.466506,-1.1120068,-1.5241656,1.1335567,-0.059535578,0.29050764,1.12578,-0.01192677
0.1,-0.1,1.0999999999999999,0.0,0.0,0,-1.1579993,1.0658587,-0.5924888,0.65898645,-0.90076864,1.2446568,-2.4169865,-1.121719,-1.5264477,0.9688275,0.10508092,-0.19471118,0.9653836,2.0735855
0.1,-0.1,1.0999999999999999,0.0,0.0,0,-1.162671,1.1083868,-0.5924996,0.6543069,-0.8893586,1.2405001,-2.429162,-1.1326488,-1.5050412,1.0282317,0.040806755,0.013992905,1.2399905,-0.53938645
0.1,-0.1,1.0999999999999999,0.0,0.0,0,-1.1604114,1.062223,-0.59748477,0.6674704,-0.90293056,1.2410902,-2.3926897,-1.1366776,-1.5386922,0.8194567,-0.00814569,-0.34257638,1.2638608,0.35620394
0.1,-0.1,1.0999999999999999,0.0,0.0,0,-1.1672732,1.0432801,-0.5921341,0.66019905,-0.89791906,1.2677194,-2.4324658,-1.1322364,-1.56339,1.0692538,0.052981228,0.45792964,0.9600046,-1.32381
0.1,-0.1,1.0999999999999999,0.0,0.0,0,-1.1640669,1.041985,-0.5812835,0.6625756,-0.9022598,1.2354586,-2.4102995,-1.1270814,-1.5423281,1.1015457,-0.18018712,-0.25887027,0.9941629,1.1636448
0.1,-0.1,1.0999999999999999,0.0,0.0,0,-1.1690524,1.0626043,-0.58897007,0.6530172,-0.89685065,1.241029,-2.446111,-1.1143578,-1.5447898,0.56424016,0.18243505,-0.33643678,0.80838877,1.8194116
0.1,-0.1,1.0999999999999999,0.0,0.0,0,-1.1508254,1.0693353,-0.5887719,0.6519567,-0.8862074,1.2560605,-2.498229,-1.1429597,-1.5545557,0.8123402,0.092597246,0.30594042,0.7559245,-0.9056902
0.1,-0.1,1.0999999999999999,0.0,0.0,0,-1.156647,1.0480098,-0.57363707,0.6572864,-0.89145404,1.268203,-2.3769777,-1.1290549,-1.5234388,1.10457,0.1850638,-0.7786624,1.1835902,0.022374732
0.1,-0.1,1.0999999999999999,0.0,0.0,0,-1.1518663,1.070089,-0.586741,0.66023093,-0.89273876,1.2464691,-2.4676754,-1.1463376,-1.4840988,0.698091,-0.18832146,0.33410951,0.8330745,0.4535604
0.1,-0.1,1.0999999999999999,0.0,0.0,0,-1.161244,1.0509545,-0.59171534,0.6562373,-0.8892638,1.240234,-2.4178255,-1.1519727,-1.5187353,0.7547934,0.05797905,-0.5390743,0.6207956,1.1203958
0.1,-0.1,1.0999999999999999,0.0,0.0,0,-1.1679943,1.0555365,-0.56592286,0.6571001,-0.8859805,1.2416275,-2.467313,-1.1530727,-1.5138062,0.6304053,0.100014426,-0.3964857,1.1945305,0.15932563
0.1,-0.1,1.0999999999999999,0.0,0.0,0,-1.1615373,1.07268,-0.5869161,0.6507097,-0.8847912,1.2491931,-2.3893683,-1.1324365,-1.5191383,0.6558319,-0.049150217,-0.27947435,0.5463306,-0.9606385
0.1,-0.1,1.0999999999999999,0.0,0.0,0,-1.1659563,1.057038,-0.5927599,0.6538381,-0.90428936,1.2648008,-2.481168,-1.1456026,-1.567997,0.95575106,0.09740137,0.43035406,0.5057432,0.4127326
0.1,-0.1,1.0999999999999999,0.0,0.0,0,-1.1502072,1.0589976,-0.5881267,0.66799885,-0.89992046,1.2526169,-2.5097926,-1.1475743,-1.5130681,0.8120635,-0.031708345,0.27441886,0.85842,-0.29178149
0.1,-0.1,1.0999999999999999,0.0,0.0,0,-1.1662958,1.0659862,-0.5935141,0.65399927,-0.90692186,1.2466233,-2.3485916,-1.1473893,-1.524363,0.7780772,-0.18375649,-0.56193125,0.76072276,-0.35077897
0.1,-0.1,1.0999999999999999,0.0,0.0,0,-1.1624001,1.0757126,-0.58407253,0.65370214,-0.89001226,1.2474421,-2.4269497,-1.1717626,-1.5356525,1.3175346,-0.057740897,-0.17019695,1.0539415,-1.0173417
0.1,-0.1,1.0999999999999999,0.0,0.0,0,-1.1537575,1.055857,-0.60638785,0.6579282,-0.90617085,1.2793336,-2.4808762,-1.1450491,-1.5491717,0.82335716,0.08763271,0.13583402,1.3850706,0.18525897
0.1,-0.1,1.0999999999999999,0.0,0.0,0,-1.15745,1.0702412,-0.5969452,0.66015977,-0.90062803,1.2519078,-2.4408278,-1.1621642,-1.5395966,1.3647162,0.10186344,-0.10481054,1.1497117,0.8042878
0.1,-0.1,1.0999999999999999,0.0,0.0,0,-1.1619307,1.0891925,-0.5966818,0.65926296,-0.9039324,1.2475973,-2.404418,-1.1966796,-1.512338,0.71797997,-0.17739017,0.11125829,0.7199809,0.74057925
0.1,-0.1,1.0999999999999999,0.0,0.0,0,-1.1562302,1.1070224,-0.5915003,0.658242,-0.89404535,1.2553837,-2.421164,-1.1568888,-1.5231057,0.5925008,-0.17027918,0.24057858,1.1762931,0.6622474
0.1,-0.1,1.0999999999999999,0.0,0.0,0,-1.1667987,1.0965223,-0.57625777,0.6641848,-0.88496214,1.2605325,-2.4346898,-1.1078247,-1.5193348,0.88238806,-0.015070826,-0.18017736,0.85670793,-0.42700166
0.1,-0.1,1.0999999999999999,0.0,0.0,0,-1.162752,1.0114455,-0.5670833,0.66211396,-0.8809626,1.2427855,-2.4092093,-1.1437709,-1.4979378,0.984422,-0.11356508,-0.5621449,0.82902914,0.20222321
0.1,-0.1,1.0999999999999999,0.0,0.0,0,-1.1631857,1.0740619,-0.581223,0.65932465,-0.8907065,1.2651689,-2.4639997,-1.1431752,-1.5161217,0.6929148,0.09115159,-0.2777387,1.0429765,1.2798045
0.1,-0.1,1.0999999999999999,0.0,0.0,0,-1.1543195,1.062625,-0.60720664,0.65802205,-0.89531755,1.2407545,-2.4171681,-1.1728776,-1.5180624,0.7669032,-0.06570513,-0.13336638,0.6718766,0.02305154
0.1,-0.1,1.0999999999999999,0.0,0.0,0,-1.1674297,1.0665743,-0.5836315,0.66852516,-0.8945012,1.2775171,-2.4435625,-1.1591846,-1.5340842,0.84462076,0.23178269,-0.20073949,0.5798153,-0.3858799
0.1,-0.1,1.0999999999999999,0.0,0.0,0,-1.167872,1.0848107,-0.5763792,0.6584756,-0.8903089,1.2365019,-2.433604,-1.1539867,-1.5096351,0.5785728,-0.14305705,0.10994993,1.0410676,1.4787717
0.1,-0.1,1.0999999999999999,0.0,0.0,0,-1.1528825,1.0331008,-0.59466517,0.6615339,-0.9044128,1.2310083,-2.361706,-1.1281413,-1.5331974,0.78305125,0.0679336,0.28105912,1.1169236,1.2511449
0.1,-0.1,1.0999999999999999,0.0,0.0,0,-1.1639227,1.0817243,-0.582185,0.6577866,-0.8822771,1.2441578,-2.493165,-1.1677102,-1.4824511,0.74361265,0.1184108,0.07080833,1.0070939,0.89794815
0.1,-0.1,1.0999999999999999,0.0,0.0,0,-1.1583341,1.016195,-0.5874028,0.65252304,-0.88836217,1.2642555,-2.3948667,-1.1524112,-1.5285655,0.84523624,-0.27824733,0.28764763,0.85711926,0.17630884
0.1,-0.1,1.0999999999999999,0.0,0.0,0,-1.1669146,1.0499649,-0.5849102,0.65799105,-0.8814928,1.243702,-2.4521616,-1.1361488,-1.5201735,0.81253386,-0.2934446,-0.13016306,0.88756937,1.0787611
0.1,-0.1,1.0999999999999999,0.0,0.0,0,-1.1708934,1.0569851,-0.5735097,0.646994,-0.9079752,1.2496972,-2.457529,-1.1424414,-1.548592,0.3007377,-0.21240616,-0.050340153,1.2650558,0.13463205
0.1,-0.1,1.0999999999999999,0.0,0.0,0,-1.1638542,1.0453157,-0.57861197,0.65169525,-0.8795628,1.2579279,-2.4084644,-1.1444222,-1.5369774,1.0719676,-0.026931114,-0.335025,0.80378807,2.3678493
0.1,-0.1,1.0999999999999999,0.0,0.0,0,-1.159654,1.0895445,-0.58322614,0.6625447,-0.9012855,1.2592001,-2.4342363,-1.1331878,-1.4893229,1.1209006,0.023635114,-0.054315004,0.7083112,0.29052314
0.1,-0.1,1.0999999999999999,0.0,0.0,0,-1.1623305,1.0593575,-0.59147644,0.6574617,-0.9013946,1.2382085,-2.425311,-1.1086292,-1.5514039,0.7211321,-0.0155573925,-0.009801535,1.3535041,1.2099278
0.1,-0.1,1.0999999999999999,0.0,0.0,0,-1.1664464,1.0457132,-0.5847481,0.6618729,-0.88456464,1.2829669,-2.4316595,-1.1535846,-1.5328526,0.515215,0.004089939,-0.46950707,1.1997918,-0.6651781
0.1,-0.1,1.0999999999999999,0.0,0.0,0,-1.1634705,1.0810801,-0.58146054,0.6621373,-0.90171266,1.275935,-2.426027,-1.1404151,-1.5331734,1.0724707,0.116744325,-0.042056795,0.3551303,1.5735084
0.1,-0.1,1.0999999999999999,0.0,0.0,0,-1.1749933,1.0752766,-0.58183765,0.65850085,-0.886499,1.2626328,-2.413402,-1.1458534,-1.5118399,0.6181537,-0.33454993,-0.28125805,1.2101005,0.42196602
0.1,-0.1,1.0999999999999999,0.0,0.0,0,-1.1412002,1.1051894,-0.5771028,0.66494083,-0.90294796,1.2793025,-2.4456894,-1.138428,-1.5471427,0.83811,0.076501586,0.1117909,0.8914977,0.18480334
0.1,-0.1,1.0999999999999999,0.0,0.0,0,-1.1600282,1.0973865,-0.60353184,0.6650826,-0.89362997,1.2628603,-2.4140234,-1.1468555,-1.5238348,0.7430461,-0.123040326,-0.2902888,1.0039581,0.97736406
0.1,-0.1,1.0999999999999999,0.0,0.0,0,-1.1594052,1.061678,-0.5654968,0.6673473,-0.8948108,1.2501967,-2.441563,-1.1665642,-1.5135984,0.4553355,0.04452986,-0.50888664,0.49037436,-0.7946395
0.1,-0.1,1.0999999999999999,0.0,0.0,0,-1.1466534,1.0748907,-0.6057796,0.66096205,-0.88514155,1.2480302,-2.3622653,-1.134759,-1.4768538,0.7101018,0.19365281,-0.40892768,0.94993794,0.8702075
0.1,-0.1,1.0999999999999999,0.0,0.0,0,-1.1691836,1.0456088,-0.6024713,0.6424932,-0.89480305,1.2648842,-2.3841865,-1.1380413,-1.573426,0.72446674,0.024279708,-0.34899923,1.4107049,0.80956095
0.1,-0.1,1.0999999999999999,0.0,0.0,0,-1.1728759,1.0720731,-0.58337766,0.6594646,-0.8993534,1.2405405,-2.4272432,-1.1180128,-1.5356705,0.9430427,-0.21769063,-0.454595,0.94433266,0.68412495
0.1,-0.1,1.0999999999999999,0.0,0.0,0,-1.1589731,1.0316632,-0.5940493,0.66179067,-0.8935718,1.2556286,-2.3956661,-1.1706758,-1.5210655,0.80697197,-0.29608482,0.13962634,0.74745756,-1.3856726
0.1,-0.1,1.0999999999999999,0.0,0.0,0,-1.1570932,1.0635699,-0.5810094,0.6590195,-0.9020808,1.2680528,-2.4640245,-1.1682311,-1.5353569,0.63397485,-0.11164649,0.15429996,0.48922548,1.4371145
0.1,-0.1,1.0999999999999999,0.0,0.0,0,-1.1699759,1.0867451,-0.5936964,0.66060495,-0.9070184,1.2296171,-2.3791866,-1.1600182,-1.5059422,1.1339756,-0.027903106,-0.3625918,1.0244241,-0.56885254
0.1,-0.1,1.0999999999999999,0.0,0.0,0,-1.1717712,1.0549287,-0.5848043,0.6587482,-0.89930457,1.2585071,-2.502685,-1.1358578,-1.5391818,0.79222256,0.056122098,0.2405061,1.1634858,0.7970084
0.1,-0.1,1.0999999999999999,0.0,0.0,0,-1.1544918,1.0268754,-0.57572746,0.6385942,-0.90794975,1.2415353,-2.4362195,-1.1994216,-1.5272218,0.51803863,0.06725,-0.04172713,0.8488608,1.9435346
0.1,-0.1,1.0999999999999999,0.0,0.0,0,-1.1670732,1.0925034,-0.5949536,0.66912764,-0.9129488,1.2524058,-2.4032173,-1.1642542,-1.5137594,0.93966913,-0.08611486,-0.28527722,0.8930762,0.7270632
0.1,-0.1,1.0999999999999999,0.0,0.0,0,-1.1669931,1.0467032,-0.5626825,0.6613383,-0.89107335,1.2753545,-2.4125276,-1.1477299,-1.5129094,0.94180566,0.129969,-0.3505001,0.6716493,0.9199427
0.1,-0.1,1.0999999999999999,0.0,0.0,0,-1.1690238,1.0847735,-0.5750725,0.6566434,-0.9066731,1.2691011,-2.4688854,-1.1501732,-1.5236088,0.706147,-0.14845882,0.006484149,0.6730069,1.0301675
0.1,-0.1,1.0999999999999999,0.0,0.0,0,-1.1736401,1.0785894,-0.5839128,0.6633752,-0.8933447,1.2375621,-2.422838,-1.1351376,-1.5394831,0.5360005,-0.06328188,0.015795419,1.2306572,-0.8569663
0.1,-0.1,1.0999999999999999,0.0,0.0,0,-1.1614422,1.0651051,-0.591488,0.65089107,-0.8857511,1.2439635,-2.4961348,-1.1672355,-1.5279728,0.91034406,-0.1485815,-0.51734924,1.1548463,0.4551056
0.1,-0.1,1.0999999999999999,0.0,0.0,0,-1.1725109,1.0561477,-0.5990411,0.65842384,-0.9019566,1.2404878,-2.4554715,-1.142059,-1.532573,1.0693349,-0.10586817,-0.054502107,0.9493675,1.5277095
0.1,-0.1,1.0999999999999999,0.0,0.0,0,-1.1670418,1.0853508,-0.61289227,0.6666543,-0.91012263,1.211909,-2.364619,-1.1659387,-1.4735183,0.8246075,-0.19726536,-0.11642913,1.1425346,0.669984
0.1,-0.1,1.0999999999999999,0.0,0.0,0,-1.1779475,1.0543306,-0.5938549,0.65754795,-0.8972715,1.254371,-2.48337,-1.1098468,-1.5239836,0.7161726,0.06450222,0.2495355,1.1736101,1.1840638
0.1,-0.1,1.0999999999999999,0.0,0.0,0,-1.1612263,1.0331903,-0.5764652,0.6551181,-0.89527327,1.2588617,-2.457803,-1.1377838,-1.5295635,0.7765408,-0.14961478,-0.47787377,1.4392725,-0.7098584
0.1,-0.1,1.0999999999999999,0.0,0.0,0,-1.1740413,1.0826219,-0.57417464,0.66574645,-0.8796579,1.2580191,-2.4181075,-1.1516742,-1.5066196,0.75859636,-0.03517556,0.021811526,0.8726521,1.9977112
0.1,-0.1,1.0999999999999999,0.0,0.0,0,-1.1672169,1.0850202,-0.6098429,0.6615398,-0.90445894,1.2571801,-2.4169598,-1.1266367,-1.5264902,0.670134,-0.09128847,-0.15246922,0.55593014,0.110707715
0.1,-0.1,1.0999999999999999,0.0,0.0,0,-1.1439165,1.1025258,-0.58803475,0.66344285,-0.90189,1.2661306,-2.3430696,-1.1467127,-1.5300179,0.8169066,-0.0057764533,0.05254631,0.7889411,1.0407833
0.1,-0.1,1.0999999999999999,0.0,0.0,0,-1.1797155,1.03388,-0.58736455,0.660321,-0.89342993,1.2617415,-2.4580524,-1.1408654,-1.5437509,0.8178353,-0.23573512,-0.1170268,0.7321526,0.6438679
0.1,-0.1,1.0999999999999999,0.0,0.0,0,-1.1663151,1.1096772,-0.60166156,0.66064095,-0.88568205,1.2534449,-2.4579592,-1.1117154,-1.480413,0.5950745,-0.018467829,-0.2462406,0.4132465,0.061263807
0.1,-0.1,1.0999999999999999,0.0,0.0,0,-1.1548455,1.041754,-0.57572496,0.6548831,-0.9048253,1.2713926,-2.3876948,-1.1831602,-1.5072563,0.69216406,-0.28822678,-0.4229843,0.6142007,2.3901367
0.1,-0.1,1.0999999999999999,0.0,0.0,0,-1.1433209,1.0781419,-0.5889499,0.657199,-0.8951981,1.2538563,-2.4625776,-1.1392274,-1.5684522,0.9709339,-0.211338,-0.078367285,0.8830191,-0.13954292
0.1,-0.1,1.0999999999999999,0.0,0.0,0,-1.163971,1.0938615,-0.56552416,0.65480393,-0.89868325,1.2810267,-2.466949,-1.1194401,-1.4910501,0.9177085,-0.11909942,0.3527825,0.54196703,1.3025186
0.1,-0.1,1.0999999999999999,0.0,0.0,0,-1.1586804,1.0854623,-0.5887504,0.64961445,-0.8961469,1.2611127,-2.4128277,-1.1258453,-1.5740201,0.7635009,-0.071669705,-0.37210983,0.7188247,-0.18558301
0.1,-0.1,1.0999999999999999,0.0,0.0,0,-1.1717112,1.0481179,-0.57671493,0.6641761,-0.8971223,1.2469856,-2.3757634,-1.1677883,-1.5418478,0.84510016,-0.23278682,-0.14634745,0.7421225,0.54248506
0.1,-0.1,1.0999999999999999,0.0,0.0,0,-1.156045,1.0955225,-0.5847905,0.6598366,-0.89722925,1.2766455,-2.4661732,-1.1321478,-1.521001,1.2014647,0.40957657,-0.28440773,1.3896388,0.35574275
0.1,-0.1,1.0999999999999999,0.0,0.0,0,-1.1579995,1.0523205,-0.5835874,0.659382,-0.8884558,1.2616045,-2.4335988,-1.1195058,-1.4868803,0.85380673,-0.16183871,-0.1255195,0.70872414,2.2982233
0.1,-0.1,1.0999999999999999,0.0,0.0,0,-1.1579161,1.060996,-0.59537804,0.6518377,-0.89841115,1.2563187,-2.4169352,-1.1715711,-1.5391573,1.0021315,-0.10009832,-0.6532425,0.60636234,1.0280496
0.1,-0.1,1.0999999999999999,0.0,0.0,0,-1.1539842,1.0930843,-0.59060085,0.65672344,-0.90559804,1.2488374,-2.483439,-1.1420401,-1.5242777,0.6796996,0.08212491,-0.29120997,0.40418583,1.0856309
0.1,-0.1,1.0999999999999999,0.0,0.0,0,-1.1601183,1.0779618,-0.5887033,0.662449,-0.9013994,1.2279102,-2.394296,-1.1675345,-1.4825251,0.7920262,0.21415731,0.07368449,1.013301,-0.48305592
0.1,-0.1,1.0999999999999999,0.0,0.0,0,-1.1679431,1.0583818,-0.5808981,0.65775,-0.89480954,1.2628913,-2.4028242,-1.1527841,-1.5048724,0.98456454,0.08260172,-0.4921412,1.1286738,1.467202
0.1,-0.1,1.0999999999999999,0.0,0.0,0,-1.1519912,1.1020548,-0.5828083,0.66137695,-0.8837255,1.2464973,-2.4244075,-1.1425799,-1.5395311,0.78882104,-0.17809731,-0.07940189,0.7425168,0.24443893
0.1,-0.1,1.0999999999999999,0.0,0.0,0,-1.1461459,1.0792477,-0.5984958,0.6499304,-0.89027476,1.2429485,-2.3800128,-1.1693643,-1.5034081,0.73790795,0.23005465,-0.30200228,0.76083094,1.4437695
0.1,-0.1,1.0999999999999999,0.0,0.0,0,-1.16823,1.0802319,-0.57863915,0.6624435,-0.89765716,1.2475077,-2.4225295,-1.1352113,-1.5273392,0.5959765,-0.13215213,0.20675193,1.0334196,0.6775681
0.1,-0.1,1.0999999999999999,0.0,0.0,0,-1.1575729,1.0732416,-0.5846847,0.666178,-0.89333904,1.2657397,-2.49333,-1.1630347,-1.5122526,0.8404811,0.07431264,0.47592258,1.1156101,2.034247
0.1,-0.1,1.0999999999999999,0.0,0.0,0,-1.1530138,1.0933347,-0.5854257,0.65585136,-0.88019896,1.2586366,-2.511621,-1.1521282,-1.5275323,0.56019145,-0.3366702,0.44173372,1.176635,0.8474314
0.1,-0.1,1.0999999999999999,0.0,0.0,0,-1.1637667,1.0687081,-0.5978922,0.65239275,-0.900952,1.2650234,-2.4298604,-1.1112854,-1.5794748,0.65900636,-0.0851151,-0.08364138,0.9400639,-0.055244386
0.1,-0.1,1.0999999999999999,0.0,0.0,0,-1.1653918,1.0552169,-0.59192127,0.6512059,-0.87777644,1.2496496,-2.3927853,-1.1375142,-1.5146427,0.70078117,0.1644098,0.19837071,1.4174333,0.79920685
0.1,-0.1,1.0999999999999999,0.0,0.0,0,-1.1589086,1.0736713,-0.57447463,0.6590888,-0.8929686,1.2573438,-2.435858,-1.1764668,-1.5714256,0.5411551,-0.2492263,0.49105865,0.6108945,-0.05171757
0.1,-0.1,1.0999999999999999,0.0,0.0,0,-1.1494375,1.067833,-0.5803001,0.66552585,-0.885252,1.2462184,-2.41119,-1.1228946,-1.5267079,0.820982,-0.09153704,-0.4327879,1.02469,1.345586
0.1,-0.1,1.0999999999999999,0.0,0.0,0,-1.1621308,1.0535331,-0.5966188,0.6535778,-0.91369444,1.2435201,-2.4304385,-1.1085557,-1.5382606,0.3411932,-0.2383233,-0.045938708,1.2006177,0.73869056
0.1,-0.1,1.0999999999999999,0.0,0.0,0,-1.1525049,1.0902836,-0.5879959,0.6608796,-0.8925305,1.2479134,-2.4546378,-1.1578672,-1.5265596,0.5664983,-0.04407096,0.16239616,1.1138349,0.54448056
0.1,-0.1,1.0999999999999999,0.0,0.0,0,-1.1591692,1.080895,-0.5865467,0.646369,-0.90016055,1.2493414,-2.4353993,-1.1484756,-1.5177644,0.6573189,-0.11216562,0.02607734,0.8064282,-0.040116057
0.1,-0.1,1.0999999999999999,0.0,0.0,0,-1.1633546,1.0579746,-0.57035357,0.65972525,-0.89532775,1.2576694,-2.3972206,-1.1553394,-1.5580482,0.81914824,0.02859904,-0.07573586,1.0070204,-0.19750492
0.1,-0.1,1.0999999999999999,0.0,0.0,0,-1.1484948,1.0983254,-0.58880985,0.66065913,-0.895533,1.2511396,-2.4570487,-1.1466844,-1.5203695,0.8111293,-0.3022417,0.4074152,0.8383635,-0.25314513
0.1,-0.1,1.0999999999999999,0.0,0.0,0,-1.1596043,1.0516236,-0.58130676,0.65908486,-0.8957133,1.2553324,-2.4415462,-1.1243674,-1.5332266,0.790864,-0.27224553,0.16870336,1.2557284,0.5968855
0.1,-0.1,1.0999999999999999,0.0,0.0,0,-1.1620661,1.0838627,-0.5898783,0.64968985,-0.89556974,1.2457688,-2.457375,-1.1549146,-1.5200994,0.73299956,-0.046729214,0.265058,0.8540183,1.0181919
0.1,-0.1,1.0999999999999999,0.0,0.0,0,-1.1492454,1.0578431,-0.61128175,0.6500441,-0.8960819,1.2532607,-2.428055,-1.1679935,-1.5509237,0.9871597,0.07599191,-0.2596722,1.1344455,1.025396
0.1,-0.1,1.0999999999999999,0.0,0.0,0,-1.1680014,1.0669829,-0.59208655,0.6520739,-0.90458804,1.2502313,-2.3590097,-1.1643618,-1.5386807,0.7603788,-0.2282496,0.0246065,0.60271895,0.87521714
0.1,-0.1,1.0999999999999999,0.0,0.0,0,-1.1588998,1.0422467,-0.5870924,0.663082,-0.88577527,1.25594,-2.3991826,-1.1526939,-1.5607551,0.81053454,-0.09410155,0.05881325,1.0795971,-0.3687045
0.1,-0.1,1.0999999999999999,0.0,0.0,0,-1.1570066,1.080384,-0.5788718,0.6561389,-0.89556795,1.2470803,-2.4317503,-1.1370121,-1.5049058,0.84146297,0.10700442,-0.14773904,0.96832997,-0.18288888
0.1,-0.1,1.0999999999999999,0.0,0.0,0,-1.1602676,1.1007096,-0.595553,0.6665944,-0.900023,1.249767,-2.424542,-1.141641,-1.5207789,0.5905445,0.22000198,-0.32596722,1.0810196,1.2545356
0.1,-0.1,1.0999999999999999,0.0,0.0,0,-1.1631616,1.1116372,-0.5765188,0.66207606,-0.8905281,1.2352437,-2.4165068,-1.1778637,-1.5252277,0.600345,-0.123176515,0.13749112,1.5334238,2.2608464
0.1,-0.1,1.0999999999999999,0.0,0.0,0,-1.1764545,1.0826598,-0.5699334,0.6507918,-0.8939341,1.2524126,-2.407377,-1.1340265,-1.5240266,0.7436984,-0.10714541,-0.48273253,1.2371107,-0.98945284
0.1,-0.1,1.0999999999999999,0.0,0.0,0,-1.1674944,1.0697432,-0.5778156,0.6651009,-0.8905549,1.2604159,-2.4767911,-1.1244285,-1.515056,0.77397656,-0.10963915,-0.073957905,1.0082755,-1.2358264
0.1,-0.1,1.0999999999999999,0.0,0.0,0,-1.1717359,1.0725625,-0.56293684,0.658912,-0.8828818,1.2631294,-2.4851732,-1.1611416,-1.5089188,0.8621891,0.030005602,0.20834108,1.0309016,0.1620973
0.1,-0.1,1.0999999999999999,0.0,0.0,0,-1.164588,1.0918448,-0.5909244,0.6612505,-0.90728784,1.24732,-2.44341,-1.1498187,-1.5193074,1.1219003,-0.14045659,-0.105756395,1.0651215,1.7142255
0.1,-0.1,1.0999999999999999,0.0,0.0,0,-1.1612008,1.0757468,-0.5932992,0.66382104,-0.9104462,1.256766,-2.3809817,-1.1509607,-1.486247,0.74756896,0.12562416,0.20628007,1.1307198,-0.43514317
0.1,-0.1,1.0999999999999999,0.0,0.0,0,-1.1753588,1.0648005,-0.5751513,0.6574593,-0.88371533,1.2412969,-2.4593363,-1.1412495,-1.5099213,0.87518245,-0.12326406,0.02227725,1.1527933,1.1592392
0.1,-0.1,1.0999999999999999,0.0,0.0,0,-1.1630527,1.0950437,-0.58186567,0.66329235,-0.88361037,1.2595791,-2.464213,-1.1298217,-1.5381678,0.88817924,0.029209163,0.4792835,1.2482866,-0.6029183
0.1,-0.1,1.0999999999999999,0.0,0.0,0,-1.1559632,1.0859746,-0.60033536,0.66071814,-0.8971212,1.264811,-2.4161322,-1.1365204,-1.4901041,0.9589096,-0.28348523,-0.069359,0.9419238,-0.8849371
0.1,-0.1,1.0999999999999999,0.0,0.0,0,-1.1674805,1.0649515,-0.58710647,0.66964084,-0.905293,1.2362121,-2.4726052,-1.1429138,-1.5436805,0.7267209,0.021688625,0.17985891,1.0279609,0.47427085
0.1,-0.1,1.0999999999999999,0.0,0.0,0,-1.168511,1.102948,-0.579018,0.66001225,-0.90790266,1.260266,-2.443417,-1.1037501,-1.5435982,0.8972454,0.06038316,-0.12808484,1.1072047,1.4983625
0.1,-0.1,1.0999999999999999,0.0,0.0,0,-1.1645458,1.0655948,-0.5873815,0.66458106,-0.8981307,1.233879,-2.5047183,-1.1376783,-1.5188688,1.0262463,-0.18279204,-0.42792714,0.5191872,0.2669483
0.1,-0.1,1.0999999999999999,0.0,0.0,0,-1.1551663,1.0967562,-0.6112415,0.6525195,-0.892118,1.2661729,-2.4725194,-1.1202343,-1.5407838,0.6078893,-0.38430706,-0.12077479,0.93116593,2.1001904
0.1,-0.1,1.0999999999999999,0.0,0.0,0,-1.1671795,1.092162,-0.5819957,0.6648649,-0.88748723,1.2561916,-2.4220498,-1.1171834,-1.5524215,0.6834248,-0.048000168,-0.13399024,0.91086787,2.517772
0.1,-0.1,1.0999999999999999,0.0,0.0,0,-1.1729605,1.0814242,-0.5764735,0.65487844,-0.88444096,1.2687776,-2.4046352,-1.1399213,-1.5021249,0.65569,-0.11404836,-0.21698074,0.96117127,2.0409143
0.1,-0.1,1.0999999999999999,0.0,0.0,0,-1.1569338,1.0591981,-0.5874482,0.65260834,-0.8787798,1.2624822,-2.423047,-1.1349257,-1.4894029,0.92056495,-0.114212796,-0.42133272,0.6362989,0.7766975
0.1,-0.1,1.0999999999999999,0.0,0.0,0,-1.1754082,1.0697138,-0.5809343,0.6627263,-0.89111197,1.2671133,-2.4994466,-1.16238,-1.5107636,0.25825047,0.12406256,-0.3490364,0.87769306,0.7339734
0.1,-0.1,1.0999999999999999,0.0,0.0,0,-1.1628298,1.0659074,-0.57329094,0.66166604,-0.8950207,1.2905158,-2.4354959,-1.1369663,-1.4979082,0.77801967,0.012961849,0.01776956,1.2156582,1.1174469
0.1,-0.1,1.0999999999999999,0.0,0.0,0,-1.1600876,1.0668794,-0.5864524,0.6551335,-0.8919322,1.2819439,-2.4299855,-1.1519254,-1.5483915,0.7940909,0.010632399,-0.10524136,0.989678,-0.9521242
0.1,-0.1,1.0999999999999999,0.0,0.0,0,-1.1512341,1.0949833,-0.597194,0.66334724,-0.8855198,1.2510437,-2.495226,-1.1181991,-1.5135686,0.81580836,0.0068117436,-0.4060269,1.1345674,0.5175201
0.1,-0.1,1.0999999999999999,0.0,0.0,0,-1.1658762,1.0497259,-0.5836823,0.6613726,-0.8900244,1.2502971,-2.4847462,-1.1214106,-1.5385637,0.864249,-0.14328305,0.22747725,0.8344112,0.4442188
0.1,-0.1,1.0999999999999999,0.0,0.0,0,-1.1563535,1.0853014,-0.57918704,0.6573425,-0.89977556,1.2487288,-2.4462721,-1.1565014,-1.5331528,0.8933994,-0.040317453,-0.4228545,0.38446876,1.9421259
0.1,-0.1,1.0999999999999999,0.0,0.0,0,-1.1563058,1.0524467,-0.5875886,0.65323263,-0.8956822,1.2281911,-2.37686,-1.1395527,-1.5002166,0.8503041,0.008515562,-0.030426156,0.8585486,1.9392191
0.1,-0.1,1.0999999999999999,0.0,0.0,0,-1.1484613,1.0872735,-0.57595426,0.6591252,-0.9114429,1.2541414,-2.440384,-1.159261,-1.5093986,0.8955619,0.09841859,-0.42269054,1.1966556,0.33975092
0.1,-0.1,1.0999999999999999,0.0,0.0,0,-1.1609854,1.0699553,-0.59784645,0.66333264,-0.8970733,1.243018,-2.4315925,-1.1165711,-1.5173016,0.74456143,-0.06477672,-0.15443952,0.8975051,0.7204761
0.1,-0.1,1.0999999999999999,0.0,0.0,0,-1.1568245,1.1063114,-0.57498676,0.6593,-0.89512306,1.2589375,-2.4124255,-1.1616914,-1.5508636,0.96234584,0.109225206,-0.6178109,0.9650891,1.4261203
0.1,-0.1,1.0999999999999999,0.0,0.0,0,-1.1634052,1.1169132,-0.5871053,0.65494144,-0.88823736,1.2415195,-2.438147,-1.1260021,-1.5377538,0.71512014,-0.058878183,-0.062708214,1.2655125,0.593943
0.1,-0.1,1.0999999999999999,0.0,0.0,0,-1.155882,1.0165721,-0.6051064,0.65592396,-0.8867547,1.2479461,-2.4324782,-1.1039503,-1.5518188,0.8114828,-0.06017373,0.21201526,0.7918941,0.44944805
0.1,-0.1,1.0999999999999999,0.0,0.0,0,-1.172428,1.0364877,-0.58706295,0.65698,-0.9011365,1.2506881,-2.4650197,-1.1642822,-1.4923817,0.9169307,-0.20820835,-0.14975348,0.85609365,0.1248711
0.1,-0.1,1.0999999999999999,0.0,0.0,0,-1.1621263,1.090093,-0.57787085,0.6547076,-0.89430916,1.2452365,-2.4596477,-1.1251314,-1.5362222,0.6852196,-0.011342976,0.07303878,0.9507213,-1.1053604
0.1,-0.1,1.0999999999999999,0.0,0.0,0,-1.1649783,1.0874945,-0.5953653,0.6538477,-0.9046836,1.2477412,-2.4386742,-1.1626135,-1.5543902,0.73753244,-0.10395163,0.43684524,0.8887627,1.9459479
0.1,-0.1,1.0999999999999999,0.0,0.0,0,-1.1661121,1.064873,-0.59401214,0.6610832,-0.8867874,1.2481189,-2.4293602,-1.1693376,-1.5254011,0.99191135,-0.0024964013,0.1619813,1.1968367,0.15226078
0.1,-0.1,1.0999999999999999,0.0,0.0,0,-1.1632348,1.0781581,-0.5828035,0.65537846,-0.89422196,1.2534125,-2.4508872,-1.1443897,-1.5128769,0.9897751,0.07220939,-0.49281582,0.8007047,1.0489814
