sanky1234/BimanualDexCatch/isaacgymenvs/cem_results/football_pose_-0.1_-0.1_1.4_-0.5235987755982988_0.0_0_2025-05-25.csv
x,y,z,roll,pitch,yaw,robot1/joint1,robot1/joint2,robot1/joint3,robot1/joint4,robot1/joint5,robot1/joint6,robot1/joint7,robot2/joint1,robot2/joint2,robot2/joint3,robot2/joint4,robot2/joint5,robot2/joint6,robot2/joint7
-0.1,-0.1,1.4,-0.5235987755982988,0.0,0,-0.17067355,-0.6255908,0.5029584,0.33794406,-0.06337007,0.8232118,0.6910248,0.26855916,-1.0551108,-2.3458796,-0.063158095,0.021000022,1.234945,-0.08863208
-0.1,-0.1,1.4,-0.5235987755982988,0.0,0,-0.16924748,-0.6253735,0.5102257,0.2800636,-0.11953736,0.8296249,-0.6851466,0.2703534,-1.0548924,-2.3461978,-0.061565433,0.12414773,1.2549872,0.22228903
-0.1,-0.1,1.4,-0.5235987755982988,0.0,0,-0.17044008,-0.62412345,0.51929826,0.23543836,0.10727232,0.703784,-0.6523233,0.27048907,-1.0551367,-2.342346,-0.063178435,-0.14957614,1.1393449,0.53105366
-0.1,-0.1,1.4,-0.5235987755982988,0.0,0,-0.17115739,-0.6248649,0.5131677,0.37367815,-0.12261528,0.8196518,-1.3443136,0.2699791,-1.0543926,-2.3459265,-0.06145601,0.118984155,1.1413252,-0.030168828
-0.1,-0.1,1.4,-0.5235987755982988,0.0,0,-0.17470576,-0.6259629,0.5100499,0.36129078,-0.031772014,0.88168323,-0.007325289,0.2697938,-1.0554606,-2.3483188,-0.062682785,-0.074427865,1.2377245,-0.115590215
-0.1,-0.1,1.4,-0.5235987755982988,0.0,0,-0.16624749,-0.62480426,0.49952158,0.27900127,-0.042745568,0.9847916,-0.55750275,0.27060935,-1.0558438,-2.3440778,-0.06293038,-0.10725531,1.2414794,-1.152592
-0.1,-0.1,1.4,-0.5235987755982988,0.0,0,-0.17349242,-0.62735623,0.50289893,0.32717413,-0.030821633,0.83066136,-0.082056314,0.2717572,-1.0559615,-2.346723,-0.061729845,-0.033107214,1.2708735,0.42566878
-0.1,-0.1,1.4,-0.5235987755982988,0.0,0,-0.16994639,-0.6254237,0.5112756,0.24918981,0.020484008,1.0489178,-0.36988154,0.27140716,-1.0553424,-2.3447075,-0.061929137,-0.066781536,1.2294828,0.13844734
-0.1,-0.1,1.4,-0.5235987755982988,0.0,0,-0.16902798,-0.6266685,0.51143175,0.3052483,-0.051112134,0.8601493,-0.52711165,0.26961103,-1.0560062,-2.3468647,-0.06362448,-0.080565326,1.2018497,1.7317476
-0.1,-0.1,1.4,-0.5235987755982988,0.0,0,-0.16990462,-0.62242526,0.5186235,0.29268485,-0.12760964,0.8300636,-0.76895434,0.2714142,-1.057251,-2.344999,-0.06290219,-0.1406227,1.294964,0.432612
-0.1,-0.1,1.4,-0.5235987755982988,0.0,0,-0.17598552,-0.62552154,0.5264691,0.25340933,0.10117246,0.94975364,-0.45337844,0.27169287,-1.0560949,-2.3412106,-0.060500655,-0.06865033,1.2027149,-0.66757226
-0.1,-0.1,1.4,-0.5235987755982988,0.0,0,-0.17272626,-0.62455696,0.51182526,0.35724515,-0.080082476,0.8295664,0.6592078,0.27065265,-1.0530999,-2.3467178,-0.06081579,-0.041533146,1.1992035,0.49728575
-0.1,-0.1,1.4,-0.5235987755982988,0.0,0,-0.16986427,-0.6260531,0.51817864,0.33917043,0.14595813,0.8036925,0.20166074,0.26888338,-1.0535362,-2.3468804,-0.060800526,-0.01573528,1.1769279,1.0073175
-0.1,-0.1,1.4,-0.5235987755982988,0.0,0,-0.17093967,-0.6247913,0.5141621,0.3157761,0.05205241,0.87254715,0.37789756,0.26986063,-1.0557163,-2.3437207,-0.061612174,-0.06889571,1.1146876,-0.43052113
-0.1,-0.1,1.4,-0.5235987755982988,0.0,0,-0.17108522,-0.62431574,0.5189187,0.2470329,0.17306705,0.9845327,1.4732295,0.2694438,-1.056151,-2.3458478,-0.061532576,-0.03570384,1.2961988,-0.49197248
-0.1,-0.1,1.4,-0.5235987755982988,0.0,0,-0.16971268,-0.6255737,0.5072236,0.2970867,-0.0155697735,0.9350077,-0.1570475,0.26887095,-1.0554162,-2.3433337,-0.060281694,-0.04942052,1.1180941,-1.8503128
-0.1,-0.1,1.4,-0.5235987755982988,0.0,0,-0.172657,-0.6240795,0.51990867,0.2385806,0.088876225,0.7928255,-0.24631843,0.26799652,-1.0537223,-2.346551,-0.062531695,-0.120521285,1.1674248,0.35828367
-0.1,-0.1,1.4,-0.5235987755982988,0.0,0,-0.17097175,-0.6274137,0.5152009,0.37763774,-0.065920964,0.8667842,-0.50532436,0.27033663,-1.0566168,-2.3433197,-0.06150611,0.08432504,1.2685441,-0.25422537
-0.1,-0.1,1.4,-0.5235987755982988,0.0,0,-0.1721148,-0.6242503,0.5210462,0.34389743,0.10601173,0.8145206,-0.34072182,0.2693673,-1.0563228,-2.3454447,-0.062966175,0.033795793,1.2434278,1.0991694
-0.1,-0.1,1.4,-0.5235987755982988,0.0,0,-0.16908406,-0.62466514,0.502338,0.32020652,-0.23312041,0.9246347,-0.23836604,0.27066928,-1.0548953,-2.342527,-0.06110936,-0.09973456,1.0258914,-0.2066678
-0.1,-0.1,1.4,-0.5235987755982988,0.0,0,-0.16697986,-0.62418956,0.5230443,0.27028582,0.004761573,0.75946414,0.05609126,0.27000764,-1.0555522,-2.3424742,-0.05997351,-0.15900473,1.2303702,0.47901955
-0.1,-0.1,1.4,-0.5235987755982988,0.0,0,-0.17390785,-0.6246223,0.52042556,0.3594172,0.009507443,0.9510823,0.7685018,0.2706975,-1.055062,-2.3467078,-0.06297465,-0.20907873,1.2936385,-0.62193215
-0.1,-0.1,1.4,-0.5235987755982988,0.0,0,-0.16733876,-0.62342286,0.51874214,0.31167182,0.16822161,0.7943437,0.8935217,0.26862872,-1.0559967,-2.346367,-0.061871175,-0.07066724,1.2914252,-0.55419576
-0.1,-0.1,1.4,-0.5235987755982988,0.0,0,-0.17092252,-0.623816,0.525383,0.3811235,-0.05525327,0.8735139,0.3105398,0.2720908,-1.0533284,-2.3451073,-0.06167447,-0.047106776,1.3570989,0.19313541
-0.1,-0.1,1.4,-0.5235987755982988,0.0,0,-0.17412937,-0.62598586,0.5115151,0.30141935,0.0760294,0.6677382,0.081366055,0.26920512,-1.0533779,-2.3469548,-0.062171444,0.02349941,1.356993,0.049297277
-0.1,-0.1,1.4,-0.5235987755982988,0.0,0,-0.16932614,-0.6243681,0.52082443,0.38668635,-0.045180973,0.68828166,0.5564518,0.26896748,-1.0549895,-2.3452415,-0.0623722,-0.08251955,1.1951107,-0.31245527
-0.1,-0.1,1.4,-0.5235987755982988,0.0,0,-0.17202139,-0.626685,0.510222,0.37604052,-0.1973922,0.89531064,0.04841374,0.271739,-1.0556571,-2.3461964,-0.06402293,-0.15727116,1.3116986,-1.8645637
-0.1,-0.1,1.4,-0.5235987755982988,0.0,0,-0.16575916,-0.6255863,0.5038576,0.23695558,-0.08256401,1.0183511,-1.113133,0.26988345,-1.0544783,-2.3437026,-0.061552394,0.034777284,1.2712184,-0.17604648
-0.1,-0.1,1.4,-0.5235987755982988,0.0,0,-0.17016315,-0.6255672,0.5129,0.37356633,0.12488927,0.93160325,-0.2297441,0.2707217,-1.0528551,-2.3426745,-0.061017778,-0.030661369,1.2383139,-0.96572244
-0.1,-0.1,1.4,-0.5235987755982988,0.0,0,-0.17270598,-0.62446404,0.5183987,0.24815968,-0.013348453,0.9858637,-0.2450365,0.26908305,-1.0563515,-2.3433785,-0.062299114,-0.1093038,1.2367424,-0.34996176
-0.1,-0.1,1.4,-0.5235987755982988,0.0,0,-0.1720338,-0.62497115,0.51404756,0.26564038,-0.09278609,0.95499194,0.71623504,0.26855525,-1.0564957,-2.345371,-0.06173022,-0.060574524,1.2254704,0.16544321
-0.1,-0.1,1.4,-0.5235987755982988,0.0,0,-0.17607561,-0.6262166,0.51895,0.30267167,0.038395446,0.99350864,0.18814392,0.2705281,-1.054336,-2.3459265,-0.064082585,-0.14893104,1.1346837,-0.60131353
-0.1,-0.1,1.4,-0.5235987755982988,0.0,0,-0.16448191,-0.62465197,0.50226235,0.3339166,0.1667109,0.7595685,-0.3363589,0.2715337,-1.0545832,-2.3483982,-0.061681144,-0.21950726,1.3067981,0.02001062
-0.1,-0.1,1.4,-0.5235987755982988,0.0,0,-0.16713053,-0.6236265,0.52006507,0.35547492,0.26352158,0.90600455,0.25399122,0.27108386,-1.0541279,-2.3462749,-0.062529765,-0.15327437,1.2578429,-0.09388108
-0.1,-0.1,1.4,-0.5235987755982988,0.0,0,-0.1733901,-0.62439144,0.50544363,0.22272865,-0.17399077,0.91384006,-0.81044,0.27032545,-1.0548128,-2.3520286,-0.0609539,-0.023841929,1.1020545,0.020850264
-0.1,-0.1,1.4,-0.5235987755982988,0.0,0,-0.16735674,-0.6237634,0.5046515,0.32235813,0.22237642,0.7917757,-0.292524,0.2679346,-1.0543292,-2.343883,-0.061899472,-0.030671276,1.2272987,0.06725487
-0.1,-0.1,1.4,-0.5235987755982988,0.0,0,-0.1717274,-0.6253319,0.5136919,0.30118766,-0.044444617,1.0007972,0.32452998,0.268627,-1.055982,-2.3475497,-0.0619792,0.02824863,1.2703676,-0.2626614
-0.1,-0.1,1.4,-0.5235987755982988,0.0,0,-0.17061023,-0.62331986,0.50703263,0.3087175,-0.041713763,1.1153458,-0.56637496,0.27205646,-1.0537306,-2.348614,-0.062069774,-0.06345234,1.240915,0.43859193
-0.1,-0.1,1.4,-0.5235987755982988,0.0,0,-0.17024878,-0.62436676,0.510104,0.33265707,-0.01440669,0.89775825,0.2970086,0.26916242,-1.0560046,-2.3467612,-0.062156897,-0.21072459,1.1358881,1.1751099
-0.1,-0.1,1.4,-0.5235987755982988,0.0,0,-0.16777253,-0.62346786,0.5166369,0.2903222,0.2017069,0.8705618,-0.62729406,0.27119803,-1.0546778,-2.3493822,-0.060596243,-0.16008301,1.3117756,0.44845125
-0.1,-0.1,1.4,-0.5235987755982988,0.0,0,-0.16648664,-0.62582695,0.5122883,0.34369448,0.11874005,0.9806075,-1.1557171,0.27022457,-1.056663,-2.341145,-0.06415018,-0.14143623,1.2456298,0.21987912
-0.1,-0.1,1.4,-0.5235987755982988,0.0,0,-0.1669576,-0.62461513,0.50748295,0.31236356,-0.08014093,1.0649453,0.02915018,0.2712603,-1.0562996,-2.3471372,-0.063483596,-0.12998095,1.189613,0.14426692
-0.1,-0.1,1.4,-0.5235987755982988,0.0,0,-0.17229858,-0.62330127,0.5161428,0.2776637,0.03074756,0.93418413,0.10061299,0.27225983,-1.0541143,-2.3520637,-0.062501214,-0.025504075,1.3071518,0.16628663
-0.1,-0.1,1.4,-0.5235987755982988,0.0,0,-0.17279437,-0.624796,0.5176004,0.37708148,0.05724811,0.84821254,0.85201323,0.2720475,-1.0543619,-2.346592,-0.06337123,-0.04603125,1.2632568,-0.19460687
-0.1,-0.1,1.4,-0.5235987755982988,0.0,0,-0.1699766,-0.6257244,0.51196265,0.33447775,-0.2469654,0.85768443,-0.92409414,0.2702135,-1.0538571,-2.3443844,-0.060963117,-0.13622376,1.1128162,-0.227256
-0.1,-0.1,1.4,-0.5235987755982988,0.0,0,-0.16976702,-0.62478083,0.5181171,0.22543186,0.15978879,0.7672348,-0.74912953,0.27066913,-1.052614,-2.3457973,-0.063137315,-0.08621401,1.3041439,0.3081571
-0.1,-0.1,1.4,-0.5235987755982988,0.0,0,-0.16829029,-0.62429124,0.49754784,0.2964062,-0.016660795,0.83056283,-0.71528137,0.26921558,-1.0546501,-2.3453546,-0.063422956,-0.031809982,1.1963491,0.3448525
-0.1,-0.1,1.4,-0.5235987755982988,0.0,0,-0.17129356,-0.62515444,0.5187596,0.2730327,0.100693226,0.9313036,-0.35302842,0.2706077,-1.0544616,-2.343685,-0.06183255,0.048391417,1.2308626,0.84073806
-0.1,-0.1,1.4,-0.5235987755982988,0.0,0,-0.17066029,-0.62421167,0.5151484,0.27841118,0.16477707,0.9813344,-0.85803765,0.27107576,-1.0552704,-2.3497748,-0.062133294,-0.21475251,1.0874885,0.19597216
-0.1,-0.1,1.4,-0.5235987755982988,0.0,0,-0.17303531,-0.6250608,0.51111513,0.24456763,0.04113464,0.8946068,0.18704483,0.27023807,-1.0551016,-2.3438883,-0.059775077,-0.13884412,1.2157499,0.42323694
-0.1,-0.1,1.4,-0.5235987755982988,0.0,0,-0.16982189,-0.6238933,0.514409,0.21552782,0.10194368,0.9041006,0.15732822,0.2711387,-1.0558739,-2.344892,-0.061689,-0.094884954,1.1891294,0.8747106
-0.1,-0.1,1.4,-0.5235987755982988,0.0,0,-0.1660329,-0.62246066,0.5139791,0.28916687,-0.017024491,1.0823402,-0.708107,0.27045053,-1.0558642,-2.3447657,-0.062534794,0.05109928,1.0705664,0.43546605
-0.1,-0.1,1.4,-0.5235987755982988,0.0,0,-0.17170914,-0.62469655,0.5206465,0.29359075,0.043522555,0.84327936,-0.50472856,0.27067274,-1.0543859,-2.3455632,-0.06451195,-0.12925477,1.3498464,0.026603233
-0.1,-0.1,1.4,-0.5235987755982988,0.0,0,-0.17099659,-0.6230192,0.5201764,0.2443299,0.056612782,1.0814989,0.27919212,0.27103448,-1.0571227,-2.3471992,-0.062093392,-0.121836655,1.1809632,0.03986574
-0.1,-0.1,1.4,-0.5235987755982988,0.0,0,-0.17526077,-0.6252275,0.51726246,0.29646394,0.26622394,0.9695374,0.073171504,0.27009496,-1.0551881,-2.342886,-0.062041283,-0.08440846,1.1449983,0.026924245
-0.1,-0.1,1.4,-0.5235987755982988,0.0,0,-0.1714833,-0.6251531,0.5115101,0.28813878,-0.054106705,0.8458841,0.23510008,0.27159667,-1.0540037,-2.3407905,-0.06289081,-0.10879297,1.2264309,-1.5505989
-0.1,-0.1,1.4,-0.5235987755982988,0.0,0,-0.16834468,-0.62675303,0.5134806,0.27741417,0.11120629,0.8413812,-0.8730668,0.27146545,-1.0544991,-2.3495095,-0.061267145,-0.0786992,1.3125387,1.5273107
-0.1,-0.1,1.4,-0.5235987755982988,0.0,0,-0.17003189,-0.6239922,0.5144917,0.33300292,0.064310506,0.93105984,0.47052035,0.2707675,-1.0547551,-2.344372,-0.06009966,-0.06252836,1.2117099,0.76524967
-0.1,-0.1,1.4,-0.5235987755982988,0.0,0,-0.17260422,-0.62462264,0.5269787,0.29657218,-0.06516959,0.8629232,-0.5272065,0.27103767,-1.0530773,-2.3465245,-0.061684377,0.02537228,1.1597674,0.49756113
-0.1,-0.1,1.4,-0.5235987755982988,0.0,0,-0.1677129,-0.6251921,0.5103946,0.24355657,0.020215005,0.8811594,-0.32050395,0.27189612,-1.0545453,-2.3477147,-0.062083527,0.017107442,1.2761507,0.006175121
-0.1,-0.1,1.4,-0.5235987755982988,0.0,0,-0.1733172,-0.62400913,0.5154846,0.30897373,0.10288677,0.9505351,0.15179662,0.27024698,-1.0543723,-2.3504338,-0.062008917,-0.19132404,1.1349199,0.52516466
-0.1,-0.1,1.4,-0.5235987755982988,0.0,0,-0.1737161,-0.62419933,0.5193868,0.2709399,0.22406699,0.7844914,-1.1365416,0.26949358,-1.0566785,-2.3502712,-0.06302954,-0.29694164,1.2576141,-0.9945113
-0.1,-0.1,1.4,-0.5235987755982988,0.0,0,-0.1750224,-0.6230281,0.5176298,0.32913283,-0.20040026,0.90523267,0.049269397,0.27104458,-1.0563663,-2.341618,-0.061456498,-0.11216597,1.1811781,-0.9204726
-0.1,-0.1,1.4,-0.5235987755982988,0.0,0,-0.16813193,-0.6275556,0.503642,0.34517708,0.049308535,0.92347574,-0.8923809,0.27007192,-1.055057,-2.3490071,-0.06226074,-0.17817926,1.1472917,-0.79647404
-0.1,-0.1,1.4,-0.5235987755982988,0.0,0,-0.16827928,-0.62610817,0.502138,0.3284422,-0.022286316,0.9979938,0.06261245,0.27158076,-1.055322,-2.3485587,-0.0625055,0.082788385,1.2022567,0.3908447
-0.1,-0.1,1.4,-0.5235987755982988,0.0,0,-0.16742091,-0.6258627,0.5132446,0.30791128,0.05765672,0.9872313,0.21196629,0.26983753,-1.0552164,-2.3497274,-0.06027085,0.06706642,1.1859967,0.3591863
-0.1,-0.1,1.4,-0.5235987755982988,0.0,0,-0.16899842,-0.62418187,0.5109474,0.34445128,-0.028309273,1.1832459,0.6549231,0.27186885,-1.0527799,-2.3440187,-0.06184421,-0.10624425,1.2265092,0.65715915
-0.1,-0.1,1.4,-0.5235987755982988,0.0,0,-0.17614463,-0.6250453,0.5226344,0.33170867,0.10747682,0.9974268,0.12985523,0.26977813,-1.0546877,-2.3492818,-0.063368835,-0.06023526,1.0985823,1.6557584
-0.1,-0.1,1.4,-0.5235987755982988,0.0,0,-0.16482824,-0.62615013,0.50768685,0.28697273,0.029748276,1.11303,-0.54439706,0.27087855,-1.0553138,-2.3380525,-0.06254624,-0.0018298877,1.2539347,0.53324986
-0.1,-0.1,1.4,-0.5235987755982988,0.0,0,-0.16706747,-0.62507564,0.5167655,0.38274556,-0.14658217,0.8579077,0.2601348,0.2716648,-1.055002,-2.3459585,-0.06015035,-0.025958939,1.3198687,0.045555502
-0.1,-0.1,1.4,-0.5235987755982988,0.0,0,-0.17020354,-0.62519693,0.5149345,0.35483667,0.18937619,0.9551394,-0.8431912,0.26943237,-1.0546104,-2.3460252,-0.061352823,0.08016922,1.2083824,0.8460113
-0.1,-0.1,1.4,-0.5235987755982988,0.0,0,-0.16894487,-0.6234374,0.51647526,0.18732509,-0.1896687,0.9222586,-1.0396445,0.26862335,-1.0552943,-2.346738,-0.060318377,-0.07355877,1.2479464,1.9950744
-0.1,-0.1,1.4,-0.5235987755982988,0.0,0,-0.16987225,-0.62407523,0.51408803,0.3106955,0.043844715,0.9738209,-1.1242309,0.26851693,-1.0547311,-2.340183,-0.061523415,0.04414684,1.179125,-1.5957302
-0.1,-0.1,1.4,-0.5235987755982988,0.0,0,-0.16673833,-0.6251568,0.5101873,0.32504633,0.039379172,0.74287343,0.072991855,0.27065974,-1.0533149,-2.344204,-0.061766777,-0.08943576,1.2558475,-0.23090096
-0.1,-0.1,1.4,-0.5235987755982988,0.0,0,-0.17349607,-0.6235706,0.51394993,0.23485288,0.1608876,0.80743164,-0.3929703,0.26957735,-1.0530814,-2.3426619,-0.063388206,-0.18077715,1.1981108,0.91789925
-0.1,-0.1,1.4,-0.5235987755982988,0.0,0,-0.17231621,-0.62566185,0.50992703,0.389961,0.38105556,0.8901786,0.5877154,0.27009994,-1.0539877,-2.3464775,-0.061622947,-0.287336,1.2193848,-0.8665949
-0.1,-0.1,1.4,-0.5235987755982988,0.0,0,-0.17205043,-0.625966,0.51725614,0.2918887,0.09175711,0.85619557,-0.6564674,0.2689277,-1.0545409,-2.343518,-0.060047287,-0.1758735,1.2963008,-1.0449374
-0.1,-0.1,1.4,-0.5235987755982988,0.0,0,-0.17310824,-0.6252784,0.5129998,0.35862055,-0.027793705,1.0319583,-0.5824263,0.27009696,-1.0534981,-2.3451436,-0.06191049,-0.0055567157,1.2863104,0.20646739
-0.1,-0.1,1.4,-0.5235987755982988,0.0,0,-0.16836746,-0.62469727,0.50917935,0.2211948,0.14923272,0.8721373,-0.748871,0.27191538,-1.0536903,-2.3426774,-0.06127951,-0.15425935,1.3190455,-0.581177
-0.1,-0.1,1.4,-0.5235987755982988,0.0,0,-0.1748362,-0.6267692,0.51589745,0.30948332,-0.025718346,0.94188756,0.78295016,0.269447,-1.0546353,-2.3504183,-0.061940227,-0.07277366,1.1728648,0.9256716
-0.1,-0.1,1.4,-0.5235987755982988,0.0,0,-0.17300601,-0.6263682,0.51680064,0.31448817,-0.10247818,1.0025016,-0.8865764,0.26894945,-1.0553637,-2.3486407,-0.06264274,0.029034074,1.1392757,-0.117594875
-0.1,-0.1,1.4,-0.5235987755982988,0.0,0,-0.16754471,-0.6249847,0.52379996,0.2772449,0.17003733,0.7946162,1.1681193,0.27022016,-1.0533999,-2.3470237,-0.061602026,-0.14916186,1.1702654,0.6246419
-0.1,-0.1,1.4,-0.5235987755982988,0.0,0,-0.17393851,-0.6239636,0.51575345,0.24590611,0.104907155,0.91588557,-1.2143004,0.2712713,-1.0531482,-2.3468695,-0.06175668,-0.19544378,1.3288149,0.22877121
-0.1,-0.1,1.4,-0.5235987755982988,0.0,0,-0.17099579,-0.6250478,0.51934975,0.28619662,0.07483551,0.85231364,0.26548696,0.27089772,-1.0555474,-2.3513238,-0.06428398,0.044548552,1.3003201,0.21818079
-0.1,-0.1,1.4,-0.5235987755982988,0.0,0,-0.17611662,-0.6266216,0.5107731,0.29928756,-0.058595385,0.90158546,-0.71549183,0.27180076,-1.0553777,-2.3497431,-0.06373451,-0.03897269,1.293225,-0.5535831
-0.1,-0.1,1.4,-0.5235987755982988,0.0,0,-0.17011447,-0.6240635,0.5070335,0.30722883,-0.07029441,1.0402278,0.5460793,0.26971492,-1.0535966,-2.3469732,-0.06023773,-0.11650936,1.227339,-0.8996667
-0.1,-0.1,1.4,-0.5235987755982988,0.0,0,-0.17196685,-0.62534326,0.5166568,0.29452136,-0.04159964,0.90336347,-0.5181065,0.2716726,-1.054111,-2.3441331,-0.06158474,-0.23293209,1.1590998,0.18952398
-0.1,-0.1,1.4,-0.5235987755982988,0.0,0,-0.17275122,-0.62431824,0.5098803,0.35669976,-0.06675016,1.0281057,-0.6723524,0.2698639,-1.0552657,-2.3483512,-0.061147757,-0.2870008,1.1558484,-2.4869056
-0.1,-0.1,1.4,-0.5235987755982988,0.0,0,-0.1648193,-0.6262632,0.50076234,0.24914786,-0.15978786,0.9029313,-0.9907861,0.26957574,-1.0548539,-2.3445976,-0.061295714,-0.11681572,1.2537739,0.8126938
-0.1,-0.1,1.4,-0.5235987755982988,0.0,0,-0.1752911,-0.6233529,0.5250614,0.23007357,-0.03106496,0.92388576,-0.17807299,0.27001515,-1.0566013,-2.3465414,-0.062280558,0.014535124,1.2263994,0.41501227
-0.1,-0.1,1.4,-0.5235987755982988,0.0,0,-0.1660051,-0.6216132,0.51054597,0.18721287,0.053263366,0.8792846,-0.14267996,0.27040178,-1.0554028,-2.3444579,-0.06351034,-0.07646732,1.34465,-0.41804016
-0.1,-0.1,1.4,-0.5235987755982988,0.0,0,-0.16892144,-0.6257431,0.5098113,0.32032716,-0.11994169,0.9514645,-0.052561432,0.27102455,-1.0529014,-2.344827,-0.060410526,-0.008195453,1.3104993,0.6490915
-0.1,-0.1,1.4,-0.5235987755982988,0.0,0,-0.16899236,-0.62372386,0.51716363,0.37912643,0.1662629,1.0683361,-0.5975415,0.26877546,-1.0555414,-2.3440928,-0.061006233,0.06608765,1.2013004,0.49097118
-0.1,-0.1,1.4,-0.5235987755982988,0.0,0,-0.16898832,-0.6252085,0.5119535,0.30183184,0.10076384,0.9945752,-0.21783938,0.27093142,-1.0533653,-2.3417954,-0.06227216,-0.04643281,1.3332714,-0.10843674
-0.1,-0.1,1.4,-0.5235987755982988,0.0,0,-0.16998112,-0.6248938,0.51670974,0.30402234,0.036034122,1.0687225,0.33502316,0.2686406,-1.0547712,-2.3495185,-0.06304684,-0.062818,1.180825,-0.35247076
-0.1,-0.1,1.4,-0.5235987755982988,0.0,0,-0.17362662,-0.6252072,0.51498175,0.2467391,0.24874586,0.79968566,-0.21755879,0.2707852,-1.054867,-2.342846,-0.06162888,-0.054185424,1.2244425,0.2560134
-0.1,-0.1,1.4,-0.5235987755982988,0.0,0,-0.16750176,-0.6246886,0.52742493,0.21610703,-0.12590365,0.91330415,-0.23722726,0.26934874,-1.0558486,-2.344932,-0.058761787,-0.08981555,1.2735344,-0.88268834
-0.1,-0.1,1.4,-0.5235987755982988,0.0,0,-0.17142804,-0.6271166,0.5152234,0.37133032,0.45650125,0.9112475,-1.1294423,0.26988408,-1.0576607,-2.345855,-0.060496975,-0.006874832,1.2135538,-0.79773426
-0.1,-0.1,1.4,-0.5235987755982988,0.0,0,-0.16847427,-0.62442935,0.51603454,0.28562716,0.09182009,0.9143926,-0.35951933,0.26889113,-1.0540934,-2.3418777,-0.060767308,-0.027240092,1.2180336,1.1960462
-0.1,-0.1,1.4,-0.5235987755982988,0.0,0,-0.16792,-0.6254176,0.51470405,0.22137192,0.09557842,0.75938994,-0.3777066,0.26939282,-1.0563519,-2.3451064,-0.062547676,0.08448451,1.209713,0.31964296
-0.1,-0.1,1.4,-0.5235987755982988,0.0,0,-0.17072147,-0.62371904,0.5190837,0.31733996,-0.095565215,0.9230584,0.05973044,0.27196327,-1.0533817,-2.3459246,-0.0618189,-0.051591106,1.0936713,0.27172217
-0.1,-0.1,1.4,-0.5235987755982988,0.0,0,-0.17143752,-0.6244611,0.51107126,0.31848496,0.06709031,0.8836806,-0.22989956,0.26810828,-1.0564287,-2.3431008,-0.062821604,-0.016298883,1.2108808,-0.7873508
-0.1,-0.1,1.4,-0.5235987755982988,0.0,0,-0.17264006,-0.6258953,0.51308,0.23763312,0.2170743,0.95734924,0.5720393,0.26968253,-1.0541624,-2.3453896,-0.061798703,-0.062323947,1.2220562,-0.87050116
-0.1,-0.1,1.4,-0.5235987755982988,0.0,0,-0.16794188,-0.62402624,0.50437963,0.3290717,0.32849827,0.98547125,-0.54005605,0.27095836,-1.0551996,-2.3473182,-0.06346619,0.1479648,1.2537137,-0.06857968
-0.1,-0.1,1.4,-0.5235987755982988,0.0,0,-0.17172137,-0.62527114,0.51265484,0.22159211,0.028340533,0.9002619,-0.2585223,0.26847225,-1.0553492,-2.3451715,-0.061643757,-0.073371805,1.3507845,-1.0733908
-0.1,-0.1,1.4,-0.5235987755982988,0.0,0,-0.17277099,-0.62566495,0.518393,0.26550996,0.038470116,0.856797,-0.6859155,0.26995307,-1.0535651,-2.3470144,-0.061051622,-0.032279026,1.2415048,0.20058413
-0.1,-0.1,1.4,-0.5235987755982988,0.0,0,-0.16786382,-0.6257658,0.50439215,0.3308776,0.13893904,1.0543112,-0.5376931,0.27067113,-1.0555943,-2.346924,-0.06387698,-0.13054876,1.2279326,-0.68325776
-0.1,-0.1,1.4,-0.5235987755982988,0.0,0,-0.16946895,-0.6242942,0.51584435,0.2643593,-0.06675199,0.91030294,1.1213802,0.26996422,-1.0535318,-2.3448157,-0.06317836,0.034363013,1.2103978,-0.21414937
-0.1,-0.1,1.4,-0.5235987755982988,0.0,0,-0.16936353,-0.6248033,0.5123627,0.350139,0.07348897,1.1888865,1.131083,0.27040422,-1.0550532,-2.3431187,-0.06207938,-0.025196636,1.2709652,-0.011654522
-0.1,-0.1,1.4,-0.5235987755982988,0.0,0,-0.16980112,-0.62428725,0.51787066,0.2918258,0.26672116,1.0457879,0.18410385,0.2707154,-1.0557863,-2.3448367,-0.062603,-0.12969749,1.2200764,-1.4838545
-0.1,-0.1,1.4,-0.5235987755982988,0.0,0,-0.17170879,-0.6253261,0.5077563,0.2543567,-0.12451777,1.0356216,0.046253182,0.27011302,-1.0545644,-2.34848,-0.061670844,0.04325122,1.2087152,-0.18584555
-0.1,-0.1,1.4,-0.5235987755982988,0.0,0,-0.16737723,-0.62585086,0.5129554,0.19332945,-0.0064249905,0.863215,1.1138709,0.2702736,-1.0548304,-2.3433006,-0.061064396,-0.062470824,1.2690383,-1.2545093
-0.1,-0.1,1.4,-0.5235987755982988,0.0,0,-0.16816752,-0.6251299,0.51608515,0.2702472,-0.1063972,0.80669665,-0.2979813,0.2704269,-1.0542545,-2.3456032,-0.06160912,0.028236592,1.1327103,1.2483376
-0.1,-0.1,1.4,-0.5235987755982988,0.0,0,-0.16236329,-0.6246048,0.50215393,0.3096299,0.18444926,0.96313626,0.734567,0.27029964,-1.0568062,-2.3450396,-0.06226629,0.0145063,1.2035712,0.043570675
-0.1,-0.1,1.4,-0.5235987755982988,0.0,0,-0.16861483,-0.6252868,0.5147241,0.34367207,-0.10974321,0.913587,-0.89766484,0.27073655,-1.0554255,-2.3429296,-0.06411243,-0.025322007,1.3047342,-0.2086097
-0.1,-0.1,1.4,-0.5235987755982988,0.0,0,-0.17171845,-0.6252272,0.5163589,0.32005784,-0.024010655,1.0074142,-1.0217586,0.27116317,-1.0546205,-2.349155,-0.06255663,-0.17979464,1.1201403,0.9491043
-0.1,-0.1,1.4,-0.5235987755982988,0.0,0,-0.17078632,-0.6256676,0.5196319,0.22800922,0.12462942,0.8876783,-0.34392533,0.26917377,-1.05464,-2.3442307,-0.06192572,-0.050676417,1.1264049,-0.6145868
-0.1,-0.1,1.4,-0.5235987755982988,0.0,0,-0.17067586,-0.6244467,0.50924075,0.26614136,0.010738825,0.86243916,-0.5207439,0.26884064,-1.0542653,-2.3477318,-0.06171572,-0.10524727,1.1637114,-1.5866783
-0.1,-0.1,1.4,-0.5235987755982988,0.0,0,-0.16449666,-0.62390876,0.51012605,0.33424205,-0.08758977,1.0347782,-1.2742234,0.27175522,-1.0527004,-2.3434796,-0.061791778,0.08347866,1.1677862,0.05857402
-0.1,-0.1,1.4,-0.5235987755982988,0.0,0,-0.16864456,-0.6264685,0.5117073,0.37784073,-0.09283525,0.83677095,-0.15204825,0.27135885,-1.056207,-2.3482864,-0.062654026,0.08623408,1.1918734,-0.11745701
-0.1,-0.1,1.4,-0.5235987755982988,0.0,0,-0.16909645,-0.62388325,0.527395,0.31390348,0.025636723,0.6867714,-0.96466017,0.27072626,-1.0543625,-2.3426468,-0.061981946,-0.070010364,1.2698036,-0.18949535
-0.1,-0.1,1.4,-0.5235987755982988,0.0,0,-0.17359143,-0.624466,0.51703644,0.33363816,0.16069831,0.80999833,-0.52147967,0.27068937,-1.05482,-2.3433774,-0.061889634,-0.23786464,1.2334462,-1.0484117
-0.1,-0.1,1.4,-0.5235987755982988,0.0,0,-0.17036204,-0.6246335,0.5209642,0.2330972,0.2647883,0.90071505,0.09706419,0.27016857,-1.0525714,-2.3458846,-0.06046961,0.062551305,1.100242,-0.43403658
-0.1,-0.1,1.4,-0.5235987755982988,0.0,0,-0.17400576,-0.6234769,0.51517695,0.34677494,0.14362627,0.9151531,0.5075777,0.2688968,-1.0566821,-2.344586,-0.062629424,-0.043611817,1.2083726,1.3872327
-0.1,-0.1,1.4,-0.5235987755982988,0.0,0,-0.17542051,-0.62428546,0.52325994,0.2411004,0.14596047,0.9327971,-0.6473916,0.27040076,-1.0528512,-2.3417919,-0.062580936,-0.015399366,1.2631176,0.7895766
-0.1,-0.1,1.4,-0.5235987755982988,0.0,0,-0.1701356,-0.62464136,0.51363236,0.35303465,-0.06626147,0.9551521,0.32715347,0.27212137,-1.0553244,-2.3432486,-0.061095476,-0.09086203,1.3693751,0.507017
-0.1,-0.1,1.4,-0.5235987755982988,0.0,0,-0.16968139,-0.62548476,0.5160254,0.20853841,-0.16998409,0.99747586,0.2520846,0.27116704,-1.0565946,-2.34654,-0.0630119,-0.13829894,1.3230599,-0.8769855
-0.1,-0.1,1.4,-0.5235987755982988,0.0,0,-0.17195866,-0.62628514,0.51756614,0.258601,0.03140385,1.1291834,0.979062,0.26823688,-1.0553963,-2.3455617,-0.061547257,-0.024754202,1.212304,0.18254802
-0.1,-0.1,1.4,-0.5235987755982988,0.0,0,-0.16230468,-0.6238271,0.5154905,0.29798162,0.038370255,0.88773745,-0.8113469,0.27020374,-1.0539671,-2.342808,-0.060773265,-0.08207283,1.258792,0.65220803
-0.1,-0.1,1.4,-0.5235987755982988,0.0,0,-0.17009148,-0.6246804,0.5193987,0.29900125,0.059999295,0.89223236,0.30118793,0.26994628,-1.0536487,-2.346576,-0.061594833,-0.099003464,1.2508321,-0.7741297
-0.1,-0.1,1.4,-0.5235987755982988,0.0,0,-0.17202851,-0.6258042,0.5067181,0.25695282,-0.05397782,0.88291514,0.8276796,0.26915038,-1.0571176,-2.345868,-0.06225314,-0.09732282,1.2501537,-1.468828
-0.1,-0.1,1.4,-0.5235987755982988,0.0,0,-0.17278948,-0.6249798,0.5239279,0.29549953,0.11370702,0.8875386,-0.577338,0.2709199,-1.0550536,-2.3450122,-0.061581586,-0.13677073,1.2839435,0.28919718
-0.1,-0.1,1.4,-0.5235987755982988,0.0,0,-0.16731189,-0.6271703,0.5141251,0.26926237,-0.066200145,0.7884923,-0.24881735,0.2710093,-1.0519593,-2.3480272,-0.061502922,0.026260965,1.1070518,0.42025945
-0.1,-0.1,1.4,-0.5235987755982988,0.0,0,-0.17055653,-0.6256695,0.5206353,0.30496895,0.05428656,0.99522215,-0.5737851,0.26996994,-1.054962,-2.345767,-0.0590818,-0.114198506,1.186322,-0.41188958
-0.1,-0.1,1.4,-0.5235987755982988,0.0,0,-0.16786346,-0.62597287,0.50896883,0.24972929,-0.06977065,0.8782272,-0.33451065,0.2692996,-1.0542216,-2.3513162,-0.061072223,0.11625763,1.2371678,0.7497183
-0.1,-0.1,1.4,-0.5235987755982988,0.0,0,-0.17087784,-0.625103,0.509852,0.30595237,0.24325077,1.0684446,0.26593858,0.27062726,-1.0546227,-2.3469775,-0.06289617,-0.042517096,1.225989,-0.05526542
-0.1,-0.1,1.4,-0.5235987755982988,0.0,0,-0.16995837,-0.6268414,0.51312214,0.28992486,-0.018924767,1.124507,0.024158906,0.2681538,-1.0549816,-2.344466,-0.06117023,0.057562955,1.2027035,0.33900204
-0.1,-0.1,1.4,-0.5235987755982988,0.0,0,-0.16843916,-0.6272227,0.5104131,0.22783777,0.0072285375,1.010129,0.10710259,0.2726794,-1.0533745,-2.3467412,-0.06263578,-0.22560865,1.3335668,-1.1272999
-0.1,-0.1,1.4,-0.5235987755982988,0.0,0,-0.16799967,-0.6251346,0.51461816,0.29784426,-0.22426479,1.0863614,1.1004716,0.27135384,-1.055523,-2.3471384,-0.06255301,-0.108782224,1.2471323,0.45961833
-0.1,-0.1,1.4,-0.5235987755982988,0.0,0,-0.16823602,-0.6261321,0.51823926,0.3249967,0.20292702,0.9696099,-1.2618636,0.2678756,-1.0560448,-2.34685,-0.060753547,-0.095800474,1.2900271,-0.91061574
-0.1,-0.1,1.4,-0.5235987755982988,0.0,0,-0.16847043,-0.62440246,0.5310602,0.22033851,0.1830829,0.87644887,-0.059128612,0.2685456,-1.0542974,-2.3416915,-0.060861886,0.008731115,1.0912539,0.9937822
-0.1,-0.1,1.4,-0.5235987755982988,0.0,0,-0.17299843,-0.62494427,0.50885284,0.28141537,0.08386703,0.859595,-0.7118699,0.26788476,-1.0533631,-2.3449683,-0.059726495,-0.21619657,1.3285607,0.105899036
-0.1,-0.1,1.4,-0.5235987755982988,0.0,0,-0.16931367,-0.6248211,0.51813865,0.26999268,0.024614511,0.9778216,0.39576322,0.26984057,-1.0543652,-2.3516214,-0.062387146,-0.06529244,1.2201616,0.5208766
-0.1,-0.1,1.4,-0.5235987755982988,0.0,0,-0.1692376,-0.62536526,0.510792,0.32948503,0.0023930883,0.8101735,-0.85042953,0.27146068,-1.0554758,-2.3430128,-0.061722066,0.15880506,1.2003531,-0.81347424
-0.1,-0.1,1.4,-0.5235987755982988,0.0,0,-0.17012027,-0.6246945,0.52593154,0.34650496,0.07163658,0.81983405,0.13326724,0.26917392,-1.0532159,-2.3418686,-0.06161781,-0.19447106,1.2788621,0.06509917
-0.1,-0.1,1.4,-0.5235987755982988,0.0,0,-0.1672264,-0.6247488,0.50924784,0.2882454,0.053035572,0.933873,0.26412973,0.26907346,-1.0543088,-2.3515515,-0.061529864,0.1036255,1.232207,-0.21192747
-0.1,-0.1,1.4,-0.5235987755982988,0.0,0,-0.17038657,-0.62315184,0.5095141,0.24433403,0.035179224,0.95636827,0.48907632,0.27132216,-1.0565938,-2.3505845,-0.06112463,-0.015387183,1.2216277,-0.16401418
-0.1,-0.1,1.4,-0.5235987755982988,0.0,0,-0.16764334,-0.62470883,0.5189614,0.36368686,-0.020477025,1.0301741,0.33269665,0.2709391,-1.0540469,-2.3433683,-0.061137784,0.062394734,1.0398552,-1.1793526
-0.1,-0.1,1.4,-0.5235987755982988,0.0,0,-0.17496689,-0.6247737,0.50914335,0.19961308,-0.047558624,0.96804297,-0.2559071,0.26944134,-1.0539343,-2.3525646,-0.06264242,-0.03410551,1.187936,0.20814724
-0.1,-0.1,1.4,-0.5235987755982988,0.0,0,-0.16726875,-0.6247429,0.52116686,0.3581164,-0.10692357,0.8687953,0.53198653,0.27084664,-1.0548986,-2.3469777,-0.06334379,-0.026977347,1.224549,-0.38470125
-0.1,-0.1,1.4,-0.5235987755982988,0.0,0,-0.16634676,-0.624032,0.5208601,0.31849632,-0.02928469,0.8726362,0.24150312,0.27031434,-1.0536216,-2.3488274,-0.06201803,0.017136494,1.131494,0.6228385
-0.1,-0.1,1.4,-0.5235987755982988,0.0,0,-0.16654469,-0.6271509,0.5059699,0.30938765,0.28107178,0.8551638,-1.2475431,0.26992157,-1.0532897,-2.3469503,-0.062343873,0.1916847,1.231789,0.06809446
-0.1,-0.1,1.4,-0.5235987755982988,0.0,0,-0.16494903,-0.6254107,0.52766085,0.34792805,-0.08682015,0.95823413,-0.21846011,0.26944193,-1.0548775,-2.3464594,-0.0622515,-0.024966959,1.0917815,0.11553903
-0.1,-0.1,1.4,-0.5235987755982988,0.0,0,-0.16970645,-0.625969,0.5108998,0.3212297,0.062219914,1.0445251,-0.68287367,0.27238393,-1.0536948,-2.3477776,-0.062341902,-0.05595303,1.120748,1.4261777
-0.1,-0.1,1.4,-0.5235987755982988,0.0,0,-0.16702227,-0.6266474,0.5199279,0.37578166,0.011753675,1.0183812,0.20033292,0.27043214,-1.0562336,-2.350635,-0.06170872,-0.040703584,1.1223568,-0.64491045
-0.1,-0.1,1.4,-0.5235987755982988,0.0,0,-0.16379544,-0.62468475,0.52175623,0.25783798,-0.15521394,1.1329327,0.009888168,0.26942036,-1.0568366,-2.346992,-0.060985968,-0.017516902,1.286846,0.7934277
-0.1,-0.1,1.4,-0.5235987755982988,0.0,0,-0.16318548,-0.6258741,0.51733357,0.33277798,0.037566464,1.0692481,-0.086067915,0.27097133,-1.0558658,-2.3508365,-0.06252766,-0.06165518,1.081464,0.9903631
-0.1,-0.1,1.4,-0.5235987755982988,0.0,0,-0.17414331,-0.6274875,0.51272494,0.28168777,0.12477671,0.81435007,-0.057673726,0.27105868,-1.0539887,-2.3383534,-0.06451592,-0.024966054,1.2492048,-0.16669518
-0.1,-0.1,1.4,-0.5235987755982988,0.0,0,-0.1697634,-0.6246834,0.5170384,0.20072132,0.04515749,0.7867473,-0.26883987,0.27116126,-1.0571965,-2.3386874,-0.06227279,-0.11495842,1.1277146,0.09537479
-0.1,-0.1,1.4,-0.5235987755982988,0.0,0,-0.1662255,-0.6231102,0.5064859,0.26069224,0.26294255,0.822024,0.31016538,0.26923463,-1.0564692,-2.3459616,-0.061039437,0.023780365,1.2470263,-0.5224221
-0.1,-0.1,1.4,-0.5235987755982988,0.0,0,-0.17516688,-0.6235236,0.52235615,0.34013262,0.01699964,0.8908011,0.51623136,0.2687006,-1.0560278,-2.345048,-0.06076244,0.06697725,1.2735652,0.406095
-0.1,-0.1,1.4,-0.5235987755982988,0.0,0,-0.17333858,-0.6254429,0.51006395,0.25970086,-0.03698512,0.828753,-0.25365868,0.27148002,-1.0555764,-2.3439062,-0.061325416,-0.03178714,1.2158464,-0.32981652
-0.1,-0.1,1.4,-0.5235987755982988,0.0,0,-0.16998416,-0.6235943,0.503576,0.24672428,0.049125124,0.94783497,-0.48986405,0.26909074,-1.0552166,-2.3454835,-0.061072055,-0.11163087,1.1522112,-0.90922695
-0.1,-0.1,1.4,-0.5235987755982988,0.0,0,-0.17198719,-0.6246326,0.52024925,0.28671038,0.32359892,0.9457081,-0.17903364,0.2704447,-1.0538678,-2.3470953,-0.06369661,-0.16662309,1.1840888,0.26137036
-0.1,-0.1,1.4,-0.5235987755982988,0.0,0,-0.1786169,-0.624261,0.51604986,0.32463008,-0.12243876,0.87277377,-0.9811109,0.26996616,-1.055258,-2.3419614,-0.0616825,-0.18759261,1.2364912,1.8484641
-0.1,-0.1,1.4,-0.5235987755982988,0.0,0,-0.17237519,-0.6243351,0.5081159,0.26248145,-0.009350379,0.824039,0.08101006,0.27018097,-1.0564216,-2.3494334,-0.060941976,-0.12569173,1.174905,0.7609289
-0.1,-0.1,1.4,-0.5235987755982988,0.0,0,-0.1713045,-0.6239196,0.50845855,0.3385146,0.02077017,0.85376644,-0.15393388,0.27089465,-1.0555471,-2.3480873,-0.06251729,0.049607586,1.2413766,-0.55007696
-0.1,-0.1,1.4,-0.5235987755982988,0.0,0,-0.17042446,-0.6242263,0.5098832,0.33645445,0.06168833,0.7919001,-0.21661316,0.2692366,-1.0556446,-2.3428552,-0.060421783,-0.078501195,1.2722905,-0.45302424
-0.1,-0.1,1.4,-0.5235987755982988,0.0,0,-0.1728923,-0.62590826,0.520355,0.27523008,-0.24872892,0.7445903,-1.5997401,0.27037552,-1.05498,-2.3497703,-0.062477227,-0.2090998,1.208427,-0.6576903
-0.1,-0.1,1.4,-0.5235987755982988,0.0,0,-0.17203331,-0.62305886,0.5095809,0.32591662,-0.020107497,0.6778088,-0.20372169,0.27066183,-1.055819,-2.3452415,-0.061364036,0.1009315,1.2626357,-0.72836876
-0.1,-0.1,1.4,-0.5235987755982988,0.0,0,-0.17390214,-0.6228879,0.50684506,0.3134559,-0.012726392,0.79040456,0.92520225,0.27037266,-1.0558684,-2.344172,-0.061135802,-0.10982043,1.2116804,1.8558037
-0.1,-0.1,1.4,-0.5235987755982988,0.0,0,-0.17614087,-0.6253931,0.50761884,0.24198055,-0.0659897,0.8814138,0.5899674,0.2692405,-1.0561432,-2.345829,-0.06070258,-0.12601288,1.1893698,0.56997806
-0.1,-0.1,1.4,-0.5235987755982988,0.0,0,-0.16965993,-0.6245525,0.51055974,0.23553127,0.03554405,0.97539836,-1.3641324,0.27105346,-1.0565854,-2.3484168,-0.06326769,0.0057488345,1.1290548,-1.434056
-0.1,-0.1,1.4,-0.5235987755982988,0.0,0,-0.17349708,-0.6239575,0.5104337,0.26655683,0.08410505,0.97937757,0.47038418,0.2701533,-1.0560015,-2.348598,-0.05881971,-0.11296001,1.1996846,-0.083452515
-0.1,-0.1,1.4,-0.5235987755982988,0.0,0,-0.1708077,-0.62456703,0.51857567,0.24382947,-0.058765672,0.82718116,-0.64498234,0.2714278,-1.0553433,-2.3420167,-0.06048519,0.020818949,1.1729734,0.11115671
-0.1,-0.1,1.4,-0.5235987755982988,0.0,0,-0.17130996,-0.62407583,0.50149417,0.3155462,0.066215806,0.91250455,0.061569966,0.27039146,-1.0534083,-2.3418467,-0.062387392,-0.1920194,1.2591877,0.6894977
-0.1,-0.1,1.4,-0.5235987755982988,0.0,0,-0.17675315,-0.6258119,0.50630414,0.25866765,-0.097039826,0.86179745,0.2893696,0.26960915,-1.0544649,-2.3470924,-0.06367668,0.10522886,1.2864076,-0.60882574
-0.1,-0.1,1.4,-0.5235987755982988,0.0,0,-0.17088161,-0.6230494,0.50252306,0.3315665,0.12013608,0.95162106,-0.06982422,0.27081376,-1.0559806,-2.3450708,-0.060569305,-0.012868444,1.1345601,-0.22441585
-0.1,-0.1,1.4,-0.5235987755982988,0.0,0,-0.17224906,-0.6246943,0.52024615,0.3868247,-0.0031485804,0.8656524,0.85032344,0.2691773,-1.0560758,-2.3507473,-0.061207987,-0.16417412,1.1910181,1.6323762
-0.1,-0.1,1.4,-0.5235987755982988,0.0,0,-0.17120944,-0.6248435,0.504261,0.24510662,0.16459106,0.7494326,0.063510396,0.2703539,-1.0547392,-2.344015,-0.060741756,-0.0038729564,1.1065844,1.1182784
-0.1,-0.1,1.4,-0.5235987755982988,0.0,0,-0.17121892,-0.6239982,0.49839282,0.26027697,0.14510979,0.9114689,0.15484737,0.27086002,-1.0548105,-2.346278,-0.061362892,-0.030094223,1.0990204,0.3375931
-0.1,-0.1,1.4,-0.5235987755982988,0.0,0,-0.17293125,-0.6207476,0.5217826,0.27264524,0.12878194,1.0078005,0.42250454,0.27008253,-1.0580357,-2.344825,-0.062416248,-0.0884503,1.1492504,0.1795339
-0.1,-0.1,1.4,-0.5235987755982988,0.0,0,-0.17022248,-0.62379485,0.50261545,0.17707893,-0.09314826,0.88941145,-0.87005013,0.27198485,-1.0570704,-2.340197,-0.06156769,-0.16637973,1.2455871,1.5000178
-0.1,-0.1,1.4,-0.5235987755982988,0.0,0,-0.16775395,-0.6241856,0.5118246,0.29966024,0.13697335,0.9299015,0.8903249,0.27048174,-1.0547739,-2.3425565,-0.060549665,-0.10910616,1.3045456,0.03078031
-0.1,-0.1,1.4,-0.5235987755982988,0.0,0,-0.17375307,-0.62369263,0.5153767,0.30193254,-0.1118461,0.89969206,0.07414183,0.2707089,-1.0553957,-2.3415728,-0.062632635,-0.07886372,1.3326796,0.1826794
-0.1,-0.1,1.4,-0.5235987755982988,0.0,0,-0.17076598,-0.62489337,0.5065249,0.37015098,0.14422275,0.93288636,-0.06283316,0.26962414,-1.0566404,-2.3497953,-0.061808236,-0.11200851,1.1372617,0.09505134
-0.1,-0.1,1.4,-0.5235987755982988,0.0,0,-0.16882345,-0.6246435,0.52279705,0.3874819,-0.07251029,1.081451,-1.1581541,0.2713425,-1.055762,-2.340661,-0.060161866,-0.08160146,1.1346653,0.8239499
-0.1,-0.1,1.4,-0.5235987755982988,0.0,0,-0.17416972,-0.62498254,0.5187984,0.39949352,-0.1532801,0.7984831,-0.7037778,0.26878086,-1.0553235,-2.3465476,-0.06097435,-0.17398787,1.2513782,-1.2957636
-0.1,-0.1,1.4,-0.5235987755982988,0.0,0,-0.171575,-0.62372005,0.5072197,0.28752428,0.091313936,0.8848733,-0.8762957,0.2698969,-1.0554146,-2.3456032,-0.061301485,-0.052810106,1.2767941,-0.8628263
-0.1,-0.1,1.4,-0.5235987755982988,0.0,0,-0.17000788,-0.6259766,0.49877867,0.22471207,-0.06305067,0.8676536,-0.47621053,0.27060723,-1.0549606,-2.3469388,-0.0626365,0.045117658,1.2340037,1.159178
-0.1,-0.1,1.4,-0.5235987755982988,0.0,0,-0.16848952,-0.62501734,0.51147777,0.32561865,0.2280741,0.9434539,-0.5961771,0.27026266,-1.0555217,-2.3442745,-0.06020912,-0.011375814,1.181679,0.7750356
-0.1,-0.1,1.4,-0.5235987755982988,0.0,0,-0.17407347,-0.62419933,0.5158311,0.23169038,-0.12367239,0.8156967,-0.7735384,0.27023542,-1.0550776,-2.345561,-0.06262582,-0.052929487,1.2214804,-0.08583692
-0.1,-0.1,1.4,-0.5235987755982988,0.0,0,-0.17071405,-0.6248057,0.51244074,0.2693972,-0.006914027,0.9860534,0.2825646,0.27084213,-1.0553229,-2.3428357,-0.06279271,-0.117904186,1.3227082,0.7827746
-0.1,-0.1,1.4,-0.5235987755982988,0.0,0,-0.17281862,-0.6237078,0.51655424,0.23977087,-0.18737875,0.87786883,-0.32785302,0.26805252,-1.0564815,-2.3422847,-0.061711166,-0.028686907,1.1257797,-0.12903662
-0.1,-0.1,1.4,-0.5235987755982988,0.0,0,-0.168692,-0.6242501,0.5163251,0.36337072,0.1321386,0.8291083,0.4381544,0.27035153,-1.055659,-2.3471131,-0.06323511,0.08408022,1.2713166,-0.30531532
-0.1,-0.1,1.4,-0.5235987755982988,0.0,0,-0.16841383,-0.6245165,0.51203096,0.36351186,0.15693106,0.9355717,-0.5052189,0.26931658,-1.0565181,-2.3464863,-0.06317718,-0.06988903,1.1386632,-0.44929993
-0.1,-0.1,1.4,-0.5235987755982988,0.0,0,-0.1725909,-0.6263333,0.509415,0.3360295,0.07698299,0.9392327,0.1297372,0.2702735,-1.056754,-2.3441868,-0.06253149,-0.026059268,1.2100726,0.6592994
-0.1,-0.1,1.4,-0.5235987755982988,0.0,0,-0.17321794,-0.62436455,0.49893287,0.20251666,0.039349202,1.035414,-0.32059228,0.27080452,-1.0555296,-2.3429403,-0.061194524,0.038471583,1.1021329,0.7498388
-0.1,-0.1,1.4,-0.5235987755982988,0.0,0,-0.174215,-0.6245396,0.5108643,0.24927582,-0.077653736,0.9392113,-0.33826736,0.26888004,-1.0546452,-2.3428156,-0.06063658,-0.41314915,1.2413421,0.379884
-0.1,-0.1,1.4,-0.5235987755982988,0.0,0,-0.1731438,-0.624341,0.5067231,0.22336744,-0.080926895,0.9322256,0.041965894,0.2700057,-1.0543239,-2.3463638,-0.061187916,0.006389225,1.2454925,-0.6513458
-0.1,-0.1,1.4,-0.5235987755982988,0.0,0,-0.17454192,-0.6253921,0.514144,0.2878091,0.13120636,0.8699888,-0.6010861,0.27024788,-1.0559286,-2.3444738,-0.061879843,0.044209685,1.1671633,0.29059994
-0.1,-0.1,1.4,-0.5235987755982988,0.0,0,-0.17248233,-0.6246716,0.5180175,0.20290954,-0.0010412381,1.1728894,-0.6133543,0.2720452,-1.0554817,-2.3479059,-0.06346708,0.029195692,1.1235145,-0.25260246
-0.1,-0.1,1.4,-0.5235987755982988,0.0,0,-0.1709948,-0.62434816,0.5143181,0.30327418,0.07939938,1.001151,-0.3449038,0.26974937,-1.0560656,-2.3458374,-0.061610375,0.13854685,1.25174,0.106730446
-0.1,-0.1,1.4,-0.5235987755982988,0.0,0,-0.17011933,-0.6245136,0.5134593,0.33243865,0.19722304,1.0059777,0.078359894,0.26871556,-1.0572178,-2.3459423,-0.06171285,0.02607544,1.2431885,1.0045717
-0.1,-0.1,1.4,-0.5235987755982988,0.0,0,-0.17333004,-0.6250881,0.515461,0.37340716,0.023654828,0.7135761,-0.80994755,0.2696873,-1.0564996,-2.344093,-0.06186254,-0.0053367387,1.2635456,-0.049635038
-0.1,-0.1,1.4,-0.5235987755982988,0.0,0,-0.17482379,-0.6255102,0.5189675,0.37107667,-0.0282581,0.9952892,-0.24454312,0.26996034,-1.0551771,-2.3502283,-0.062474523,0.07123411,1.2245983,0.2076038
-0.1,-0.1,1.4,-0.5235987755982988,0.0,0,-0.166569,-0.62329656,0.5143981,0.33041307,0.052385014,0.93687654,0.008619342,0.2709281,-1.0538375,-2.3476398,-0.061499394,-0.19948559,1.2113676,0.8595221
-0.1,-0.1,1.4,-0.5235987755982988,0.0,0,-0.17147459,-0.6250335,0.5057879,0.30000836,0.17522252,0.9156202,-0.832268,0.2695903,-1.0538892,-2.348661,-0.0625176,-0.06799145,1.0740609,0.03167025
-0.1,-0.1,1.4,-0.5235987755982988,0.0,0,-0.17068534,-0.62484264,0.517478,0.24741414,-0.024528367,1.0361948,0.22793972,0.27070564,-1.0562087,-2.346909,-0.061653376,-0.07437456,1.2469953,0.1101289
-0.1,-0.1,1.4,-0.5235987755982988,0.0,0,-0.16750434,-0.6239029,0.5155312,0.28965887,-0.09929635,0.86623937,-0.64984673,0.27100158,-1.0555054,-2.3428535,-0.06361911,0.033179853,1.2001635,-0.5880457
-0.1,-0.1,1.4,-0.5235987755982988,0.0,0,-0.17149268,-0.62647086,0.5086609,0.38602868,-0.10597909,0.9248865,-0.5898052,0.27014056,-1.0555079,-2.3430336,-0.063047305,0.09373104,1.2474139,0.5859826
-0.1,-0.1,1.4,-0.5235987755982988,0.0,0,-0.17177905,-0.6257618,0.5097981,0.24693835,0.0037268857,0.7948159,-0.10673515,0.27104422,-1.0559675,-2.3472304,-0.06168667,-0.24812019,1.1217189,-0.41174775
-0.1,-0.1,1.4,-0.5235987755982988,0.0,0,-0.17387316,-0.62431496,0.513976,0.22901577,0.25251928,0.9039902,0.8016641,0.2690138,-1.057025,-2.3493629,-0.061918385,-0.038423453,1.2032664,1.1410371
-0.1,-0.1,1.4,-0.5235987755982988,0.0,0,-0.17167439,-0.6252206,0.5181941,0.33618736,0.115369655,0.98009676,0.8402151,0.27101678,-1.0553837,-2.3452895,-0.061777458,-0.14707974,1.1692895,-0.39501283
-0.1,-0.1,1.4,-0.5235987755982988,0.0,0,-0.17079854,-0.6248806,0.5182186,0.3039653,-0.03769196,0.92907804,-0.9249529,0.26854455,-1.0554128,-2.348169,-0.061081186,-0.027496053,1.2435138,0.22491167
-0.1,-0.1,1.4,-0.5235987755982988,0.0,0,-0.16801493,-0.62545866,0.51040006,0.23198645,0.2660444,0.9953677,-0.50963545,0.27153254,-1.0534192,-2.346821,-0.06343434,-0.08311454,1.2288392,0.31617364
-0.1,-0.1,1.4,-0.5235987755982988,0.0,0,-0.16967088,-0.62463593,0.52006775,0.28801557,-0.14210999,0.93730384,-0.22391891,0.2714189,-1.0559671,-2.3473725,-0.06257285,-0.16356832,1.312142,0.14496216
-0.1,-0.1,1.4,-0.5235987755982988,0.0,0,-0.17310934,-0.6258986,0.51099473,0.31527495,-0.098347835,0.9392469,-0.456461,0.27057016,-1.0550103,-2.342555,-0.062026113,0.12750404,1.2414236,1.8292677
-0.1,-0.1,1.4,-0.5235987755982988,0.0,0,-0.17072304,-0.6252831,0.5068693,0.34083956,-0.02370969,0.9609881,0.4215134,0.2705929,-1.0550721,-2.3480284,-0.060637973,0.047438417,1.1147301,-0.092970565
-0.1,-0.1,1.4,-0.5235987755982988,0.0,0,-0.17299356,-0.6251866,0.5211667,0.27267545,0.042507097,0.88874125,0.08654055,0.26932773,-1.054002,-2.341791,-0.061289623,-0.083816454,1.224211,0.84633374
-0.1,-0.1,1.4,-0.5235987755982988,0.0,0,-0.17077963,-0.62223643,0.51301605,0.30281425,-0.19182806,0.9707578,-0.5323675,0.26958627,-1.0531024,-2.3427067,-0.06085945,-0.1415482,1.2225796,-0.041814
-0.1,-0.1,1.4,-0.5235987755982988,0.0,0,-0.16637722,-0.6247813,0.51567143,0.31639794,0.032213856,0.8614234,0.62402874,0.2720421,-1.0558331,-2.3485618,-0.06359012,-0.027848093,1.2073141,0.31808388
-0.1,-0.1,1.4,-0.5235987755982988,0.0,0,-0.16755748,-0.6251636,0.49794683,0.22928277,-0.010042912,0.9744181,1.2350584,0.27093783,-1.0556151,-2.3458772,-0.061168447,-0.05126094,1.0930767,-0.48840526
-0.1,-0.1,1.4,-0.5235987755982988,0.0,0,-0.16630994,-0.6267482,0.5150925,0.32007164,0.050607417,0.9995802,-0.110571645,0.27164534,-1.0554836,-2.3450587,-0.06341089,-0.103797294,1.3023319,-0.6531653
-0.1,-0.1,1.4,-0.5235987755982988,0.0,0,-0.17030825,-0.6254867,0.5141307,0.38119632,-0.25556126,0.9444055,1.0152967,0.26886743,-1.0532174,-2.34717,-0.06062797,-0.19524266,1.1088539,-1.6904105
-0.1,-0.1,1.4,-0.5235987755982988,0.0,0,-0.17235191,-0.6261061,0.50779116,0.26323345,0.07468443,0.8804815,-1.5534236,0.2716302,-1.0545241,-2.3457835,-0.06181013,-0.061188705,1.3105137,-0.46984383
-0.1,-0.1,1.4,-0.5235987755982988,0.0,0,-0.1712366,-0.62413883,0.51345,0.2503391,0.018738473,0.9000714,-0.36442292,0.26913992,-1.0550339,-2.3453038,-0.06180052,0.14874813,1.3336122,0.6590146
-0.1,-0.1,1.4,-0.5235987755982988,0.0,0,-0.16901787,-0.6266485,0.5142683,0.2020723,0.37053674,0.7702959,0.41914076,0.27074167,-1.0549701,-2.344913,-0.062452745,-0.124470666,1.2313784,0.32792002
-0.1,-0.1,1.4,-0.5235987755982988,0.0,0,-0.17148408,-0.62672466,0.51088303,0.2103312,0.0040898737,0.88182044,0.14719824,0.26947907,-1.0529141,-2.3479483,-0.06127412,0.013842968,1.1822075,-0.6398121
-0.1,-0.1,1.4,-0.5235987755982988,0.0,0,-0.1685545,-0.6244304,0.5168146,0.32355562,-0.20469236,0.8875034,0.34199217,0.26977026,-1.0571893,-2.3453636,-0.06200611,0.052248016,1.280067,0.09460567
-0.1,-0.1,1.4,-0.5235987755982988,0.0,0,-0.16956763,-0.6263266,0.51543933,0.33216986,0.09146758,0.78578544,-0.71087,0.26911533,-1.055577,-2.3467689,-0.06157408,0.07113094,1.2404416,-0.160983
-0.1,-0.1,1.4,-0.5235987755982988,0.0,0,-0.16836502,-0.62533444,0.51627076,0.30255374,0.08902031,0.97893214,-0.64819604,0.27176896,-1.0555322,-2.3425858,-0.062057197,-0.12784113,1.1144187,0.22734883
-0.1,-0.1,1.4,-0.5235987755982988,0.0,0,-0.16737087,-0.6258091,0.51716787,0.33120418,-0.019858913,0.7393823,-0.6923812,0.26914293,-1.0547878,-2.3425653,-0.06209771,0.019989975,1.2801454,-1.5667564
-0.1,-0.1,1.4,-0.5235987755982988,0.0,0,-0.16876361,-0.6248168,0.5109239,0.3642314,-0.011867491,1.0395644,0.12778604,0.26992875,-1.05542,-2.3474557,-0.061112337,-0.0094375955,1.1884311,0.5420831
-0.1,-0.1,1.4,-0.5235987755982988,0.0,0,-0.16983883,-0.62455714,0.52103066,0.34151047,0.22953591,0.9166712,-0.9272408,0.2698202,-1.0559326,-2.3436017,-0.060196552,-0.054254454,1.3312476,0.526085
-0.1,-0.1,1.4,-0.5235987755982988,0.0,0,-0.17385165,-0.6256525,0.5153145,0.28466862,-0.06734074,0.789656,-0.3561198,0.27084446,-1.0551951,-2.3460448,-0.060591888,0.10357392,1.2007506,0.22710727
-0.1,-0.1,1.4,-0.5235987755982988,0.0,0,-0.16637391,-0.6233967,0.5241484,0.41843295,-0.030684898,0.998809,-0.11474944,0.26825273,-1.0574142,-2.3400407,-0.06368072,0.047234997,1.1491629,-0.6045873
-0.1,-0.1,1.4,-0.5235987755982988,0.0,0,-0.16971159,-0.62439847,0.51781356,0.3365611,-0.0065311976,0.90718186,-0.2780316,0.27146924,-1.0542058,-2.3430943,-0.061489683,-0.080252126,1.189633,-0.049535464
-0.1,-0.1,1.4,-0.5235987755982988,0.0,0,-0.16407374,-0.6248308,0.52466714,0.25127846,0.03608956,0.81525755,-0.45783484,0.27214068,-1.0532302,-2.3451314,-0.06329073,0.02738789,1.2259805,-0.044167195
-0.1,-0.1,1.4,-0.5235987755982988,0.0,0,-0.16414984,-0.6255545,0.5057538,0.28351083,0.012264129,0.8849886,0.5705026,0.27034017,-1.0546873,-2.3448496,-0.06120067,-0.22118567,1.1406553,0.42004296
-0.1,-0.1,1.4,-0.5235987755982988,0.0,0,-0.1746503,-0.6275535,0.5121818,0.24933067,0.103153855,0.88262033,-0.38971084,0.27131122,-1.0543967,-2.3466973,-0.061455008,0.12411596,1.2191848,-0.45667988
-0.1,-0.1,1.4,-0.5235987755982988,0.0,0,-0.17356986,-0.6232306,0.50912464,0.27187318,-0.06298507,1.0304806,-0.6672245,0.27088362,-1.0569892,-2.3398068,-0.06005662,0.0106172515,1.2112199,0.29109168
-0.1,-0.1,1.4,-0.5235987755982988,0.0,0,-0.17568955,-0.6230616,0.5124383,0.27257538,0.083149746,0.77175796,-0.40579236,0.26953834,-1.0570316,-2.346088,-0.058740787,-0.10222113,1.2707837,-0.27250484
-0.1,-0.1,1.4,-0.5235987755982988,0.0,0,-0.17229347,-0.6253562,0.5084665,0.30901635,0.19818407,0.8385581,-1.1974401,0.26987755,-1.0551591,-2.3446207,-0.060972583,-0.05568331,1.0329105,-1.2608405
-0.1,-0.1,1.4,-0.5235987755982988,0.0,0,-0.17337053,-0.62327975,0.51444685,0.26560965,0.09673026,0.9096549,-1.2269506,0.26851606,-1.0568306,-2.3503878,-0.062078662,0.008651769,1.1678689,1.3018659
-0.1,-0.1,1.4,-0.5235987755982988,0.0,0,-0.17009299,-0.62398905,0.5200202,0.2864493,0.08590075,0.83117217,-0.45421764,0.26829642,-1.0548522,-2.3435817,-0.062208004,-0.15609859,1.2071083,0.17694505
-0.1,-0.1,1.4,-0.5235987755982988,0.0,0,-0.17216392,-0.624917,0.50847834,0.23745005,0.15586637,0.94970584,-1.1429329,0.26852116,-1.0556676,-2.344374,-0.06314994,-0.041175053,1.2036856,-0.9241469
-0.1,-0.1,1.4,-0.5235987755982988,0.0,0,-0.16954531,-0.6247199,0.5112573,0.24463803,-0.11389092,0.9097206,-0.4635825,0.27116808,-1.054372,-2.345101,-0.06355824,0.09453608,1.2187586,-0.77828014
-0.1,-0.1,1.4,-0.5235987755982988,0.0,0,-0.16966183,-0.62530327,0.5048502,0.3151395,0.02212738,0.7858106,0.083023526,0.2705123,-1.0553411,-2.343972,-0.06307417,0.080015406,1.0806426,0.16241333
-0.1,-0.1,1.4,-0.5235987755982988,0.0,0,-0.17301379,-0.62486184,0.5135808,0.3023136,-0.009642684,0.79625577,-0.6897715,0.26961273,-1.0565345,-2.3370612,-0.059959456,-0.04461506,1.1650107,-0.2289527
-0.1,-0.1,1.4,-0.5235987755982988,0.0,0,-0.16814624,-0.6254588,0.5091108,0.2937212,0.0753803,0.8889386,0.612597,0.26861385,-1.0577924,-2.347084,-0.06327952,-0.17020243,1.1674949,2.098103
-0.1,-0.1,1.4,-0.5235987755982988,0.0,0,-0.17275569,-0.6239268,0.5049273,0.26515856,-0.061925407,1.0682786,-0.6247513,0.27124035,-1.0549725,-2.350127,-0.062602445,-0.12491789,1.1215276,0.41718268
-0.1,-0.1,1.4,-0.5235987755982988,0.0,0,-0.1688781,-0.6251447,0.5119118,0.32618183,0.013717824,0.7019307,0.21833785,0.2703203,-1.0548606,-2.3473556,-0.06323883,-0.18808396,1.1955376,0.7869155
-0.1,-0.1,1.4,-0.5235987755982988,0.0,0,-0.17183538,-0.62501717,0.521842,0.25891885,-0.16601066,0.9431787,0.42551664,0.26893008,-1.055745,-2.343008,-0.06303028,-0.11692967,1.1494055,-0.7538582
-0.1,-0.1,1.4,-0.5235987755982988,0.0,0,-0.1680082,-0.62311673,0.5247585,0.30970648,0.20190716,0.88245946,-0.8483772,0.27206576,-1.0554025,-2.3474996,-0.0628018,-0.08285921,1.1816473,-0.9558923
-0.1,-0.1,1.4,-0.5235987755982988,0.0,0,-0.1712078,-0.6262919,0.512088,0.3598598,-0.09430799,0.8628553,-0.16166534,0.27002108,-1.0547271,-2.3448586,-0.062190257,-0.13354489,1.1164691,0.036817536
