sanky1234/BimanualDexCatch/isaacgymenvs/cem_results/football_pose_-0.2_-0.1_1.4_-0.5235987755982988_-0.5235987755982988_0_2025-05-24.csv
x,y,z,roll,pitch,yaw,robot1/joint1,robot1/joint2,robot1/joint3,robot1/joint4,robot1/joint5,robot1/joint6,robot1/joint7,robot2/joint1,robot2/joint2,robot2/joint3,robot2/joint4,robot2/joint5,robot2/joint6,robot2/joint7
-0.2,-0.1,1.4,-0.5235987755982988,-0.5235987755982988,0,-0.034181334,-1.3850491,1.3908422,-0.27447453,0.22444762,1.1101164,-0.28701863,0.48677227,-0.8794463,-0.08397667,-0.019739995,-0.044216726,0.25865683,0.08376457
-0.2,-0.1,1.4,-0.5235987755982988,-0.5235987755982988,0,-0.03332432,-1.3800135,1.3974073,-0.2831994,-0.02060837,1.0701497,-0.5701536,0.50193036,-0.8801709,-0.06142547,-0.019431954,-0.12616947,0.28579974,-0.27078116
-0.2,-0.1,1.4,-0.5235987755982988,-0.5235987755982988,0,-0.031077087,-1.3831587,1.3969524,-0.27065474,-0.118166886,0.96599084,-0.9856119,0.48753726,-0.87908685,-0.06307191,-0.018330205,-0.022493793,0.2915894,0.063402
-0.2,-0.1,1.4,-0.5235987755982988,-0.5235987755982988,0,-0.031723358,-1.3820956,1.4005541,-0.2748884,0.06770885,1.1588742,-1.1115769,0.4632506,-0.88332766,-0.07114868,-0.020832207,0.101578884,0.3153697,1.0515343
-0.2,-0.1,1.4,-0.5235987755982988,-0.5235987755982988,0,-0.03145646,-1.3856779,1.3949113,-0.27497694,0.24752967,1.2111386,0.5476564,0.50555086,-0.8829062,-0.04805933,-0.024112621,-0.0022795345,0.29004198,0.3057643
-0.2,-0.1,1.4,-0.5235987755982988,-0.5235987755982988,0,-0.03254769,-1.3848299,1.3920127,-0.27214664,0.07406738,1.1256053,-0.25798392,0.49392197,-0.8829012,-0.07916534,-0.034539398,-0.13126202,0.26621595,-1.0288033
-0.2,-0.1,1.4,-0.5235987755982988,-0.5235987755982988,0,-0.03125681,-1.3870286,1.3930501,-0.27047643,-0.073771544,1.0582922,0.57823026,0.5068211,-0.880893,-0.08766059,-0.016059326,0.018946161,0.3004507,-1.5671974
-0.2,-0.1,1.4,-0.5235987755982988,-0.5235987755982988,0,-0.032486383,-1.3838409,1.3918688,-0.278123,0.05699923,1.0833191,-2.108283,0.50202054,-0.87882125,-0.07603774,-0.016544862,0.10978445,0.29511967,-1.2607324
-0.2,-0.1,1.4,-0.5235987755982988,-0.5235987755982988,0,-0.03423035,-1.3764335,1.3953968,-0.28176668,0.20718966,0.97339344,-0.16752587,0.4862865,-0.88051826,-0.074505426,-0.01708581,0.21033174,0.2908593,0.2632526
-0.2,-0.1,1.4,-0.5235987755982988,-0.5235987755982988,0,-0.032594275,-1.3828416,1.3936021,-0.27082083,0.03336488,1.1464081,-0.90533453,0.5161709,-0.87748253,-0.06971071,-0.02265294,-0.129085,0.2812372,-1.0476582
-0.2,-0.1,1.4,-0.5235987755982988,-0.5235987755982988,0,-0.033662207,-1.383927,1.4066217,-0.27963316,-0.04076037,1.1519578,-1.5428226,0.48936766,-0.8757529,-0.08555299,-0.017735876,0.08998737,0.28092626,-1.5678523
-0.2,-0.1,1.4,-0.5235987755982988,-0.5235987755982988,0,-0.033801287,-1.3804069,1.4029684,-0.27906877,0.0047267983,1.0687951,0.28723413,0.4829641,-0.87754613,-0.06835491,-0.027070042,-0.07113728,0.26463208,-1.2039596
-0.2,-0.1,1.4,-0.5235987755982988,-0.5235987755982988,0,-0.031722296,-1.3817654,1.4002103,-0.28212202,-0.07310744,1.1938251,1.6779015,0.47096437,-0.8787417,-0.06035821,-0.026172133,-0.073218845,0.26153186,-0.7275482
-0.2,-0.1,1.4,-0.5235987755982988,-0.5235987755982988,0,-0.03362398,-1.3809503,1.3978145,-0.27035597,0.08846373,1.0587975,0.6918732,0.4972051,-0.8833339,-0.06704132,-0.019222444,-0.08588761,0.25293985,-1.1696893
-0.2,-0.1,1.4,-0.5235987755982988,-0.5235987755982988,0,-0.034320038,-1.3795033,1.3943427,-0.28098723,0.019316535,0.9355929,-2.0624173,0.52485245,-0.8769381,-0.055458304,-0.018990504,-0.10941939,0.31088847,1.0937965
-0.2,-0.1,1.4,-0.5235987755982988,-0.5235987755982988,0,-0.03586681,-1.3886707,1.4001817,-0.27810565,-0.13084523,1.1543773,0.1357009,0.49967578,-0.8788963,-0.06481932,-0.011835382,0.05361347,0.30134496,0.24399133
-0.2,-0.1,1.4,-0.5235987755982988,-0.5235987755982988,0,-0.033110544,-1.3833816,1.4007977,-0.27552631,0.06676471,1.2573998,0.01860938,0.47022036,-0.88408333,-0.07722827,-0.013159248,-0.03156523,0.267549,0.057868607
-0.2,-0.1,1.4,-0.5235987755982988,-0.5235987755982988,0,-0.031023448,-1.3838022,1.3996991,-0.2700012,0.12790349,1.0603273,-0.98298,0.5128634,-0.8802696,-0.060062163,-0.014352005,-0.007116725,0.30066264,-0.94247174
-0.2,-0.1,1.4,-0.5235987755982988,-0.5235987755982988,0,-0.031868834,-1.3880612,1.3904045,-0.28060383,-0.0038474298,0.992439,-0.37239334,0.49884132,-0.88191277,-0.08061285,-0.015383161,-0.03689031,0.28451008,0.48067728
-0.2,-0.1,1.4,-0.5235987755982988,-0.5235987755982988,0,-0.032483466,-1.3783882,1.397358,-0.27265492,0.02443708,0.9442531,-0.42134345,0.51343644,-0.8761198,-0.063180715,-0.034342516,-0.12919787,0.31091988,0.6115188
-0.2,-0.1,1.4,-0.5235987755982988,-0.5235987755982988,0,-0.03434032,-1.3786683,1.3923738,-0.27388775,0.021889277,0.99623597,0.0023551532,0.48235443,-0.8852348,-0.05046643,-0.01621306,0.099659555,0.26613048,0.53084457
-0.2,-0.1,1.4,-0.5235987755982988,-0.5235987755982988,0,-0.032190416,-1.3881488,1.3910583,-0.27737942,-0.010948523,1.1609921,-1.3446251,0.49207693,-0.8782143,-0.0880572,-0.008943845,0.103463635,0.28623292,-0.055669162
-0.2,-0.1,1.4,-0.5235987755982988,-0.5235987755982988,0,-0.031030228,-1.3794271,1.3913105,-0.27701753,0.13233611,1.1313672,-0.5188185,0.53103125,-0.8830101,-0.050598595,-0.017245278,0.01577983,0.24956724,1.9100266
-0.2,-0.1,1.4,-0.5235987755982988,-0.5235987755982988,0,-0.03425784,-1.3797984,1.3957504,-0.2741922,0.20560266,1.0435883,-0.17639482,0.47804028,-0.8787952,-0.04039083,-0.017839883,0.011461424,0.27678862,-0.2050294
-0.2,-0.1,1.4,-0.5235987755982988,-0.5235987755982988,0,-0.03425694,-1.3747195,1.4023553,-0.27767998,0.04211269,0.9420905,1.4106861,0.48354673,-0.87671596,-0.07203663,-0.01123324,-0.081927665,0.2932525,-0.0778034
-0.2,-0.1,1.4,-0.5235987755982988,-0.5235987755982988,0,-0.03137825,-1.3849744,1.3989606,-0.26823592,0.15087211,1.1349097,-1.7542968,0.5248704,-0.8815238,-0.08263958,-0.020321092,0.11614667,0.26993942,-1.2876091
-0.2,-0.1,1.4,-0.5235987755982988,-0.5235987755982988,0,-0.034429777,-1.3754431,1.401156,-0.2809307,0.09687479,1.0407014,0.9964275,0.47147068,-0.8843564,-0.08170259,-0.023689963,-0.12915485,0.25791538,0.7640631
-0.2,-0.1,1.4,-0.5235987755982988,-0.5235987755982988,0,-0.034519494,-1.3805695,1.4079181,-0.2707772,0.0071552256,1.1992862,-0.92420375,0.47623155,-0.88226503,-0.08289991,-0.033751428,0.010897548,0.27380756,-1.3969873
-0.2,-0.1,1.4,-0.5235987755982988,-0.5235987755982988,0,-0.032666482,-1.3810152,1.4051117,-0.27849153,0.07807129,1.0058328,0.5482054,0.505605,-0.875578,-0.044435624,-0.0175926,-0.07252623,0.27355388,0.5636057
-0.2,-0.1,1.4,-0.5235987755982988,-0.5235987755982988,0,-0.034174662,-1.3800355,1.4022423,-0.27639326,-0.02922483,1.0366803,0.1203656,0.5002572,-0.884942,-0.09010968,-0.029560905,0.031474907,0.29227364,0.30411863
-0.2,-0.1,1.4,-0.5235987755982988,-0.5235987755982988,0,-0.036235385,-1.3754135,1.403581,-0.27359232,0.1774546,1.1776783,-0.57348317,0.50153565,-0.88204134,-0.0737644,-0.023991829,0.03465322,0.29609808,-0.13892347
-0.2,-0.1,1.4,-0.5235987755982988,-0.5235987755982988,0,-0.03132839,-1.3766518,1.4007345,-0.28010225,0.104546145,1.0432019,-0.09726273,0.47029924,-0.88102055,-0.04582774,-0.018365832,0.007471871,0.28524503,-0.3676428
-0.2,-0.1,1.4,-0.5235987755982988,-0.5235987755982988,0,-0.033232655,-1.3840224,1.3947198,-0.27514234,-0.092373215,1.1226611,0.24024034,0.51374674,-0.87759,-0.06598426,-0.015043336,-0.027022954,0.30792448,1.2132242
-0.2,-0.1,1.4,-0.5235987755982988,-0.5235987755982988,0,-0.03433645,-1.3797324,1.3961579,-0.270616,0.14162557,0.99874103,-1.5682995,0.47838128,-0.8809013,-0.07005845,-0.018158156,0.019329367,0.28100747,-0.5793903
-0.2,-0.1,1.4,-0.5235987755982988,-0.5235987755982988,0,-0.033861082,-1.3771621,1.401112,-0.28260547,-0.035608716,1.1259515,1.5817453,0.50115097,-0.883757,-0.03316484,-0.019710125,-0.075441994,0.29761866,0.018238489
-0.2,-0.1,1.4,-0.5235987755982988,-0.5235987755982988,0,-0.03492269,-1.3800201,1.3981888,-0.27039117,0.073347,1.0742981,0.39395446,0.47837186,-0.8811708,-0.09402418,-0.016596153,0.10718958,0.24644932,-0.27825332
-0.2,-0.1,1.4,-0.5235987755982988,-0.5235987755982988,0,-0.03190471,-1.3785033,1.3988788,-0.27089763,0.20386393,1.0872943,-1.3188182,0.4985753,-0.88031405,-0.08119918,-0.022495748,-0.09716641,0.26825136,-0.61462796
-0.2,-0.1,1.4,-0.5235987755982988,-0.5235987755982988,0,-0.03259029,-1.3824447,1.3958981,-0.2727025,0.15254328,1.139373,-0.67245394,0.48041442,-0.87814134,-0.04226154,-0.01759249,-0.025069425,0.29431063,0.02082021
-0.2,-0.1,1.4,-0.5235987755982988,-0.5235987755982988,0,-0.032030474,-1.3831648,1.3993971,-0.2791047,0.09227439,0.96006894,-0.24134526,0.50160515,-0.88166416,-0.03808042,-0.017608788,-0.09571533,0.30103555,0.6165542
-0.2,-0.1,1.4,-0.5235987755982988,-0.5235987755982988,0,-0.033795774,-1.37927,1.3952374,-0.2740746,-0.016447114,1.1169318,-0.9544023,0.51752996,-0.8790801,-0.06746992,-0.016753234,-0.092438854,0.2664385,0.027077775
-0.2,-0.1,1.4,-0.5235987755982988,-0.5235987755982988,0,-0.03644743,-1.3775616,1.3988593,-0.27041224,-0.09103982,1.0605093,-1.47703,0.5084704,-0.87997466,-0.03652683,-0.025047746,-0.049354877,0.28109792,-1.0562762
-0.2,-0.1,1.4,-0.5235987755982988,-0.5235987755982988,0,-0.036379863,-1.3851968,1.3966727,-0.27751112,-0.058944765,0.98153657,0.28155318,0.4674744,-0.8835699,-0.10410614,-0.009794977,-0.0067713503,0.28670552,-1.6190457
-0.2,-0.1,1.4,-0.5235987755982988,-0.5235987755982988,0,-0.033550173,-1.38322,1.4030371,-0.2814641,0.20752154,0.96774447,-0.31172237,0.44570857,-0.8828604,-0.07012466,-0.01887271,-0.01876853,0.2847442,-0.7578879
-0.2,-0.1,1.4,-0.5235987755982988,-0.5235987755982988,0,-0.036158156,-1.3783796,1.4032266,-0.27633908,0.08780077,1.0680555,-2.537456,0.46896294,-0.8803965,-0.06223961,-0.010132591,-0.119913325,0.27898434,0.207581
-0.2,-0.1,1.4,-0.5235987755982988,-0.5235987755982988,0,-0.03029211,-1.3850951,1.3989218,-0.2746203,-0.05829411,1.071803,-0.24364571,0.51491815,-0.8847403,-0.09144404,-0.027814634,0.016915426,0.29911715,-1.458086
-0.2,-0.1,1.4,-0.5235987755982988,-0.5235987755982988,0,-0.03457719,-1.3838308,1.3954464,-0.27509066,0.018184304,1.1178334,-0.632718,0.5307697,-0.88053095,-0.07700584,-0.011167244,-0.03250054,0.27042967,0.6304071
-0.2,-0.1,1.4,-0.5235987755982988,-0.5235987755982988,0,-0.0340301,-1.3771679,1.3975594,-0.27082387,0.06530307,1.0968108,0.0101406975,0.4864018,-0.8817495,-0.099420875,-0.013896716,-0.19283126,0.2750001,-0.67851174
-0.2,-0.1,1.4,-0.5235987755982988,-0.5235987755982988,0,-0.031116817,-1.3797172,1.3938439,-0.2878595,0.18215951,1.1291118,-0.07572011,0.50835073,-0.88061917,-0.07041803,-0.02528417,-0.051892426,0.27354825,-0.2521051
-0.2,-0.1,1.4,-0.5235987755982988,-0.5235987755982988,0,-0.03377129,-1.3831581,1.4000025,-0.27657887,0.07359953,0.88767195,-1.8012826,0.51150036,-0.8784598,-0.062380504,-0.013916477,0.053501908,0.29180261,-0.9075971
-0.2,-0.1,1.4,-0.5235987755982988,-0.5235987755982988,0,-0.03428065,-1.3779632,1.3991972,-0.2756779,0.107822634,1.1081793,-0.43193206,0.49344915,-0.8821437,-0.05590878,-0.015615076,-0.12754935,0.27037275,0.8240036
-0.2,-0.1,1.4,-0.5235987755982988,-0.5235987755982988,0,-0.03660903,-1.3836215,1.3953177,-0.274593,-0.016778838,1.0121603,0.014285545,0.5006016,-0.8864219,-0.03674235,-0.019191802,-0.057667058,0.30253834,-0.57181793
-0.2,-0.1,1.4,-0.5235987755982988,-0.5235987755982988,0,-0.034105748,-1.3738663,1.397473,-0.2772323,0.018075291,1.0797029,-1.0990654,0.46438837,-0.8793975,-0.07372345,-0.016627353,0.045730706,0.2686438,1.8395365
-0.2,-0.1,1.4,-0.5235987755982988,-0.5235987755982988,0,-0.030560939,-1.3820356,1.3975618,-0.2705818,0.041837692,1.1704724,-0.49296457,0.49360308,-0.88250697,-0.041804314,-0.013631201,-0.077367306,0.27987847,-0.18443578
-0.2,-0.1,1.4,-0.5235987755982988,-0.5235987755982988,0,-0.031395096,-1.3770075,1.4025396,-0.2832441,0.17497955,0.9915525,-1.4487705,0.5144534,-0.8783559,-0.070993915,-0.034166683,-0.039176192,0.2869258,0.9780445
-0.2,-0.1,1.4,-0.5235987755982988,-0.5235987755982988,0,-0.029764108,-1.3852296,1.3889797,-0.2645512,0.15553632,1.0334947,-1.1016766,0.4927678,-0.87998176,-0.076564275,-0.020091753,0.040683385,0.3157521,-0.22757632
-0.2,-0.1,1.4,-0.5235987755982988,-0.5235987755982988,0,-0.03438763,-1.3844589,1.3937913,-0.2731475,-0.03912855,1.0027937,0.21585841,0.49950847,-0.8805689,-0.10237125,-0.016498059,-0.03367581,0.28293762,-0.76033485
-0.2,-0.1,1.4,-0.5235987755982988,-0.5235987755982988,0,-0.033931028,-1.3784208,1.4000286,-0.27436155,-0.034357853,1.011619,-0.3583613,0.4951612,-0.8745634,-0.0699601,-0.016410027,-0.09372698,0.2579297,-0.13508278
-0.2,-0.1,1.4,-0.5235987755982988,-0.5235987755982988,0,-0.033355683,-1.3841089,1.3997006,-0.2748674,0.17373858,1.1851401,0.2530722,0.4921398,-0.88001907,-0.06318307,-0.027577095,0.026992658,0.29238123,-0.4834898
-0.2,-0.1,1.4,-0.5235987755982988,-0.5235987755982988,0,-0.03554451,-1.3787649,1.3967421,-0.2771753,0.10555818,1.1055166,-0.15623459,0.48758015,-0.8808177,-0.0054648346,-0.018430108,0.008854417,0.2549552,-2.0614605
-0.2,-0.1,1.4,-0.5235987755982988,-0.5235987755982988,0,-0.031426366,-1.3765903,1.4037898,-0.27472314,0.11195128,1.09304,-0.116450936,0.4718178,-0.87852013,-0.07132835,-0.019207666,0.0037543522,0.28272924,-1.8698971
-0.2,-0.1,1.4,-0.5235987755982988,-0.5235987755982988,0,-0.034742344,-1.3869693,1.3938098,-0.27243328,0.06826769,1.1807339,-0.29049033,0.51771724,-0.8801281,-0.10281179,-0.010239882,-0.054765034,0.26946646,0.25043276
-0.2,-0.1,1.4,-0.5235987755982988,-0.5235987755982988,0,-0.031238198,-1.3771871,1.3963115,-0.27272162,-0.016401274,1.0725006,0.27604163,0.51905173,-0.883818,-0.06646378,-0.016231563,-0.042173713,0.3060295,-1.6229155
-0.2,-0.1,1.4,-0.5235987755982988,-0.5235987755982988,0,-0.030266618,-1.383835,1.40361,-0.27514723,0.061132938,1.1455935,0.38453454,0.48250628,-0.8813745,-0.09739171,-0.031123,-0.015691848,0.26245427,-1.0665561
-0.2,-0.1,1.4,-0.5235987755982988,-0.5235987755982988,0,-0.032956004,-1.3854607,1.4004622,-0.27768505,0.17339717,1.0356739,-0.52519584,0.47972876,-0.87962097,-0.090990245,-0.029844794,-0.04566559,0.3156764,-1.355948
-0.2,-0.1,1.4,-0.5235987755982988,-0.5235987755982988,0,-0.035566363,-1.3820033,1.3954394,-0.27317482,-0.009843918,0.97413594,0.2321686,0.51666254,-0.8840077,-0.0323999,-0.022419585,0.075100854,0.26908374,-0.25489527
-0.2,-0.1,1.4,-0.5235987755982988,-0.5235987755982988,0,-0.029455753,-1.3808026,1.4003431,-0.2799958,-0.012715039,1.1127785,-1.1955467,0.4979593,-0.88353235,-0.04683867,-0.020184126,0.06440147,0.27349228,1.8025082
-0.2,-0.1,1.4,-0.5235987755982988,-0.5235987755982988,0,-0.034209628,-1.3835799,1.3958918,-0.2675321,-0.08033717,1.1574824,0.22424848,0.49982953,-0.8791214,-0.054466948,-0.0168222,0.011234447,0.27630267,-1.720765
-0.2,-0.1,1.4,-0.5235987755982988,-0.5235987755982988,0,-0.03523017,-1.3755556,1.3985687,-0.28109288,0.038755957,1.1394802,0.5219743,0.49604943,-0.8783138,-0.084655434,-0.022975916,0.07913815,0.27869767,-0.057583287
-0.2,-0.1,1.4,-0.5235987755982988,-0.5235987755982988,0,-0.03540237,-1.382764,1.3959635,-0.2724785,0.015303804,0.9055676,0.22052771,0.49003723,-0.87689364,-0.044165585,-0.018757122,-0.06505014,0.27127895,-1.4113638
-0.2,-0.1,1.4,-0.5235987755982988,-0.5235987755982988,0,-0.033436485,-1.3789047,1.3931042,-0.26917657,0.05985642,1.0134425,0.44233713,0.47513652,-0.88201624,-0.054898843,-0.023515768,-0.08407662,0.3270316,-1.3304274
-0.2,-0.1,1.4,-0.5235987755982988,-0.5235987755982988,0,-0.032983534,-1.3795714,1.4014617,-0.27546865,0.12463408,1.0992093,0.36937028,0.48345527,-0.88461626,-0.115806006,-0.014296107,-0.05803573,0.26388127,0.8169405
-0.2,-0.1,1.4,-0.5235987755982988,-0.5235987755982988,0,-0.035957225,-1.3790138,1.3948791,-0.27960804,-0.039882492,0.84890705,1.0456287,0.48240685,-0.8797216,-0.07530251,-0.015349496,-0.0029340885,0.28348652,-0.58683807
-0.2,-0.1,1.4,-0.5235987755982988,-0.5235987755982988,0,-0.03521298,-1.3798436,1.4014617,-0.27080083,-0.09960279,1.089055,0.54729605,0.5163938,-0.87707454,-0.069030434,-0.020699974,-0.0988393,0.23694415,-0.9117281
-0.2,-0.1,1.4,-0.5235987755982988,-0.5235987755982988,0,-0.03235369,-1.385344,1.4083654,-0.27789617,-0.0060788565,0.9837654,1.2395016,0.48517612,-0.87664086,-0.08325159,-0.018141009,0.038903516,0.27169532,-0.40871498
-0.2,-0.1,1.4,-0.5235987755982988,-0.5235987755982988,0,-0.033550676,-1.3781232,1.4005452,-0.27753934,-0.005849726,1.124874,-2.2367167,0.4635779,-0.8770061,-0.065138765,-0.01800685,-0.001642383,0.286701,-0.3293605
-0.2,-0.1,1.4,-0.5235987755982988,-0.5235987755982988,0,-0.031792052,-1.382943,1.3994495,-0.2748973,0.05968869,1.0455513,-0.24237338,0.4672347,-0.88301814,-0.110887766,-0.011440493,-0.0008218247,0.2942599,-2.0442438
-0.2,-0.1,1.4,-0.5235987755982988,-0.5235987755982988,0,-0.030266032,-1.3846003,1.3956628,-0.27474263,0.060531177,1.0888973,1.3264196,0.513111,-0.8832796,-0.05093794,-0.013267595,-0.04015232,0.26559135,-1.4143494
-0.2,-0.1,1.4,-0.5235987755982988,-0.5235987755982988,0,-0.03280827,-1.382114,1.3866404,-0.27213275,-0.06427401,1.043962,-0.5510216,0.4665724,-0.8819818,-0.07972612,-0.021005807,-0.024520522,0.2833903,0.18269357
-0.2,-0.1,1.4,-0.5235987755982988,-0.5235987755982988,0,-0.036280435,-1.3817141,1.3946339,-0.27808002,0.11096521,1.0447303,-0.23057558,0.44606215,-0.88143283,-0.06259988,-0.012678431,-0.11300919,0.29009765,-1.1629493
-0.2,-0.1,1.4,-0.5235987755982988,-0.5235987755982988,0,-0.031091543,-1.3821135,1.4024098,-0.27435032,-0.032211013,1.1871011,0.7716998,0.5052133,-0.88255656,-0.055320725,-0.011111529,-0.19153322,0.2720116,-0.9846356
-0.2,-0.1,1.4,-0.5235987755982988,-0.5235987755982988,0,-0.03256466,-1.380246,1.3896168,-0.27579722,0.041988704,1.0009918,1.3587657,0.500145,-0.88647896,-0.0845647,-0.013248621,0.0008507188,0.27834746,-1.0167505
-0.2,-0.1,1.4,-0.5235987755982988,-0.5235987755982988,0,-0.0327061,-1.3781497,1.3912628,-0.2722937,0.13339114,1.1039977,-0.48631445,0.49434662,-0.878738,-0.09496713,-0.02820311,-0.104129225,0.2843964,0.05337278
-0.2,-0.1,1.4,-0.5235987755982988,-0.5235987755982988,0,-0.034077905,-1.3805311,1.3928064,-0.2784851,0.14015311,1.0438256,-1.4575993,0.51030475,-0.88230294,-0.08598234,-0.016930299,-0.0021281543,0.25481743,0.618907
-0.2,-0.1,1.4,-0.5235987755982988,-0.5235987755982988,0,-0.032000676,-1.3819578,1.402425,-0.27572706,-0.021680864,1.1259454,0.59760785,0.5156116,-0.8798692,-0.08633451,-0.0237454,-0.09081261,0.27716422,-1.3877529
-0.2,-0.1,1.4,-0.5235987755982988,-0.5235987755982988,0,-0.03327743,-1.3828396,1.3977482,-0.27564436,-0.02453812,0.9787603,0.023487767,0.48460376,-0.8750628,-0.028068164,-0.014865886,-0.0060642264,0.26353502,1.2198917
-0.2,-0.1,1.4,-0.5235987755982988,-0.5235987755982988,0,-0.034934595,-1.3811219,1.4029868,-0.27900577,0.07877084,1.0825547,0.7437841,0.50235426,-0.88682663,-0.042195007,-0.021215497,0.029318705,0.26054922,-1.2584488
-0.2,-0.1,1.4,-0.5235987755982988,-0.5235987755982988,0,-0.035388723,-1.3787806,1.3998483,-0.27217188,0.05143643,1.113017,-0.336898,0.53108597,-0.8794384,-0.087821126,-0.020700056,-0.06055576,0.2801987,0.2724462
-0.2,-0.1,1.4,-0.5235987755982988,-0.5235987755982988,0,-0.03462882,-1.3787316,1.4013574,-0.27471352,0.11891888,1.1199012,-0.09534572,0.51874256,-0.88710123,-0.049531247,-0.0026543546,-0.08822276,0.28382865,0.8314604
-0.2,-0.1,1.4,-0.5235987755982988,-0.5235987755982988,0,-0.032860164,-1.3814628,1.3980175,-0.27701956,0.15723276,1.0730679,-0.37502444,0.51330525,-0.88229394,-0.06984303,-0.017798128,-0.08156415,0.29632276,-0.009113971
-0.2,-0.1,1.4,-0.5235987755982988,-0.5235987755982988,0,-0.037403338,-1.3836136,1.3988096,-0.2782243,0.066933446,1.2017642,1.4471934,0.46593535,-0.87520444,-0.08294891,-0.016243463,-0.03587836,0.2897319,-0.6217312
-0.2,-0.1,1.4,-0.5235987755982988,-0.5235987755982988,0,-0.033815254,-1.3798339,1.3942593,-0.27630943,0.12874816,1.2078067,-2.4431348,0.5187219,-0.8799032,-0.077396475,-0.016932802,-0.070127696,0.29771796,-1.065935
-0.2,-0.1,1.4,-0.5235987755982988,-0.5235987755982988,0,-0.035425477,-1.3781257,1.3935748,-0.2768109,0.098529465,1.1142783,-0.10637004,0.4868525,-0.87817115,-0.052764766,-0.028746735,-0.09416453,0.2824032,0.67106724
-0.2,-0.1,1.4,-0.5235987755982988,-0.5235987755982988,0,-0.032881673,-1.3855796,1.3988415,-0.2783872,-0.10775239,1.0376782,-1.8024247,0.47569084,-0.8788992,-0.08904561,-0.022399578,-0.019826384,0.25573444,0.76773447
-0.2,-0.1,1.4,-0.5235987755982988,-0.5235987755982988,0,-0.033437088,-1.3831124,1.3956637,-0.27016842,0.19122234,1.1222098,0.0053220093,0.52875376,-0.8814519,-0.110535175,-0.028161706,-0.053566262,0.2913751,-1.3740388
-0.2,-0.1,1.4,-0.5235987755982988,-0.5235987755982988,0,-0.033536155,-1.3751153,1.398735,-0.28604406,-0.20600598,1.290947,-0.31344146,0.49195346,-0.8765248,-0.096948974,-0.015231525,0.014181276,0.29106802,-1.0475191
-0.2,-0.1,1.4,-0.5235987755982988,-0.5235987755982988,0,-0.033245165,-1.3820517,1.3978562,-0.27655002,0.1852373,1.1146309,-0.6966759,0.46580517,-0.8761062,-0.07458168,-0.01179058,0.052084353,0.2706907,-0.26374254
-0.2,-0.1,1.4,-0.5235987755982988,-0.5235987755982988,0,-0.033416085,-1.3813835,1.3961968,-0.2763796,0.051495444,1.117115,-2.0555682,0.5261472,-0.8785732,-0.032825265,-0.014101237,0.05655393,0.3063067,-2.2087595
-0.2,-0.1,1.4,-0.5235987755982988,-0.5235987755982988,0,-0.031898856,-1.3800789,1.396661,-0.2807378,0.058092635,0.9723326,-1.0987301,0.49165043,-0.880053,-0.051534526,-0.02710558,-0.14976318,0.2739625,0.058472645
-0.2,-0.1,1.4,-0.5235987755982988,-0.5235987755982988,0,-0.032377258,-1.3772316,1.403702,-0.26936257,-0.100129984,0.99856514,-0.5868984,0.47146145,-0.8826255,-0.098479025,-0.013750254,-0.002508867,0.24497065,-0.9778853
-0.2,-0.1,1.4,-0.5235987755982988,-0.5235987755982988,0,-0.035050284,-1.3807508,1.406959,-0.2757888,0.13422027,1.0256203,0.26714364,0.48165596,-0.88348943,-0.06193192,-0.01724558,-0.14348932,0.28256145,-0.34303412
-0.2,-0.1,1.4,-0.5235987755982988,-0.5235987755982988,0,-0.032033034,-1.3821148,1.3924464,-0.27584517,-0.009258907,1.0100327,1.065558,0.4778389,-0.8860667,-0.05388042,-0.012925665,0.07529863,0.33436298,1.0120783
-0.2,-0.1,1.4,-0.5235987755982988,-0.5235987755982988,0,-0.033016566,-1.3772718,1.3924142,-0.2752763,-0.06850468,1.2154133,1.3647172,0.4892514,-0.8799499,-0.07142819,-0.014469289,-0.015654873,0.28931785,-1.9714811
-0.2,-0.1,1.4,-0.5235987755982988,-0.5235987755982988,0,-0.033618227,-1.3768593,1.4055704,-0.27834678,0.024290923,0.9456531,0.69192976,0.5064602,-0.8775949,-0.08009378,-0.021943735,0.001303377,0.29897246,1.0727185
-0.2,-0.1,1.4,-0.5235987755982988,-0.5235987755982988,0,-0.03117511,-1.3780495,1.3942797,-0.27827126,0.04627975,0.9273622,-2.707863,0.49253216,-0.8798644,-0.039624482,-0.019971777,-0.011235941,0.2836244,-1.0126069
-0.2,-0.1,1.4,-0.5235987755982988,-0.5235987755982988,0,-0.032015268,-1.3855953,1.3983902,-0.2707397,0.19303356,0.9246721,-1.5688477,0.47924545,-0.88075954,-0.033791766,-0.003945093,0.04839635,0.2823259,-0.55622417
-0.2,-0.1,1.4,-0.5235987755982988,-0.5235987755982988,0,-0.03386007,-1.3781521,1.3993815,-0.27549696,0.072776005,1.0533158,-0.119127676,0.5024965,-0.87767386,-0.09665009,-0.007559752,-0.044085007,0.2631324,-1.4842921
-0.2,-0.1,1.4,-0.5235987755982988,-0.5235987755982988,0,-0.032342277,-1.3797845,1.4021668,-0.279291,0.22692198,1.1553059,1.1340158,0.5077587,-0.8800213,-0.10156029,-0.019482,-0.07051377,0.2882676,-1.0913281
-0.2,-0.1,1.4,-0.5235987755982988,-0.5235987755982988,0,-0.032599907,-1.3789746,1.4008356,-0.27151325,0.122641414,0.9529196,0.34037775,0.48239827,-0.8792629,-0.047271736,-0.014527752,-0.1761203,0.26715276,1.2827963
-0.2,-0.1,1.4,-0.5235987755982988,-0.5235987755982988,0,-0.031692497,-1.3823794,1.3915854,-0.27371937,0.062446915,1.1580597,-0.60363084,0.5335136,-0.88069445,-0.082012385,-0.023136478,-0.002257722,0.26870784,-0.9901213
-0.2,-0.1,1.4,-0.5235987755982988,-0.5235987755982988,0,-0.032932382,-1.388493,1.4041224,-0.27542764,-0.07047015,1.0241197,-1.7273309,0.48613444,-0.88342834,-0.09381956,-0.00967238,0.028358944,0.29740056,-1.015701
-0.2,-0.1,1.4,-0.5235987755982988,-0.5235987755982988,0,-0.032639127,-1.3837533,1.3985177,-0.27192688,0.0026197725,0.98632425,-0.9265193,0.48656556,-0.88146275,-0.073167816,-0.023906494,0.0015022666,0.27220473,-0.40442988
-0.2,-0.1,1.4,-0.5235987755982988,-0.5235987755982988,0,-0.03250908,-1.3827015,1.4007823,-0.282073,0.2500811,1.1337731,-0.8045478,0.48830608,-0.8814562,-0.08736553,-0.019533841,-0.17386748,0.3055682,-1.1274532
-0.2,-0.1,1.4,-0.5235987755982988,-0.5235987755982988,0,-0.0375461,-1.3772268,1.4011055,-0.27761328,0.045623418,1.1585609,0.42883062,0.48156393,-0.8832387,-0.041785758,-0.013566538,-0.092030324,0.23615992,-1.7126377
-0.2,-0.1,1.4,-0.5235987755982988,-0.5235987755982988,0,-0.035508092,-1.3814712,1.3980242,-0.27704495,0.053999893,1.1348876,0.60946006,0.49599618,-0.8844427,-0.078407146,-0.017955773,-0.14148511,0.27301016,1.2973788
-0.2,-0.1,1.4,-0.5235987755982988,-0.5235987755982988,0,-0.028244501,-1.3834611,1.405915,-0.28137755,0.04722261,1.133615,0.4718295,0.47676158,-0.8790809,-0.08831944,-0.008590735,-0.13691396,0.29427037,-0.9296792
-0.2,-0.1,1.4,-0.5235987755982988,-0.5235987755982988,0,-0.033393033,-1.3784482,1.3948809,-0.2865507,0.008583232,0.9556054,-0.33537528,0.4856735,-0.8803596,-0.046219006,-0.024584886,-0.112874806,0.2723124,-0.020668855
-0.2,-0.1,1.4,-0.5235987755982988,-0.5235987755982988,0,-0.034513965,-1.3846176,1.3985133,-0.2821724,0.01141272,1.021925,-0.56298476,0.4394852,-0.88287467,-0.05421758,-0.010895909,-0.22256754,0.27601683,0.049045775
-0.2,-0.1,1.4,-0.5235987755982988,-0.5235987755982988,0,-0.03220717,-1.3777632,1.4060785,-0.27521104,-0.22379746,0.96994305,-0.8245623,0.50153387,-0.88270235,-0.077288814,-0.022571854,-0.038123515,0.3012271,-0.75114095
-0.2,-0.1,1.4,-0.5235987755982988,-0.5235987755982988,0,-0.031460218,-1.380244,1.3969471,-0.27606717,-0.076538466,1.1231569,-1.5907506,0.48554307,-0.8819759,-0.06406691,-0.023688318,-0.08773047,0.23655161,-1.5747104
-0.2,-0.1,1.4,-0.5235987755982988,-0.5235987755982988,0,-0.033027675,-1.3821745,1.3988318,-0.27585286,0.031009698,1.0743191,0.629174,0.4920754,-0.8773705,-0.05817484,-0.014223385,-0.11871442,0.2777701,-0.4679617
-0.2,-0.1,1.4,-0.5235987755982988,-0.5235987755982988,0,-0.03546309,-1.3750821,1.401189,-0.27786008,-0.06610924,1.0363683,0.40235075,0.48981416,-0.8795861,-0.061764114,-0.0211782,-0.008731771,0.28919253,-0.40966606
-0.2,-0.1,1.4,-0.5235987755982988,-0.5235987755982988,0,-0.03319134,-1.3798754,1.3944677,-0.27510184,-0.03459302,1.1853578,1.1416621,0.48894447,-0.8801831,-0.09103828,-0.016618153,-0.16083428,0.29163274,-1.3472022
-0.2,-0.1,1.4,-0.5235987755982988,-0.5235987755982988,0,-0.035572026,-1.3818907,1.402338,-0.27322847,0.08912567,1.0809919,-1.4530982,0.5138461,-0.8783171,-0.09310653,-0.022460485,-0.0586387,0.28375304,-0.40646297
-0.2,-0.1,1.4,-0.5235987755982988,-0.5235987755982988,0,-0.0326796,-1.3812646,1.3966832,-0.27062804,0.10522073,1.1252588,0.48475385,0.48741734,-0.8769817,-0.050216265,-0.024154762,0.10716099,0.26719683,-2.0287094
-0.2,-0.1,1.4,-0.5235987755982988,-0.5235987755982988,0,-0.035947494,-1.3809289,1.4036425,-0.27640024,0.12132106,1.0849503,-0.66856796,0.50017005,-0.88078827,-0.08466034,-0.026536306,-0.013118884,0.26014045,1.5190014
-0.2,-0.1,1.4,-0.5235987755982988,-0.5235987755982988,0,-0.035326213,-1.3817927,1.4011371,-0.2822096,0.04406715,1.0243487,-0.64051074,0.52430624,-0.87937796,-0.102339275,-0.007653577,0.007835469,0.27650514,0.1586617
-0.2,-0.1,1.4,-0.5235987755982988,-0.5235987755982988,0,-0.035209373,-1.3777955,1.3996587,-0.27508497,0.11254548,1.1657475,-0.6749583,0.48453802,-0.88053507,-0.026124725,-0.02461937,-0.09639092,0.26780096,-0.755779
-0.2,-0.1,1.4,-0.5235987755982988,-0.5235987755982988,0,-0.03532867,-1.3814403,1.3871115,-0.27032486,-0.054425046,1.0814009,0.89613175,0.5144018,-0.87918144,-0.053987294,-0.017421518,0.025875043,0.27340293,0.17642245
-0.2,-0.1,1.4,-0.5235987755982988,-0.5235987755982988,0,-0.033468556,-1.3873452,1.4057009,-0.27399528,0.018189171,1.0663346,-0.11491722,0.48305973,-0.88283235,-0.08116939,-0.018189082,-0.015183351,0.3100012,0.4228644
-0.2,-0.1,1.4,-0.5235987755982988,-0.5235987755982988,0,-0.029825483,-1.3843735,1.402526,-0.2847823,0.11905827,0.98456466,1.4225999,0.4955565,-0.8792147,-0.06984136,-0.02500663,0.013944289,0.27057895,-0.14599544
-0.2,-0.1,1.4,-0.5235987755982988,-0.5235987755982988,0,-0.03452352,-1.3780113,1.3969818,-0.27583474,-0.07037415,1.1374928,-0.46830857,0.4815731,-0.8811609,-0.071829475,-0.020936342,0.043816,0.2820714,0.39513937
-0.2,-0.1,1.4,-0.5235987755982988,-0.5235987755982988,0,-0.03674133,-1.3767967,1.399143,-0.2731554,0.117645204,1.2532982,-0.79707754,0.48990747,-0.88168174,-0.024306403,-0.026300479,0.08574489,0.2648902,-0.5377381
-0.2,-0.1,1.4,-0.5235987755982988,-0.5235987755982988,0,-0.034168154,-1.3811713,1.4000282,-0.27685443,0.03754813,0.95347816,-1.1925193,0.49568763,-0.8770601,-0.043125927,-0.0117844,0.023083791,0.28538984,0.12135379
-0.2,-0.1,1.4,-0.5235987755982988,-0.5235987755982988,0,-0.029788548,-1.3809412,1.3955486,-0.27102354,-0.020869493,1.1200786,-0.13942972,0.48661265,-0.8787715,-0.06803063,-0.02376105,-0.059987314,0.24423502,-0.47293332
-0.2,-0.1,1.4,-0.5235987755982988,-0.5235987755982988,0,-0.03624434,-1.3796904,1.3946114,-0.27910894,0.05888422,0.990537,0.7201217,0.50551087,-0.8820555,-0.040192507,-0.011792475,-0.093094796,0.26112798,-1.8346514
-0.2,-0.1,1.4,-0.5235987755982988,-0.5235987755982988,0,-0.03321102,-1.3769271,1.4010935,-0.27555674,0.06272827,1.0919514,-1.4704741,0.50925076,-0.87869334,-0.09612957,-0.01566395,-0.052454516,0.27281877,-0.07803638
-0.2,-0.1,1.4,-0.5235987755982988,-0.5235987755982988,0,-0.03536256,-1.3870292,1.3977529,-0.2860208,-0.044001963,1.1626887,-0.3532019,0.4872437,-0.87861097,-0.042796157,-0.01522095,0.11107329,0.27758688,-0.7861378
-0.2,-0.1,1.4,-0.5235987755982988,-0.5235987755982988,0,-0.034525577,-1.3780011,1.3972131,-0.2760388,-0.11992775,1.1195456,-0.8300607,0.49599335,-0.88061136,-0.054049786,-0.021370994,-0.07606912,0.28786698,-1.0570631
-0.2,-0.1,1.4,-0.5235987755982988,-0.5235987755982988,0,-0.032600965,-1.3765857,1.3931956,-0.27493718,0.10032144,1.1285336,0.0021290171,0.48520213,-0.8794552,-0.054695066,-0.016219696,0.011973326,0.26924923,-0.5147781
-0.2,-0.1,1.4,-0.5235987755982988,-0.5235987755982988,0,-0.033724885,-1.381976,1.3994957,-0.27837384,-0.10762218,1.0534617,0.23473151,0.44253007,-0.8787373,-0.082378976,-0.018020889,-0.0023751524,0.28207877,-0.61997306
-0.2,-0.1,1.4,-0.5235987755982988,-0.5235987755982988,0,-0.033984274,-1.3738027,1.3973237,-0.27610245,0.1472602,1.0410485,-0.054762796,0.53004545,-0.88065624,-0.025765339,-0.017067282,0.0089767445,0.29379016,-0.38444108
-0.2,-0.1,1.4,-0.5235987755982988,-0.5235987755982988,0,-0.03309693,-1.3828534,1.3953261,-0.27661738,0.07751252,1.0415941,-0.22715992,0.515644,-0.88209105,-0.060437422,-0.020884326,-0.024276309,0.27145123,-2.2348664
-0.2,-0.1,1.4,-0.5235987755982988,-0.5235987755982988,0,-0.034695327,-1.3787382,1.4062823,-0.270929,0.105632566,1.0155708,-0.39534843,0.48611125,-0.8751112,-0.038013745,-0.0230322,-0.08982871,0.2578566,-0.7313282
-0.2,-0.1,1.4,-0.5235987755982988,-0.5235987755982988,0,-0.032275304,-1.3813227,1.395301,-0.27564797,0.05074722,1.1664153,0.07909139,0.50712055,-0.88280445,-0.07281143,-0.025407251,-0.1214893,0.29329222,0.020428956
-0.2,-0.1,1.4,-0.5235987755982988,-0.5235987755982988,0,-0.033809982,-1.3831736,1.3867897,-0.2733575,-0.048773285,0.954478,0.2546382,0.50848925,-0.88009584,-0.07434245,-0.025555123,0.0021289224,0.2812144,-0.87686616
-0.2,-0.1,1.4,-0.5235987755982988,-0.5235987755982988,0,-0.03139065,-1.3810314,1.3943454,-0.2735845,0.006444389,1.2154875,0.13428321,0.48817128,-0.8775976,-0.06295251,-0.023487095,-0.047712505,0.2778086,-0.29715842
-0.2,-0.1,1.4,-0.5235987755982988,-0.5235987755982988,0,-0.033201657,-1.3805609,1.3959022,-0.27280533,0.073146425,1.2953585,0.40027162,0.4459719,-0.87969613,-0.08581642,-0.022576464,0.031891838,0.2643846,0.3931543
-0.2,-0.1,1.4,-0.5235987755982988,-0.5235987755982988,0,-0.035638817,-1.3824996,1.3998792,-0.2800675,0.0074386448,0.95306796,-0.08088819,0.48644307,-0.87970346,-0.06599019,-0.019195385,-0.11022427,0.29413396,0.80801296
-0.2,-0.1,1.4,-0.5235987755982988,-0.5235987755982988,0,-0.03302031,-1.3774933,1.4107106,-0.28181043,0.021594204,1.1673942,-0.76274943,0.5165186,-0.8789592,-0.08879825,-0.018409034,-0.061201625,0.2555311,-1.3937995
-0.2,-0.1,1.4,-0.5235987755982988,-0.5235987755982988,0,-0.03487157,-1.3807949,1.3924057,-0.28485477,0.047994435,1.0881596,-1.5776175,0.49997368,-0.8789314,-0.0869085,-0.030094638,-0.11296515,0.30840024,-0.00061475957
-0.2,-0.1,1.4,-0.5235987755982988,-0.5235987755982988,0,-0.034689073,-1.3868424,1.395439,-0.27578056,-0.025705291,1.049436,-0.22479562,0.49533176,-0.88564795,-0.06790689,-0.010215522,-0.040617127,0.2720108,-1.2311232
-0.2,-0.1,1.4,-0.5235987755982988,-0.5235987755982988,0,-0.03165772,-1.381877,1.3955952,-0.28652495,0.1236003,1.1590865,0.90590423,0.47372416,-0.87977797,-0.081159346,-0.02492337,0.073837735,0.25929558,-1.2125742
-0.2,-0.1,1.4,-0.5235987755982988,-0.5235987755982988,0,-0.034147654,-1.3810833,1.4021742,-0.2798559,0.1636515,1.1058304,-0.3910669,0.5043542,-0.88293123,-0.028292852,-0.018347068,-0.04136297,0.24040003,-0.3061279
-0.2,-0.1,1.4,-0.5235987755982988,-0.5235987755982988,0,-0.032987066,-1.3769933,1.3916205,-0.28003168,0.017155437,1.0184405,-1.0041898,0.44956917,-0.882016,-0.08349627,-0.01866911,-0.054132044,0.27880317,-0.2987775
-0.2,-0.1,1.4,-0.5235987755982988,-0.5235987755982988,0,-0.036217332,-1.381722,1.3980091,-0.28181565,0.15639979,1.0311116,0.44410974,0.47761828,-0.87987536,-0.069387995,-0.015111134,-0.07903561,0.30636996,-1.2516949
-0.2,-0.1,1.4,-0.5235987755982988,-0.5235987755982988,0,-0.030932732,-1.3797745,1.3999057,-0.27624065,-0.0058238427,0.97689223,0.18774517,0.51704466,-0.88556814,-0.09885422,-0.016839994,-0.009139138,0.27491233,-0.5675376
-0.2,-0.1,1.4,-0.5235987755982988,-0.5235987755982988,0,-0.03615348,-1.379333,1.3980006,-0.27414083,-0.16451246,0.97064394,-0.15877207,0.5275974,-0.88211143,-0.05295945,-0.021599928,-0.08463483,0.32860258,-0.59541243
-0.2,-0.1,1.4,-0.5235987755982988,-0.5235987755982988,0,-0.0352389,-1.3838052,1.3881799,-0.27804884,-0.08569929,1.071415,0.63956815,0.46928918,-0.8797665,-0.07477969,-0.02093394,0.040516317,0.29879275,1.6624162
-0.2,-0.1,1.4,-0.5235987755982988,-0.5235987755982988,0,-0.03507466,-1.3830584,1.396477,-0.28497133,0.09763465,1.1264651,0.5005895,0.51532626,-0.8781807,-0.06126201,-0.013895254,0.088608705,0.29342803,-0.46569708
-0.2,-0.1,1.4,-0.5235987755982988,-0.5235987755982988,0,-0.03189282,-1.3808342,1.4035156,-0.2746208,0.030019905,1.048294,-1.7508059,0.4694539,-0.88215137,-0.0752461,-0.016268544,-0.014843173,0.27823874,-0.6092683
-0.2,-0.1,1.4,-0.5235987755982988,-0.5235987755982988,0,-0.03189036,-1.3811367,1.393206,-0.2741515,-0.024758613,1.0030051,-1.018192,0.47537273,-0.87571084,-0.08062874,-0.022275072,-0.026302751,0.2997902,-0.90321374
-0.2,-0.1,1.4,-0.5235987755982988,-0.5235987755982988,0,-0.035259195,-1.3768997,1.4032254,-0.27716658,0.03343809,1.1327381,0.11847839,0.49263814,-0.8832959,-0.052897837,-0.022772793,-0.06622854,0.25981838,-0.9741321
-0.2,-0.1,1.4,-0.5235987755982988,-0.5235987755982988,0,-0.032048244,-1.3853704,1.3976147,-0.2815703,0.08812456,1.0528604,-2.2377508,0.49098647,-0.87659365,-0.07477139,-0.022727499,0.00995663,0.26765117,-0.8247871
-0.2,-0.1,1.4,-0.5235987755982988,-0.5235987755982988,0,-0.033183277,-1.3791708,1.3983188,-0.27205828,-0.025681097,1.1536783,0.94830155,0.47128192,-0.8838606,-0.05639246,-0.014765708,0.13861424,0.26441193,1.0457885
-0.2,-0.1,1.4,-0.5235987755982988,-0.5235987755982988,0,-0.032711204,-1.3846016,1.3978466,-0.27700424,-0.039005406,1.2012002,-0.1711908,0.4751031,-0.8842013,-0.078125596,-0.024283044,-0.07751373,0.26237705,-2.031804
-0.2,-0.1,1.4,-0.5235987755982988,-0.5235987755982988,0,-0.03312352,-1.3782011,1.3927574,-0.273161,0.01912012,1.0713508,0.8341522,0.48827803,-0.87823844,-0.09809631,-0.019998189,-0.029635135,0.2803398,-1.2935747
-0.2,-0.1,1.4,-0.5235987755982988,-0.5235987755982988,0,-0.033949282,-1.3791807,1.4041879,-0.28271016,0.08562796,1.0933022,0.45746887,0.49464107,-0.88122064,-0.030145392,-0.01724893,-0.04346115,0.31584072,0.3373327
-0.2,-0.1,1.4,-0.5235987755982988,-0.5235987755982988,0,-0.030203767,-1.3794297,1.3959415,-0.27795056,-0.12205733,1.1374748,-0.019736594,0.5138738,-0.8846294,-0.03101338,-0.01338053,-0.09768341,0.28764758,0.52752906
-0.2,-0.1,1.4,-0.5235987755982988,-0.5235987755982988,0,-0.033257023,-1.3777602,1.3924555,-0.27668035,0.04723338,1.1310644,0.046792865,0.4925642,-0.8795068,-0.037857875,-0.018630866,-0.122510985,0.25038448,-0.9060096
-0.2,-0.1,1.4,-0.5235987755982988,-0.5235987755982988,0,-0.033188794,-1.3835529,1.3902113,-0.27053443,0.14370872,1.0740759,-0.48186237,0.4993395,-0.8821118,-0.05488641,-0.015414912,-0.05943796,0.27030492,-1.1113737
-0.2,-0.1,1.4,-0.5235987755982988,-0.5235987755982988,0,-0.035924256,-1.3849967,1.396164,-0.27813536,0.08997269,1.1673568,-1.1912587,0.4973829,-0.88285434,-0.070311874,-0.016840536,-0.08958523,0.27945736,-2.1754138
-0.2,-0.1,1.4,-0.5235987755982988,-0.5235987755982988,0,-0.03319155,-1.3825271,1.400308,-0.27668583,-0.06196001,0.9839769,-1.4907659,0.5205049,-0.8777701,-0.08601164,-0.027687518,-0.039303485,0.2956476,-0.1167391
-0.2,-0.1,1.4,-0.5235987755982988,-0.5235987755982988,0,-0.03245825,-1.377478,1.392878,-0.271778,0.06822293,1.0778664,0.9615094,0.48957944,-0.8816442,-0.08136552,-0.017334513,-0.03792141,0.2872446,-1.5910537
-0.2,-0.1,1.4,-0.5235987755982988,-0.5235987755982988,0,-0.032772288,-1.3808092,1.4011749,-0.2743221,0.12925577,1.0589771,0.23498526,0.49313605,-0.8803739,-0.04491531,-0.017446285,-0.08514944,0.26867017,-0.7863164
-0.2,-0.1,1.4,-0.5235987755982988,-0.5235987755982988,0,-0.03527807,-1.3844322,1.3940244,-0.28338167,0.10954305,0.9790329,-0.20887724,0.489234,-0.88055545,-0.07767403,-0.017829914,-0.15601797,0.3008118,-0.96504444
-0.2,-0.1,1.4,-0.5235987755982988,-0.5235987755982988,0,-0.032475308,-1.3839785,1.3902179,-0.28238606,0.09083581,1.284214,-0.8680569,0.49190626,-0.8792116,-0.025840458,-0.01964311,-0.04486797,0.2540683,-0.6217915
-0.2,-0.1,1.4,-0.5235987755982988,-0.5235987755982988,0,-0.03385102,-1.3800647,1.4011345,-0.27152652,0.066847414,1.0596503,0.15263085,0.5143977,-0.8808792,-0.07705285,-0.019583259,-0.06538904,0.30539113,-0.7114421
-0.2,-0.1,1.4,-0.5235987755982988,-0.5235987755982988,0,-0.035345178,-1.3786882,1.4001029,-0.27967364,0.065204814,1.1362443,-0.44904798,0.48412856,-0.8804859,-0.108797066,-0.02028039,0.15404116,0.28437525,0.28793472
-0.2,-0.1,1.4,-0.5235987755982988,-0.5235987755982988,0,-0.03263808,-1.3805636,1.3919568,-0.27576858,0.026381938,1.0983647,1.1299446,0.5007047,-0.881271,-0.021762948,-0.019451583,0.073217005,0.29091027,1.6428071
-0.2,-0.1,1.4,-0.5235987755982988,-0.5235987755982988,0,-0.035571348,-1.380849,1.3949922,-0.28101188,0.12837163,1.0818264,-0.08212814,0.4982107,-0.88172424,-0.061464168,-0.017856937,-0.039350603,0.25341448,-1.8612901
-0.2,-0.1,1.4,-0.5235987755982988,-0.5235987755982988,0,-0.032193165,-1.3797249,1.396035,-0.27199596,0.11592669,1.1338487,0.72416675,0.48359984,-0.8788837,-0.101471655,-0.019555954,0.1082361,0.29517987,0.41819027
-0.2,-0.1,1.4,-0.5235987755982988,-0.5235987755982988,0,-0.035817277,-1.3811929,1.3979591,-0.27646253,-0.1347594,1.2208068,-0.118700214,0.47101507,-0.8807097,-0.048516843,-0.024196235,-0.07077123,0.26690218,1.3349938
-0.2,-0.1,1.4,-0.5235987755982988,-0.5235987755982988,0,-0.033434276,-1.3777653,1.3955655,-0.2763293,0.13538866,1.2238526,-0.5667639,0.4366167,-0.87857914,-0.066906914,-0.023241922,-0.07699058,0.26436406,0.5405193
-0.2,-0.1,1.4,-0.5235987755982988,-0.5235987755982988,0,-0.031512015,-1.3853499,1.4043669,-0.27347848,-0.024341896,1.3311591,-1.7435327,0.45041874,-0.8795857,-0.056361157,-0.0172811,-0.0021348386,0.2777202,-0.259922
-0.2,-0.1,1.4,-0.5235987755982988,-0.5235987755982988,0,-0.035568964,-1.3797402,1.3979505,-0.27359775,-0.022525746,1.0885973,-0.3683893,0.47440958,-0.8803539,-0.08874075,-0.026813347,-0.005204101,0.28391203,-1.4711914
-0.2,-0.1,1.4,-0.5235987755982988,-0.5235987755982988,0,-0.034471832,-1.3811641,1.3908163,-0.27880916,0.05518442,1.0834124,-1.3073722,0.4889003,-0.8840533,-0.04051799,-0.02222917,-0.105557464,0.2878109,-1.7882895
-0.2,-0.1,1.4,-0.5235987755982988,-0.5235987755982988,0,-0.031011507,-1.3831083,1.3907368,-0.2742015,0.0708445,1.1313471,0.77405804,0.45399112,-0.8804177,-0.05644987,-0.030744776,0.05110564,0.26170412,-0.16741534
-0.2,-0.1,1.4,-0.5235987755982988,-0.5235987755982988,0,-0.031723484,-1.3817989,1.4005791,-0.27019942,-0.13772616,1.09745,-0.49456093,0.4889064,-0.87924516,-0.08937674,-0.018631201,-0.14326815,0.26589534,1.4012158
-0.2,-0.1,1.4,-0.5235987755982988,-0.5235987755982988,0,-0.0308754,-1.3825951,1.4020354,-0.2718783,-0.087998495,1.1625803,-0.15681106,0.4652769,-0.87980866,-0.060819115,-0.021539433,0.005370611,0.24841876,1.2275163
-0.2,-0.1,1.4,-0.5235987755982988,-0.5235987755982988,0,-0.033694163,-1.3800651,1.3962504,-0.28590828,-0.112467855,1.1431042,-1.013446,0.48284864,-0.88392305,-0.063992724,-0.03311523,-0.10892599,0.28844976,-1.1054405
-0.2,-0.1,1.4,-0.5235987755982988,-0.5235987755982988,0,-0.03453498,-1.3777713,1.4065236,-0.28231475,-0.10554028,1.1898396,0.9317104,0.5083735,-0.88179517,-0.06520663,-0.008848433,0.0011644379,0.26745787,1.0137881
-0.2,-0.1,1.4,-0.5235987755982988,-0.5235987755982988,0,-0.03429196,-1.3829577,1.3982831,-0.27401167,0.061640937,1.235878,0.2073903,0.5208424,-0.88294095,-0.055312052,-0.022709023,-0.09897495,0.28697717,1.0160456
-0.2,-0.1,1.4,-0.5235987755982988,-0.5235987755982988,0,-0.032715827,-1.3818414,1.3903233,-0.2725743,0.024624513,1.1135522,-0.9343116,0.46731344,-0.87935686,-0.05070982,-0.020147195,0.056612905,0.27161258,1.6315929
-0.2,-0.1,1.4,-0.5235987755982988,-0.5235987755982988,0,-0.03278923,-1.3812541,1.3980694,-0.27168584,-0.001745782,1.2354354,-1.6651083,0.48495117,-0.8791366,-0.08232928,-0.021755094,-0.009935518,0.25617698,-1.0114378
-0.2,-0.1,1.4,-0.5235987755982988,-0.5235987755982988,0,-0.03352053,-1.3833861,1.4010931,-0.2856217,0.056853678,1.1702058,1.8645294,0.50455654,-0.8797757,-0.055362657,-0.021091202,0.0023206333,0.29079437,1.4421247
-0.2,-0.1,1.4,-0.5235987755982988,-0.5235987755982988,0,-0.03234085,-1.3793063,1.402775,-0.26796433,0.09535769,1.081652,-1.7061504,0.49121058,-0.88323885,-0.020489037,-0.02923679,-0.07133625,0.30388874,-1.790541
-0.2,-0.1,1.4,-0.5235987755982988,-0.5235987755982988,0,-0.03559071,-1.3816546,1.4035007,-0.2803819,0.22132759,1.0134145,-0.08271851,0.50990945,-0.8842111,-0.049169805,-0.021747496,0.076195106,0.26993135,-0.094887674
-0.2,-0.1,1.4,-0.5235987755982988,-0.5235987755982988,0,-0.034204114,-1.3819829,1.4108887,-0.2754772,-0.015370932,1.0333705,-0.15682372,0.5045314,-0.882797,-0.067921475,-0.027309995,0.0022099705,0.2972259,-0.26616368
-0.2,-0.1,1.4,-0.5235987755982988,-0.5235987755982988,0,-0.03332537,-1.3829195,1.4000823,-0.2739542,-0.061905794,1.037413,0.04180265,0.4959811,-0.881807,-0.05016883,-0.02424503,-0.10014997,0.27178627,-1.303472
-0.2,-0.1,1.4,-0.5235987755982988,-0.5235987755982988,0,-0.030773796,-1.3769618,1.3873177,-0.27364135,0.05884827,1.1436291,-1.5014726,0.51573676,-0.88226634,-0.028406186,-0.013542392,-0.022978073,0.2787913,-1.6919224
-0.2,-0.1,1.4,-0.5235987755982988,-0.5235987755982988,0,-0.03143273,-1.3743229,1.3900245,-0.28003857,0.047505047,1.1507795,-0.57297957,0.5067726,-0.8825292,-0.06736039,-0.012853917,-0.054955665,0.29018933,1.8046291
-0.2,-0.1,1.4,-0.5235987755982988,-0.5235987755982988,0,-0.034743242,-1.3846782,1.3976829,-0.27610442,-0.054983076,1.0899252,-1.0481064,0.5151707,-0.8798228,-0.06540609,-0.022841418,-0.15604359,0.28820717,-1.1832136
-0.2,-0.1,1.4,-0.5235987755982988,-0.5235987755982988,0,-0.029505234,-1.3808454,1.3930852,-0.2752087,0.1309198,1.1027236,-0.67633414,0.5016481,-0.8797614,-0.11164244,-0.021658206,-0.095558524,0.31136623,-0.95219886
-0.2,-0.1,1.4,-0.5235987755982988,-0.5235987755982988,0,-0.032680318,-1.3794861,1.4009978,-0.27305937,0.027643433,1.239798,-0.056644443,0.4884947,-0.8778882,-0.072979555,-0.024967762,-0.060698137,0.2578044,-1.8592949
-0.2,-0.1,1.4,-0.5235987755982988,-0.5235987755982988,0,-0.033157688,-1.3818756,1.4006789,-0.2780324,0.09710987,0.990944,1.3148669,0.5333579,-0.8826926,-0.03860301,-0.025029408,0.01555046,0.27503183,-0.556334
-0.2,-0.1,1.4,-0.5235987755982988,-0.5235987755982988,0,-0.03580546,-1.3830097,1.3931395,-0.28169262,0.07491844,1.0712497,0.5279213,0.4899371,-0.8762595,-0.051786136,-0.024940917,-0.009875924,0.28646892,-2.785753
-0.2,-0.1,1.4,-0.5235987755982988,-0.5235987755982988,0,-0.032102622,-1.3868406,1.3967639,-0.2794145,0.029346911,0.9740327,0.03482941,0.4865902,-0.87830687,-0.104643665,-0.017882992,-0.02758486,0.27618462,0.6590968
-0.2,-0.1,1.4,-0.5235987755982988,-0.5235987755982988,0,-0.033735592,-1.382286,1.3995589,-0.2734204,0.034758803,1.0249014,0.9725587,0.5085755,-0.8807422,-0.071544446,-0.023574496,-0.03657403,0.30005282,-2.114522
-0.2,-0.1,1.4,-0.5235987755982988,-0.5235987755982988,0,-0.034766912,-1.3785388,1.4027519,-0.27594662,0.13625984,1.1406877,-1.0417644,0.46166372,-0.87970614,-0.054993086,-0.031137772,-0.0945153,0.29509005,-1.1477759
-0.2,-0.1,1.4,-0.5235987755982988,-0.5235987755982988,0,-0.030233532,-1.3826052,1.4030015,-0.27205062,-0.0008225708,0.9770684,1.5164976,0.51616216,-0.87781423,-0.04126412,-0.02236906,-0.05115795,0.27834824,-1.4989736
-0.2,-0.1,1.4,-0.5235987755982988,-0.5235987755982988,0,-0.028566407,-1.3816024,1.3969202,-0.27602702,0.22876465,1.1282299,-1.5811955,0.4849704,-0.882812,-0.060210615,-0.024499854,-0.033979144,0.25434878,0.5632981
-0.2,-0.1,1.4,-0.5235987755982988,-0.5235987755982988,0,-0.033941094,-1.3827139,1.4007436,-0.27363768,0.05862354,0.9444149,0.19102976,0.5181396,-0.8856392,-0.048334282,-0.015216462,-0.022299424,0.28118572,-0.3784359
-0.2,-0.1,1.4,-0.5235987755982988,-0.5235987755982988,0,-0.03471494,-1.378171,1.3909278,-0.27514833,-0.10334986,0.9733587,1.509154,0.49998745,-0.8831331,-0.099232234,-0.016534038,-0.014310251,0.29722592,-0.8973461
-0.2,-0.1,1.4,-0.5235987755982988,-0.5235987755982988,0,-0.033641823,-1.3815445,1.3972536,-0.27629226,0.112054974,1.0662767,1.2645892,0.51741344,-0.8808535,-0.058204502,-0.02363845,-0.19147545,0.26997882,0.4768376
-0.2,-0.1,1.4,-0.5235987755982988,-0.5235987755982988,0,-0.034275346,-1.3849173,1.3968409,-0.2772218,0.18476647,1.116409,0.14575295,0.51783,-0.88528895,-0.060214296,-0.015926408,-0.17585269,0.3018143,0.5420686
-0.2,-0.1,1.4,-0.5235987755982988,-0.5235987755982988,0,-0.033425845,-1.3842453,1.4001846,-0.27433947,0.06997735,1.192011,-2.1198068,0.5005127,-0.881496,-0.04361419,-0.025159448,0.04169351,0.28004134,-0.43145096
-0.2,-0.1,1.4,-0.5235987755982988,-0.5235987755982988,0,-0.033690922,-1.3792068,1.4000919,-0.27413714,0.1581907,1.1667299,0.4877983,0.49030325,-0.8794476,-0.011364261,-0.022697387,-0.092947945,0.27185342,-0.5782781
-0.2,-0.1,1.4,-0.5235987755982988,-0.5235987755982988,0,-0.03604492,-1.3814007,1.4009091,-0.27423146,-0.013804822,1.1034639,1.8593049,0.4775086,-0.88309443,-0.10204992,-0.019978274,-0.03745006,0.2809327,-0.41507724
-0.2,-0.1,1.4,-0.5235987755982988,-0.5235987755982988,0,-0.03515274,-1.3805556,1.3987825,-0.27327976,-0.0048882565,1.239937,0.7840382,0.48899558,-0.88110757,-0.057349812,-0.010854538,-0.082857214,0.27843738,-0.67281413
-0.2,-0.1,1.4,-0.5235987755982988,-0.5235987755982988,0,-0.034186263,-1.3798468,1.4016942,-0.2822938,0.119171314,1.0771651,-0.49321166,0.5202185,-0.8799818,-0.035237838,-0.023949107,-0.13827172,0.26269794,1.9620113
-0.2,-0.1,1.4,-0.5235987755982988,-0.5235987755982988,0,-0.035252072,-1.3820488,1.4021419,-0.27803728,0.22528416,1.1207229,-1.0850786,0.49636295,-0.88197905,-0.11057519,-0.027067218,0.102742225,0.2530592,0.004947314
-0.2,-0.1,1.4,-0.5235987755982988,-0.5235987755982988,0,-0.03441523,-1.3834612,1.4009593,-0.2736822,0.11462865,1.0895735,0.099148504,0.51411295,-0.882329,-0.063180484,-0.017110785,0.061328944,0.30150074,0.54991996
-0.2,-0.1,1.4,-0.5235987755982988,-0.5235987755982988,0,-0.032207433,-1.383424,1.3870989,-0.2802917,0.152493,0.9895753,0.35917482,0.5121731,-0.8788017,-0.08695042,-0.026054127,-0.045958806,0.27725697,-0.69436085
-0.2,-0.1,1.4,-0.5235987755982988,-0.5235987755982988,0,-0.034023866,-1.3825836,1.3981209,-0.28158137,0.051871926,1.0986813,-0.17853865,0.47310206,-0.8832058,-0.10661826,-0.020002294,0.12341606,0.25954127,-1.0578204
-0.2,-0.1,1.4,-0.5235987755982988,-0.5235987755982988,0,-0.032234535,-1.3805215,1.3885971,-0.2774654,0.0570759,1.176079,0.5958199,0.45403922,-0.87779826,-0.0961333,-0.028414845,0.053826638,0.28271252,-0.46909285
-0.2,-0.1,1.4,-0.5235987755982988,-0.5235987755982988,0,-0.030323537,-1.383213,1.4076127,-0.28337684,0.23928995,1.1550602,0.01973914,0.5208405,-0.88048506,-0.025805838,-0.017292524,-0.045247603,0.28768414,0.63848585
-0.2,-0.1,1.4,-0.5235987755982988,-0.5235987755982988,0,-0.030278005,-1.3780521,1.3966315,-0.2777715,-0.036723226,1.1490651,0.68001735,0.49391267,-0.8842324,-0.060896903,-0.019698948,-0.14588809,0.31188682,-0.98069054
-0.2,-0.1,1.4,-0.5235987755982988,-0.5235987755982988,0,-0.029484509,-1.3848128,1.3977388,-0.27543554,0.14425465,1.2636533,0.6935144,0.50775415,-0.8824394,-0.064260274,-0.0218318,0.028831853,0.2889868,0.639199
-0.2,-0.1,1.4,-0.5235987755982988,-0.5235987755982988,0,-0.032508135,-1.3831986,1.3887218,-0.27597544,0.0025367527,1.0945984,0.53571725,0.49297208,-0.879078,-0.047048464,-0.0126373265,-0.057574503,0.27788937,-0.5726192
-0.2,-0.1,1.4,-0.5235987755982988,-0.5235987755982988,0,-0.031339336,-1.3870845,1.3993098,-0.27583826,0.030847527,0.98736066,-0.54113567,0.48865584,-0.88260627,-0.08578946,-0.022160528,0.021584334,0.26816392,-1.3294024
-0.2,-0.1,1.4,-0.5235987755982988,-0.5235987755982988,0,-0.033348896,-1.3824333,1.4021369,-0.26959488,0.1255882,1.0474737,-0.5037246,0.474322,-0.8813549,-0.07435303,-0.02165271,-0.04305094,0.27108362,1.0903147
-0.2,-0.1,1.4,-0.5235987755982988,-0.5235987755982988,0,-0.03193584,-1.385487,1.39709,-0.2690856,0.007295111,1.1195599,-0.390939,0.505466,-0.87571836,-0.09384035,-0.021622252,-0.14686474,0.27695024,-2.330537
-0.2,-0.1,1.4,-0.5235987755982988,-0.5235987755982988,0,-0.03073477,-1.3796731,1.4002873,-0.2743802,0.07679206,1.0328398,-1.1176618,0.49932644,-0.88212454,-0.08312445,-0.022688003,-0.032403633,0.2865664,-0.25040433
-0.2,-0.1,1.4,-0.5235987755982988,-0.5235987755982988,0,-0.031870794,-1.3828722,1.399141,-0.2761227,-0.07661491,1.1389232,0.30119774,0.52186596,-0.8808556,-0.036834158,-0.019435491,-0.046706203,0.26469526,-0.45080185
-0.2,-0.1,1.4,-0.5235987755982988,-0.5235987755982988,0,-0.033062723,-1.3781166,1.3929709,-0.27934006,0.11963163,1.0814689,-0.6778196,0.4747299,-0.8789253,-0.08766686,-0.024718357,-0.020405361,0.28219727,-0.80195254
-0.2,-0.1,1.4,-0.5235987755982988,-0.5235987755982988,0,-0.033527777,-1.3849751,1.4012889,-0.2814707,0.061189637,1.0975171,-0.373159,0.47793978,-0.87969744,-0.07872032,-0.02581941,0.08893395,0.2944889,0.029935906
-0.2,-0.1,1.4,-0.5235987755982988,-0.5235987755982988,0,-0.032321483,-1.3817251,1.3973616,-0.27833113,0.026438532,0.98991597,-0.1875695,0.51136917,-0.8788533,-0.059303742,-0.021249628,-0.08681513,0.29801127,-0.2779837
-0.2,-0.1,1.4,-0.5235987755982988,-0.5235987755982988,0,-0.035586376,-1.3839973,1.4003371,-0.27654797,0.14835112,1.1043439,0.9669367,0.5169428,-0.8816478,-0.07293784,-0.017643452,0.03125354,0.2704488,-0.25264972
-0.2,-0.1,1.4,-0.5235987755982988,-0.5235987755982988,0,-0.032366328,-1.3796726,1.3882146,-0.28042608,0.03392929,1.0893961,-0.98198193,0.4713883,-0.881317,-0.06087591,-0.022563173,-0.20135039,0.28605407,-0.8798637
-0.2,-0.1,1.4,-0.5235987755982988,-0.5235987755982988,0,-0.03307505,-1.3797683,1.399135,-0.27223885,0.041762985,1.1511604,-0.8111455,0.49846956,-0.8780681,-0.05996883,-0.024775166,-0.10118698,0.24509306,-1.2730795
-0.2,-0.1,1.4,-0.5235987755982988,-0.5235987755982988,0,-0.034568887,-1.3863734,1.4028552,-0.27687854,0.014661694,1.0079045,0.2941352,0.5034292,-0.88118136,-0.053051,-0.020080646,-0.0029181265,0.2956469,-2.4002419
-0.2,-0.1,1.4,-0.5235987755982988,-0.5235987755982988,0,-0.031939838,-1.3847864,1.390981,-0.27634677,0.07616725,1.0424945,-0.75990045,0.4849108,-0.8854195,-0.09036499,-0.012221219,0.0008802744,0.27492115,-1.4334813
-0.2,-0.1,1.4,-0.5235987755982988,-0.5235987755982988,0,-0.03349844,-1.3775579,1.3988978,-0.2730911,0.0650004,1.0808331,-1.4200568,0.49840546,-0.8827111,-0.061447024,-0.011378696,-0.07185961,0.30140227,-1.5351564
-0.2,-0.1,1.4,-0.5235987755982988,-0.5235987755982988,0,-0.031632207,-1.3800424,1.3916903,-0.2728919,0.08828041,1.1666001,0.044455446,0.54125285,-0.87903285,-0.08762659,-0.022088747,-0.049353562,0.3083689,-2.7238467
-0.2,-0.1,1.4,-0.5235987755982988,-0.5235987755982988,0,-0.032294106,-1.381548,1.4021496,-0.26988068,-0.07109414,1.1090373,-0.062541574,0.5164922,-0.8836384,-0.063240014,-0.021889312,-0.015220573,0.26841962,-1.2844862
-0.2,-0.1,1.4,-0.5235987755982988,-0.5235987755982988,0,-0.031854816,-1.3868312,1.4051517,-0.27783033,-0.09929533,1.0259918,-0.37219688,0.4883224,-0.8838812,-0.06179231,-0.024997922,-0.042375028,0.3074924,-0.121251546
-0.2,-0.1,1.4,-0.5235987755982988,-0.5235987755982988,0,-0.033433616,-1.3823266,1.3957089,-0.27594456,-0.0029233408,1.1193931,-0.6119262,0.48109478,-0.88290316,-0.08342239,-0.025497068,-0.19645788,0.28802717,-0.73841906
-0.2,-0.1,1.4,-0.5235987755982988,-0.5235987755982988,0,-0.035094805,-1.3859406,1.3887384,-0.2754485,0.17563623,1.0126263,-0.76364005,0.49747527,-0.8834066,-0.08625789,-0.02015099,-0.017083522,0.28496134,-1.0151637
-0.2,-0.1,1.4,-0.5235987755982988,-0.5235987755982988,0,-0.033640083,-1.3827572,1.3953984,-0.27191767,0.13013355,1.0809041,0.36912522,0.5069392,-0.88251156,-0.083129965,-0.018251207,-0.024320815,0.29480198,-1.9149469
-0.2,-0.1,1.4,-0.5235987755982988,-0.5235987755982988,0,-0.03512129,-1.3813269,1.3887885,-0.28271446,0.119350106,1.0440816,-0.7518911,0.45386824,-0.8828146,-0.099589445,-0.021769267,-0.067291565,0.27600607,1.214896
-0.2,-0.1,1.4,-0.5235987755982988,-0.5235987755982988,0,-0.033954002,-1.3793794,1.4018068,-0.2762007,0.14231241,1.0423125,-0.41343874,0.5182418,-0.88309383,-0.02036706,-0.024870716,-0.025989678,0.29527622,-2.5203736
-0.2,-0.1,1.4,-0.5235987755982988,-0.5235987755982988,0,-0.034415755,-1.3864132,1.4002533,-0.2755611,0.08595804,1.0178969,-1.6411037,0.5077328,-0.8847998,-0.05243004,-0.019682083,-0.10932845,0.2907326,0.50254405
-0.2,-0.1,1.4,-0.5235987755982988,-0.5235987755982988,0,-0.03260463,-1.3811649,1.398899,-0.28029412,-0.06196068,1.0857141,-0.30947548,0.46510687,-0.8823635,-0.07619587,-0.022239847,0.13882436,0.28339955,-1.3891956
-0.2,-0.1,1.4,-0.5235987755982988,-0.5235987755982988,0,-0.03163042,-1.3824703,1.3986787,-0.27451336,-0.07198554,1.025115,-0.8628345,0.45727614,-0.8808599,-0.079741605,-0.021346375,-0.11761293,0.25184712,-0.32336524
-0.2,-0.1,1.4,-0.5235987755982988,-0.5235987755982988,0,-0.03523078,-1.3753268,1.4054939,-0.28294188,0.08161907,1.1468053,-0.7214493,0.52446437,-0.8794977,-0.047687538,-0.02532092,-0.05519165,0.31070578,0.30588257
-0.2,-0.1,1.4,-0.5235987755982988,-0.5235987755982988,0,-0.035150666,-1.3822445,1.3969566,-0.2821559,0.083217956,0.9526551,-0.03768846,0.50163895,-0.88420933,-0.046666786,-0.019233117,-0.099593215,0.25326723,-1.0723324
