sanky1234/BimanualDexCatch/isaacgymenvs/cem_results/football_pose_-0.1_-0.2_1.2999999999999998_0.5235987755982988_-0.5235987755982988_0_2025-05-25.csv
x,y,z,roll,pitch,yaw,robot1/joint1,robot1/joint2,robot1/joint3,robot1/joint4,robot1/joint5,robot1/joint6,robot1/joint7,robot2/joint1,robot2/joint2,robot2/joint3,robot2/joint4,robot2/joint5,robot2/joint6,robot2/joint7
-0.1,-0.2,1.2999999999999998,0.5235987755982988,-0.5235987755982988,0,-0.29295498,-0.20152864,1.2503767,0.52640504,0.45295116,0.9204808,-0.33437276,-0.038687848,0.0463857,0.09793828,0.11614946,-0.938161,1.2653964,-0.4577552
-0.1,-0.2,1.2999999999999998,0.5235987755982988,-0.5235987755982988,0,-0.28418556,-0.19771715,1.2489736,0.5297445,0.45346597,0.919441,-0.43949732,-0.037857972,0.0467857,0.15352227,0.12206378,-0.3847611,1.4067781,-1.0078121
-0.1,-0.2,1.2999999999999998,0.5235987755982988,-0.5235987755982988,0,-0.28681818,-0.19734982,1.2470648,0.52888435,0.44060957,0.9261254,-0.40736976,-0.03398613,0.045914035,0.11379394,0.22427082,-0.6107894,1.2918775,-1.071938
-0.1,-0.2,1.2999999999999998,0.5235987755982988,-0.5235987755982988,0,-0.29020432,-0.19112936,1.2463268,0.5292027,0.45852605,0.91935176,-0.43239868,-0.0370069,0.04903818,0.036003422,0.2111388,-0.79075587,1.3655525,-0.28755906
-0.1,-0.2,1.2999999999999998,0.5235987755982988,-0.5235987755982988,0,-0.28822595,-0.20270981,1.2484353,0.52599853,0.4461612,0.9167385,-0.36647388,-0.03410954,0.045488413,0.16372752,0.15806137,-0.22765128,1.351599,-1.6550481
-0.1,-0.2,1.2999999999999998,0.5235987755982988,-0.5235987755982988,0,-0.28578082,-0.20799422,1.2499409,0.5272196,0.45098847,0.92089725,-0.36989993,-0.03235963,0.0488526,0.09537914,0.19802791,-1.145492,1.345531,-0.49522614
-0.1,-0.2,1.2999999999999998,0.5235987755982988,-0.5235987755982988,0,-0.2896886,-0.19266772,1.2482142,0.5276784,0.4540265,0.91682595,-0.34781888,-0.034766942,0.04454961,0.21036118,0.1350009,-0.1110985,1.4618016,-0.50226337
-0.1,-0.2,1.2999999999999998,0.5235987755982988,-0.5235987755982988,0,-0.28912523,-0.19837877,1.2498916,0.5300454,0.4440838,0.91866726,-0.37655777,-0.029313039,0.048294883,0.15627427,0.26099694,-0.5376562,1.4210174,-0.9382708
-0.1,-0.2,1.2999999999999998,0.5235987755982988,-0.5235987755982988,0,-0.29228315,-0.19918539,1.2478124,0.5285006,0.4612928,0.9173777,-0.38899928,-0.032138515,0.045244846,0.12234327,0.13905089,-0.78550476,1.4978456,0.18116987
-0.1,-0.2,1.2999999999999998,0.5235987755982988,-0.5235987755982988,0,-0.28639144,-0.20571162,1.2466428,0.53170615,0.44725752,0.9171293,-0.30719522,-0.036109205,0.04779591,0.091147915,0.18785498,-0.7739328,1.3626039,-0.8938612
-0.1,-0.2,1.2999999999999998,0.5235987755982988,-0.5235987755982988,0,-0.28889287,-0.19833784,1.250499,0.5258699,0.4471691,0.91673255,-0.38765216,-0.036810473,0.045496594,0.08057236,0.13329408,-0.7037009,1.4117754,-2.140744
-0.1,-0.2,1.2999999999999998,0.5235987755982988,-0.5235987755982988,0,-0.29078448,-0.18016578,1.2500075,0.5279325,0.45459107,0.92215145,-0.3572898,-0.03816572,0.04792984,0.12287197,0.115308106,-0.7267019,1.3164903,0.39211148
-0.1,-0.2,1.2999999999999998,0.5235987755982988,-0.5235987755982988,0,-0.28704724,-0.18929362,1.2454711,0.5265679,0.4432113,0.91984683,-0.46207252,-0.033150107,0.046424434,0.0733365,0.164605,-0.12966834,1.3266189,-1.8488125
-0.1,-0.2,1.2999999999999998,0.5235987755982988,-0.5235987755982988,0,-0.28611797,-0.19898517,1.2491062,0.52926,0.45473304,0.92081434,-0.45062518,-0.033512183,0.046151787,0.0920713,0.13003857,-0.17731203,1.314995,-0.55498874
-0.1,-0.2,1.2999999999999998,0.5235987755982988,-0.5235987755982988,0,-0.28309,-0.20416883,1.2471542,0.5300025,0.44466156,0.92026955,-0.39975736,-0.03191288,0.048223518,0.07663825,0.22305222,-0.7821866,1.3260795,-1.0785645
-0.1,-0.2,1.2999999999999998,0.5235987755982988,-0.5235987755982988,0,-0.2892428,-0.19830365,1.2470255,0.5249788,0.4521505,0.92245775,-0.40095887,-0.030949416,0.04608093,0.21994357,0.13822503,-0.5945416,1.4673626,-1.0269742
-0.1,-0.2,1.2999999999999998,0.5235987755982988,-0.5235987755982988,0,-0.29077676,-0.20299158,1.2452787,0.5273526,0.4450605,0.91716653,-0.36419338,-0.030873794,0.046418592,0.07794384,0.14070529,-0.35336778,1.338925,-1.1864679
-0.1,-0.2,1.2999999999999998,0.5235987755982988,-0.5235987755982988,0,-0.28884852,-0.22266518,1.2478447,0.53122354,0.458969,0.91926193,-0.39858487,-0.033772107,0.046818666,0.12112554,0.18793212,-0.97594666,1.3639107,0.21471561
-0.1,-0.2,1.2999999999999998,0.5235987755982988,-0.5235987755982988,0,-0.28557163,-0.1985985,1.2503256,0.5293689,0.45102105,0.92345595,-0.42693198,-0.032237295,0.04730064,0.16956398,0.22721505,-0.688608,1.4684918,-1.6174189
-0.1,-0.2,1.2999999999999998,0.5235987755982988,-0.5235987755982988,0,-0.290663,-0.19931585,1.2496946,0.5252851,0.44740355,0.9196453,-0.39880353,-0.030569797,0.04799322,0.123978116,0.1922345,-0.71597046,1.4022366,-0.91411966
-0.1,-0.2,1.2999999999999998,0.5235987755982988,-0.5235987755982988,0,-0.2883917,-0.19681539,1.2484392,0.53028315,0.46143338,0.9254227,-0.34005007,-0.037765697,0.044767067,0.14186977,0.18555033,-0.6262374,1.3637516,0.032676272
-0.1,-0.2,1.2999999999999998,0.5235987755982988,-0.5235987755982988,0,-0.28517035,-0.20802528,1.2494049,0.52822036,0.44472024,0.9185889,-0.3689139,-0.026609935,0.04555363,0.12349393,0.1147534,-0.8856167,1.4299498,-0.60845
-0.1,-0.2,1.2999999999999998,0.5235987755982988,-0.5235987755982988,0,-0.2914058,-0.19461976,1.2513797,0.52780473,0.44114605,0.9177917,-0.36813986,-0.03627641,0.04703916,0.11792754,0.14011504,-0.7534802,1.318543,-0.36164582
-0.1,-0.2,1.2999999999999998,0.5235987755982988,-0.5235987755982988,0,-0.2925242,-0.19232103,1.2486311,0.5302851,0.43853652,0.92560095,-0.43012404,-0.033761717,0.04717433,0.14873953,0.19966401,-1.0661274,1.3725978,-0.99094707
-0.1,-0.2,1.2999999999999998,0.5235987755982988,-0.5235987755982988,0,-0.29108566,-0.19504759,1.2464826,0.5261117,0.4524811,0.920613,-0.45637915,-0.032245025,0.046586614,0.082458995,0.1524852,-1.0538604,1.4104738,-0.45167044
-0.1,-0.2,1.2999999999999998,0.5235987755982988,-0.5235987755982988,0,-0.2887605,-0.19325718,1.2495354,0.5307985,0.4540035,0.9209025,-0.2913417,-0.03530327,0.04791192,0.14110208,0.06728771,-0.5280182,1.3546842,-1.7128266
-0.1,-0.2,1.2999999999999998,0.5235987755982988,-0.5235987755982988,0,-0.28805855,-0.20424698,1.2486533,0.52717245,0.43436822,0.9229611,-0.464935,-0.032861743,0.04801604,0.07617965,0.19992967,-0.48903462,1.3284382,-1.1403414
-0.1,-0.2,1.2999999999999998,0.5235987755982988,-0.5235987755982988,0,-0.28485876,-0.210119,1.2469009,0.5292684,0.45363697,0.921052,-0.40280342,-0.032757364,0.047566622,0.05853579,0.123220205,-0.6722881,1.3677478,-1.8102684
-0.1,-0.2,1.2999999999999998,0.5235987755982988,-0.5235987755982988,0,-0.2853993,-0.2054019,1.2497202,0.5319048,0.44050646,0.92196023,-0.3954729,-0.032781407,0.04869094,0.08022142,0.16323128,-1.0255927,1.3914069,1.1544946
-0.1,-0.2,1.2999999999999998,0.5235987755982988,-0.5235987755982988,0,-0.28977516,-0.20482628,1.249057,0.52810436,0.4476814,0.913187,-0.4506783,-0.037495174,0.047316182,0.15376863,0.15445332,-0.8362148,1.4658954,-1.0329473
-0.1,-0.2,1.2999999999999998,0.5235987755982988,-0.5235987755982988,0,-0.2877478,-0.20053932,1.2497002,0.5305433,0.45121568,0.92211163,-0.42896417,-0.029873563,0.04432834,0.12064979,0.14733358,-0.29579207,1.3169984,0.06789572
-0.1,-0.2,1.2999999999999998,0.5235987755982988,-0.5235987755982988,0,-0.2899733,-0.20898831,1.2501401,0.52664256,0.44859743,0.9216608,-0.349287,-0.034511793,0.046157528,0.13443889,0.06409084,-0.58708555,1.3518437,-0.54663134
-0.1,-0.2,1.2999999999999998,0.5235987755982988,-0.5235987755982988,0,-0.2902684,-0.2163652,1.248062,0.52664346,0.44667694,0.9166861,-0.45652893,-0.036469486,0.046154123,0.14470592,0.14214993,-0.7022479,1.4593172,-1.2069975
-0.1,-0.2,1.2999999999999998,0.5235987755982988,-0.5235987755982988,0,-0.2901219,-0.21146072,1.2478911,0.52559423,0.44786453,0.9218008,-0.42416182,-0.03208436,0.046977118,0.20603745,0.20325702,-0.2486664,1.2947288,-0.3304237
-0.1,-0.2,1.2999999999999998,0.5235987755982988,-0.5235987755982988,0,-0.29392007,-0.20092405,1.2484624,0.5296703,0.4551462,0.9181194,-0.33044115,-0.03632319,0.046574313,0.14630453,0.15953964,-0.49965918,1.401097,-0.9477413
-0.1,-0.2,1.2999999999999998,0.5235987755982988,-0.5235987755982988,0,-0.29051048,-0.19590667,1.2478716,0.52679926,0.45165467,0.91853684,-0.49972093,-0.033124797,0.04342341,0.11262295,0.12962623,-0.4985694,1.3860017,-0.6859908
-0.1,-0.2,1.2999999999999998,0.5235987755982988,-0.5235987755982988,0,-0.2897298,-0.20083718,1.2488439,0.5240215,0.45131713,0.9188633,-0.36243233,-0.032064945,0.04790821,0.17591834,0.11101962,-0.7788227,1.4070148,-1.3631364
-0.1,-0.2,1.2999999999999998,0.5235987755982988,-0.5235987755982988,0,-0.29105005,-0.21427813,1.249661,0.52968246,0.44085443,0.9117582,-0.3893745,-0.033785127,0.04785988,0.15080498,0.14411542,-0.50489986,1.4025584,-1.5352279
-0.1,-0.2,1.2999999999999998,0.5235987755982988,-0.5235987755982988,0,-0.28698155,-0.1994044,1.2505463,0.5302995,0.44891414,0.9220005,-0.38099453,-0.0357754,0.04718436,0.15405652,0.16096687,-0.9374326,1.4365996,-0.3617234
-0.1,-0.2,1.2999999999999998,0.5235987755982988,-0.5235987755982988,0,-0.28785583,-0.185947,1.2487127,0.52653277,0.44828016,0.9310818,-0.46352363,-0.04004144,0.046122957,0.12654208,0.19321577,0.044448685,1.3603083,-1.3210177
-0.1,-0.2,1.2999999999999998,0.5235987755982988,-0.5235987755982988,0,-0.2863914,-0.21281141,1.2495612,0.5304369,0.46072546,0.9159224,-0.39409214,-0.03537838,0.046738844,0.13141115,0.24662465,-0.9871543,1.3774818,-0.88902855
-0.1,-0.2,1.2999999999999998,0.5235987755982988,-0.5235987755982988,0,-0.29036593,-0.18444742,1.2481024,0.52434474,0.45154375,0.9209436,-0.36413944,-0.035002466,0.046867367,0.07488054,0.14956757,-0.61788,1.3275826,-1.4627931
-0.1,-0.2,1.2999999999999998,0.5235987755982988,-0.5235987755982988,0,-0.2884043,-0.20252495,1.2515608,0.5283372,0.44950205,0.92042774,-0.32999742,-0.034223054,0.046559624,0.11501834,0.1567096,-0.8753456,1.2642435,-0.0012429084
-0.1,-0.2,1.2999999999999998,0.5235987755982988,-0.5235987755982988,0,-0.29126573,-0.20754075,1.2473538,0.5299752,0.43504366,0.9221282,-0.38994876,-0.033897273,0.047694713,0.13670549,0.1090212,-0.610102,1.4928952,-1.1260084
-0.1,-0.2,1.2999999999999998,0.5235987755982988,-0.5235987755982988,0,-0.28825805,-0.19118232,1.2486206,0.52919817,0.4458382,0.9161515,-0.3972508,-0.034167502,0.045322847,0.13517292,0.15184724,-0.59262985,1.4182312,-1.3716582
-0.1,-0.2,1.2999999999999998,0.5235987755982988,-0.5235987755982988,0,-0.2850671,-0.19365732,1.2498299,0.52656937,0.44704065,0.9163961,-0.38302788,-0.03790403,0.04364464,0.10825535,0.15265702,-0.7563161,1.3353937,0.90282285
-0.1,-0.2,1.2999999999999998,0.5235987755982988,-0.5235987755982988,0,-0.29022273,-0.20463595,1.2468499,0.5308008,0.44083208,0.9183237,-0.342452,-0.031233393,0.044965956,0.083065934,0.17327006,-0.72139674,1.4523741,0.19091259
-0.1,-0.2,1.2999999999999998,0.5235987755982988,-0.5235987755982988,0,-0.28899,-0.21405064,1.2501023,0.5295164,0.44740456,0.9238666,-0.42879114,-0.03387964,0.04423091,0.13862585,0.14369483,-0.45783147,1.3428737,-1.6117041
-0.1,-0.2,1.2999999999999998,0.5235987755982988,-0.5235987755982988,0,-0.28953397,-0.19807346,1.2491264,0.5281714,0.45799828,0.91068304,-0.3319339,-0.034245685,0.04784774,0.12529482,0.07803957,-0.7482487,1.3097332,-0.22975603
-0.1,-0.2,1.2999999999999998,0.5235987755982988,-0.5235987755982988,0,-0.29051954,-0.20864373,1.24644,0.52958804,0.44067684,0.9150518,-0.38170344,-0.03302633,0.044553608,0.10694301,0.13590518,-0.70631164,1.3350197,-0.57350534
-0.1,-0.2,1.2999999999999998,0.5235987755982988,-0.5235987755982988,0,-0.28784004,-0.22482865,1.2463646,0.5240253,0.448028,0.9163259,-0.36958888,-0.03632414,0.04698912,0.08805341,0.10286619,-0.39707044,1.4402397,-1.0067433
-0.1,-0.2,1.2999999999999998,0.5235987755982988,-0.5235987755982988,0,-0.2921097,-0.20023355,1.2479765,0.5270897,0.44200593,0.92180854,-0.3987653,-0.03292894,0.04708208,0.043943368,0.28301883,-0.71135515,1.3463546,-1.3182662
-0.1,-0.2,1.2999999999999998,0.5235987755982988,-0.5235987755982988,0,-0.29144338,-0.20619877,1.2486782,0.5287883,0.4425323,0.9193157,-0.36369383,-0.035786312,0.04744962,0.121573344,0.18762778,-0.38472906,1.325834,-0.9879841
-0.1,-0.2,1.2999999999999998,0.5235987755982988,-0.5235987755982988,0,-0.2924876,-0.19755286,1.2504138,0.52679235,0.45030087,0.9207811,-0.37734538,-0.03101318,0.048154183,0.14537045,0.22624676,-0.48932317,1.360657,-0.38283148
-0.1,-0.2,1.2999999999999998,0.5235987755982988,-0.5235987755982988,0,-0.2922608,-0.20981535,1.2492156,0.528405,0.4507197,0.9163015,-0.41999274,-0.037886932,0.046897586,0.20129305,0.208535,-0.2783602,1.5300398,0.024151323
-0.1,-0.2,1.2999999999999998,0.5235987755982988,-0.5235987755982988,0,-0.2889085,-0.20474163,1.2484239,0.5293827,0.44141278,0.91521823,-0.4047968,-0.03282695,0.045506533,0.22312006,0.1762109,-0.21903525,1.3542665,-0.71051645
-0.1,-0.2,1.2999999999999998,0.5235987755982988,-0.5235987755982988,0,-0.2887293,-0.19732188,1.2468436,0.5290206,0.44126302,0.92276305,-0.4666867,-0.03216029,0.04647314,0.075873666,0.25180173,-0.50745654,1.5316402,-1.7832516
-0.1,-0.2,1.2999999999999998,0.5235987755982988,-0.5235987755982988,0,-0.29165408,-0.20665808,1.2498616,0.52682537,0.45429292,0.91484225,-0.42921975,-0.035531174,0.045063823,0.1268973,0.30366874,-0.6975049,1.2509716,-0.059954815
-0.1,-0.2,1.2999999999999998,0.5235987755982988,-0.5235987755982988,0,-0.29081592,-0.20030373,1.2483417,0.5282305,0.447921,0.91868806,-0.46548733,-0.03451253,0.0458176,0.045753032,0.2642041,-0.27851936,1.4037162,-1.2074997
-0.1,-0.2,1.2999999999999998,0.5235987755982988,-0.5235987755982988,0,-0.29055306,-0.1964761,1.2483164,0.52737844,0.4542038,0.9194789,-0.48042706,-0.03003692,0.045847975,0.1303371,0.07972067,-0.5223396,1.3563132,-2.3580716
-0.1,-0.2,1.2999999999999998,0.5235987755982988,-0.5235987755982988,0,-0.2885134,-0.18943445,1.2486324,0.53187317,0.44753945,0.9195291,-0.31693223,-0.034156863,0.04567005,0.13261512,0.16356,-0.85623074,1.389394,0.2982506
-0.1,-0.2,1.2999999999999998,0.5235987755982988,-0.5235987755982988,0,-0.28897583,-0.21565647,1.2482208,0.5297428,0.44833463,0.9145176,-0.38802117,-0.03655977,0.048887447,0.14648287,0.13641208,-1.0196638,1.498899,-1.2367504
-0.1,-0.2,1.2999999999999998,0.5235987755982988,-0.5235987755982988,0,-0.29114977,-0.20139416,1.247487,0.5267528,0.4478547,0.92357725,-0.37366512,-0.033600893,0.046753604,0.10195234,0.22929266,-1.0554267,1.4829043,-0.9035895
-0.1,-0.2,1.2999999999999998,0.5235987755982988,-0.5235987755982988,0,-0.28552002,-0.20947397,1.2486526,0.5300318,0.44531333,0.92111576,-0.38413343,-0.030512715,0.04509492,0.11727776,0.21331732,-0.8743886,1.3378798,-0.8367043
-0.1,-0.2,1.2999999999999998,0.5235987755982988,-0.5235987755982988,0,-0.28671744,-0.19764148,1.2482045,0.5276001,0.44907975,0.924626,-0.41621152,-0.029913235,0.04698227,0.09949617,0.15727231,-0.63209176,1.4425484,-0.36130163
-0.1,-0.2,1.2999999999999998,0.5235987755982988,-0.5235987755982988,0,-0.28774774,-0.21662165,1.2475778,0.5283548,0.44085813,0.92096823,-0.41023383,-0.03381257,0.047526836,0.14733982,0.17552797,-0.27003133,1.3100059,-0.89024985
-0.1,-0.2,1.2999999999999998,0.5235987755982988,-0.5235987755982988,0,-0.2888107,-0.21123044,1.2484837,0.5309785,0.4491498,0.91814965,-0.4573884,-0.033650823,0.044783525,0.1480848,0.12442762,0.12943913,1.4989005,-0.2649046
-0.1,-0.2,1.2999999999999998,0.5235987755982988,-0.5235987755982988,0,-0.2871585,-0.20588775,1.2503483,0.52962947,0.455055,0.9232199,-0.38974944,-0.031836282,0.04746709,0.13810252,0.0636677,-0.75146544,1.4450624,-0.6389543
-0.1,-0.2,1.2999999999999998,0.5235987755982988,-0.5235987755982988,0,-0.2915045,-0.1885182,1.2492057,0.5272476,0.44271314,0.92289555,-0.34852225,-0.034089115,0.045331925,0.0637527,0.10524687,-0.84573996,1.4016188,-0.31664562
-0.1,-0.2,1.2999999999999998,0.5235987755982988,-0.5235987755982988,0,-0.2897231,-0.20020592,1.2492701,0.52329355,0.4439178,0.9174378,-0.3153782,-0.03439781,0.045041,0.053034447,0.16127282,-0.73505807,1.4758384,-0.5741686
-0.1,-0.2,1.2999999999999998,0.5235987755982988,-0.5235987755982988,0,-0.29182556,-0.20814674,1.2468184,0.52889204,0.44245228,0.92430556,-0.42232263,-0.031339094,0.046202123,0.15671726,0.26455635,-1.1718209,1.2694045,-1.4545248
-0.1,-0.2,1.2999999999999998,0.5235987755982988,-0.5235987755982988,0,-0.28920025,-0.19982709,1.2486699,0.52730256,0.4385595,0.9209423,-0.22071913,-0.035467338,0.047355086,0.20432062,0.1856862,-1.0569819,1.4192466,-0.40054032
-0.1,-0.2,1.2999999999999998,0.5235987755982988,-0.5235987755982988,0,-0.28721836,-0.21787849,1.2489766,0.5289232,0.44785407,0.9241938,-0.35512283,-0.03687895,0.045174334,0.108666636,0.16257496,-0.93702424,1.4177766,-0.47690496
-0.1,-0.2,1.2999999999999998,0.5235987755982988,-0.5235987755982988,0,-0.287146,-0.1895909,1.2485322,0.5267288,0.44323877,0.92192316,-0.4191785,-0.036393218,0.04767435,0.10449803,0.164772,-0.61909246,1.3293589,0.26916632
-0.1,-0.2,1.2999999999999998,0.5235987755982988,-0.5235987755982988,0,-0.2891728,-0.2016268,1.2474246,0.52749175,0.45164695,0.9159837,-0.34279403,-0.036893893,0.046530843,0.13632576,0.24014282,-1.272779,1.3115107,-1.6075171
-0.1,-0.2,1.2999999999999998,0.5235987755982988,-0.5235987755982988,0,-0.2898696,-0.20034653,1.24763,0.5319242,0.45664576,0.92230725,-0.3347077,-0.025454987,0.04522512,0.07865913,0.21862775,-0.7617559,1.3907121,-0.6163531
-0.1,-0.2,1.2999999999999998,0.5235987755982988,-0.5235987755982988,0,-0.2836926,-0.21008609,1.247971,0.5288075,0.44141614,0.9160179,-0.43163043,-0.03210242,0.048398938,0.1102283,0.23387973,-0.8151504,1.4693844,-0.8996342
-0.1,-0.2,1.2999999999999998,0.5235987755982988,-0.5235987755982988,0,-0.28880733,-0.17955987,1.250494,0.53018796,0.44912887,0.9221517,-0.3907699,-0.03719638,0.046769656,0.10242167,0.19685204,-0.6455402,1.5391659,-1.4172062
-0.1,-0.2,1.2999999999999998,0.5235987755982988,-0.5235987755982988,0,-0.28417543,-0.19207594,1.2508388,0.52687,0.44920754,0.9198079,-0.42959294,-0.03230667,0.04811837,0.104663156,0.21227844,-0.7258045,1.3862087,-2.0033863
-0.1,-0.2,1.2999999999999998,0.5235987755982988,-0.5235987755982988,0,-0.28671077,-0.185102,1.2492176,0.5283312,0.447801,0.9123151,-0.42619514,-0.036436062,0.04493677,0.18908562,0.19429307,-0.55888975,1.4219462,-1.284868
-0.1,-0.2,1.2999999999999998,0.5235987755982988,-0.5235987755982988,0,-0.28848794,-0.18907318,1.2470037,0.529941,0.460634,0.92990565,-0.35327914,-0.028469818,0.044742312,0.071091,0.26507872,-0.70601004,1.4395095,-0.24289098
-0.1,-0.2,1.2999999999999998,0.5235987755982988,-0.5235987755982988,0,-0.28870398,-0.19375852,1.2471718,0.52821434,0.44637433,0.91712224,-0.4092256,-0.030863361,0.046785504,0.17176856,0.18466452,-1.0457467,1.4098305,-1.5848178
-0.1,-0.2,1.2999999999999998,0.5235987755982988,-0.5235987755982988,0,-0.2912568,-0.20970055,1.2481008,0.5275453,0.4432356,0.917706,-0.47146347,-0.02818447,0.04519909,0.12685706,0.259856,-1.3251605,1.338877,1.238135
-0.1,-0.2,1.2999999999999998,0.5235987755982988,-0.5235987755982988,0,-0.2871397,-0.20714554,1.246579,0.5280467,0.44442046,0.9168298,-0.4613741,-0.040045794,0.048064765,0.17518699,0.13993277,-0.8388322,1.3062061,-0.33900157
-0.1,-0.2,1.2999999999999998,0.5235987755982988,-0.5235987755982988,0,-0.285775,-0.19973183,1.2490529,0.5246261,0.4503946,0.92015314,-0.38382074,-0.035656232,0.04310868,0.1213074,0.16962354,-0.5267232,1.3922901,-1.2629361
-0.1,-0.2,1.2999999999999998,0.5235987755982988,-0.5235987755982988,0,-0.28745815,-0.19769706,1.2487042,0.52533567,0.44261253,0.92231935,-0.34057316,-0.03232138,0.047255952,0.1083558,0.21014956,-1.1938738,1.2684206,-0.32929707
-0.1,-0.2,1.2999999999999998,0.5235987755982988,-0.5235987755982988,0,-0.28966632,-0.1858846,1.2493173,0.5248543,0.45195055,0.9245235,-0.429618,-0.034567464,0.046529874,0.17030418,0.20428218,-0.30390072,1.3414873,-1.5494875
-0.1,-0.2,1.2999999999999998,0.5235987755982988,-0.5235987755982988,0,-0.29036784,-0.19605617,1.2458186,0.5274984,0.4532198,0.9200831,-0.341492,-0.030180635,0.050036415,0.088990144,0.16936284,-0.32014188,1.4759394,-0.568204
-0.1,-0.2,1.2999999999999998,0.5235987755982988,-0.5235987755982988,0,-0.29212213,-0.19904491,1.249042,0.5285307,0.4434401,0.9210543,-0.35018614,-0.034348123,0.045737743,0.11069637,0.17257926,-0.70882833,1.3273875,-2.3076239
-0.1,-0.2,1.2999999999999998,0.5235987755982988,-0.5235987755982988,0,-0.2881918,-0.2045296,1.2488306,0.52415127,0.46149814,0.9185297,-0.3828603,-0.036741234,0.0452003,0.14630139,0.17794527,-1.0091507,1.4587355,-0.27576935
-0.1,-0.2,1.2999999999999998,0.5235987755982988,-0.5235987755982988,0,-0.2891247,-0.21372265,1.2479123,0.5286283,0.45220912,0.9210314,-0.45900705,-0.03396231,0.049021658,0.08437207,0.17855766,-0.4714186,1.3495581,-0.73605245
-0.1,-0.2,1.2999999999999998,0.5235987755982988,-0.5235987755982988,0,-0.2860759,-0.20641199,1.2485393,0.52886075,0.44284254,0.9156748,-0.37975216,-0.034603197,0.048908412,0.1461466,0.20147505,-0.7092181,1.3392944,-0.29139492
-0.1,-0.2,1.2999999999999998,0.5235987755982988,-0.5235987755982988,0,-0.2894542,-0.1918189,1.2503281,0.5264421,0.44444427,0.9173468,-0.41912308,-0.040236954,0.046396576,0.11372891,0.23469006,-0.9469908,1.3711814,0.49448836
-0.1,-0.2,1.2999999999999998,0.5235987755982988,-0.5235987755982988,0,-0.29061794,-0.18681663,1.250266,0.52415293,0.4513955,0.92146397,-0.4428216,-0.034381807,0.04616679,0.07846241,0.13120328,-0.6801287,1.3618066,-0.2791989
-0.1,-0.2,1.2999999999999998,0.5235987755982988,-0.5235987755982988,0,-0.29076794,-0.20336032,1.2501178,0.5307365,0.44914147,0.92064315,-0.36585903,-0.038432725,0.04808605,0.14835751,0.22209117,-0.16957703,1.4363458,-0.9587961
-0.1,-0.2,1.2999999999999998,0.5235987755982988,-0.5235987755982988,0,-0.28832206,-0.21057335,1.248558,0.5272867,0.44764295,0.92671967,-0.37534142,-0.028780974,0.0461206,0.1393642,0.3113945,-0.90151894,1.4362847,0.07797346
-0.1,-0.2,1.2999999999999998,0.5235987755982988,-0.5235987755982988,0,-0.2884612,-0.1922047,1.2478265,0.52909076,0.44875243,0.92043644,-0.41354752,-0.032865815,0.04768423,0.053462397,0.22808209,-0.4716523,1.3771791,-0.8804957
-0.1,-0.2,1.2999999999999998,0.5235987755982988,-0.5235987755982988,0,-0.2881711,-0.1999615,1.2468255,0.5244414,0.44955513,0.9227401,-0.40865213,-0.033449568,0.043741487,0.04150929,0.16707323,-0.25750357,1.3843668,-1.0210629
-0.1,-0.2,1.2999999999999998,0.5235987755982988,-0.5235987755982988,0,-0.28387934,-0.197901,1.2493923,0.530587,0.45170888,0.92087704,-0.34275725,-0.030640295,0.048265353,0.16079716,0.18229474,-0.5601978,1.4249994,0.8679263
-0.1,-0.2,1.2999999999999998,0.5235987755982988,-0.5235987755982988,0,-0.2835134,-0.20698701,1.2481257,0.5307862,0.4467198,0.9218469,-0.37774456,-0.035127092,0.045753967,0.06799426,0.11794388,-0.9980891,1.4598438,-0.48189723
-0.1,-0.2,1.2999999999999998,0.5235987755982988,-0.5235987755982988,0,-0.2861422,-0.20031853,1.2482414,0.5256177,0.44561583,0.9184096,-0.4395279,-0.033442393,0.047462277,0.18306972,0.20245795,-0.6838448,1.4975156,-1.0818908
-0.1,-0.2,1.2999999999999998,0.5235987755982988,-0.5235987755982988,0,-0.28896117,-0.20465934,1.2449803,0.5261379,0.4443907,0.9189246,-0.39069453,-0.0333071,0.049467623,0.12841192,0.13660817,-0.058017682,1.4301919,-0.72856504
-0.1,-0.2,1.2999999999999998,0.5235987755982988,-0.5235987755982988,0,-0.28530023,-0.21300985,1.2465065,0.5267803,0.43933856,0.91909736,-0.32408258,-0.033008747,0.04801796,0.1180013,0.12464852,-0.08591854,1.3756938,-0.10735661
-0.1,-0.2,1.2999999999999998,0.5235987755982988,-0.5235987755982988,0,-0.29015252,-0.19907913,1.2507166,0.52752405,0.4393696,0.9193955,-0.42363423,-0.034040976,0.048468206,0.21582697,0.1172964,-0.8729886,1.3430326,-0.2764116
-0.1,-0.2,1.2999999999999998,0.5235987755982988,-0.5235987755982988,0,-0.2890145,-0.21589038,1.2483281,0.5266064,0.43901893,0.91941047,-0.42909244,-0.0363174,0.046440877,0.1522929,0.22960536,-0.9287795,1.409374,-1.0279773
-0.1,-0.2,1.2999999999999998,0.5235987755982988,-0.5235987755982988,0,-0.28992215,-0.19639497,1.2493606,0.52857274,0.44724438,0.9163276,-0.43237048,-0.036063045,0.04516691,0.18288891,0.15541892,-0.28026322,1.2925259,-0.5962987
-0.1,-0.2,1.2999999999999998,0.5235987755982988,-0.5235987755982988,0,-0.28482816,-0.19641082,1.2502044,0.53256494,0.44321954,0.922285,-0.40690708,-0.03621184,0.046859168,0.09078115,0.22494091,-0.7634,1.3778067,-1.9383131
-0.1,-0.2,1.2999999999999998,0.5235987755982988,-0.5235987755982988,0,-0.29090372,-0.18940553,1.2494788,0.53083485,0.45173818,0.9149156,-0.35517734,-0.036887396,0.048133187,0.17238043,0.16353738,-0.30253854,1.2520925,-0.019569568
-0.1,-0.2,1.2999999999999998,0.5235987755982988,-0.5235987755982988,0,-0.2893732,-0.20809734,1.2487137,0.5271774,0.4389432,0.9187214,-0.37727594,-0.030456007,0.045605395,0.12526807,0.27511686,-0.59271795,1.3535883,-0.4355772
-0.1,-0.2,1.2999999999999998,0.5235987755982988,-0.5235987755982988,0,-0.28944927,-0.22548142,1.2506611,0.525493,0.44890186,0.9158227,-0.43894422,-0.032114726,0.047598116,0.15092169,0.25745133,-0.6984676,1.2443186,-1.0979959
-0.1,-0.2,1.2999999999999998,0.5235987755982988,-0.5235987755982988,0,-0.29061958,-0.22031417,1.2501755,0.5271933,0.44610757,0.9166843,-0.35986176,-0.033494156,0.049585685,0.078000315,0.23370309,-0.60901433,1.4172448,0.38213027
-0.1,-0.2,1.2999999999999998,0.5235987755982988,-0.5235987755982988,0,-0.2879825,-0.20607029,1.250622,0.5259877,0.4449043,0.9198638,-0.2941499,-0.03609009,0.046684593,0.10202467,0.12648809,-0.31600392,1.3391469,-0.85264385
-0.1,-0.2,1.2999999999999998,0.5235987755982988,-0.5235987755982988,0,-0.2874557,-0.19756551,1.2493342,0.5266033,0.45609936,0.91698015,-0.37471545,-0.03659599,0.04861958,0.11638904,0.16778386,-1.1131711,1.3766899,-0.68588305
-0.1,-0.2,1.2999999999999998,0.5235987755982988,-0.5235987755982988,0,-0.29006863,-0.21437411,1.2489165,0.52531123,0.45333788,0.9162279,-0.40904537,-0.030628217,0.046540346,0.12947793,0.033985417,-0.683262,1.4375606,-0.9052296
-0.1,-0.2,1.2999999999999998,0.5235987755982988,-0.5235987755982988,0,-0.28419182,-0.19763304,1.2487491,0.5319184,0.44377896,0.92719716,-0.40233788,-0.03108937,0.047258038,0.12702078,0.091510646,-0.5630987,1.4042954,-0.9949534
-0.1,-0.2,1.2999999999999998,0.5235987755982988,-0.5235987755982988,0,-0.29274812,-0.2083358,1.246955,0.5296084,0.45163518,0.92236626,-0.41895127,-0.03801001,0.045130197,0.11677392,0.17107934,-0.5618062,1.3702328,-0.34890723
-0.1,-0.2,1.2999999999999998,0.5235987755982988,-0.5235987755982988,0,-0.28828254,-0.2075489,1.2487614,0.5296635,0.45340872,0.91853946,-0.48172548,-0.031432297,0.045793395,0.119620934,0.26151296,-0.47105694,1.3396193,0.38587442
-0.1,-0.2,1.2999999999999998,0.5235987755982988,-0.5235987755982988,0,-0.28969043,-0.19298969,1.2498178,0.5290907,0.4407265,0.9208266,-0.32928488,-0.034402113,0.046447888,0.090489745,0.18699427,-0.84762216,1.3264467,-1.2496084
-0.1,-0.2,1.2999999999999998,0.5235987755982988,-0.5235987755982988,0,-0.28742367,-0.21242338,1.2469712,0.52765363,0.4415849,0.91672176,-0.4117086,-0.033729542,0.04676675,0.1618844,0.23157974,-0.4875255,1.3962001,-0.103503674
-0.1,-0.2,1.2999999999999998,0.5235987755982988,-0.5235987755982988,0,-0.29097816,-0.20661706,1.2490586,0.52689695,0.4466882,0.920005,-0.43749556,-0.032771558,0.04563341,0.08400538,0.27535394,-0.9500496,1.3965611,-0.104261376
-0.1,-0.2,1.2999999999999998,0.5235987755982988,-0.5235987755982988,0,-0.29214874,-0.1888539,1.2489185,0.52946806,0.4381092,0.92309815,-0.41375467,-0.032135032,0.04530232,0.065728806,0.21795794,-0.25944752,1.5174065,-0.81341314
-0.1,-0.2,1.2999999999999998,0.5235987755982988,-0.5235987755982988,0,-0.28481317,-0.19963405,1.2472904,0.5278377,0.4432483,0.9209033,-0.41668385,-0.030088518,0.047013078,0.15372102,0.099259734,-1.0441912,1.5116581,0.054779563
-0.1,-0.2,1.2999999999999998,0.5235987755982988,-0.5235987755982988,0,-0.28924364,-0.2078055,1.2463487,0.5317915,0.45441565,0.9143776,-0.43393776,-0.037193645,0.04783741,0.16359995,0.1559444,-0.485659,1.4263047,-0.9930477
-0.1,-0.2,1.2999999999999998,0.5235987755982988,-0.5235987755982988,0,-0.2899153,-0.20082909,1.2507349,0.526914,0.4462041,0.91591126,-0.33124292,-0.037522964,0.04655773,0.10185298,0.13944355,-0.92986363,1.3662931,-0.019602753
-0.1,-0.2,1.2999999999999998,0.5235987755982988,-0.5235987755982988,0,-0.29198575,-0.19900225,1.2496728,0.52986026,0.44730327,0.91751504,-0.3808904,-0.033597518,0.045498878,0.11041521,0.26471996,-0.16690403,1.3829079,-0.76469845
-0.1,-0.2,1.2999999999999998,0.5235987755982988,-0.5235987755982988,0,-0.29266658,-0.20857935,1.2476147,0.5286191,0.4490615,0.92023736,-0.39019787,-0.029088626,0.047400672,0.14917158,0.18357964,-1.0705614,1.3378798,-1.1740692
-0.1,-0.2,1.2999999999999998,0.5235987755982988,-0.5235987755982988,0,-0.28594247,-0.20637468,1.2495714,0.5248448,0.4402676,0.91934836,-0.3620972,-0.033939347,0.046006992,0.16878323,0.28412712,-0.71451217,1.315637,-0.56111914
-0.1,-0.2,1.2999999999999998,0.5235987755982988,-0.5235987755982988,0,-0.28929222,-0.225816,1.2468926,0.52717704,0.45134193,0.920455,-0.4112023,-0.035054628,0.0484231,0.15592057,0.07642893,-0.5713496,1.4122311,-1.4697348
-0.1,-0.2,1.2999999999999998,0.5235987755982988,-0.5235987755982988,0,-0.28872383,-0.2258322,1.2480059,0.52694684,0.44075677,0.9153338,-0.37051618,-0.03224699,0.045206502,0.23064493,0.1600636,-0.104651056,1.4628565,-1.1575361
-0.1,-0.2,1.2999999999999998,0.5235987755982988,-0.5235987755982988,0,-0.2900245,-0.20102799,1.2480571,0.52981055,0.4541052,0.9211557,-0.3643248,-0.03409356,0.045027927,0.13179058,0.013386733,-0.16020498,1.3788449,0.24488045
-0.1,-0.2,1.2999999999999998,0.5235987755982988,-0.5235987755982988,0,-0.29013914,-0.18641287,1.2491225,0.5285804,0.44627723,0.9206617,-0.3579893,-0.034870874,0.047235675,0.17780939,0.24798237,-0.61363953,1.3285767,-0.74531215
-0.1,-0.2,1.2999999999999998,0.5235987755982988,-0.5235987755982988,0,-0.28876647,-0.19603515,1.2495629,0.5254047,0.44836178,0.92013246,-0.4075895,-0.033980064,0.04817462,0.11502994,0.11410533,-1.1282328,1.3723274,-0.12822296
-0.1,-0.2,1.2999999999999998,0.5235987755982988,-0.5235987755982988,0,-0.2906809,-0.18493241,1.2501093,0.52889746,0.44334006,0.92221695,-0.43961847,-0.031269334,0.04718715,0.09464797,0.17982449,-1.2273283,1.4829535,-1.3007565
-0.1,-0.2,1.2999999999999998,0.5235987755982988,-0.5235987755982988,0,-0.28968742,-0.19520216,1.2474331,0.5310052,0.44214353,0.9188902,-0.3518803,-0.03330781,0.045872647,0.11399654,0.24450208,-0.65008235,1.5609894,0.95392305
-0.1,-0.2,1.2999999999999998,0.5235987755982988,-0.5235987755982988,0,-0.28600454,-0.21415578,1.2465142,0.52769417,0.4461828,0.9201461,-0.44983333,-0.035617016,0.047243014,0.18458986,0.10969757,-0.45927295,1.4105147,-0.88997966
-0.1,-0.2,1.2999999999999998,0.5235987755982988,-0.5235987755982988,0,-0.2886858,-0.19903849,1.2490166,0.52530897,0.43821892,0.92279375,-0.3923863,-0.033296105,0.04457286,0.16433811,0.16662526,-0.25653264,1.3016092,-0.29149196
-0.1,-0.2,1.2999999999999998,0.5235987755982988,-0.5235987755982988,0,-0.2863626,-0.22967061,1.2496458,0.5303957,0.45727098,0.9192195,-0.38051876,-0.033766747,0.044023577,0.13154972,0.08073642,-0.1270458,1.392976,-1.1523744
-0.1,-0.2,1.2999999999999998,0.5235987755982988,-0.5235987755982988,0,-0.2871938,-0.1980137,1.2486355,0.5260744,0.4511584,0.91761017,-0.33854368,-0.036686826,0.04784145,0.12362892,0.09590623,-0.7883778,1.3866115,-0.5041439
-0.1,-0.2,1.2999999999999998,0.5235987755982988,-0.5235987755982988,0,-0.2895954,-0.21519053,1.247307,0.5287655,0.45235834,0.9161866,-0.41819167,-0.038185883,0.044660874,0.13527715,0.15610273,-0.82052314,1.3695077,-1.5641519
-0.1,-0.2,1.2999999999999998,0.5235987755982988,-0.5235987755982988,0,-0.28820053,-0.19044952,1.2501539,0.532962,0.4275837,0.9156375,-0.41657925,-0.03650441,0.04483534,0.24573237,0.16487622,-0.46935943,1.3280171,-0.33465397
-0.1,-0.2,1.2999999999999998,0.5235987755982988,-0.5235987755982988,0,-0.29031357,-0.1833282,1.2488364,0.52927995,0.46099365,0.9210815,-0.3832054,-0.035413146,0.046486843,0.122030444,0.13010253,-0.44467753,1.3274246,-2.6858532
-0.1,-0.2,1.2999999999999998,0.5235987755982988,-0.5235987755982988,0,-0.28875569,-0.19649464,1.2494245,0.52455014,0.44347763,0.9206438,-0.33083683,-0.03352123,0.04802575,0.16190821,0.19952577,-0.87707675,1.323206,-1.174894
-0.1,-0.2,1.2999999999999998,0.5235987755982988,-0.5235987755982988,0,-0.29168946,-0.20854917,1.2491245,0.52552146,0.43854338,0.9252947,-0.38538933,-0.032604724,0.04663127,0.10272653,0.29666314,-0.5961874,1.3660761,-0.68922836
-0.1,-0.2,1.2999999999999998,0.5235987755982988,-0.5235987755982988,0,-0.29039624,-0.20744793,1.2476962,0.5263087,0.45478138,0.91709894,-0.40072703,-0.032509305,0.046229325,0.07142536,0.27743894,-0.86348194,1.4929669,-0.6007631
-0.1,-0.2,1.2999999999999998,0.5235987755982988,-0.5235987755982988,0,-0.28904253,-0.20575811,1.2484854,0.5304956,0.44294253,0.917469,-0.42566794,-0.032926593,0.04746491,0.09272728,0.26810333,-0.74973166,1.4367208,-0.60306895
-0.1,-0.2,1.2999999999999998,0.5235987755982988,-0.5235987755982988,0,-0.29021508,-0.20323993,1.2487804,0.5279762,0.4657997,0.91535395,-0.39120242,-0.033772204,0.048811868,0.08744895,0.18952021,-0.85285777,1.4068042,-0.1270083
-0.1,-0.2,1.2999999999999998,0.5235987755982988,-0.5235987755982988,0,-0.2894491,-0.2010731,1.2487823,0.52887166,0.44901124,0.92375666,-0.41774446,-0.033495404,0.04612307,0.09152461,0.22530101,-0.59410846,1.40862,-0.57758445
-0.1,-0.2,1.2999999999999998,0.5235987755982988,-0.5235987755982988,0,-0.2895605,-0.20443334,1.2497028,0.5284157,0.43973428,0.9199736,-0.44248217,-0.032227706,0.044258535,0.09501911,0.13450831,-0.69810635,1.3924391,-0.771784
-0.1,-0.2,1.2999999999999998,0.5235987755982988,-0.5235987755982988,0,-0.29016295,-0.20288284,1.2489537,0.5271836,0.45306832,0.924091,-0.39892086,-0.03660429,0.044250324,0.11141637,0.12715043,-0.5781319,1.4021914,-1.4499832
-0.1,-0.2,1.2999999999999998,0.5235987755982988,-0.5235987755982988,0,-0.28826442,-0.21721533,1.2470647,0.52910924,0.44326442,0.9211824,-0.44441536,-0.029139962,0.04599147,0.12983707,0.2415616,-0.5464532,1.385164,-0.67584985
-0.1,-0.2,1.2999999999999998,0.5235987755982988,-0.5235987755982988,0,-0.28882998,-0.19883828,1.246409,0.52847874,0.4517041,0.92067474,-0.39116168,-0.038529288,0.047427434,0.031508286,0.20719641,-1.0037719,1.3175945,-0.566146
-0.1,-0.2,1.2999999999999998,0.5235987755982988,-0.5235987755982988,0,-0.28701115,-0.20240249,1.2479758,0.52533126,0.4540679,0.920766,-0.47803888,-0.03746044,0.045703135,0.1711428,0.07379528,-0.19900015,1.4003382,-0.14921203
-0.1,-0.2,1.2999999999999998,0.5235987755982988,-0.5235987755982988,0,-0.28867084,-0.2073682,1.246041,0.5266224,0.4511601,0.9251878,-0.48732236,-0.03587858,0.04747135,0.07889116,0.18943976,0.03454798,1.4801975,-1.390412
-0.1,-0.2,1.2999999999999998,0.5235987755982988,-0.5235987755982988,0,-0.28780943,-0.21341042,1.24625,0.53043467,0.44442374,0.9196247,-0.3652993,-0.040321436,0.04740623,0.12555815,0.09623475,-0.58620495,1.3781966,-1.3871564
-0.1,-0.2,1.2999999999999998,0.5235987755982988,-0.5235987755982988,0,-0.2893417,-0.19802299,1.2495009,0.5273332,0.44321924,0.920549,-0.42244774,-0.031418443,0.04479279,0.10022326,0.14823888,-0.90261376,1.4166662,-1.1162565
-0.1,-0.2,1.2999999999999998,0.5235987755982988,-0.5235987755982988,0,-0.29007098,-0.19696172,1.2467439,0.53179085,0.45430577,0.9189242,-0.43539026,-0.033328243,0.047481593,0.26753685,0.18615617,-0.5206432,1.2722456,-0.37692365
-0.1,-0.2,1.2999999999999998,0.5235987755982988,-0.5235987755982988,0,-0.2894709,-0.1892227,1.2476052,0.5285662,0.4394662,0.9203471,-0.32308608,-0.03619322,0.050255228,0.1811332,0.15435359,-0.6337486,1.3328277,0.50930446
-0.1,-0.2,1.2999999999999998,0.5235987755982988,-0.5235987755982988,0,-0.29122227,-0.21018775,1.2469904,0.5283125,0.43667606,0.92442507,-0.37743545,-0.03431606,0.045155257,0.08392256,0.21124905,-0.8203425,1.3829453,-0.79055095
-0.1,-0.2,1.2999999999999998,0.5235987755982988,-0.5235987755982988,0,-0.28816548,-0.18894352,1.2490177,0.5300524,0.44702446,0.9147395,-0.36494854,-0.03488698,0.04624001,0.1516653,0.17326131,-0.7100745,1.4029461,-0.9867246
-0.1,-0.2,1.2999999999999998,0.5235987755982988,-0.5235987755982988,0,-0.28958926,-0.20552583,1.2493292,0.52973086,0.44102827,0.91626906,-0.43537214,-0.031545475,0.045707494,0.1233731,0.24478582,-0.5814306,1.426422,-0.7776953
-0.1,-0.2,1.2999999999999998,0.5235987755982988,-0.5235987755982988,0,-0.2863794,-0.20225507,1.2476981,0.5268821,0.4384936,0.9168203,-0.45601848,-0.035368044,0.044991378,0.08435676,0.12243336,-1.1411564,1.3445532,-0.12615316
-0.1,-0.2,1.2999999999999998,0.5235987755982988,-0.5235987755982988,0,-0.28971276,-0.20288886,1.2469943,0.5271133,0.4499388,0.9239652,-0.43889028,-0.038523085,0.046701793,0.14537914,0.15447198,-0.8907792,1.4543412,-0.080872625
-0.1,-0.2,1.2999999999999998,0.5235987755982988,-0.5235987755982988,0,-0.2897611,-0.19232664,1.2470834,0.5281549,0.45136964,0.9270822,-0.46299818,-0.029907957,0.046640728,0.15450682,0.29512414,-0.6917066,1.3435886,0.21643087
-0.1,-0.2,1.2999999999999998,0.5235987755982988,-0.5235987755982988,0,-0.28849274,-0.1998926,1.2478552,0.52752453,0.44737017,0.92751205,-0.3134867,-0.034406602,0.044968612,0.12568872,0.14738235,-0.5121927,1.41841,-0.9385349
-0.1,-0.2,1.2999999999999998,0.5235987755982988,-0.5235987755982988,0,-0.28631422,-0.20953113,1.2492713,0.5260179,0.44210577,0.92302865,-0.37659255,-0.035383537,0.048647176,0.10792707,0.18587817,-1.1109226,1.269779,-0.395498
-0.1,-0.2,1.2999999999999998,0.5235987755982988,-0.5235987755982988,0,-0.28930366,-0.2056695,1.249187,0.5326144,0.43935004,0.91504383,-0.35743237,-0.032304328,0.0468628,0.13236003,0.21898997,-0.2483961,1.3239527,-1.3725381
-0.1,-0.2,1.2999999999999998,0.5235987755982988,-0.5235987755982988,0,-0.28706,-0.18173562,1.2473549,0.5282796,0.44454956,0.92053014,-0.36899415,-0.030395832,0.047582574,0.15027581,0.19695264,-0.72175485,1.3170813,1.3914844
-0.1,-0.2,1.2999999999999998,0.5235987755982988,-0.5235987755982988,0,-0.28729454,-0.21291764,1.2487463,0.52309066,0.4523171,0.918202,-0.40636346,-0.028144747,0.04610545,0.18302478,0.250873,-0.4285089,1.3422295,-0.892367
-0.1,-0.2,1.2999999999999998,0.5235987755982988,-0.5235987755982988,0,-0.2907231,-0.20787787,1.2490337,0.527559,0.4403625,0.9261485,-0.43971285,-0.03395225,0.045532282,0.14528044,0.2560725,-1.1285404,1.3948563,-0.9554618
-0.1,-0.2,1.2999999999999998,0.5235987755982988,-0.5235987755982988,0,-0.28542593,-0.19166784,1.2461857,0.52774745,0.44558212,0.9209504,-0.3179455,-0.033639546,0.045598086,0.10353875,0.18270181,-0.8523807,1.4581622,-0.59764177
-0.1,-0.2,1.2999999999999998,0.5235987755982988,-0.5235987755982988,0,-0.29000223,-0.19991173,1.2506173,0.52795154,0.45302674,0.9220492,-0.4292561,-0.03326563,0.047551576,0.09728228,0.11901269,-0.23884697,1.4079213,-1.6546258
-0.1,-0.2,1.2999999999999998,0.5235987755982988,-0.5235987755982988,0,-0.28743064,-0.21861067,1.2489967,0.5257002,0.44138113,0.91472405,-0.41896605,-0.03336422,0.048158795,0.11452101,0.17675084,-0.44155467,1.3110707,-0.5482041
-0.1,-0.2,1.2999999999999998,0.5235987755982988,-0.5235987755982988,0,-0.29078317,-0.1922987,1.2477852,0.5307899,0.45662114,0.9171641,-0.42687085,-0.033094622,0.043977957,0.097315185,0.23802458,-0.8002229,1.4278443,-1.0877986
-0.1,-0.2,1.2999999999999998,0.5235987755982988,-0.5235987755982988,0,-0.28911847,-0.1969272,1.2501577,0.532586,0.43575096,0.9163777,-0.49374,-0.03600899,0.04663435,0.11491047,0.20049521,-0.8712304,1.4059036,0.2694452
-0.1,-0.2,1.2999999999999998,0.5235987755982988,-0.5235987755982988,0,-0.28763995,-0.19747399,1.2487376,0.52334416,0.44732052,0.9257484,-0.44415802,-0.034409538,0.04785503,0.15181603,0.1129843,-0.7995849,1.345392,0.16426769
-0.1,-0.2,1.2999999999999998,0.5235987755982988,-0.5235987755982988,0,-0.28940699,-0.19792368,1.2471412,0.5282994,0.45189935,0.920841,-0.3961757,-0.03447442,0.046179697,0.14224167,0.25496122,-0.5006737,1.3978488,-1.0761232
-0.1,-0.2,1.2999999999999998,0.5235987755982988,-0.5235987755982988,0,-0.28990868,-0.19544227,1.2477595,0.52911466,0.43618116,0.92575574,-0.39039606,-0.032643568,0.047005475,0.11289885,0.17119588,-0.64000887,1.2878355,-0.91729915
-0.1,-0.2,1.2999999999999998,0.5235987755982988,-0.5235987755982988,0,-0.2922597,-0.208257,1.2489388,0.53166586,0.44486117,0.92293257,-0.5043521,-0.03683649,0.047155954,0.06727751,0.059157442,-0.5064883,1.491598,-0.30461824
-0.1,-0.2,1.2999999999999998,0.5235987755982988,-0.5235987755982988,0,-0.29173866,-0.19840233,1.2511803,0.5310532,0.44175735,0.9236253,-0.39357102,-0.033703104,0.044628784,0.12532389,0.19063075,-0.269351,1.3737881,-0.62056905
-0.1,-0.2,1.2999999999999998,0.5235987755982988,-0.5235987755982988,0,-0.28886503,-0.20290951,1.249064,0.5274167,0.43483737,0.9236916,-0.3659621,-0.035017557,0.045123085,0.13743316,0.16818063,-0.5365211,1.4647741,-0.5896597
-0.1,-0.2,1.2999999999999998,0.5235987755982988,-0.5235987755982988,0,-0.29061526,-0.21431531,1.2475282,0.52742356,0.44025698,0.92094004,-0.39049575,-0.03437138,0.049353037,0.15389372,0.20524275,-0.55956316,1.378608,-0.18937887
-0.1,-0.2,1.2999999999999998,0.5235987755982988,-0.5235987755982988,0,-0.28769052,-0.1992078,1.2474538,0.52754796,0.45968634,0.918119,-0.30419675,-0.036157332,0.046287864,0.12480648,0.19119263,-0.68146294,1.4206338,-0.5724028
-0.1,-0.2,1.2999999999999998,0.5235987755982988,-0.5235987755982988,0,-0.2873171,-0.20926872,1.2465129,0.52894366,0.44673255,0.9214466,-0.39484024,-0.036644258,0.0454016,0.13658933,0.20226704,-0.264198,1.395336,-0.6074607
-0.1,-0.2,1.2999999999999998,0.5235987755982988,-0.5235987755982988,0,-0.2934337,-0.20497796,1.2489244,0.53166646,0.44445527,0.92343074,-0.38035387,-0.037965003,0.047015257,0.11214822,0.18590353,-0.45279586,1.2793293,-0.121279806
-0.1,-0.2,1.2999999999999998,0.5235987755982988,-0.5235987755982988,0,-0.28603697,-0.19152021,1.2481542,0.5308545,0.44235247,0.91435206,-0.35387892,-0.035210837,0.046568517,0.08246511,0.29846507,-0.469535,1.444842,0.22721775
-0.1,-0.2,1.2999999999999998,0.5235987755982988,-0.5235987755982988,0,-0.2906536,-0.1925645,1.2497222,0.52839124,0.4522419,0.9239641,-0.45427513,-0.04138093,0.047750738,0.07789459,0.15207525,-0.77239895,1.3733704,-0.54888535
-0.1,-0.2,1.2999999999999998,0.5235987755982988,-0.5235987755982988,0,-0.28657842,-0.19184569,1.2511336,0.5297068,0.4404776,0.91347903,-0.4332734,-0.035476398,0.04651471,0.18251815,0.29053485,-0.8836734,1.43194,-0.31719163
-0.1,-0.2,1.2999999999999998,0.5235987755982988,-0.5235987755982988,0,-0.28717488,-0.19504297,1.2491325,0.5296898,0.4432538,0.91633606,-0.39698473,-0.03403002,0.045609612,0.08273521,0.15662706,-0.4117373,1.2869172,-1.3362639
-0.1,-0.2,1.2999999999999998,0.5235987755982988,-0.5235987755982988,0,-0.2876522,-0.20266862,1.2473952,0.52521473,0.44355,0.9238309,-0.41435984,-0.03485177,0.047653913,0.16890323,0.1519993,-0.55378675,1.3953546,-1.5751914
-0.1,-0.2,1.2999999999999998,0.5235987755982988,-0.5235987755982988,0,-0.28901464,-0.20267555,1.2470125,0.5288567,0.44513237,0.9230012,-0.36916387,-0.040397756,0.045820326,0.095115334,0.19792111,-0.38474354,1.4025893,-0.92811626
-0.1,-0.2,1.2999999999999998,0.5235987755982988,-0.5235987755982988,0,-0.28902918,-0.19462958,1.2490976,0.5307875,0.4382992,0.91955936,-0.3965532,-0.03641671,0.046103913,0.121679366,0.26730368,-0.24848145,1.4628077,0.55924654
-0.1,-0.2,1.2999999999999998,0.5235987755982988,-0.5235987755982988,0,-0.29072824,-0.20090911,1.2500837,0.526538,0.46092618,0.91802603,-0.33802328,-0.03330547,0.046770874,0.13823868,0.15376915,-0.35023347,1.3611877,-0.48626506
-0.1,-0.2,1.2999999999999998,0.5235987755982988,-0.5235987755982988,0,-0.291815,-0.20945139,1.2484088,0.53027695,0.446997,0.92081225,-0.44146913,-0.034357395,0.047168493,0.18011944,0.18427637,-0.51407963,1.2945672,-1.0953052
-0.1,-0.2,1.2999999999999998,0.5235987755982988,-0.5235987755982988,0,-0.29044417,-0.18183553,1.2474761,0.5317305,0.45115718,0.91844714,-0.41646448,-0.029270215,0.045971435,0.11172251,0.19429281,-0.11297177,1.4248309,-0.4697908
-0.1,-0.2,1.2999999999999998,0.5235987755982988,-0.5235987755982988,0,-0.2901284,-0.19311334,1.2522355,0.52841556,0.44789574,0.9184697,-0.43359306,-0.035797432,0.048057813,0.09177411,0.2168017,-0.5900548,1.3978201,-0.94576067
-0.1,-0.2,1.2999999999999998,0.5235987755982988,-0.5235987755982988,0,-0.2881092,-0.20941111,1.2473673,0.53148025,0.44047368,0.92053324,-0.33588022,-0.03504707,0.045630082,0.14045674,0.14394905,-0.17793874,1.4237201,-1.806771
-0.1,-0.2,1.2999999999999998,0.5235987755982988,-0.5235987755982988,0,-0.28947443,-0.21271186,1.249749,0.5266936,0.43592605,0.92268395,-0.48337346,-0.034648538,0.048369043,0.1490097,0.25219753,-0.3337213,1.3490233,-0.07360873
-0.1,-0.2,1.2999999999999998,0.5235987755982988,-0.5235987755982988,0,-0.2875628,-0.21073124,1.2484291,0.52532953,0.44749925,0.9218317,-0.4107995,-0.031746384,0.04615351,0.101231776,0.24394034,-0.30859968,1.4708121,-1.2326273
-0.1,-0.2,1.2999999999999998,0.5235987755982988,-0.5235987755982988,0,-0.28885806,-0.19664645,1.2504925,0.5285544,0.44197446,0.9170109,-0.39948776,-0.032625806,0.04705852,0.18977524,0.09121297,-0.1786372,1.3457143,0.16491996
-0.1,-0.2,1.2999999999999998,0.5235987755982988,-0.5235987755982988,0,-0.28922808,-0.21169631,1.24847,0.5332089,0.45199797,0.9275013,-0.3423266,-0.035233673,0.04523514,0.10128597,0.20777754,-0.74270576,1.3568584,-1.5616891
-0.1,-0.2,1.2999999999999998,0.5235987755982988,-0.5235987755982988,0,-0.28841016,-0.19725105,1.2486429,0.53220266,0.4444949,0.91723365,-0.47782028,-0.03482679,0.047007818,0.12511632,0.11278202,-0.7421362,1.3558507,-1.7896857
-0.1,-0.2,1.2999999999999998,0.5235987755982988,-0.5235987755982988,0,-0.28772247,-0.19838038,1.2483581,0.52893907,0.4345492,0.9209289,-0.42041206,-0.03605614,0.048792105,0.12581126,0.28521565,-0.7624391,1.3299887,-1.2087214
-0.1,-0.2,1.2999999999999998,0.5235987755982988,-0.5235987755982988,0,-0.2875253,-0.21388456,1.2472864,0.5242915,0.46130806,0.91536576,-0.4137219,-0.035118088,0.0475412,0.12491643,0.20268315,-0.4251689,1.3355463,-0.99893963
-0.1,-0.2,1.2999999999999998,0.5235987755982988,-0.5235987755982988,0,-0.28969032,-0.20764181,1.2484045,0.52602094,0.44259676,0.92415404,-0.35098705,-0.034212187,0.045318328,0.09529084,0.11554384,-0.43288773,1.4031925,-0.5616721
-0.1,-0.2,1.2999999999999998,0.5235987755982988,-0.5235987755982988,0,-0.28798863,-0.2026203,1.2469563,0.5281945,0.45606238,0.9190945,-0.47220743,-0.03718552,0.046377037,0.11368694,0.1377323,-0.07736622,1.3217677,-0.8562171
-0.1,-0.2,1.2999999999999998,0.5235987755982988,-0.5235987755982988,0,-0.29024982,-0.21467294,1.2486402,0.52732855,0.45004138,0.91541594,-0.44057733,-0.030442288,0.047806505,0.10002721,0.21931973,-0.53479475,1.3242149,-0.8555833
-0.1,-0.2,1.2999999999999998,0.5235987755982988,-0.5235987755982988,0,-0.28582603,-0.19046596,1.2514616,0.5256202,0.43892807,0.9240211,-0.42193675,-0.037978414,0.047373302,0.13156985,0.15115313,-0.28968883,1.35231,-0.053558167
-0.1,-0.2,1.2999999999999998,0.5235987755982988,-0.5235987755982988,0,-0.28986683,-0.21251163,1.2492933,0.52726495,0.4441114,0.9194536,-0.4090247,-0.036037948,0.046336364,0.15485999,0.22264425,-0.27482516,1.4563204,-0.9839594
-0.1,-0.2,1.2999999999999998,0.5235987755982988,-0.5235987755982988,0,-0.28989357,-0.20071226,1.2466946,0.52928585,0.44839758,0.92312354,-0.41944307,-0.034225147,0.047487523,0.15386687,0.08688847,-0.7452369,1.335143,-0.84177977
-0.1,-0.2,1.2999999999999998,0.5235987755982988,-0.5235987755982988,0,-0.28807622,-0.22070532,1.2478056,0.52868044,0.44487578,0.9198301,-0.45028105,-0.03501583,0.04601455,0.11918458,0.17693518,-0.47176903,1.4051152,0.21727924
-0.1,-0.2,1.2999999999999998,0.5235987755982988,-0.5235987755982988,0,-0.29099873,-0.22257026,1.2464552,0.52883786,0.44713742,0.92144555,-0.42407975,-0.03836297,0.048691154,0.05781163,0.21689102,-0.27274144,1.293582,-0.5767698
-0.1,-0.2,1.2999999999999998,0.5235987755982988,-0.5235987755982988,0,-0.28914675,-0.22022733,1.2477793,0.5309649,0.44994983,0.9171378,-0.44355682,-0.031007165,0.04506123,0.11332012,0.16419247,-0.73970455,1.4810625,-1.3357619
-0.1,-0.2,1.2999999999999998,0.5235987755982988,-0.5235987755982988,0,-0.28637215,-0.20545682,1.24888,0.5291685,0.43778968,0.91807204,-0.41688046,-0.036874324,0.046560034,0.04936197,0.19684634,-0.3797299,1.3923714,-1.1198676
-0.1,-0.2,1.2999999999999998,0.5235987755982988,-0.5235987755982988,0,-0.28965592,-0.21579826,1.2489855,0.52807075,0.44494292,0.9150075,-0.35056555,-0.0364013,0.043449413,0.09695197,0.26276183,-0.75323725,1.4732714,0.7550646
-0.1,-0.2,1.2999999999999998,0.5235987755982988,-0.5235987755982988,0,-0.28981993,-0.21136716,1.2486192,0.5289928,0.44677207,0.9227564,-0.43669087,-0.033176627,0.04661722,0.15069565,0.13624817,-0.53433263,1.4247538,-0.8971465
-0.1,-0.2,1.2999999999999998,0.5235987755982988,-0.5235987755982988,0,-0.28929013,-0.20314397,1.2488294,0.5277756,0.45007953,0.9185982,-0.36996838,-0.031248916,0.046739243,0.09189281,0.17220221,-0.182597,1.3687392,-1.0318319
-0.1,-0.2,1.2999999999999998,0.5235987755982988,-0.5235987755982988,0,-0.28943413,-0.2167782,1.2469614,0.52945226,0.43845147,0.91924787,-0.34614596,-0.035598513,0.044892225,0.16099581,0.15137634,-0.74018204,1.5262766,-1.5190283
-0.1,-0.2,1.2999999999999998,0.5235987755982988,-0.5235987755982988,0,-0.28637603,-0.19800588,1.2464923,0.52713394,0.4445464,0.9249535,-0.4184629,-0.031288162,0.045198496,0.07284089,0.1343567,-0.09104713,1.4201714,-1.0524774
-0.1,-0.2,1.2999999999999998,0.5235987755982988,-0.5235987755982988,0,-0.28956312,-0.21077195,1.2472142,0.52816194,0.4476287,0.9199862,-0.36539784,-0.03501139,0.04827403,0.1410513,0.19255288,-0.6972488,1.3990746,-0.49233374
-0.1,-0.2,1.2999999999999998,0.5235987755982988,-0.5235987755982988,0,-0.28913417,-0.18937008,1.2497985,0.5296819,0.4448402,0.91890126,-0.39607164,-0.033914242,0.04529364,0.1167265,0.20105642,-0.94152135,1.4281697,-0.4925655
-0.1,-0.2,1.2999999999999998,0.5235987755982988,-0.5235987755982988,0,-0.2876763,-0.19284354,1.2486333,0.5264656,0.450695,0.9233862,-0.40968537,-0.033779483,0.044536117,0.16076398,0.20144004,-0.26302883,1.3614675,-0.6981975
-0.1,-0.2,1.2999999999999998,0.5235987755982988,-0.5235987755982988,0,-0.28873917,-0.21073972,1.24981,0.5299865,0.44997847,0.92163193,-0.41425997,-0.03399317,0.046359837,0.08634328,0.10784909,-0.32744542,1.3701508,-0.89300454
-0.1,-0.2,1.2999999999999998,0.5235987755982988,-0.5235987755982988,0,-0.29076234,-0.20624329,1.2512324,0.52692175,0.4552805,0.9165683,-0.4650581,-0.033147816,0.04698156,0.08887003,0.077478684,-0.6190537,1.3870049,-1.4709003
-0.1,-0.2,1.2999999999999998,0.5235987755982988,-0.5235987755982988,0,-0.28955507,-0.19898279,1.2490811,0.5315853,0.43901694,0.91923463,-0.37788883,-0.033394393,0.045145962,0.12464971,0.18744631,-0.4402994,1.5455124,-0.67812926
-0.1,-0.2,1.2999999999999998,0.5235987755982988,-0.5235987755982988,0,-0.28808448,-0.18879227,1.2488424,0.5282767,0.4510465,0.9216141,-0.41420937,-0.034234826,0.04575344,0.11541993,0.17402323,-0.47406498,1.3601769,-0.10550498
-0.1,-0.2,1.2999999999999998,0.5235987755982988,-0.5235987755982988,0,-0.28996214,-0.20628466,1.249616,0.5292017,0.45339411,0.9176162,-0.43339157,-0.037130333,0.046326146,0.12787677,0.16773885,-0.6451492,1.420557,-0.7647382
-0.1,-0.2,1.2999999999999998,0.5235987755982988,-0.5235987755982988,0,-0.28681707,-0.19446893,1.2455865,0.5291242,0.45064217,0.9208,-0.37468433,-0.03394161,0.04603509,0.09628521,0.1844698,-0.86428624,1.3307457,0.73430306
-0.1,-0.2,1.2999999999999998,0.5235987755982988,-0.5235987755982988,0,-0.28643438,-0.20928782,1.2481146,0.526977,0.44797692,0.91644835,-0.40804332,-0.03572303,0.042907625,0.08694185,0.20172887,-0.4722258,1.3202869,-0.9426024
-0.1,-0.2,1.2999999999999998,0.5235987755982988,-0.5235987755982988,0,-0.2876315,-0.18968466,1.248183,0.52712244,0.44770172,0.9251325,-0.36954606,-0.041510507,0.04752092,0.09368364,0.105138466,-0.45015892,1.3791434,0.73305875
-0.1,-0.2,1.2999999999999998,0.5235987755982988,-0.5235987755982988,0,-0.2862692,-0.18670349,1.2499387,0.5260091,0.44744548,0.9213319,-0.4229546,-0.03325113,0.044813935,0.119615175,0.20000142,-0.308642,1.360293,-0.7899418
-0.1,-0.2,1.2999999999999998,0.5235987755982988,-0.5235987755982988,0,-0.29071122,-0.19180498,1.250211,0.5281397,0.44150746,0.9259136,-0.38497674,-0.037111826,0.04594215,0.052683204,0.15050566,-0.5677984,1.4661373,-0.9114785
-0.1,-0.2,1.2999999999999998,0.5235987755982988,-0.5235987755982988,0,-0.2906711,-0.18636438,1.2500501,0.5317587,0.44541445,0.9182372,-0.34062198,-0.034968708,0.045648668,0.15907897,0.13192524,-0.37320927,1.3017793,-1.8292538
-0.1,-0.2,1.2999999999999998,0.5235987755982988,-0.5235987755982988,0,-0.28832248,-0.21199548,1.2463388,0.5281433,0.43380338,0.9268022,-0.41991988,-0.039549198,0.045493934,0.1771201,0.20625386,-0.26160386,1.319401,-1.1002342
-0.1,-0.2,1.2999999999999998,0.5235987755982988,-0.5235987755982988,0,-0.28594676,-0.20125747,1.2479018,0.5297747,0.44543356,0.91833097,-0.49371395,-0.033241097,0.046076886,0.090485804,0.2276421,-0.36838928,1.412378,0.025556598
-0.1,-0.2,1.2999999999999998,0.5235987755982988,-0.5235987755982988,0,-0.29053542,-0.20828572,1.249731,0.5293724,0.4457517,0.9241543,-0.4009881,-0.034088466,0.049577918,0.11013681,0.18441337,-0.90032995,1.3188105,-0.50169086
-0.1,-0.2,1.2999999999999998,0.5235987755982988,-0.5235987755982988,0,-0.28965276,-0.21128191,1.2484031,0.5309766,0.4428416,0.9191368,-0.42564148,-0.03218614,0.047186106,0.12736823,0.1774329,-0.9396761,1.3744603,-0.952345
-0.1,-0.2,1.2999999999999998,0.5235987755982988,-0.5235987755982988,0,-0.28632528,-0.21209672,1.2490566,0.5274608,0.45194536,0.9229984,-0.3361855,-0.037012663,0.045387913,0.08651254,0.20131017,-0.5478057,1.3772984,-0.32597178
-0.1,-0.2,1.2999999999999998,0.5235987755982988,-0.5235987755982988,0,-0.28908038,-0.19342166,1.250156,0.5268528,0.44174963,0.9169435,-0.47458416,-0.028537387,0.043207694,0.13410364,0.23198734,-0.37549454,1.272082,-1.1202129
-0.1,-0.2,1.2999999999999998,0.5235987755982988,-0.5235987755982988,0,-0.28829902,-0.20284143,1.2498721,0.5233073,0.44337675,0.92199564,-0.3869126,-0.032030255,0.047863808,0.085011035,0.22334826,-0.846652,1.3059176,-1.494423
-0.1,-0.2,1.2999999999999998,0.5235987755982988,-0.5235987755982988,0,-0.2880756,-0.20894815,1.247763,0.52837646,0.4388891,0.91781735,-0.36306626,-0.034288634,0.045143165,0.18095483,0.1469423,-1.0433091,1.4052733,0.31978607
-0.1,-0.2,1.2999999999999998,0.5235987755982988,-0.5235987755982988,0,-0.2893772,-0.20487255,1.2471186,0.53000915,0.447953,0.91921026,-0.42306414,-0.032896217,0.04681674,0.084670305,0.095959365,-0.8642493,1.3845202,-0.54361326
-0.1,-0.2,1.2999999999999998,0.5235987755982988,-0.5235987755982988,0,-0.28692606,-0.20975456,1.2483034,0.52738345,0.45101932,0.91666543,-0.4516132,-0.03174984,0.04619108,0.019374808,0.2287189,-0.39925852,1.4090806,-0.007603335
-0.1,-0.2,1.2999999999999998,0.5235987755982988,-0.5235987755982988,0,-0.28858784,-0.20066282,1.2497033,0.52960604,0.4366617,0.9271939,-0.43737257,-0.034458093,0.04225943,0.0660417,0.17150228,-1.2676145,1.445293,-0.50767463
-0.1,-0.2,1.2999999999999998,0.5235987755982988,-0.5235987755982988,0,-0.2906937,-0.2120074,1.2489296,0.5290609,0.45277426,0.9252956,-0.37911886,-0.03795085,0.04763734,0.20343523,0.18687083,-0.70722127,1.4209938,-1.1070002
-0.1,-0.2,1.2999999999999998,0.5235987755982988,-0.5235987755982988,0,-0.2903664,-0.20333734,1.2472068,0.5261947,0.45586568,0.91926587,-0.3915996,-0.036963396,0.046052895,0.052313164,0.12645671,-0.8120109,1.4731852,-0.06576733
-0.1,-0.2,1.2999999999999998,0.5235987755982988,-0.5235987755982988,0,-0.2877797,-0.19805357,1.2483678,0.52687407,0.43584874,0.91780955,-0.39283952,-0.035434615,0.044466205,0.1730694,0.18064424,-0.7327844,1.493135,0.22045399
-0.1,-0.2,1.2999999999999998,0.5235987755982988,-0.5235987755982988,0,-0.28881994,-0.19334659,1.2488829,0.5305327,0.43335128,0.9212596,-0.47215936,-0.03460518,0.044989016,0.12988135,0.2573286,-0.74504364,1.486991,-1.437411
-0.1,-0.2,1.2999999999999998,0.5235987755982988,-0.5235987755982988,0,-0.28599194,-0.20387538,1.2476416,0.53074664,0.44272867,0.92295873,-0.45267415,-0.036516543,0.046772446,0.18487349,0.27902588,-0.5726584,1.4884539,-0.93355614
-0.1,-0.2,1.2999999999999998,0.5235987755982988,-0.5235987755982988,0,-0.28699803,-0.19809675,1.2439672,0.5275728,0.45733434,0.9263008,-0.42706195,-0.031542134,0.050111435,0.12009765,0.19210768,-0.8514596,1.3573126,-0.50847524
-0.1,-0.2,1.2999999999999998,0.5235987755982988,-0.5235987755982988,0,-0.2892558,-0.20874763,1.248651,0.53169334,0.44722944,0.92160916,-0.41927257,-0.034179803,0.04859442,0.07059615,0.17793062,-0.41909474,1.4128418,-0.2846169
-0.1,-0.2,1.2999999999999998,0.5235987755982988,-0.5235987755982988,0,-0.28373423,-0.2266696,1.2471719,0.5290766,0.45320418,0.9223129,-0.36417532,-0.031351164,0.047695685,0.0820287,0.25080198,-0.66159093,1.3093997,-0.32856748
-0.1,-0.2,1.2999999999999998,0.5235987755982988,-0.5235987755982988,0,-0.28921145,-0.21935798,1.2498642,0.5288152,0.44220972,0.91807324,-0.38564566,-0.035319746,0.046441406,0.16526785,0.18412884,-0.47422746,1.308844,-0.8301252
-0.1,-0.2,1.2999999999999998,0.5235987755982988,-0.5235987755982988,0,-0.29279763,-0.21400145,1.2482708,0.530692,0.4535828,0.92566776,-0.45168176,-0.034502793,0.046189282,0.15046617,0.15028207,-0.505088,1.5013434,0.28602836
-0.1,-0.2,1.2999999999999998,0.5235987755982988,-0.5235987755982988,0,-0.28783953,-0.19685659,1.2476001,0.5288361,0.45779422,0.9224824,-0.38560933,-0.036623567,0.046288036,0.122471265,0.080869265,-0.8023481,1.333014,-0.4761987
-0.1,-0.2,1.2999999999999998,0.5235987755982988,-0.5235987755982988,0,-0.2910725,-0.2218887,1.2472864,0.5292971,0.4405232,0.92078996,-0.3079003,-0.035827108,0.0476379,0.16452275,0.20852269,-0.67578137,1.3573864,-2.18513
-0.1,-0.2,1.2999999999999998,0.5235987755982988,-0.5235987755982988,0,-0.28253332,-0.1809994,1.2468466,0.5269137,0.45346585,0.9220044,-0.3885837,-0.03545626,0.047613446,0.09353793,0.17752609,-1.1165025,1.3935622,-0.4774575
