sanky1234/BimanualDexCatch/isaacgymenvs/cem_results/football_pose_0.1_0.0_0.6_0.0_0.0_0_2025-05-26.csv
x,y,z,roll,pitch,yaw,robot1/joint1,robot1/joint2,robot1/joint3,robot1/joint4,robot1/joint5,robot1/joint6,robot1/joint7,robot2/joint1,robot2/joint2,robot2/joint3,robot2/joint4,robot2/joint5,robot2/joint6,robot2/joint7
0.1,0.0,0.6,0.0,0.0,0,-0.61433166,1.9134892,-0.37217343,-0.6954435,-0.09834663,1.4751525,-0.8610417,0.5413463,1.4859356,0.14471012,-0.4340617,0.24187878,1.2786282,0.97952354
0.1,0.0,0.6,0.0,0.0,0,-0.61495495,1.9141622,-0.37927702,-0.69621384,-0.094449066,1.4748635,-0.8707622,0.5349196,1.4894689,0.14228614,-0.4468467,0.20915583,1.2874597,0.98301834
0.1,0.0,0.6,0.0,0.0,0,-0.6165111,1.9131123,-0.37890914,-0.696337,-0.09121968,1.4741362,-0.878919,0.52088743,1.4953791,0.14087039,-0.446598,0.24014719,1.2762594,0.9951535
0.1,0.0,0.6,0.0,0.0,0,-0.6182262,1.9147556,-0.37950012,-0.6963092,-0.09925345,1.4730996,-0.87923473,0.52093035,1.4960331,0.15279748,-0.44143546,0.2427062,1.2789372,1.0115461
0.1,0.0,0.6,0.0,0.0,0,-0.6152661,1.9134592,-0.37949574,-0.69606924,-0.099241085,1.4723493,-0.86167717,0.53253114,1.4890862,0.15234917,-0.44621474,0.20688115,1.2970754,0.9927192
0.1,0.0,0.6,0.0,0.0,0,-0.6160075,1.9141101,-0.3783297,-0.6958714,-0.095897734,1.4749137,-0.84766924,0.5131274,1.4897294,0.14686689,-0.44438604,0.24553122,1.2919903,1.0339935
0.1,0.0,0.6,0.0,0.0,0,-0.6164333,1.9135493,-0.37672827,-0.6963896,-0.10473808,1.4740099,-0.8644249,0.52913177,1.4848027,0.13874261,-0.44358453,0.20745577,1.271737,1.0565699
0.1,0.0,0.6,0.0,0.0,0,-0.61357296,1.9142892,-0.37541696,-0.69566864,-0.099663906,1.4738548,-0.82978565,0.5166019,1.4905709,0.1414215,-0.44383743,0.21654923,1.284841,1.0084218
0.1,0.0,0.6,0.0,0.0,0,-0.61740977,1.9148912,-0.3767227,-0.6969237,-0.09062483,1.4740546,-0.88222986,0.5380835,1.4881276,0.13703856,-0.4498811,0.23088634,1.2940607,1.0143638
0.1,0.0,0.6,0.0,0.0,0,-0.6171994,1.9135274,-0.37421367,-0.69601727,-0.09800959,1.4727914,-0.86160696,0.5108681,1.4930967,0.14670771,-0.43640772,0.23312034,1.2826822,1.0361123
0.1,0.0,0.6,0.0,0.0,0,-0.6162904,1.9133805,-0.37271437,-0.6966248,-0.09683034,1.475753,-0.859321,0.52935207,1.4926304,0.13498166,-0.43641374,0.20454928,1.2694217,1.0630071
0.1,0.0,0.6,0.0,0.0,0,-0.61487126,1.9134506,-0.38417044,-0.6978147,-0.09056754,1.4735925,-0.9075811,0.5283972,1.4928375,0.1407175,-0.4403556,0.2244945,1.284785,0.9980928
0.1,0.0,0.6,0.0,0.0,0,-0.61622626,1.9136072,-0.37675866,-0.69596684,-0.09155472,1.4715152,-0.8581559,0.5137706,1.4975702,0.14013548,-0.4370843,0.22160171,1.2805928,0.9897135
0.1,0.0,0.6,0.0,0.0,0,-0.6191029,1.9136466,-0.38048646,-0.69678503,-0.09179129,1.473012,-0.86518383,0.5345099,1.4858413,0.14938259,-0.44217375,0.24445441,1.2767098,1.0650975
0.1,0.0,0.6,0.0,0.0,0,-0.6177409,1.9134339,-0.37603056,-0.69755656,-0.101296276,1.4734862,-0.8608415,0.5132707,1.4842279,0.14833347,-0.44234535,0.22652933,1.2939513,1.0128849
0.1,0.0,0.6,0.0,0.0,0,-0.6173648,1.9121748,-0.37681803,-0.69525784,-0.09164892,1.4751674,-0.8958177,0.525812,1.4822328,0.14203192,-0.44342673,0.23671365,1.2944162,1.0013635
0.1,0.0,0.6,0.0,0.0,0,-0.6166135,1.9116951,-0.37341714,-0.6959004,-0.093213156,1.4749244,-0.84087706,0.54069185,1.4954103,0.14218958,-0.43406266,0.24685062,1.2825335,0.9776008
0.1,0.0,0.6,0.0,0.0,0,-0.6161433,1.9135195,-0.37791887,-0.6954992,-0.09823879,1.4726533,-0.843759,0.5393744,1.4834887,0.12852728,-0.44336507,0.24223585,1.2939394,1.0174041
0.1,0.0,0.6,0.0,0.0,0,-0.61758053,1.9130031,-0.37721232,-0.69567966,-0.10222436,1.474367,-0.83297133,0.53098583,1.4925143,0.14092837,-0.44260728,0.23783967,1.2745221,1.0298754
0.1,0.0,0.6,0.0,0.0,0,-0.61812603,1.9134024,-0.37622917,-0.695915,-0.09602666,1.4724797,-0.90646684,0.5254362,1.4902931,0.14820734,-0.43997863,0.25487426,1.2763594,1.0472982
0.1,0.0,0.6,0.0,0.0,0,-0.6179456,1.9138176,-0.3797963,-0.6970674,-0.091613926,1.4733963,-0.92324597,0.52325654,1.495794,0.14574893,-0.44317517,0.2290785,1.2816834,1.0083939
0.1,0.0,0.6,0.0,0.0,0,-0.61733335,1.9141521,-0.37749794,-0.6957239,-0.09267343,1.4733583,-0.8565947,0.5285326,1.4918293,0.15199615,-0.43922907,0.22760929,1.2872504,1.005151
0.1,0.0,0.6,0.0,0.0,0,-0.6173278,1.9125613,-0.37595832,-0.69559914,-0.09446482,1.4742231,-0.8694594,0.5468562,1.4830008,0.14778252,-0.44613716,0.2314016,1.2769655,1.038464
0.1,0.0,0.6,0.0,0.0,0,-0.61906636,1.9127133,-0.37832817,-0.6949741,-0.09842101,1.4729148,-0.85304457,0.51789075,1.4906896,0.12978229,-0.46210164,0.2261623,1.2975258,1.0662411
0.1,0.0,0.6,0.0,0.0,0,-0.61732084,1.9136506,-0.3707082,-0.695707,-0.10577462,1.4717321,-0.856776,0.51779526,1.4884233,0.14098111,-0.4377605,0.24545762,1.2944111,1.0258553
0.1,0.0,0.6,0.0,0.0,0,-0.61512303,1.9139937,-0.3767369,-0.695986,-0.10404441,1.4747589,-0.83413625,0.5332353,1.4922264,0.13884428,-0.44575572,0.2475489,1.2740803,1.0037634
0.1,0.0,0.6,0.0,0.0,0,-0.61795425,1.9130046,-0.3791011,-0.69646996,-0.09844841,1.4738433,-0.8543189,0.52190584,1.4866412,0.14535275,-0.4415966,0.2192427,1.2907397,1.0745435
0.1,0.0,0.6,0.0,0.0,0,-0.6184416,1.9142017,-0.375345,-0.69559973,-0.095121466,1.4719366,-0.90872884,0.5230595,1.4818984,0.13381307,-0.4442991,0.22764683,1.27523,1.0388914
0.1,0.0,0.6,0.0,0.0,0,-0.614299,1.9147654,-0.3753582,-0.69535315,-0.10509821,1.473984,-0.8640397,0.5421549,1.490688,0.13921031,-0.44263887,0.22560658,1.2831694,1.03225
0.1,0.0,0.6,0.0,0.0,0,-0.6181185,1.9138923,-0.37317586,-0.69634336,-0.09879778,1.4746997,-0.8502406,0.50632125,1.4843801,0.13944344,-0.4425628,0.21140929,1.2724708,1.0509816
0.1,0.0,0.6,0.0,0.0,0,-0.6171561,1.9144678,-0.37441024,-0.6964652,-0.10532531,1.4737183,-0.86055,0.5283501,1.4896094,0.15186584,-0.44508973,0.2012467,1.2762947,1.0653365
0.1,0.0,0.6,0.0,0.0,0,-0.61778486,1.9126033,-0.38442117,-0.6957067,-0.09676569,1.4732845,-0.8428256,0.50865275,1.4908831,0.14192614,-0.43976578,0.23519088,1.2759788,0.9969304
0.1,0.0,0.6,0.0,0.0,0,-0.61783236,1.913164,-0.37301204,-0.69626266,-0.09442869,1.4744517,-0.86853236,0.54193425,1.4911205,0.1326904,-0.4457648,0.21888362,1.28881,1.0655125
0.1,0.0,0.6,0.0,0.0,0,-0.61758703,1.9141797,-0.38033724,-0.6958116,-0.1020088,1.4737514,-0.8316338,0.5763055,1.4881899,0.13387133,-0.45215085,0.24176803,1.2709693,1.0302376
0.1,0.0,0.6,0.0,0.0,0,-0.6164797,1.9136584,-0.37301463,-0.69561195,-0.10178277,1.4742504,-0.86725265,0.52701545,1.4875464,0.14485489,-0.4415692,0.23734756,1.268912,1.0419207
0.1,0.0,0.6,0.0,0.0,0,-0.617993,1.9142224,-0.37758434,-0.6953193,-0.10589852,1.4726532,-0.8709364,0.524192,1.4894018,0.13423061,-0.43687317,0.20507038,1.2677153,1.0007607
0.1,0.0,0.6,0.0,0.0,0,-0.616978,1.9142337,-0.37453356,-0.69638735,-0.08818854,1.475817,-0.8436802,0.5104558,1.4953501,0.13668641,-0.438236,0.233182,1.2774749,1.0349691
0.1,0.0,0.6,0.0,0.0,0,-0.615513,1.9143648,-0.37743753,-0.6953907,-0.0937279,1.4740468,-0.90134865,0.52731913,1.4906898,0.13679266,-0.4436522,0.21269327,1.2826173,0.9850819
0.1,0.0,0.6,0.0,0.0,0,-0.61481524,1.9129804,-0.37703726,-0.69568473,-0.10583049,1.47519,-0.8712927,0.516643,1.4874085,0.1583437,-0.4384077,0.24343269,1.2815531,0.9810851
0.1,0.0,0.6,0.0,0.0,0,-0.61747783,1.9127635,-0.37663502,-0.69564116,-0.10304763,1.4751979,-0.86725914,0.5264757,1.4826641,0.12681186,-0.43855104,0.23527245,1.2722696,1.0498842
0.1,0.0,0.6,0.0,0.0,0,-0.6176077,1.9133269,-0.37082496,-0.69585705,-0.100061454,1.4739652,-0.8844936,0.5342896,1.491235,0.141876,-0.4383791,0.23599178,1.2828343,1.0184753
0.1,0.0,0.6,0.0,0.0,0,-0.61579156,1.9131397,-0.38064075,-0.69540364,-0.09576352,1.4737206,-0.8528159,0.5128181,1.488263,0.13780269,-0.4441772,0.24849322,1.2772614,1.0053054
0.1,0.0,0.6,0.0,0.0,0,-0.6164006,1.9127231,-0.37957758,-0.6964364,-0.09703565,1.4754317,-0.8824048,0.55352426,1.4856486,0.13999426,-0.44686332,0.19565424,1.2856706,1.0362427
0.1,0.0,0.6,0.0,0.0,0,-0.61591357,1.9142414,-0.37868175,-0.69534147,-0.108483344,1.4721141,-0.8557647,0.5350267,1.4872369,0.13468231,-0.43877754,0.22852068,1.2685723,1.0077696
0.1,0.0,0.6,0.0,0.0,0,-0.61711574,1.9136639,-0.3769623,-0.6957975,-0.10733933,1.4753054,-0.84028876,0.508934,1.4936124,0.1279739,-0.4421323,0.23602965,1.2782687,1.0361656
0.1,0.0,0.6,0.0,0.0,0,-0.6188199,1.9119606,-0.3771478,-0.6952764,-0.092603885,1.4747102,-0.87827986,0.52853376,1.4892488,0.14325158,-0.44172862,0.24388912,1.2778016,1.0581796
0.1,0.0,0.6,0.0,0.0,0,-0.6192666,1.9135389,-0.3786453,-0.6960388,-0.09365956,1.473627,-0.9018897,0.52105707,1.490659,0.13961565,-0.4489054,0.25008896,1.2779539,1.0696076
0.1,0.0,0.6,0.0,0.0,0,-0.6148882,1.9138587,-0.37565628,-0.69610155,-0.09501756,1.4735675,-0.87504405,0.5385767,1.4814299,0.13943288,-0.44156325,0.20858926,1.2869177,0.9882949
0.1,0.0,0.6,0.0,0.0,0,-0.6143761,1.915227,-0.37398052,-0.6957759,-0.09735,1.4746587,-0.8454317,0.5389586,1.4925374,0.14703299,-0.44057778,0.2429712,1.2845474,0.9934758
0.1,0.0,0.6,0.0,0.0,0,-0.616602,1.914633,-0.3823097,-0.69617784,-0.091911696,1.4762563,-0.8863494,0.5163646,1.4875423,0.1501614,-0.44293427,0.20024022,1.2717752,0.96496016
0.1,0.0,0.6,0.0,0.0,0,-0.61553574,1.913228,-0.3836062,-0.69609886,-0.10314838,1.4742979,-0.886199,0.5597373,1.4788206,0.13147944,-0.4438214,0.2448524,1.278828,1.0482022
0.1,0.0,0.6,0.0,0.0,0,-0.6165772,1.9147694,-0.38219497,-0.6972167,-0.10212342,1.473522,-0.85616475,0.5208105,1.4972484,0.14635497,-0.44365042,0.25431252,1.2903006,1.0209404
0.1,0.0,0.6,0.0,0.0,0,-0.6169822,1.9124593,-0.37973532,-0.69717795,-0.10882883,1.4742537,-0.894028,0.54818666,1.490039,0.1431558,-0.44025132,0.20460014,1.2732837,1.0492487
0.1,0.0,0.6,0.0,0.0,0,-0.61452603,1.9118469,-0.38205728,-0.69553244,-0.10470491,1.4737712,-0.89030206,0.5271168,1.4860193,0.125768,-0.43977928,0.22515528,1.2801726,1.0230871
0.1,0.0,0.6,0.0,0.0,0,-0.619234,1.9135917,-0.37635395,-0.6969351,-0.08799106,1.4746436,-0.8175986,0.5271258,1.4915321,0.138083,-0.43773982,0.22804555,1.2821585,1.0345533
0.1,0.0,0.6,0.0,0.0,0,-0.6172374,1.9138935,-0.38141748,-0.69529355,-0.09312844,1.4738172,-0.86613846,0.53067404,1.4880499,0.13527592,-0.43447366,0.22678423,1.2796634,1.0452105
0.1,0.0,0.6,0.0,0.0,0,-0.61794025,1.9131593,-0.37556872,-0.6953428,-0.101842746,1.473677,-0.9040749,0.53250366,1.491056,0.13502994,-0.4458337,0.23703775,1.2749964,0.99841964
0.1,0.0,0.6,0.0,0.0,0,-0.6168997,1.9134266,-0.37363538,-0.69638884,-0.09565826,1.4752098,-0.84762794,0.50980735,1.4936154,0.14975528,-0.44202182,0.23244481,1.2885971,1.0274334
0.1,0.0,0.6,0.0,0.0,0,-0.6162308,1.9136055,-0.37392953,-0.695569,-0.10720585,1.475441,-0.87247986,0.53429455,1.4889439,0.13488755,-0.44316155,0.22966622,1.280242,1.0502379
0.1,0.0,0.6,0.0,0.0,0,-0.61835,1.9137639,-0.37787464,-0.69578636,-0.09692339,1.4742855,-0.83996314,0.5006292,1.4870927,0.14737475,-0.446968,0.23373753,1.2861114,1.0276413
0.1,0.0,0.6,0.0,0.0,0,-0.6194465,1.9145231,-0.3781922,-0.69558924,-0.08896176,1.4753999,-0.8793152,0.5111245,1.4876196,0.13878141,-0.45272428,0.20936953,1.2588357,1.0460517
0.1,0.0,0.6,0.0,0.0,0,-0.6170623,1.9146558,-0.37744325,-0.6970135,-0.09409334,1.4748006,-0.8589351,0.54006624,1.4974974,0.13623653,-0.44766122,0.24387465,1.2907827,1.0143553
0.1,0.0,0.6,0.0,0.0,0,-0.6189105,1.9134548,-0.38027382,-0.6964604,-0.106880255,1.4741838,-0.8519055,0.54741716,1.4901043,0.14177258,-0.45200717,0.2329358,1.2703685,1.0394794
0.1,0.0,0.6,0.0,0.0,0,-0.61706424,1.9150527,-0.37464607,-0.6957987,-0.093864694,1.4746747,-0.8765715,0.5429397,1.4863917,0.143865,-0.4445902,0.23260668,1.2853849,1.061029
0.1,0.0,0.6,0.0,0.0,0,-0.6188399,1.9134322,-0.37800625,-0.69696945,-0.106451966,1.474964,-0.8513431,0.52119493,1.4828364,0.13639575,-0.4387928,0.23902322,1.2803645,1.0264083
0.1,0.0,0.6,0.0,0.0,0,-0.6175489,1.9125108,-0.37268516,-0.6950988,-0.10277312,1.4732774,-0.8422076,0.51885253,1.4945344,0.15091519,-0.44043356,0.23073916,1.2838584,1.0322465
0.1,0.0,0.6,0.0,0.0,0,-0.6174621,1.9131817,-0.37944612,-0.6958485,-0.0966121,1.4746723,-0.838736,0.53836966,1.491481,0.1360585,-0.4619639,0.22752348,1.2970314,1.0588892
0.1,0.0,0.6,0.0,0.0,0,-0.615828,1.9135149,-0.37919953,-0.69697595,-0.10327268,1.4742247,-0.89712787,0.52827454,1.4853752,0.14134839,-0.43483213,0.19671722,1.2768341,1.0514755
0.1,0.0,0.6,0.0,0.0,0,-0.6153961,1.9139701,-0.37526423,-0.6959993,-0.09806432,1.4752434,-0.85559905,0.52873874,1.4911298,0.14416826,-0.4303098,0.23075368,1.2630702,1.021625
0.1,0.0,0.6,0.0,0.0,0,-0.61862516,1.9133794,-0.38071766,-0.6962022,-0.0976498,1.4750896,-0.8576474,0.5127638,1.4799658,0.13258623,-0.44676697,0.24753506,1.2797003,1.0388827
0.1,0.0,0.6,0.0,0.0,0,-0.616906,1.9135665,-0.3734079,-0.6948544,-0.08432824,1.4751124,-0.8747153,0.5129881,1.490328,0.13369362,-0.43922636,0.2660232,1.2714846,1.0114686
0.1,0.0,0.6,0.0,0.0,0,-0.6205904,1.9140294,-0.3758356,-0.6967931,-0.098997824,1.4727364,-0.88994795,0.5187011,1.4901268,0.13655792,-0.44197184,0.24370627,1.2776488,0.96276605
0.1,0.0,0.6,0.0,0.0,0,-0.6162016,1.9140079,-0.3735938,-0.69476193,-0.099665456,1.4736277,-0.8806502,0.5252423,1.4895519,0.1462917,-0.44155312,0.18579063,1.2735919,1.0445424
0.1,0.0,0.6,0.0,0.0,0,-0.6165597,1.9135972,-0.37612134,-0.69649696,-0.095805995,1.4747459,-0.86174244,0.5323064,1.4937127,0.15864143,-0.4431695,0.22177584,1.2943312,1.0101978
0.1,0.0,0.6,0.0,0.0,0,-0.6180008,1.9124049,-0.37463966,-0.6968026,-0.10573254,1.4746672,-0.8739787,0.5483868,1.4909679,0.14703381,-0.44532803,0.23641928,1.288369,1.0338583
0.1,0.0,0.6,0.0,0.0,0,-0.6185369,1.9139605,-0.37918475,-0.6966985,-0.1010252,1.4734945,-0.86152565,0.5293245,1.4942751,0.14681011,-0.45063838,0.21959405,1.2811182,1.0100886
0.1,0.0,0.6,0.0,0.0,0,-0.6173143,1.9125655,-0.37836298,-0.6964828,-0.09732418,1.4742478,-0.8749339,0.5173708,1.492938,0.1426423,-0.44225428,0.231236,1.2933539,0.9725146
0.1,0.0,0.6,0.0,0.0,0,-0.61583155,1.9127768,-0.38065615,-0.6952975,-0.1048283,1.4737695,-0.89218616,0.5365488,1.4818141,0.13999096,-0.442321,0.2355422,1.2810276,0.9944671
0.1,0.0,0.6,0.0,0.0,0,-0.6179761,1.9119278,-0.38179186,-0.6955827,-0.108647145,1.4739962,-0.8439026,0.5139731,1.480377,0.13754453,-0.4419748,0.22807854,1.2613044,1.037045
0.1,0.0,0.6,0.0,0.0,0,-0.61705077,1.9131907,-0.37618697,-0.69599986,-0.107112035,1.4739865,-0.87370986,0.5028038,1.4893763,0.1455746,-0.4464245,0.23035875,1.2843049,1.043093
0.1,0.0,0.6,0.0,0.0,0,-0.61661375,1.9145283,-0.37866262,-0.6961544,-0.091956705,1.4742867,-0.81963456,0.51383936,1.4903985,0.1384138,-0.4449738,0.23847163,1.2829753,1.0141135
0.1,0.0,0.6,0.0,0.0,0,-0.6177599,1.9132873,-0.37532562,-0.6960242,-0.08888607,1.4752892,-0.88588244,0.5325731,1.4861625,0.15408239,-0.45038524,0.2531537,1.2891148,1.023527
0.1,0.0,0.6,0.0,0.0,0,-0.6181092,1.9148307,-0.37653342,-0.69637924,-0.102800645,1.4739172,-0.8620389,0.52541643,1.4885639,0.1410573,-0.4420353,0.23333977,1.2694758,1.0489619
0.1,0.0,0.6,0.0,0.0,0,-0.61883926,1.9139531,-0.37732863,-0.6962963,-0.10195066,1.4741608,-0.8599043,0.540165,1.4912912,0.15453054,-0.4387784,0.23126492,1.2797741,1.0409448
0.1,0.0,0.6,0.0,0.0,0,-0.6164878,1.9139054,-0.37589332,-0.6969182,-0.08883911,1.4745669,-0.8896764,0.521923,1.4889344,0.14497228,-0.4372772,0.23282224,1.2891562,0.9752202
0.1,0.0,0.6,0.0,0.0,0,-0.6189765,1.9135191,-0.37514162,-0.6968876,-0.09162924,1.4758688,-0.8836408,0.5308171,1.4909242,0.13951439,-0.4431832,0.2154077,1.2744199,1.0474164
0.1,0.0,0.6,0.0,0.0,0,-0.61764514,1.9116167,-0.3842108,-0.69599223,-0.095221706,1.4768126,-0.8640466,0.5204329,1.4883127,0.1341009,-0.4404968,0.24342419,1.2818458,1.0336015
0.1,0.0,0.6,0.0,0.0,0,-0.61712277,1.9133705,-0.37773412,-0.6963373,-0.107536785,1.4745578,-0.85188496,0.4913501,1.4870534,0.13196978,-0.43754402,0.23156635,1.2918292,1.0285268
0.1,0.0,0.6,0.0,0.0,0,-0.6170865,1.9139049,-0.37471172,-0.69649595,-0.102116756,1.4746683,-0.88471025,0.5390369,1.4855119,0.15119354,-0.4349883,0.21889555,1.2759547,1.0535194
0.1,0.0,0.6,0.0,0.0,0,-0.61606187,1.915012,-0.3761459,-0.69617385,-0.09955129,1.4748144,-0.8607526,0.5250202,1.4936234,0.14530328,-0.4454575,0.22152984,1.2786531,1.0440171
0.1,0.0,0.6,0.0,0.0,0,-0.61523205,1.914218,-0.3788435,-0.69675505,-0.101441175,1.4754778,-0.8464197,0.5230891,1.4885286,0.13731588,-0.43032944,0.22166869,1.2721937,1.0181286
0.1,0.0,0.6,0.0,0.0,0,-0.6182663,1.9142541,-0.38107237,-0.6959571,-0.08840965,1.4729083,-0.8610385,0.53980815,1.4837635,0.13339242,-0.44345793,0.24978365,1.2827152,1.043657
0.1,0.0,0.6,0.0,0.0,0,-0.6183511,1.912994,-0.377145,-0.6967749,-0.09397933,1.4757419,-0.8722146,0.52926886,1.4853659,0.14290139,-0.43450913,0.2551329,1.2824029,1.0304018
0.1,0.0,0.6,0.0,0.0,0,-0.61826277,1.914693,-0.37786192,-0.69675714,-0.092452794,1.4737928,-0.8756866,0.55162215,1.4966097,0.14001751,-0.4433677,0.22025606,1.2832189,1.0021545
0.1,0.0,0.6,0.0,0.0,0,-0.6173679,1.9148418,-0.3765549,-0.6953456,-0.08528265,1.4726027,-0.8643285,0.5340357,1.4909573,0.14386147,-0.43963093,0.21922386,1.2764113,0.9867265
0.1,0.0,0.6,0.0,0.0,0,-0.61821365,1.9140518,-0.3720635,-0.6958847,-0.09245748,1.4728061,-0.90599245,0.52352834,1.4832578,0.13347048,-0.44791138,0.22769316,1.299916,0.9974873
0.1,0.0,0.6,0.0,0.0,0,-0.61585975,1.9133651,-0.37110138,-0.6957831,-0.10416657,1.4751866,-0.87649536,0.52184916,1.4876654,0.13675909,-0.43562764,0.2370829,1.283874,1.0513723
0.1,0.0,0.6,0.0,0.0,0,-0.61643267,1.9145906,-0.37909293,-0.6958094,-0.10250005,1.4737451,-0.86881065,0.53477216,1.4829649,0.16095528,-0.4374776,0.20690362,1.2707827,0.99432814
0.1,0.0,0.6,0.0,0.0,0,-0.61615753,1.9125897,-0.37700224,-0.69534045,-0.09754693,1.4744757,-0.8715303,0.53545094,1.4941926,0.13780086,-0.43870863,0.22939654,1.2788159,1.0227762
0.1,0.0,0.6,0.0,0.0,0,-0.6168011,1.9129229,-0.38004783,-0.6963951,-0.09786594,1.475258,-0.8361444,0.51413506,1.485449,0.15497763,-0.43499878,0.22911055,1.2779065,0.9947925
0.1,0.0,0.6,0.0,0.0,0,-0.6177167,1.9128952,-0.38030237,-0.6962904,-0.09061692,1.4744852,-0.8733342,0.5406437,1.4824606,0.12835054,-0.43612462,0.23506473,1.277544,1.0312126
0.1,0.0,0.6,0.0,0.0,0,-0.61776865,1.914285,-0.38165018,-0.6949665,-0.10047319,1.4736379,-0.8461661,0.53294706,1.491941,0.13707447,-0.43801087,0.23619956,1.2751882,1.0414793
0.1,0.0,0.6,0.0,0.0,0,-0.6193001,1.9137423,-0.37679708,-0.69521743,-0.1041793,1.4731381,-0.8746928,0.5409822,1.4906979,0.1287465,-0.45066,0.23952524,1.2888366,1.0311172
0.1,0.0,0.6,0.0,0.0,0,-0.61698246,1.9138812,-0.37680408,-0.6951008,-0.10374403,1.4732567,-0.880535,0.5308738,1.4839182,0.14188072,-0.4345045,0.25788313,1.2695222,0.99753046
0.1,0.0,0.6,0.0,0.0,0,-0.6166106,1.9140478,-0.3727655,-0.6961296,-0.093517855,1.4745679,-0.8441686,0.5372671,1.4891219,0.14560993,-0.43352205,0.21127717,1.2741499,1.0213007
0.1,0.0,0.6,0.0,0.0,0,-0.6158681,1.9127464,-0.37885672,-0.6950033,-0.09877531,1.4737887,-0.8868075,0.53002465,1.487152,0.15870802,-0.4399368,0.23057485,1.2904792,1.0009438
0.1,0.0,0.6,0.0,0.0,0,-0.6194595,1.9137859,-0.37757576,-0.69480246,-0.0868777,1.4745599,-0.86059374,0.5163926,1.484509,0.13981429,-0.43599954,0.23317209,1.2739929,1.0049678
0.1,0.0,0.6,0.0,0.0,0,-0.61574507,1.913615,-0.37793761,-0.6953369,-0.095937856,1.474417,-0.8846824,0.53442377,1.4937836,0.14325833,-0.44013014,0.2415757,1.2901864,0.9903961
0.1,0.0,0.6,0.0,0.0,0,-0.6187128,1.9163065,-0.37779498,-0.69709074,-0.10244996,1.475589,-0.8358203,0.5368679,1.492567,0.1441739,-0.44172865,0.21572699,1.2699314,1.0308145
0.1,0.0,0.6,0.0,0.0,0,-0.6196529,1.9133009,-0.37849858,-0.69685477,-0.10122662,1.4731078,-0.8551936,0.5155625,1.486317,0.13763371,-0.44747725,0.20853727,1.2957406,1.0997231
0.1,0.0,0.6,0.0,0.0,0,-0.6159463,1.9123598,-0.38017955,-0.6955134,-0.09463131,1.4741037,-0.9068918,0.5277758,1.4861207,0.12848899,-0.43630296,0.22535731,1.2789057,1.000369
0.1,0.0,0.6,0.0,0.0,0,-0.61675084,1.9122173,-0.3751335,-0.6943016,-0.10841034,1.4745047,-0.88571477,0.54991865,1.4885879,0.13134667,-0.44627562,0.22770347,1.2965205,1.0386741
0.1,0.0,0.6,0.0,0.0,0,-0.6157706,1.9139469,-0.3747092,-0.69573426,-0.0980619,1.4751021,-0.9072724,0.53190583,1.4856862,0.13975652,-0.4359824,0.2262458,1.279612,1.0632297
0.1,0.0,0.6,0.0,0.0,0,-0.61637294,1.915287,-0.3791802,-0.6956092,-0.09134416,1.4742987,-0.84406203,0.52863353,1.483544,0.15207615,-0.43970242,0.22244336,1.2883078,1.0195057
0.1,0.0,0.6,0.0,0.0,0,-0.6154523,1.9142908,-0.38481054,-0.69553065,-0.08984139,1.4725183,-0.9077937,0.5281368,1.4943451,0.13213597,-0.43815845,0.22752373,1.2837805,1.0263098
0.1,0.0,0.6,0.0,0.0,0,-0.6175294,1.9140093,-0.38131738,-0.6963494,-0.09612327,1.4739505,-0.88477695,0.5322322,1.4786671,0.15651079,-0.438244,0.21313573,1.2823327,0.97435576
0.1,0.0,0.6,0.0,0.0,0,-0.61680543,1.9152789,-0.37578326,-0.6957972,-0.100105695,1.4744601,-0.87464064,0.5385155,1.4873533,0.1423022,-0.43516034,0.24077125,1.2803684,1.028091
0.1,0.0,0.6,0.0,0.0,0,-0.6176395,1.9130737,-0.3837373,-0.6974167,-0.097644374,1.4746754,-0.88627756,0.55151224,1.4924779,0.13353668,-0.44471112,0.2240531,1.2788109,1.0681399
0.1,0.0,0.6,0.0,0.0,0,-0.6189966,1.9134818,-0.38264224,-0.6954765,-0.100795165,1.4758542,-0.84632546,0.53752744,1.4895737,0.14431547,-0.45098537,0.24344054,1.2927132,1.0252323
0.1,0.0,0.6,0.0,0.0,0,-0.616856,1.914256,-0.37543732,-0.69512856,-0.09699418,1.4743965,-0.8460718,0.52186704,1.4867197,0.13791206,-0.44930556,0.20684215,1.300562,1.0036867
0.1,0.0,0.6,0.0,0.0,0,-0.621296,1.9138303,-0.37364185,-0.6955005,-0.08176579,1.476201,-0.87766325,0.53050214,1.4840704,0.13790262,-0.44278115,0.23644446,1.294663,1.0106941
0.1,0.0,0.6,0.0,0.0,0,-0.6170032,1.9130967,-0.382117,-0.696503,-0.097541615,1.4735358,-0.899974,0.5351461,1.4902207,0.15181962,-0.4379417,0.22282946,1.2758383,0.9984409
0.1,0.0,0.6,0.0,0.0,0,-0.61520106,1.9136081,-0.37507376,-0.6948053,-0.09404728,1.474524,-0.8383367,0.5469264,1.4876564,0.14468822,-0.4423634,0.22183143,1.2932601,0.9519807
0.1,0.0,0.6,0.0,0.0,0,-0.6162867,1.9128608,-0.3772846,-0.69701356,-0.10902134,1.4761044,-0.87650424,0.53550786,1.4847211,0.1548251,-0.4371971,0.23284774,1.280492,1.046257
0.1,0.0,0.6,0.0,0.0,0,-0.61758375,1.9139297,-0.37576714,-0.6953015,-0.09257469,1.4735012,-0.8440338,0.5259727,1.4845283,0.13715063,-0.4383519,0.22757357,1.2926354,1.0203335
0.1,0.0,0.6,0.0,0.0,0,-0.6140279,1.9144946,-0.3747065,-0.6952695,-0.102461495,1.4761766,-0.9122511,0.5330949,1.4800026,0.1424039,-0.43245232,0.22755001,1.2841702,1.0319028
0.1,0.0,0.6,0.0,0.0,0,-0.61601734,1.913673,-0.37729296,-0.69566476,-0.10535233,1.4754874,-0.8644858,0.538302,1.4894148,0.14883475,-0.4453364,0.26200503,1.2812154,1.0678529
0.1,0.0,0.6,0.0,0.0,0,-0.6187448,1.9129776,-0.3748066,-0.6964413,-0.095101915,1.4756994,-0.8700444,0.5204765,1.4877963,0.13480844,-0.43814063,0.24470112,1.2983768,0.9778176
0.1,0.0,0.6,0.0,0.0,0,-0.6197354,1.9142624,-0.37731645,-0.6954739,-0.09637836,1.4761077,-0.8481458,0.51628846,1.489859,0.12579988,-0.4377191,0.20837498,1.2836828,1.0491378
0.1,0.0,0.6,0.0,0.0,0,-0.61767,1.9138926,-0.37430224,-0.6965202,-0.08264147,1.4749529,-0.8635944,0.5354248,1.485395,0.14554076,-0.43634945,0.2012296,1.2837657,0.98500913
0.1,0.0,0.6,0.0,0.0,0,-0.6194017,1.9139903,-0.37828937,-0.69604635,-0.09185467,1.4762331,-0.8964537,0.5009469,1.4851007,0.13107581,-0.43584722,0.23977076,1.2899439,1.0086797
0.1,0.0,0.6,0.0,0.0,0,-0.6161403,1.9143909,-0.3789304,-0.6955431,-0.09821811,1.4750729,-0.86522394,0.5289131,1.49471,0.15376778,-0.44433457,0.21239167,1.2914792,1.0670482
0.1,0.0,0.6,0.0,0.0,0,-0.61777943,1.9146538,-0.37529474,-0.69817626,-0.09954794,1.4726768,-0.8607127,0.53194404,1.4944286,0.13098203,-0.43857098,0.21572368,1.2714837,0.98244715
0.1,0.0,0.6,0.0,0.0,0,-0.61668056,1.9120777,-0.37695026,-0.6971943,-0.098608166,1.4737374,-0.86727244,0.51856357,1.4840468,0.14018735,-0.43941766,0.22264503,1.2740778,1.0706514
0.1,0.0,0.6,0.0,0.0,0,-0.6173426,1.9141346,-0.3748622,-0.69627094,-0.088745326,1.4728099,-0.861453,0.5336276,1.4818077,0.15681334,-0.44601336,0.23972243,1.2734095,1.001796
0.1,0.0,0.6,0.0,0.0,0,-0.61637306,1.9139702,-0.37546477,-0.69741714,-0.088200636,1.4743485,-0.86726433,0.51747805,1.4878764,0.13437848,-0.4485134,0.23265262,1.2818065,0.9403156
0.1,0.0,0.6,0.0,0.0,0,-0.61309576,1.9135164,-0.37719554,-0.69700587,-0.101926096,1.4742377,-0.8846105,0.5241807,1.485785,0.15955566,-0.4403065,0.2384783,1.2829316,0.9843169
0.1,0.0,0.6,0.0,0.0,0,-0.61697626,1.9118196,-0.3744338,-0.69668096,-0.09790183,1.4736598,-0.8601905,0.54087245,1.488528,0.14128734,-0.44132984,0.26178458,1.2810997,1.0070387
0.1,0.0,0.6,0.0,0.0,0,-0.6154476,1.9134835,-0.37420675,-0.69757557,-0.08808148,1.4758277,-0.88107556,0.50956994,1.4954228,0.13558349,-0.4567901,0.22281362,1.2618395,1.0362271
0.1,0.0,0.6,0.0,0.0,0,-0.6161148,1.9134043,-0.37904936,-0.6981573,-0.099207416,1.4742779,-0.84951633,0.5130237,1.489751,0.14996539,-0.44485894,0.22267659,1.2658564,0.98124707
0.1,0.0,0.6,0.0,0.0,0,-0.6151763,1.9127172,-0.37868503,-0.6964656,-0.08526525,1.4745708,-0.8475458,0.5562908,1.4854379,0.13788703,-0.44422367,0.23558629,1.2684797,0.999666
0.1,0.0,0.6,0.0,0.0,0,-0.6156279,1.9152484,-0.37503278,-0.69727886,-0.09604222,1.4740038,-0.8775789,0.5306637,1.4879715,0.12927377,-0.44070953,0.24096592,1.2854221,0.96486545
0.1,0.0,0.6,0.0,0.0,0,-0.61544394,1.9125087,-0.37348798,-0.69633174,-0.09474776,1.4758849,-0.85109454,0.51009655,1.4859724,0.13269152,-0.44604307,0.22213337,1.2760304,1.0260385
0.1,0.0,0.6,0.0,0.0,0,-0.61769134,1.9128728,-0.3739043,-0.696376,-0.097331084,1.473522,-0.868641,0.5298479,1.4863317,0.15059695,-0.45218852,0.22107393,1.2897727,0.92811036
0.1,0.0,0.6,0.0,0.0,0,-0.6144195,1.9144969,-0.37932086,-0.69623905,-0.09647149,1.4746704,-0.8347978,0.5387878,1.4875445,0.14218748,-0.4432645,0.20591244,1.2597919,1.0033153
0.1,0.0,0.6,0.0,0.0,0,-0.6159133,1.9132663,-0.38318482,-0.6969237,-0.100435734,1.4738364,-0.8536737,0.51142055,1.4906167,0.13785596,-0.4544127,0.24110696,1.280008,1.0028343
0.1,0.0,0.6,0.0,0.0,0,-0.61651367,1.9124955,-0.37285,-0.6972263,-0.09955638,1.4742894,-0.814661,0.52654815,1.481689,0.13386299,-0.43958342,0.20254909,1.2904929,1.0485616
0.1,0.0,0.6,0.0,0.0,0,-0.6192691,1.9124473,-0.37724867,-0.696762,-0.10269497,1.4730482,-0.88655347,0.54029185,1.4926963,0.122567385,-0.44389808,0.24661559,1.2683418,1.0991077
0.1,0.0,0.6,0.0,0.0,0,-0.6170181,1.9132448,-0.37638566,-0.6968933,-0.10431174,1.4743956,-0.8763687,0.5051648,1.4837363,0.15076116,-0.44001395,0.23031977,1.2483468,1.098536
0.1,0.0,0.6,0.0,0.0,0,-0.6168738,1.9133979,-0.37139958,-0.6975771,-0.09800469,1.4733181,-0.8726038,0.51103854,1.4861652,0.15218523,-0.43540618,0.22010513,1.2856902,0.990743
0.1,0.0,0.6,0.0,0.0,0,-0.6137233,1.9162933,-0.36982346,-0.6967988,-0.09251925,1.4739531,-0.8571048,0.51490915,1.490152,0.14374983,-0.44546485,0.21468222,1.2799659,0.9964273
0.1,0.0,0.6,0.0,0.0,0,-0.6154208,1.9130193,-0.37714767,-0.696235,-0.09756571,1.4730601,-0.88357323,0.5244382,1.4876281,0.14066206,-0.4481259,0.21520737,1.2675054,1.0221384
0.1,0.0,0.6,0.0,0.0,0,-0.6182629,1.9127905,-0.37230185,-0.69709307,-0.09587513,1.4732999,-0.86373466,0.53931993,1.4875531,0.15047906,-0.45106244,0.19046652,1.2859883,0.98710257
0.1,0.0,0.6,0.0,0.0,0,-0.6183649,1.9122014,-0.37804747,-0.69601405,-0.09227606,1.4743277,-0.86833256,0.5322867,1.4873855,0.14563063,-0.43675885,0.21553034,1.2437439,0.94359344
0.1,0.0,0.6,0.0,0.0,0,-0.6176062,1.9122328,-0.37623337,-0.695253,-0.083841965,1.4725257,-0.8837337,0.5341042,1.482621,0.1359942,-0.4471255,0.22003014,1.2768147,0.9593055
0.1,0.0,0.6,0.0,0.0,0,-0.6167016,1.9136426,-0.37387103,-0.69689894,-0.09453002,1.4733981,-0.8627143,0.54298383,1.4874564,0.12940145,-0.44005588,0.21587403,1.2741369,0.99985546
0.1,0.0,0.6,0.0,0.0,0,-0.6148437,1.9127128,-0.3811956,-0.6964875,-0.09522885,1.4725852,-0.8335016,0.5217251,1.486247,0.15076679,-0.44248426,0.26446876,1.2704709,1.0673106
0.1,0.0,0.6,0.0,0.0,0,-0.6157663,1.9129022,-0.3821024,-0.696732,-0.09304536,1.475635,-0.86295176,0.52714247,1.4850639,0.13139094,-0.44452426,0.21917252,1.2790773,1.0205944
0.1,0.0,0.6,0.0,0.0,0,-0.6159471,1.9127854,-0.37445635,-0.6960597,-0.096202634,1.4732081,-0.8748481,0.52682954,1.489892,0.1385594,-0.4483195,0.21539329,1.2801032,1.006676
0.1,0.0,0.6,0.0,0.0,0,-0.617048,1.9140531,-0.37311625,-0.6973416,-0.09877913,1.4750174,-0.86325467,0.5188388,1.4860178,0.12098028,-0.44601727,0.2434227,1.2745632,1.0363938
0.1,0.0,0.6,0.0,0.0,0,-0.6168309,1.9128919,-0.37648687,-0.6973509,-0.087379545,1.4754827,-0.8440079,0.53572255,1.4915584,0.13895366,-0.450681,0.23070842,1.2839196,1.0030966
0.1,0.0,0.6,0.0,0.0,0,-0.6171704,1.9148422,-0.37554374,-0.69791543,-0.105259486,1.4736811,-0.8662461,0.51842403,1.4918075,0.15032703,-0.44280592,0.25205794,1.2770494,1.0312403
0.1,0.0,0.6,0.0,0.0,0,-0.6171676,1.9152035,-0.36672804,-0.69576025,-0.09540168,1.4721409,-0.8497682,0.5099289,1.4920906,0.13112983,-0.44491962,0.2242639,1.2783358,1.0109593
0.1,0.0,0.6,0.0,0.0,0,-0.62184554,1.9129888,-0.37195802,-0.6968985,-0.10033065,1.4744599,-0.8328157,0.5211579,1.4919363,0.15219164,-0.44948268,0.20919251,1.2586113,1.0886072
0.1,0.0,0.6,0.0,0.0,0,-0.6165827,1.9119686,-0.3725338,-0.6977952,-0.10282786,1.4743932,-0.85162807,0.54859644,1.4884468,0.15073475,-0.4435221,0.21345025,1.2852727,1.0078712
0.1,0.0,0.6,0.0,0.0,0,-0.61572605,1.9140416,-0.37857175,-0.6962166,-0.09559507,1.4718522,-0.871698,0.5304923,1.4832971,0.13509816,-0.44630787,0.20711187,1.2742548,1.0261422
0.1,0.0,0.6,0.0,0.0,0,-0.61785716,1.9131958,-0.37514612,-0.69695985,-0.084788024,1.474169,-0.86614406,0.52391577,1.4854891,0.14538899,-0.4397656,0.20948887,1.2819631,1.0657545
0.1,0.0,0.6,0.0,0.0,0,-0.61631256,1.912652,-0.37738073,-0.69684607,-0.09706452,1.472671,-0.8740907,0.54281926,1.4875473,0.1441242,-0.44333944,0.20214072,1.2643317,0.99862975
0.1,0.0,0.6,0.0,0.0,0,-0.6179332,1.9132589,-0.37555256,-0.6957951,-0.100957304,1.4720895,-0.8633753,0.5322528,1.4858207,0.14537996,-0.4461575,0.2217088,1.277268,0.9965975
0.1,0.0,0.6,0.0,0.0,0,-0.6179494,1.9131309,-0.38065273,-0.69706315,-0.09968191,1.4737865,-0.8760829,0.5147739,1.4910948,0.14188638,-0.44266614,0.22126932,1.2733389,1.0459462
0.1,0.0,0.6,0.0,0.0,0,-0.6143795,1.9125264,-0.37535754,-0.6959813,-0.10418681,1.4743041,-0.89694524,0.53507894,1.4856997,0.1549535,-0.4407202,0.23819646,1.2873144,1.090856
0.1,0.0,0.6,0.0,0.0,0,-0.61378324,1.9145938,-0.37496722,-0.69620264,-0.089353465,1.4744326,-0.8706375,0.51868427,1.4923655,0.12995897,-0.44620287,0.22490814,1.2847286,1.0569162
0.1,0.0,0.6,0.0,0.0,0,-0.62007105,1.9115777,-0.37621066,-0.6972109,-0.088808894,1.4733737,-0.8711435,0.51102597,1.4900522,0.13704821,-0.44172862,0.22292855,1.2699342,1.036003
0.1,0.0,0.6,0.0,0.0,0,-0.61589986,1.9123465,-0.38102138,-0.69676113,-0.09744205,1.4745908,-0.83882713,0.5368557,1.4952822,0.15044975,-0.44270426,0.21994808,1.2818327,1.0453746
0.1,0.0,0.6,0.0,0.0,0,-0.61541826,1.9128846,-0.38187528,-0.6974867,-0.09863512,1.4725324,-0.8724515,0.55754316,1.4851205,0.13159427,-0.43927518,0.2122108,1.2776551,1.03423
0.1,0.0,0.6,0.0,0.0,0,-0.61804676,1.914592,-0.37775925,-0.6963089,-0.08064577,1.4710716,-0.86776096,0.5110081,1.4908786,0.15411906,-0.43984902,0.21341929,1.2665731,0.9841676
0.1,0.0,0.6,0.0,0.0,0,-0.61759645,1.9113277,-0.37788406,-0.6959011,-0.08975905,1.4737309,-0.86597633,0.5121277,1.4961603,0.1315403,-0.4382142,0.25596952,1.2862306,0.977465
0.1,0.0,0.6,0.0,0.0,0,-0.61638975,1.913915,-0.37270957,-0.6955364,-0.094021045,1.4731157,-0.8387492,0.52937317,1.4883738,0.13031058,-0.4419165,0.2370585,1.2751079,1.0362662
0.1,0.0,0.6,0.0,0.0,0,-0.6156105,1.9139005,-0.37847462,-0.69601446,-0.09330502,1.4733168,-0.8876998,0.52212393,1.4857267,0.14826585,-0.44869447,0.2527774,1.2836641,1.0396217
0.1,0.0,0.6,0.0,0.0,0,-0.61646324,1.9142957,-0.37440902,-0.6963113,-0.09899559,1.4745703,-0.87074256,0.5204241,1.49312,0.14302266,-0.4376402,0.26744756,1.275373,1.0291672
0.1,0.0,0.6,0.0,0.0,0,-0.61586004,1.9143912,-0.37323484,-0.6968658,-0.09905582,1.4750532,-0.8522807,0.5228608,1.4794983,0.122674614,-0.44652423,0.24062169,1.2747983,1.0407646
0.1,0.0,0.6,0.0,0.0,0,-0.6169459,1.9141097,-0.3761876,-0.69620234,-0.08623305,1.4720643,-0.87677366,0.523206,1.4827344,0.14966798,-0.45011804,0.2077328,1.284383,1.072298
0.1,0.0,0.6,0.0,0.0,0,-0.6182797,1.9128115,-0.3761289,-0.69701993,-0.089726985,1.4733864,-0.89147973,0.52097505,1.4896866,0.14628007,-0.43982586,0.22937939,1.2762907,1.0235834
0.1,0.0,0.6,0.0,0.0,0,-0.6174947,1.9128798,-0.37300214,-0.696338,-0.094864324,1.473465,-0.84273016,0.52038753,1.4915549,0.13981634,-0.4400143,0.21798281,1.2787868,0.9731158
0.1,0.0,0.6,0.0,0.0,0,-0.61584586,1.9138573,-0.3706589,-0.6956054,-0.093662746,1.4743196,-0.83697945,0.5200714,1.4948524,0.1366396,-0.44451016,0.23702979,1.2785723,1.0058392
0.1,0.0,0.6,0.0,0.0,0,-0.61577874,1.9127524,-0.37601638,-0.69794405,-0.095298916,1.4751519,-0.8977728,0.52978003,1.4904294,0.14547922,-0.44144702,0.2010177,1.2885643,1.0463762
0.1,0.0,0.6,0.0,0.0,0,-0.6161605,1.9130363,-0.37369195,-0.6958012,-0.10187732,1.4742987,-0.8750459,0.5057848,1.490233,0.1158152,-0.44247177,0.24638836,1.2850915,1.0200565
0.1,0.0,0.6,0.0,0.0,0,-0.61454487,1.9142569,-0.37683228,-0.6968711,-0.11117628,1.4743841,-0.8598272,0.53090507,1.4867551,0.15057722,-0.4372906,0.23440821,1.268924,1.0003879
0.1,0.0,0.6,0.0,0.0,0,-0.6166425,1.9131162,-0.37568226,-0.69642174,-0.0894706,1.475331,-0.88720983,0.5409238,1.4917969,0.14201476,-0.4442134,0.22125378,1.2767683,1.0328463
0.1,0.0,0.6,0.0,0.0,0,-0.6170273,1.9136907,-0.38082746,-0.69714713,-0.08913282,1.474011,-0.8435674,0.51361644,1.4932237,0.16017708,-0.44474807,0.21891536,1.2682365,1.0246738
0.1,0.0,0.6,0.0,0.0,0,-0.61728054,1.9133217,-0.37432307,-0.6967311,-0.10787667,1.4754903,-0.85837907,0.5260672,1.4821835,0.14817314,-0.43986395,0.24436668,1.2777799,1.0129366
0.1,0.0,0.6,0.0,0.0,0,-0.61798894,1.9139438,-0.37648675,-0.69630575,-0.09413988,1.4738483,-0.82512194,0.5195153,1.4891233,0.15109372,-0.44006774,0.2467936,1.277631,1.031809
0.1,0.0,0.6,0.0,0.0,0,-0.61620706,1.9133567,-0.37703604,-0.6972491,-0.09645783,1.475637,-0.88526297,0.5446462,1.4832846,0.1427078,-0.44519606,0.20459208,1.2800958,1.049872
0.1,0.0,0.6,0.0,0.0,0,-0.61652786,1.914,-0.371673,-0.69540805,-0.097271204,1.474565,-0.8785679,0.52265805,1.4870355,0.12233428,-0.44727615,0.21095282,1.2771348,1.0387721
0.1,0.0,0.6,0.0,0.0,0,-0.61598766,1.9138576,-0.3768364,-0.69670135,-0.10181752,1.4739022,-0.8797546,0.5225726,1.489667,0.15739745,-0.4432323,0.22298595,1.2847174,1.0462785
0.1,0.0,0.6,0.0,0.0,0,-0.61518586,1.9129512,-0.3816635,-0.69520366,-0.098266535,1.4756242,-0.8427326,0.5246479,1.495591,0.14797379,-0.44337443,0.23056991,1.2753417,1.1015459
0.1,0.0,0.6,0.0,0.0,0,-0.61859435,1.9136856,-0.37506852,-0.69715,-0.10893336,1.474196,-0.87671137,0.51872325,1.493435,0.14091721,-0.4382267,0.22576393,1.2704294,0.9989307
0.1,0.0,0.6,0.0,0.0,0,-0.61762154,1.9123822,-0.38147214,-0.6962067,-0.095772624,1.4735334,-0.8791885,0.5356845,1.4869741,0.14179689,-0.43206987,0.2408886,1.2733234,0.9777505
0.1,0.0,0.6,0.0,0.0,0,-0.6155064,1.9128026,-0.37611628,-0.6954663,-0.093883805,1.4729105,-0.8799483,0.5235983,1.4877628,0.14554268,-0.44045842,0.21978264,1.2888191,0.9983354
0.1,0.0,0.6,0.0,0.0,0,-0.6155012,1.9143642,-0.37480354,-0.69650084,-0.110062666,1.4749544,-0.87373203,0.5188539,1.4892955,0.14382532,-0.44343555,0.22973502,1.2823981,0.9958133
0.1,0.0,0.6,0.0,0.0,0,-0.6189597,1.9138303,-0.3758017,-0.69662285,-0.098488174,1.4742051,-0.8670614,0.5398302,1.4851362,0.13782072,-0.44955954,0.25086525,1.2743684,1.0646055
0.1,0.0,0.6,0.0,0.0,0,-0.6160641,1.9126701,-0.3805095,-0.69562805,-0.087291755,1.4733115,-0.8850121,0.5118425,1.482419,0.14628905,-0.44583026,0.22315225,1.3022265,1.0522579
0.1,0.0,0.6,0.0,0.0,0,-0.6130221,1.9139324,-0.3798247,-0.696235,-0.1096444,1.4735647,-0.9083421,0.5421777,1.4836752,0.14667863,-0.44115102,0.2283186,1.291876,1.0542016
0.1,0.0,0.6,0.0,0.0,0,-0.6186924,1.9132056,-0.3770691,-0.69610757,-0.09605506,1.4738554,-0.8815346,0.5299855,1.4847004,0.13559422,-0.43240154,0.23510882,1.2656515,1.0377253
0.1,0.0,0.6,0.0,0.0,0,-0.61844885,1.9138047,-0.37355202,-0.696887,-0.10733513,1.4750061,-0.8750907,0.5537173,1.4885501,0.14773218,-0.45126855,0.20600195,1.2751814,1.019251
0.1,0.0,0.6,0.0,0.0,0,-0.61681914,1.9144541,-0.37534204,-0.6968677,-0.09785705,1.4750642,-0.87042916,0.5185936,1.4813194,0.13804701,-0.44161168,0.2186165,1.2676717,1.0266125
0.1,0.0,0.6,0.0,0.0,0,-0.61894387,1.9128585,-0.3769907,-0.6960502,-0.097636655,1.4726543,-0.8708784,0.5255556,1.4874582,0.13549206,-0.43708393,0.2338626,1.2723408,1.0657283
0.1,0.0,0.6,0.0,0.0,0,-0.61820984,1.9138864,-0.3740558,-0.6965501,-0.095232934,1.4747226,-0.8695802,0.5302634,1.4953532,0.14759557,-0.44192344,0.24507008,1.2847577,1.0420543
0.1,0.0,0.6,0.0,0.0,0,-0.6156143,1.9145935,-0.37717915,-0.69580245,-0.09093699,1.4744422,-0.91472226,0.532258,1.4909325,0.1396322,-0.44178733,0.2495592,1.2694683,1.041698
0.1,0.0,0.6,0.0,0.0,0,-0.6172169,1.9138234,-0.37601483,-0.6957767,-0.09713946,1.4749292,-0.8462476,0.50873363,1.4904102,0.12886699,-0.4479542,0.2310206,1.2871752,1.038149
0.1,0.0,0.6,0.0,0.0,0,-0.61451364,1.9140719,-0.37750185,-0.69553566,-0.08524002,1.4741555,-0.89323026,0.52168846,1.4847211,0.122737184,-0.44438067,0.21732312,1.2894026,1.0351566
0.1,0.0,0.6,0.0,0.0,0,-0.61593217,1.9137534,-0.37716535,-0.69617033,-0.09636415,1.4753523,-0.847216,0.5300052,1.4896688,0.15146655,-0.4383687,0.21782942,1.2773011,1.0881118
0.1,0.0,0.6,0.0,0.0,0,-0.6187402,1.9127945,-0.3742481,-0.6952473,-0.097786754,1.4744569,-0.8647311,0.52337563,1.4892248,0.15112564,-0.44450945,0.23055434,1.2764227,1.0752783
0.1,0.0,0.6,0.0,0.0,0,-0.6186548,1.9139949,-0.37397182,-0.6955661,-0.107267536,1.472639,-0.8893154,0.54019827,1.4957558,0.15005594,-0.43416792,0.23724891,1.2712332,1.0122938
0.1,0.0,0.6,0.0,0.0,0,-0.616232,1.9143534,-0.37584758,-0.6954495,-0.09360646,1.4736702,-0.850167,0.5490239,1.4881127,0.14589755,-0.44065234,0.22236821,1.2841215,1.0125179
0.1,0.0,0.6,0.0,0.0,0,-0.62001896,1.9132797,-0.37838656,-0.69649965,-0.10303187,1.473576,-0.8460212,0.5154298,1.4889742,0.13668257,-0.45127285,0.20186162,1.2893378,1.0525063
0.1,0.0,0.6,0.0,0.0,0,-0.6157213,1.9137676,-0.37874907,-0.6972337,-0.098652124,1.4747125,-0.84333485,0.53824675,1.4875308,0.14363359,-0.4438878,0.20200999,1.2869762,0.9990339
0.1,0.0,0.6,0.0,0.0,0,-0.6194658,1.9139899,-0.3738024,-0.69530815,-0.09877174,1.4746387,-0.8470413,0.52197593,1.4898902,0.15026647,-0.44047117,0.2480861,1.2706145,1.0232986
0.1,0.0,0.6,0.0,0.0,0,-0.6156708,1.913208,-0.38192096,-0.6964634,-0.093507476,1.4741663,-0.87322193,0.5180417,1.4923006,0.15771729,-0.44243062,0.23424272,1.2958617,1.0091317
0.1,0.0,0.6,0.0,0.0,0,-0.61463916,1.9122943,-0.37303245,-0.69591546,-0.10818911,1.4738828,-0.84613734,0.5390632,1.4855661,0.13738006,-0.44176134,0.20176396,1.2893103,1.0453852
0.1,0.0,0.6,0.0,0.0,0,-0.6180694,1.9145758,-0.3734946,-0.6956228,-0.09962976,1.4741623,-0.87241375,0.5303779,1.493677,0.13559093,-0.44698003,0.269843,1.283391,1.0210804
0.1,0.0,0.6,0.0,0.0,0,-0.6168234,1.9127854,-0.37463215,-0.69507813,-0.11264127,1.4736334,-0.8450251,0.5001695,1.4822539,0.1524302,-0.44729078,0.25242427,1.2875282,1.0205227
0.1,0.0,0.6,0.0,0.0,0,-0.61797255,1.9135652,-0.3772925,-0.69555956,-0.09994613,1.4719675,-0.8619461,0.504927,1.4825592,0.14038287,-0.4412851,0.23514982,1.2710308,1.0313919
0.1,0.0,0.6,0.0,0.0,0,-0.6159521,1.9130495,-0.37893176,-0.6956515,-0.078716055,1.4729974,-0.85208285,0.54483163,1.4871945,0.12141061,-0.44691154,0.20407794,1.2967777,1.0412592
0.1,0.0,0.6,0.0,0.0,0,-0.61698514,1.9143082,-0.3828595,-0.6958192,-0.09762297,1.4726375,-0.87629575,0.53807706,1.4827638,0.13767543,-0.43790093,0.23528285,1.2704821,1.0059729
0.1,0.0,0.6,0.0,0.0,0,-0.6193121,1.913227,-0.38163114,-0.69673896,-0.10078753,1.4746538,-0.86262286,0.53811586,1.488274,0.11399817,-0.44289503,0.24841954,1.2794486,1.0629399
0.1,0.0,0.6,0.0,0.0,0,-0.61641306,1.914707,-0.3758935,-0.6954784,-0.08736382,1.4746168,-0.857143,0.56157273,1.4826227,0.13826966,-0.44696367,0.2382166,1.2817575,1.0417743
0.1,0.0,0.6,0.0,0.0,0,-0.61603343,1.9132435,-0.37636137,-0.69685805,-0.0981647,1.4747123,-0.8640485,0.5338607,1.4974158,0.14792472,-0.44360778,0.2323193,1.2881799,1.0381914
0.1,0.0,0.6,0.0,0.0,0,-0.6155566,1.9138978,-0.3800826,-0.6951493,-0.099483155,1.4745044,-0.86087286,0.5316557,1.4863417,0.14807329,-0.44515923,0.23540673,1.2888873,1.0668622
0.1,0.0,0.6,0.0,0.0,0,-0.61779255,1.9151419,-0.38255006,-0.6966199,-0.0946971,1.4738128,-0.8699389,0.53601617,1.4844142,0.13297303,-0.4396725,0.21464373,1.2884719,1.0161136
0.1,0.0,0.6,0.0,0.0,0,-0.6178133,1.9143565,-0.38060617,-0.69641244,-0.08837098,1.4749511,-0.9025087,0.5113238,1.489723,0.1384548,-0.43855274,0.21551983,1.2780021,1.0827717
0.1,0.0,0.6,0.0,0.0,0,-0.61384606,1.9133918,-0.37138653,-0.6966879,-0.09627041,1.4751441,-0.85709506,0.53800297,1.4865944,0.13177267,-0.44517863,0.2040485,1.265861,0.9752917
0.1,0.0,0.6,0.0,0.0,0,-0.6167459,1.9136152,-0.3752143,-0.69640046,-0.096530594,1.4742043,-0.88115525,0.5202223,1.4912193,0.14919864,-0.44305566,0.20227093,1.2581161,0.94070846
0.1,0.0,0.6,0.0,0.0,0,-0.61506677,1.9138988,-0.37360573,-0.6973349,-0.10363275,1.4738191,-0.8688224,0.516281,1.4965436,0.13196358,-0.44582015,0.24682458,1.2714196,0.97871506
0.1,0.0,0.6,0.0,0.0,0,-0.6173416,1.9134207,-0.37377712,-0.6964576,-0.10082294,1.4750781,-0.8494092,0.53024733,1.4908681,0.14509135,-0.43725476,0.20467837,1.2497851,0.97970945
0.1,0.0,0.6,0.0,0.0,0,-0.6171749,1.9137042,-0.3722915,-0.69655424,-0.10016197,1.4746351,-0.883488,0.516749,1.4897547,0.13554199,-0.4384455,0.21422108,1.2682339,1.0089295
0.1,0.0,0.6,0.0,0.0,0,-0.614467,1.9142225,-0.37400395,-0.6951143,-0.10207844,1.4737555,-0.8539842,0.51401687,1.4906784,0.12931733,-0.44033533,0.21388581,1.2865558,0.9436666
0.1,0.0,0.6,0.0,0.0,0,-0.6157183,1.9127926,-0.37555867,-0.696267,-0.100093275,1.4736732,-0.8852416,0.50050694,1.4876751,0.14905316,-0.44613773,0.23141599,1.2840309,1.028197
0.1,0.0,0.6,0.0,0.0,0,-0.615127,1.9125316,-0.37602764,-0.69552207,-0.10173773,1.472645,-0.86562943,0.5148086,1.4908088,0.13812599,-0.44519857,0.24166909,1.2844557,0.9884979
0.1,0.0,0.6,0.0,0.0,0,-0.61627686,1.9123826,-0.38118845,-0.6961725,-0.09803673,1.474817,-0.8217452,0.52859646,1.493891,0.14509927,-0.4667704,0.2141154,1.2981366,1.0639163
0.1,0.0,0.6,0.0,0.0,0,-0.61724067,1.9136903,-0.37899473,-0.69612837,-0.094828874,1.47315,-0.87892425,0.54197633,1.490394,0.14047311,-0.44637877,0.24756004,1.2566991,1.0591089
0.1,0.0,0.6,0.0,0.0,0,-0.6175862,1.9125321,-0.3760241,-0.69512886,-0.09010905,1.4729564,-0.8381635,0.5236116,1.4954262,0.13650386,-0.4497128,0.23034942,1.2823735,1.02831
0.1,0.0,0.6,0.0,0.0,0,-0.6196004,1.9128785,-0.3774336,-0.69714457,-0.09652677,1.4734546,-0.86423296,0.521384,1.4947933,0.12860435,-0.4507387,0.24407881,1.2818334,1.0084924
0.1,0.0,0.6,0.0,0.0,0,-0.6157873,1.9145575,-0.3717975,-0.69502854,-0.09981973,1.4750754,-0.8615514,0.52753806,1.4818878,0.14117545,-0.44150355,0.23297143,1.280152,1.017204
0.1,0.0,0.6,0.0,0.0,0,-0.6144605,1.9134295,-0.3808983,-0.6978804,-0.09783277,1.4744256,-0.9093676,0.55025786,1.4899225,0.14382082,-0.43618578,0.23628297,1.2771014,1.0211532
0.1,0.0,0.6,0.0,0.0,0,-0.6197252,1.9125264,-0.37368092,-0.69490427,-0.09376123,1.4742141,-0.84726274,0.5226225,1.4872327,0.13585374,-0.44093713,0.23848946,1.2696068,0.9873393
0.1,0.0,0.6,0.0,0.0,0,-0.6147832,1.9128327,-0.37571606,-0.69642323,-0.08857073,1.4752089,-0.8352331,0.5203222,1.4851695,0.148466,-0.43701753,0.22768697,1.2914357,1.0310632
0.1,0.0,0.6,0.0,0.0,0,-0.61620533,1.9133439,-0.37945345,-0.6976316,-0.1053795,1.4750756,-0.87624496,0.54486287,1.4920278,0.14371857,-0.44343185,0.2190705,1.2831198,0.97359216
0.1,0.0,0.6,0.0,0.0,0,-0.6156475,1.9128563,-0.3728272,-0.69580466,-0.08939124,1.4746071,-0.8463795,0.5386084,1.4884257,0.1355934,-0.44221154,0.20870183,1.2726132,1.016108
0.1,0.0,0.6,0.0,0.0,0,-0.6138348,1.9143354,-0.3799307,-0.69750494,-0.106684335,1.4742571,-0.8975294,0.520523,1.4886528,0.14592299,-0.44069177,0.23661487,1.2733012,1.0001144
0.1,0.0,0.6,0.0,0.0,0,-0.6149789,1.9140388,-0.38180897,-0.6966478,-0.09784562,1.4738791,-0.8824131,0.51999307,1.4971126,0.13400926,-0.445716,0.24020885,1.2824466,1.0045336
0.1,0.0,0.6,0.0,0.0,0,-0.616873,1.9138318,-0.37726912,-0.69631636,-0.091240525,1.4737234,-0.83566123,0.51246935,1.4857688,0.15277132,-0.4437585,0.2440224,1.2897006,0.999557
0.1,0.0,0.6,0.0,0.0,0,-0.61782444,1.9132773,-0.37419844,-0.6953511,-0.10021032,1.4745753,-0.84992456,0.5188914,1.4795426,0.14269185,-0.43921977,0.21945605,1.2785515,1.0254992
0.1,0.0,0.6,0.0,0.0,0,-0.6148309,1.9134842,-0.37778383,-0.6961202,-0.101053424,1.4752848,-0.88078153,0.52458996,1.4876821,0.13270755,-0.44140872,0.22913948,1.2888732,1.0118614
0.1,0.0,0.6,0.0,0.0,0,-0.6173127,1.9130257,-0.3730734,-0.696547,-0.09567854,1.4733334,-0.8273985,0.5241082,1.494872,0.14172183,-0.44286066,0.22206034,1.2835121,1.0556172
0.1,0.0,0.6,0.0,0.0,0,-0.6169372,1.9136491,-0.3731331,-0.69583076,-0.09627893,1.4729145,-0.861522,0.5476428,1.485911,0.13562065,-0.44456494,0.2268106,1.2757632,1.0827775
