sanky1234/BimanualDexCatch/isaacgymenvs/cem_results/football_pose_0.0_0.0_0.7999999999999999_0.5235987755982988_0.5235987755982988_0_2025-05-26.csv
x,y,z,roll,pitch,yaw,robot1/joint1,robot1/joint2,robot1/joint3,robot1/joint4,robot1/joint5,robot1/joint6,robot1/joint7,robot2/joint1,robot2/joint2,robot2/joint3,robot2/joint4,robot2/joint5,robot2/joint6,robot2/joint7
0.0,0.0,0.7999999999999999,0.5235987755982988,0.5235987755982988,0,-0.53392,-0.90598834,0.039540496,-0.08312991,-0.14417784,1.1969008,-0.3909486,0.02596579,-1.019803,2.9789555,-0.053119563,-0.047208052,1.2886071,0.26022822
0.0,0.0,0.7999999999999999,0.5235987755982988,0.5235987755982988,0,-0.58494043,-0.90610856,0.06579729,-0.06281464,-0.07303004,1.2189516,0.2401295,0.014761671,-1.0097878,3.058269,-0.038510513,-0.08160543,1.2811735,0.56095
0.0,0.0,0.7999999999999999,0.5235987755982988,0.5235987755982988,0,-0.5881333,-0.9032378,0.11386892,-0.07553632,0.0826674,1.1942579,-0.26299107,0.012200026,-1.0136493,3.0036366,-0.0125464015,-0.05397557,1.3105758,0.45840457
0.0,0.0,0.7999999999999999,0.5235987755982988,0.5235987755982988,0,-0.55847985,-0.9037481,0.08101834,-0.086077236,-0.121432394,1.1556199,-0.18471193,0.004453448,-1.0146565,2.9785435,-0.07892838,-0.041531034,1.3006066,0.93982357
0.0,0.0,0.7999999999999999,0.5235987755982988,0.5235987755982988,0,-0.5346539,-0.9070113,0.093232594,-0.075101994,-0.06875371,1.1264476,0.26131967,0.03376483,-1.0219203,3.0530884,-0.03456389,-0.031479515,1.2658862,0.47799042
0.0,0.0,0.7999999999999999,0.5235987755982988,0.5235987755982988,0,-0.5524749,-0.9059487,0.08244377,-0.07985629,-0.01609097,1.1768337,0.5215603,0.038340785,-1.0175072,3.0560389,-0.023034267,0.028658355,1.2793924,0.3312409
0.0,0.0,0.7999999999999999,0.5235987755982988,0.5235987755982988,0,-0.5694972,-0.9041649,-0.022271357,-0.056627505,0.0236027,1.1874657,-0.08146911,0.055084344,-1.02414,3.0475197,-0.06725354,-0.04067772,1.3004235,0.77629066
0.0,0.0,0.7999999999999999,0.5235987755982988,0.5235987755982988,0,-0.5815055,-0.9079254,0.017580701,-0.062363848,0.09797725,1.209934,-0.37610993,0.051424548,-1.0119754,3.0503602,-0.057798173,-0.022891378,1.2783947,0.08625611
0.0,0.0,0.7999999999999999,0.5235987755982988,0.5235987755982988,0,-0.58564,-0.9040261,0.057989802,-0.069824904,0.19742209,1.1704015,-0.30587184,0.035118088,-1.018544,3.1142297,-0.06178691,-0.0015353113,1.3010784,0.08711213
0.0,0.0,0.7999999999999999,0.5235987755982988,0.5235987755982988,0,-0.56925654,-0.90459335,0.10288608,-0.073615454,-0.0077037704,1.1905832,-0.5650323,0.055434268,-1.0240791,3.0122423,-0.021642452,-0.012803511,1.2849106,0.15814029
0.0,0.0,0.7999999999999999,0.5235987755982988,0.5235987755982988,0,-0.55664676,-0.9048231,0.10355511,-0.07738399,-0.018152233,1.2057451,0.0075468263,0.007950597,-1.0099322,3.0376728,-0.05807961,0.046673365,1.2692819,0.3474382
0.0,0.0,0.7999999999999999,0.5235987755982988,0.5235987755982988,0,-0.5681114,-0.90817285,0.13929524,-0.07612446,-0.06723004,1.161865,0.4159985,0.027416764,-1.0147598,3.0118825,-0.03221448,-0.06002654,1.3136661,-0.35024378
0.0,0.0,0.7999999999999999,0.5235987755982988,0.5235987755982988,0,-0.56989413,-0.9083041,0.024680428,-0.0775123,-0.12924553,1.1693898,-1.0397666,-0.017604897,-1.0081375,3.023712,-0.07404407,-0.092196256,1.315618,0.68077797
0.0,0.0,0.7999999999999999,0.5235987755982988,0.5235987755982988,0,-0.56290907,-0.9061899,0.11527986,-0.058548965,0.088428594,1.1667986,-1.269193,0.0063102506,-1.0152711,2.9654744,-0.0048593953,-0.031663187,1.270117,0.69893765
0.0,0.0,0.7999999999999999,0.5235987755982988,0.5235987755982988,0,-0.55739695,-0.90742743,0.061204813,-0.090046756,-0.073702924,1.2036304,0.43463802,0.00437787,-1.0164659,3.0390623,-0.039233875,-0.06184814,1.2862135,0.49920154
0.0,0.0,0.7999999999999999,0.5235987755982988,0.5235987755982988,0,-0.5451323,-0.90560293,0.07112393,-0.06454335,-0.030350672,1.1827499,0.06418661,0.0025475603,-1.0128384,3.0079987,-0.031039178,-0.03773119,1.2963394,0.6176876
0.0,0.0,0.7999999999999999,0.5235987755982988,0.5235987755982988,0,-0.54935753,-0.9042721,0.1822022,-0.065680094,0.064528726,1.1742482,0.8935977,4.9841427e-05,-1.0105773,3.0311399,-0.02141173,-0.055879086,1.3360226,0.5494237
0.0,0.0,0.7999999999999999,0.5235987755982988,0.5235987755982988,0,-0.6018563,-0.9026723,-0.0054759495,-0.08280312,0.08173774,1.1771141,0.021180542,-0.008840434,-1.01111,2.9690564,-0.08306164,-0.07567961,1.2646729,0.023173446
0.0,0.0,0.7999999999999999,0.5235987755982988,0.5235987755982988,0,-0.5796236,-0.9071203,0.019744847,-0.07914159,-0.13928811,1.1461315,-0.07209756,0.023566645,-1.0116915,2.979427,-0.03670545,0.041766036,1.3315909,-0.086784445
0.0,0.0,0.7999999999999999,0.5235987755982988,0.5235987755982988,0,-0.568429,-0.9065068,0.07099849,-0.077891655,0.008866854,1.1980672,1.0318229,0.0268461,-1.0160576,3.0740054,-0.029885164,-0.111138895,1.2888018,0.93399966
0.0,0.0,0.7999999999999999,0.5235987755982988,0.5235987755982988,0,-0.5568088,-0.9068327,0.05342743,-0.073770456,-0.19444771,1.1790255,-1.6308322,0.0095780445,-1.0076145,3.0325856,-0.05743761,0.03782546,1.2943375,-0.15291882
0.0,0.0,0.7999999999999999,0.5235987755982988,0.5235987755982988,0,-0.54866844,-0.91162837,0.07835561,-0.086637996,-0.10448337,1.1915506,0.08901705,-0.010668505,-1.0157084,2.9943016,-0.039414085,0.08178982,1.2838839,0.7923268
0.0,0.0,0.7999999999999999,0.5235987755982988,0.5235987755982988,0,-0.58414066,-0.90883297,-0.028249053,-0.08538112,-0.04459575,1.1753961,0.62954414,0.028129555,-1.017522,2.956861,-0.035862528,-0.049962033,1.2760513,0.15685311
0.0,0.0,0.7999999999999999,0.5235987755982988,0.5235987755982988,0,-0.5759897,-0.9047253,0.14273702,-0.06845177,0.0037915423,1.2037933,-0.112805724,-0.027625421,-1.0153264,3.0450687,-0.09124332,0.038141496,1.3288981,0.5245774
0.0,0.0,0.7999999999999999,0.5235987755982988,0.5235987755982988,0,-0.545299,-0.9104756,0.065314524,-0.068865776,-0.100324646,1.1438665,-0.7166156,0.051405795,-1.018096,3.0956929,-0.01947195,0.018147822,1.3402014,0.44591543
0.0,0.0,0.7999999999999999,0.5235987755982988,0.5235987755982988,0,-0.5652672,-0.9090129,0.16177925,-0.0889507,-0.103147246,1.1865981,-0.12492526,0.011069467,-1.011726,3.0050678,-0.047386926,-0.11125646,1.2814941,0.5050695
0.0,0.0,0.7999999999999999,0.5235987755982988,0.5235987755982988,0,-0.6106799,-0.90839326,0.108711034,-0.085358314,0.042196352,1.2007109,-0.4776796,-0.044314254,-1.006339,2.9788194,-0.047163058,-0.02742429,1.3178277,0.36017773
0.0,0.0,0.7999999999999999,0.5235987755982988,0.5235987755982988,0,-0.60329145,-0.9046044,0.13391085,-0.08232538,-0.04890397,1.1401607,0.56232464,0.03634814,-1.021887,3.0344548,-0.06960246,-0.0041904454,1.2892345,-0.23635548
0.0,0.0,0.7999999999999999,0.5235987755982988,0.5235987755982988,0,-0.60268414,-0.9075993,0.0815118,-0.088537805,0.019867616,1.1208587,-0.6571134,0.04671232,-1.0123163,2.9612284,-0.057356194,0.021777166,1.2847041,0.63638896
0.0,0.0,0.7999999999999999,0.5235987755982988,0.5235987755982988,0,-0.5903269,-0.90321535,0.04598842,-0.055534326,-0.09124437,1.0763675,0.2826119,-0.013897539,-1.0086884,3.0022058,-0.039240338,0.021581179,1.3002876,0.8740634
0.0,0.0,0.7999999999999999,0.5235987755982988,0.5235987755982988,0,-0.5820018,-0.905146,0.13272268,-0.0776006,-0.097192325,1.1474434,-0.82071364,0.00889962,-1.0139759,3.0006397,-0.062293828,-0.03796245,1.3105667,0.41827622
0.0,0.0,0.7999999999999999,0.5235987755982988,0.5235987755982988,0,-0.58230495,-0.90875363,0.09918028,-0.061113488,-0.00428733,1.2389379,0.30517805,0.0048164995,-1.0166348,3.0788057,-0.087941825,0.008345165,1.2368712,0.6972607
0.0,0.0,0.7999999999999999,0.5235987755982988,0.5235987755982988,0,-0.56874716,-0.90523964,0.051506862,-0.07819129,-0.030382277,1.1273077,-0.12785067,0.039387655,-1.0096866,3.0856643,-0.06392551,-0.040475182,1.3169216,0.049729425
0.0,0.0,0.7999999999999999,0.5235987755982988,0.5235987755982988,0,-0.598852,-0.90577036,0.05648321,-0.093884945,-0.07588265,1.190993,-0.10094148,0.030833298,-1.0157452,3.0473542,-0.048178837,-0.0616649,1.2472937,-0.60786706
0.0,0.0,0.7999999999999999,0.5235987755982988,0.5235987755982988,0,-0.60845,-0.9079362,0.037400573,-0.0680559,0.112647966,1.1475536,0.020740246,0.007353633,-1.0085199,3.0269728,-0.109759405,-0.092174016,1.3158671,0.044939134
0.0,0.0,0.7999999999999999,0.5235987755982988,0.5235987755982988,0,-0.5695219,-0.90635556,0.07481888,-0.07083268,-0.19531196,1.1945051,0.19437468,0.015472639,-1.0144439,3.0435536,-0.049015388,0.13379216,1.285607,0.0061465907
0.0,0.0,0.7999999999999999,0.5235987755982988,0.5235987755982988,0,-0.5576261,-0.90518516,0.073294275,-0.078056864,0.18577646,1.1856474,-0.97236735,0.008887893,-1.0095128,3.0283725,-0.072380304,-0.014018205,1.2706915,-0.10847443
0.0,0.0,0.7999999999999999,0.5235987755982988,0.5235987755982988,0,-0.56862366,-0.9116051,0.019236742,-0.07770243,0.058218468,1.1824986,-0.16407426,0.047132254,-1.006509,3.00135,-0.08205241,-0.113034874,1.3042411,0.3901322
0.0,0.0,0.7999999999999999,0.5235987755982988,0.5235987755982988,0,-0.58290243,-0.9082461,0.07604355,-0.076210395,-0.012568513,1.1643586,-0.59055257,0.043547835,-1.0262957,3.0494335,-0.019499663,0.090381645,1.3097494,0.5340002
0.0,0.0,0.7999999999999999,0.5235987755982988,0.5235987755982988,0,-0.59732646,-0.9084321,0.0063801664,-0.08190086,-0.055144176,1.1651416,-0.16472158,-0.01899046,-1.0141771,2.969509,-0.027491968,0.008522148,1.3169101,0.39913735
0.0,0.0,0.7999999999999999,0.5235987755982988,0.5235987755982988,0,-0.6064616,-0.90459585,0.012869206,-0.08604233,-0.14765093,1.1572587,-1.0654331,0.039717924,-1.0171473,3.0356119,-0.04078304,-0.086874135,1.2877843,0.40647456
0.0,0.0,0.7999999999999999,0.5235987755982988,0.5235987755982988,0,-0.566343,-0.90698534,0.10467237,-0.0713531,-0.07317576,1.194452,0.00047527478,0.04630666,-1.0149055,3.037146,-0.09049914,0.010511881,1.3258393,0.5914911
0.0,0.0,0.7999999999999999,0.5235987755982988,0.5235987755982988,0,-0.5847421,-0.90743136,0.068738125,-0.07727193,-0.03577856,1.228778,0.5223759,0.04093746,-1.0133479,3.0588293,-0.01683255,-0.06432937,1.3062843,0.12020733
0.0,0.0,0.7999999999999999,0.5235987755982988,0.5235987755982988,0,-0.5685693,-0.90700746,0.009022061,-0.07333992,-0.054524805,1.1398757,-0.05471877,0.022497801,-1.0167997,2.9887204,-0.035644226,0.06108021,1.2577484,0.5687531
0.0,0.0,0.7999999999999999,0.5235987755982988,0.5235987755982988,0,-0.56084985,-0.9065457,0.087673835,-0.091951564,0.016108532,1.1911627,-1.0685616,9.663846e-07,-1.0125408,3.0241108,-0.11182949,-0.0054997206,1.2943331,0.07927598
0.0,0.0,0.7999999999999999,0.5235987755982988,0.5235987755982988,0,-0.57885826,-0.9025564,0.055689376,-0.07113415,-0.0075519206,1.2361869,0.23146881,0.015822586,-1.0123265,3.0538504,-0.07074793,0.034034736,1.3074538,0.2043981
0.0,0.0,0.7999999999999999,0.5235987755982988,0.5235987755982988,0,-0.574098,-0.902226,0.073621295,-0.086719036,-0.14272779,1.177479,0.31553274,-0.007648197,-1.0154046,3.0778573,-0.05214264,-0.045305617,1.2884986,0.89700216
0.0,0.0,0.7999999999999999,0.5235987755982988,0.5235987755982988,0,-0.55390394,-0.90947676,0.030688027,-0.07823958,0.12104931,1.1861281,0.1303356,0.019577205,-1.0171913,3.0005167,-0.04246873,-0.18478565,1.2870708,0.23768021
0.0,0.0,0.7999999999999999,0.5235987755982988,0.5235987755982988,0,-0.5648679,-0.90654165,0.098827094,-0.07404863,0.051023643,1.2136476,0.03802715,0.03908797,-1.0206872,3.0383706,-0.042570487,0.0014740712,1.217203,-0.11245615
0.0,0.0,0.7999999999999999,0.5235987755982988,0.5235987755982988,0,-0.56973565,-0.91081226,0.14415295,-0.06411643,0.002243483,1.223485,0.19483764,0.04794957,-1.0126582,2.9938924,-0.04414637,0.029038928,1.2845303,0.3340038
0.0,0.0,0.7999999999999999,0.5235987755982988,0.5235987755982988,0,-0.5821596,-0.90683705,0.10227288,-0.08567479,-0.09558425,1.1753732,0.4571972,0.0137265455,-1.016922,3.0154483,-0.088793375,-0.066333555,1.2863425,0.6082859
0.0,0.0,0.7999999999999999,0.5235987755982988,0.5235987755982988,0,-0.5819131,-0.9066615,0.048742145,-0.06420051,-0.17602362,1.1344095,0.3214877,0.04827048,-1.0085329,3.0595958,-0.0633733,0.0016341212,1.3468485,0.4985169
0.0,0.0,0.7999999999999999,0.5235987755982988,0.5235987755982988,0,-0.58772177,-0.90789247,0.099188514,-0.08150112,-0.01605153,1.1462761,0.3021119,-0.0028115907,-1.0117445,3.0214775,-0.06058108,-0.00942725,1.3153131,0.7482064
0.0,0.0,0.7999999999999999,0.5235987755982988,0.5235987755982988,0,-0.53737456,-0.9064766,0.036717698,-0.07854331,0.16337478,1.1942064,-0.032456685,0.0380979,-1.0115764,2.9736807,-0.052701954,-0.091342494,1.2689087,0.47362864
0.0,0.0,0.7999999999999999,0.5235987755982988,0.5235987755982988,0,-0.5865099,-0.90667576,0.0668521,-0.06577214,0.025230037,1.1993378,-0.19495265,-0.0021144056,-1.0130332,3.067372,-0.031482805,-0.029616464,1.2824941,0.22396496
0.0,0.0,0.7999999999999999,0.5235987755982988,0.5235987755982988,0,-0.5842476,-0.9087481,0.065925255,-0.07719687,-0.14160155,1.2055452,-0.55392826,0.0051371935,-1.0126352,3.0395792,-0.08256221,0.021247683,1.2838715,0.3654769
0.0,0.0,0.7999999999999999,0.5235987755982988,0.5235987755982988,0,-0.6089266,-0.9060686,0.116105765,-0.08453635,-0.06606019,1.1249971,-0.35318118,0.0655871,-1.0138276,2.9808033,-0.026154244,-0.0071926094,1.3109632,0.7202595
0.0,0.0,0.7999999999999999,0.5235987755982988,0.5235987755982988,0,-0.57524437,-0.90531456,0.0691386,-0.06879414,0.073881224,1.2027359,-0.1386832,0.059649643,-1.0244108,3.1128528,-0.043396067,0.022963326,1.3181728,0.18915673
0.0,0.0,0.7999999999999999,0.5235987755982988,0.5235987755982988,0,-0.57034194,-0.9056356,0.119750194,-0.081755325,0.010604216,1.1743636,0.2557524,0.0016094887,-1.0129025,3.018313,-0.040717367,-0.010337191,1.3094039,-0.49162394
0.0,0.0,0.7999999999999999,0.5235987755982988,0.5235987755982988,0,-0.56780195,-0.91081095,0.16917919,-0.04410533,-0.1397084,1.1905551,-0.52326,0.039150443,-1.013647,3.0184085,-0.044511214,0.0226884,1.2700003,-0.09553533
0.0,0.0,0.7999999999999999,0.5235987755982988,0.5235987755982988,0,-0.583299,-0.90805614,0.00546392,-0.07982478,-0.09261066,1.2085133,-0.6356566,0.05021069,-1.0077437,3.031679,-0.037492685,0.091467604,1.2774812,0.51410925
0.0,0.0,0.7999999999999999,0.5235987755982988,0.5235987755982988,0,-0.5769241,-0.9061054,0.08129032,-0.078470714,0.026297508,1.1869462,-0.111614585,0.06559864,-1.015485,3.0006359,-0.028070558,-0.06842991,1.2758833,1.6724844
0.0,0.0,0.7999999999999999,0.5235987755982988,0.5235987755982988,0,-0.5316646,-0.90245473,0.1627002,-0.06103735,-0.09242318,1.2095181,-0.15568635,-0.040408038,-1.0088451,3.0636625,-0.06353193,-0.14170396,1.3435408,0.2196929
0.0,0.0,0.7999999999999999,0.5235987755982988,0.5235987755982988,0,-0.5498294,-0.9061895,0.091390595,-0.07023179,-0.16288336,1.1583699,0.3112548,0.026870145,-1.0172548,3.0875823,-0.042143088,-0.007845528,1.2681531,0.20695414
0.0,0.0,0.7999999999999999,0.5235987755982988,0.5235987755982988,0,-0.56966513,-0.90885437,0.074879885,-0.07147318,-0.029478649,1.2055024,-0.3008756,0.058934703,-1.0088786,2.9775362,-0.062005628,-0.04701715,1.308688,0.6282851
0.0,0.0,0.7999999999999999,0.5235987755982988,0.5235987755982988,0,-0.60432017,-0.9061079,0.029046608,-0.07194012,0.117701225,1.2053412,0.4171224,0.0753015,-1.0151528,2.9920418,-0.034214668,-0.07283468,1.3188168,0.045228988
0.0,0.0,0.7999999999999999,0.5235987755982988,0.5235987755982988,0,-0.5851187,-0.9070726,0.06870962,-0.08380819,-0.057963997,1.1834929,0.91235834,0.034293935,-1.0092745,3.005631,-0.069709055,-0.017739816,1.2847098,0.46050957
0.0,0.0,0.7999999999999999,0.5235987755982988,0.5235987755982988,0,-0.56260234,-0.90689284,0.065447174,-0.083909385,0.11931085,1.1894842,0.19093186,0.012086168,-1.0111686,2.9858932,-0.038834717,-0.09562267,1.2577052,-0.22020555
0.0,0.0,0.7999999999999999,0.5235987755982988,0.5235987755982988,0,-0.5767358,-0.90850407,0.06315126,-0.08560412,0.007847708,1.1240098,0.5414231,0.05747947,-1.0194719,2.9936314,-0.04207749,-0.06928448,1.2927359,0.5334416
0.0,0.0,0.7999999999999999,0.5235987755982988,0.5235987755982988,0,-0.57154125,-0.9108607,0.028810313,-0.08327738,-0.08890909,1.2460698,0.24640347,0.03570259,-1.0219752,2.9953601,-0.07495066,-0.05808116,1.2685312,0.44481114
0.0,0.0,0.7999999999999999,0.5235987755982988,0.5235987755982988,0,-0.5882247,-0.9097968,0.030759769,-0.084654756,0.101342484,1.2082108,0.6294646,0.011632853,-1.0219085,3.057604,-0.032896966,-0.011405765,1.3268398,0.4049983
0.0,0.0,0.7999999999999999,0.5235987755982988,0.5235987755982988,0,-0.5779493,-0.9050447,0.07782642,-0.08324167,0.21504799,1.1772403,-0.13043092,0.056043554,-1.0155965,2.9601493,-0.083779015,0.11315463,1.2883555,0.12139057
0.0,0.0,0.7999999999999999,0.5235987755982988,0.5235987755982988,0,-0.56642276,-0.9044392,0.133117,-0.07917722,0.12064912,1.2210625,-0.010958474,0.035392188,-1.0217583,3.058889,-0.034891058,-0.05847217,1.3080782,-0.17821409
0.0,0.0,0.7999999999999999,0.5235987755982988,0.5235987755982988,0,-0.5825617,-0.90807104,0.072546944,-0.08382049,-0.0009703867,1.1883101,0.5219525,0.008115544,-1.0223938,3.0113542,-0.058097042,-0.01591457,1.2904947,0.13274603
0.0,0.0,0.7999999999999999,0.5235987755982988,0.5235987755982988,0,-0.5590947,-0.9091538,0.08275982,-0.08042909,-0.037716545,1.1676438,0.16073775,0.07496228,-1.0203046,3.0728495,-0.037910074,-0.041392054,1.3454778,0.715188
0.0,0.0,0.7999999999999999,0.5235987755982988,0.5235987755982988,0,-0.5731681,-0.9068909,0.057045054,-0.08282509,-0.14403157,1.1669186,-0.62639076,0.025686758,-1.0232421,3.0647867,-0.049448587,0.014432334,1.3090845,0.096883416
0.0,0.0,0.7999999999999999,0.5235987755982988,0.5235987755982988,0,-0.5880922,-0.9095726,0.09307613,-0.08433806,-0.08231597,1.1941285,-0.31705308,0.0028408382,-1.017996,3.099258,-0.08376954,-0.13363354,1.314392,0.22212677
0.0,0.0,0.7999999999999999,0.5235987755982988,0.5235987755982988,0,-0.5748605,-0.9083364,0.03183123,-0.06525588,0.13601534,1.1760528,-0.3598058,0.027794668,-1.0244304,3.084859,-0.027332742,0.03171414,1.300373,0.6715373
0.0,0.0,0.7999999999999999,0.5235987755982988,0.5235987755982988,0,-0.57934856,-0.90687466,0.15817523,-0.07642275,0.00074653595,1.1824083,-0.39850217,0.029561138,-1.0169607,3.058701,-0.049995862,-0.10406474,1.294238,0.33236164
0.0,0.0,0.7999999999999999,0.5235987755982988,0.5235987755982988,0,-0.59750736,-0.9073905,0.0926478,-0.07269161,0.003686919,1.1514361,-0.8714585,0.006433009,-1.0175251,2.9779282,-0.039896376,-0.04881351,1.2697426,0.08902841
0.0,0.0,0.7999999999999999,0.5235987755982988,0.5235987755982988,0,-0.5883674,-0.9052683,0.05113345,-0.07703147,0.03707321,1.1820722,-0.10951243,-0.0052594924,-1.017564,2.960814,-0.049264472,0.027485488,1.2514172,0.5147159
0.0,0.0,0.7999999999999999,0.5235987755982988,0.5235987755982988,0,-0.59527624,-0.9064205,0.072680645,-0.08234684,0.17299585,1.1208217,-0.9118613,0.05198728,-1.0122738,3.0849056,-0.035577457,0.03007948,1.3179133,0.09077709
0.0,0.0,0.7999999999999999,0.5235987755982988,0.5235987755982988,0,-0.5967857,-0.90713257,0.0960832,-0.058909267,0.07016216,1.1828505,0.6228994,0.00067234924,-1.0248075,3.0282733,-0.050145417,-0.0103799,1.316399,0.08537398
0.0,0.0,0.7999999999999999,0.5235987755982988,0.5235987755982988,0,-0.5915132,-0.90538603,0.03603712,-0.074083954,0.07868744,1.1707339,0.3585654,0.0002575819,-1.0111407,2.9837162,-0.055432126,0.13796893,1.2483364,-0.22101773
0.0,0.0,0.7999999999999999,0.5235987755982988,0.5235987755982988,0,-0.5383101,-0.9059261,0.09194349,-0.07754123,-0.00752686,1.1828383,0.25427943,0.030376002,-1.0143962,2.9972336,-0.06986522,-0.027201802,1.2792943,0.8382499
0.0,0.0,0.7999999999999999,0.5235987755982988,0.5235987755982988,0,-0.5854032,-0.9109794,0.119764425,-0.07288143,0.039443936,1.1727023,0.027107874,0.008199906,-1.0097209,3.0382504,-0.04839064,0.035281114,1.3004937,0.0834216
0.0,0.0,0.7999999999999999,0.5235987755982988,0.5235987755982988,0,-0.5480487,-0.9086041,0.09052628,-0.086027965,0.0038705394,1.102586,0.016908187,0.040064562,-1.0214009,3.0409188,-0.017091833,-0.039606147,1.3120556,0.46611953
0.0,0.0,0.7999999999999999,0.5235987755982988,0.5235987755982988,0,-0.5785697,-0.9066586,0.07851194,-0.08312744,0.018223729,1.1983212,-0.449748,0.060912456,-1.0189477,2.9933012,-0.05267664,0.054370712,1.2692367,0.09598471
0.0,0.0,0.7999999999999999,0.5235987755982988,0.5235987755982988,0,-0.56676716,-0.91290075,0.12506415,-0.077511795,-0.07652518,1.1693102,0.021073397,0.018315136,-1.0120885,3.0193713,-0.050833285,0.01613891,1.2895086,0.5894777
0.0,0.0,0.7999999999999999,0.5235987755982988,0.5235987755982988,0,-0.54561704,-0.9109513,0.05409254,-0.07262758,-0.10084431,1.1751468,-0.10938352,0.059878852,-1.0133679,3.011898,-0.056640297,-0.08970057,1.2911546,0.46963492
0.0,0.0,0.7999999999999999,0.5235987755982988,0.5235987755982988,0,-0.5847329,-0.90579474,0.019342963,-0.073833905,-0.09306045,1.1982969,-0.20956093,0.09366282,-1.0162548,2.9803102,-0.053899404,0.028602997,1.274274,0.78940105
0.0,0.0,0.7999999999999999,0.5235987755982988,0.5235987755982988,0,-0.59148103,-0.9066258,0.08173552,-0.06781333,0.009241913,1.1615196,-0.21003518,0.014641995,-1.0140944,3.0359714,-0.071887024,-0.10154163,1.3261628,-0.17673011
0.0,0.0,0.7999999999999999,0.5235987755982988,0.5235987755982988,0,-0.6031822,-0.9059616,0.04119013,-0.08079295,0.05656231,1.1822363,-0.6774936,0.027220696,-1.0173846,3.0779757,-0.043607622,-0.14655352,1.3123283,0.6482251
0.0,0.0,0.7999999999999999,0.5235987755982988,0.5235987755982988,0,-0.5426912,-0.90980285,0.10693227,-0.06302055,-0.10593926,1.1642495,-1.0041348,0.017244752,-1.0115526,2.989849,-0.08717434,-0.036914747,1.2754577,1.2203729
0.0,0.0,0.7999999999999999,0.5235987755982988,0.5235987755982988,0,-0.563824,-0.9089338,0.17183697,-0.078688465,0.10808905,1.199124,-0.0148691535,0.020619592,-1.0213283,3.0483742,-0.007105416,-0.08566173,1.3203866,0.117509715
0.0,0.0,0.7999999999999999,0.5235987755982988,0.5235987755982988,0,-0.60823363,-0.9066817,0.004132548,-0.07275414,0.03673395,1.2379268,-0.045262117,0.051182006,-1.0157783,2.9969883,-0.063220054,-0.11252626,1.2510294,0.7641284
0.0,0.0,0.7999999999999999,0.5235987755982988,0.5235987755982988,0,-0.5666195,-0.9036627,0.071785286,-0.08627082,0.085043475,1.1591815,-0.7014132,-0.037137665,-1.0188818,3.0462277,-0.10986107,-0.103950806,1.3364542,0.92889947
0.0,0.0,0.7999999999999999,0.5235987755982988,0.5235987755982988,0,-0.59904665,-0.90280974,0.091785766,-0.08299583,0.036107812,1.1783385,-0.0024548161,0.02184251,-1.0162048,3.0055513,-0.0461903,-0.04698948,1.2900693,0.18419972
0.0,0.0,0.7999999999999999,0.5235987755982988,0.5235987755982988,0,-0.56909704,-0.9055329,0.08651216,-0.06440558,-0.065998964,1.2135352,-0.18032442,0.0341668,-1.0223224,3.0230765,-0.045045618,-0.053176586,1.336185,0.29345638
0.0,0.0,0.7999999999999999,0.5235987755982988,0.5235987755982988,0,-0.5644367,-0.9093472,0.095504515,-0.06402395,0.1171366,1.1875452,-0.3501506,0.015433733,-1.0164416,2.9869003,-0.03758952,-0.115047805,1.2590071,0.65939546
0.0,0.0,0.7999999999999999,0.5235987755982988,0.5235987755982988,0,-0.54845774,-0.9056069,0.1269804,-0.07457422,-0.011080595,1.186051,0.2630289,0.006828549,-1.0079937,3.0008311,-0.05940236,0.023686301,1.3125823,0.28663707
0.0,0.0,0.7999999999999999,0.5235987755982988,0.5235987755982988,0,-0.56177664,-0.901549,0.037128445,-0.07377317,0.0794118,1.184795,-0.9250343,0.047549076,-1.0130235,3.0458493,-0.10117753,0.0025690177,1.2816097,0.46794537
0.0,0.0,0.7999999999999999,0.5235987755982988,0.5235987755982988,0,-0.55372554,-0.90934986,0.07131115,-0.08520164,0.08058898,1.2002275,-0.28375107,0.024858635,-1.0105616,3.055866,-0.044215795,0.013785442,1.2596148,-0.0019280027
0.0,0.0,0.7999999999999999,0.5235987755982988,0.5235987755982988,0,-0.5804994,-0.905855,0.05186658,-0.059655294,-0.009855119,1.1781051,-0.25403142,-0.024098922,-1.0144848,3.0111706,-0.05761545,0.028053418,1.2904474,0.6640997
0.0,0.0,0.7999999999999999,0.5235987755982988,0.5235987755982988,0,-0.58179796,-0.90543324,0.041155577,-0.08049251,0.021777771,1.1658394,1.4548889,0.10794844,-1.0214425,3.00954,-0.06067176,-0.13916801,1.2623755,0.11767997
0.0,0.0,0.7999999999999999,0.5235987755982988,0.5235987755982988,0,-0.5734946,-0.90950054,0.12778305,-0.083423816,-0.07798253,1.1647162,-0.28933564,0.021389544,-1.0112519,3.0815976,-0.01374404,-0.042110324,1.2968264,0.39652056
0.0,0.0,0.7999999999999999,0.5235987755982988,0.5235987755982988,0,-0.58266675,-0.9103469,0.11935131,-0.068106584,0.06379858,1.2194862,-0.74751353,0.003593778,-1.0164018,3.038075,-0.03046393,-0.0076359306,1.3153032,0.2380263
0.0,0.0,0.7999999999999999,0.5235987755982988,0.5235987755982988,0,-0.5671146,-0.910396,0.10339892,-0.07416185,0.030404799,1.1592956,-0.18488993,0.021990264,-1.0211914,2.9797728,-0.05404594,-0.010688756,1.2963346,0.3051962
0.0,0.0,0.7999999999999999,0.5235987755982988,0.5235987755982988,0,-0.58144844,-0.9060449,0.097634375,-0.07703372,-0.063755006,1.1879023,-0.104488015,0.009652921,-1.0127007,3.0403442,-0.059209224,-0.038583383,1.2928146,0.49996904
0.0,0.0,0.7999999999999999,0.5235987755982988,0.5235987755982988,0,-0.5462344,-0.9081101,0.024056047,-0.08913144,-0.09209523,1.1900424,0.264565,0.048209768,-1.0131276,3.0763917,-0.065019056,0.12666018,1.2159752,0.2852532
0.0,0.0,0.7999999999999999,0.5235987755982988,0.5235987755982988,0,-0.572831,-0.90650946,0.031275038,-0.07463065,-0.010281455,1.2292458,-0.08522986,0.0039197905,-1.01146,3.058123,-0.01952261,-0.12654537,1.2420588,0.34441483
0.0,0.0,0.7999999999999999,0.5235987755982988,0.5235987755982988,0,-0.5500147,-0.9075219,0.095113225,-0.0762168,0.00023904277,1.1761321,-0.22761579,0.009950548,-1.0163722,2.985992,-0.0558753,-0.09132284,1.3222361,0.30257413
0.0,0.0,0.7999999999999999,0.5235987755982988,0.5235987755982988,0,-0.5855466,-0.9040587,0.048422296,-0.08194721,0.082812786,1.1982574,0.048458878,0.021013219,-1.010583,2.9795349,-0.06052457,-0.027525673,1.3030754,0.45988
0.0,0.0,0.7999999999999999,0.5235987755982988,0.5235987755982988,0,-0.5811211,-0.90511703,0.023858134,-0.0611275,0.03500857,1.1812238,0.10590955,0.0132445805,-1.0215973,2.9872832,-0.027214432,0.056117903,1.3413137,0.2418962
0.0,0.0,0.7999999999999999,0.5235987755982988,0.5235987755982988,0,-0.5903829,-0.9075019,0.07419844,-0.09354263,-0.1136239,1.2190456,-0.98535186,0.011733521,-1.0157894,3.0317302,-0.05133667,0.08478234,1.2682763,0.16434655
0.0,0.0,0.7999999999999999,0.5235987755982988,0.5235987755982988,0,-0.54655385,-0.90898985,0.08112952,-0.06575809,-0.029886547,1.201518,-0.55341643,0.0071719475,-1.0099709,3.0138354,-0.06495933,-0.025831766,1.3057792,0.4029951
0.0,0.0,0.7999999999999999,0.5235987755982988,0.5235987755982988,0,-0.55071986,-0.9068407,0.10100785,-0.075740166,0.027494788,1.1233617,0.3428926,0.021042973,-1.0066158,3.0308013,-0.0941144,-0.050980758,1.3064932,0.32752544
0.0,0.0,0.7999999999999999,0.5235987755982988,0.5235987755982988,0,-0.5622554,-0.9081585,0.13314743,-0.0884319,-0.0011213169,1.1668922,-0.9815563,0.030870251,-1.0210848,3.0555813,-0.05118607,0.013486211,1.3261575,-0.4162585
0.0,0.0,0.7999999999999999,0.5235987755982988,0.5235987755982988,0,-0.5629567,-0.90797466,0.06724402,-0.09664175,-0.0484601,1.1061862,0.24068859,-0.029379342,-1.0090066,3.0048788,0.025593182,-0.085207045,1.2952529,0.63856673
0.0,0.0,0.7999999999999999,0.5235987755982988,0.5235987755982988,0,-0.5625218,-0.9055955,-0.0043787076,-0.06913332,0.15013048,1.1985618,0.5447376,0.017550427,-1.0168481,3.0172715,-0.008531348,-0.075639725,1.2832756,0.6856372
0.0,0.0,0.7999999999999999,0.5235987755982988,0.5235987755982988,0,-0.5809061,-0.906016,0.11777057,-0.081601486,-0.07242043,1.1019887,-0.4775724,0.020445934,-1.0211619,3.027563,-0.05396355,-0.10573315,1.2660482,0.4294533
0.0,0.0,0.7999999999999999,0.5235987755982988,0.5235987755982988,0,-0.55612016,-0.90793973,0.057500936,-0.07879407,0.057821654,1.1694409,0.11549645,0.028607313,-1.0096278,3.0875883,-0.062443208,0.08947511,1.2565613,0.5571881
0.0,0.0,0.7999999999999999,0.5235987755982988,0.5235987755982988,0,-0.56672794,-0.9034165,0.028164074,-0.09470005,-0.03636069,1.1997483,-0.24071696,0.09245522,-1.019544,3.0389578,-0.057452783,0.006647346,1.3093432,0.9354598
0.0,0.0,0.7999999999999999,0.5235987755982988,0.5235987755982988,0,-0.60819584,-0.90533924,0.046519436,-0.07319546,0.19447981,1.1701983,0.22159617,0.027365578,-1.0080898,3.0613377,-0.06764931,-0.06427428,1.2872485,0.9186621
0.0,0.0,0.7999999999999999,0.5235987755982988,0.5235987755982988,0,-0.57469636,-0.9045642,0.06981513,-0.08163519,-0.101909846,1.1964145,-0.27638903,0.054197524,-1.0095314,3.056644,-0.065690115,-0.026823437,1.3004117,0.44374484
0.0,0.0,0.7999999999999999,0.5235987755982988,0.5235987755982988,0,-0.57005924,-0.9067249,0.14287463,-0.09467519,-0.18459277,1.1910818,0.54734993,0.027189324,-1.0151238,3.080799,-0.042719014,-0.0521664,1.2580574,-0.0419297
0.0,0.0,0.7999999999999999,0.5235987755982988,0.5235987755982988,0,-0.58309627,-0.90608114,0.092237286,-0.08409983,-0.31580162,1.1424423,0.87242925,0.035804644,-1.0087583,3.04646,-0.045006134,-0.1652232,1.3199546,0.23225245
0.0,0.0,0.7999999999999999,0.5235987755982988,0.5235987755982988,0,-0.58726364,-0.9074896,0.036252413,-0.06325416,0.034742773,1.1998442,-0.869727,0.057421215,-1.0115861,3.0287092,-0.060711995,0.06524031,1.2935401,0.82152766
0.0,0.0,0.7999999999999999,0.5235987755982988,0.5235987755982988,0,-0.5682673,-0.90633804,0.050034866,-0.086050004,0.03184677,1.1617736,-0.5290957,0.012430265,-1.0165387,3.0059173,-0.047131743,-0.1138375,1.2971315,-0.2374476
0.0,0.0,0.7999999999999999,0.5235987755982988,0.5235987755982988,0,-0.6095838,-0.90935534,0.067670055,-0.07148126,-0.0760509,1.1659125,-0.11409809,0.07074918,-1.0201,3.029802,-0.04297439,-0.087611064,1.2915052,-0.008627137
0.0,0.0,0.7999999999999999,0.5235987755982988,0.5235987755982988,0,-0.5882191,-0.905489,0.04627976,-0.07059551,-0.09235846,1.2314221,-0.35716268,0.024180533,-1.0206003,3.0483105,-0.07035755,0.058965605,1.2987913,-0.0120169865
0.0,0.0,0.7999999999999999,0.5235987755982988,0.5235987755982988,0,-0.6167714,-0.9097052,0.06405065,-0.079679415,-0.15176941,1.079609,0.10151348,0.030297656,-1.0138332,2.959298,-0.07523238,-0.16336608,1.2318739,-0.16414396
0.0,0.0,0.7999999999999999,0.5235987755982988,0.5235987755982988,0,-0.5599401,-0.9087823,0.042603422,-0.07485386,-0.07015669,1.1415497,-0.6201491,0.03320859,-1.0104587,2.979014,-0.040146176,0.022190556,1.2779763,0.17724906
0.0,0.0,0.7999999999999999,0.5235987755982988,0.5235987755982988,0,-0.54109126,-0.90709084,0.05382758,-0.069062784,-0.04819913,1.1788462,-0.55377865,0.05529482,-1.0181638,3.0270398,-0.05984655,0.03361045,1.2935188,0.31099707
0.0,0.0,0.7999999999999999,0.5235987755982988,0.5235987755982988,0,-0.5762637,-0.9080975,0.11913468,-0.06330893,0.03523747,1.2157145,-0.23664469,0.022769341,-1.0298146,2.9988785,-0.068523884,-0.13133232,1.2810656,0.70780057
0.0,0.0,0.7999999999999999,0.5235987755982988,0.5235987755982988,0,-0.55961114,-0.907792,0.056584816,-0.054096244,-0.02373094,1.152522,0.03329026,0.0008678481,-1.0197383,3.032382,-0.07467586,0.060956694,1.29384,0.9040621
0.0,0.0,0.7999999999999999,0.5235987755982988,0.5235987755982988,0,-0.5629878,-0.90712553,0.11814253,-0.06847134,0.054245472,1.2200837,0.4195629,-0.020215305,-1.0113853,3.043566,-0.018413272,-0.077644125,1.3169414,0.39098495
0.0,0.0,0.7999999999999999,0.5235987755982988,0.5235987755982988,0,-0.55069745,-0.90467465,0.11418722,-0.08485771,0.058170717,1.2393122,-1.280643,-0.015918786,-1.01589,3.0946288,-0.08416968,-0.053585682,1.2652503,0.3706513
0.0,0.0,0.7999999999999999,0.5235987755982988,0.5235987755982988,0,-0.5847364,-0.9081506,0.07281901,-0.0839518,-0.09801805,1.1405591,-0.15285559,0.026031373,-1.0239079,3.0527728,-0.005272248,-0.011213605,1.3011016,0.35137057
0.0,0.0,0.7999999999999999,0.5235987755982988,0.5235987755982988,0,-0.5519521,-0.9041121,0.14096305,-0.085809894,0.03448771,1.2339623,0.21577232,-0.0014703394,-1.0134251,3.0138893,-0.06325961,0.020590935,1.3058509,0.26436862
0.0,0.0,0.7999999999999999,0.5235987755982988,0.5235987755982988,0,-0.5667224,-0.9038639,0.10223092,-0.0893836,0.09164987,1.103956,0.34483057,-0.0034215504,-1.0113106,3.0787234,-0.0729998,-0.032078177,1.2588578,0.37292877
0.0,0.0,0.7999999999999999,0.5235987755982988,0.5235987755982988,0,-0.5418739,-0.9051776,0.06487735,-0.072429426,-0.093937784,1.1342642,0.85268605,0.003929472,-1.0119268,2.9984956,-0.050291006,0.037826326,1.3200058,0.53878385
0.0,0.0,0.7999999999999999,0.5235987755982988,0.5235987755982988,0,-0.57722545,-0.90641445,0.09052164,-0.08888223,-0.17695543,1.1650897,0.11046854,0.0051605674,-1.0136075,3.005077,-0.041055094,-0.003790021,1.3135967,0.3969007
0.0,0.0,0.7999999999999999,0.5235987755982988,0.5235987755982988,0,-0.5866284,-0.90815216,0.07497048,-0.07998131,0.010567861,1.1484077,0.46030626,0.014903812,-1.0123252,3.0185387,-0.080380365,0.03787104,1.2655649,0.58755153
0.0,0.0,0.7999999999999999,0.5235987755982988,0.5235987755982988,0,-0.5432948,-0.9069524,0.15409452,-0.07462936,0.0081518125,1.0915706,0.16396028,0.016338427,-1.0189633,3.0221655,-0.056991465,-0.058300607,1.3020753,0.58527464
0.0,0.0,0.7999999999999999,0.5235987755982988,0.5235987755982988,0,-0.555014,-0.90792096,0.073056996,-0.07439033,-0.11613263,1.2059753,0.51240116,0.076100886,-1.0140363,3.062899,-0.058647808,0.023810377,1.2671136,0.47872314
0.0,0.0,0.7999999999999999,0.5235987755982988,0.5235987755982988,0,-0.5892727,-0.9089652,0.0003126986,-0.07057441,0.045647427,1.1928898,1.0395253,0.040793963,-1.0104331,3.1023035,-0.05651716,-0.0654482,1.2651058,0.312777
0.0,0.0,0.7999999999999999,0.5235987755982988,0.5235987755982988,0,-0.5587483,-0.9023661,0.1351354,-0.06182753,-0.11108634,1.1490452,0.71346086,0.019526452,-1.0172526,3.0513923,-0.07225124,0.0184251,1.2230122,0.4696851
0.0,0.0,0.7999999999999999,0.5235987755982988,0.5235987755982988,0,-0.5577294,-0.90705323,0.10035627,-0.07126136,-0.022646591,1.1958288,-0.42765403,0.0074402024,-1.0093137,3.006053,0.02426517,-0.09539062,1.3096583,-0.016232105
0.0,0.0,0.7999999999999999,0.5235987755982988,0.5235987755982988,0,-0.6122976,-0.9024443,0.0520881,-0.09075369,0.100401446,1.1726779,0.12563066,0.044785045,-1.020394,3.027284,-0.047754496,0.048474092,1.2788049,0.30631882
0.0,0.0,0.7999999999999999,0.5235987755982988,0.5235987755982988,0,-0.6001376,-0.9066996,0.039192546,-0.07102068,0.042098664,1.1305017,-0.24062414,0.039575823,-1.0180384,3.0216794,-0.048318308,-0.084154375,1.3174732,0.5915106
0.0,0.0,0.7999999999999999,0.5235987755982988,0.5235987755982988,0,-0.54358715,-0.90535533,0.042994343,-0.08789648,0.06806131,1.1872876,0.5400388,0.0046457965,-1.0146296,3.018419,-0.053944014,-0.038729798,1.2944303,0.5505095
0.0,0.0,0.7999999999999999,0.5235987755982988,0.5235987755982988,0,-0.5867273,-0.9072403,0.044643912,-0.07513969,-0.06318706,1.1615267,0.16386604,-0.034392264,-1.016244,3.0468264,-0.055695884,-0.016561093,1.3030045,0.24472326
0.0,0.0,0.7999999999999999,0.5235987755982988,0.5235987755982988,0,-0.5696371,-0.90377694,0.07893667,-0.073641315,-0.055657968,1.1750177,0.67335105,0.0037945353,-1.0064247,2.9872181,-0.030933682,-0.07725989,1.3204666,0.5455061
0.0,0.0,0.7999999999999999,0.5235987755982988,0.5235987755982988,0,-0.58007514,-0.90489835,0.07597702,-0.07817795,-0.0119096795,1.1721656,0.33866817,0.024694866,-1.0140105,3.0215607,-0.04422514,-0.09962559,1.3003947,0.0993436
0.0,0.0,0.7999999999999999,0.5235987755982988,0.5235987755982988,0,-0.5642084,-0.90542626,0.053616684,-0.069281064,-0.0066807372,1.2048036,1.0462605,0.060459334,-1.0109037,2.9928489,-0.0503449,0.0025939483,1.3356048,-0.20854397
0.0,0.0,0.7999999999999999,0.5235987755982988,0.5235987755982988,0,-0.5893773,-0.9042148,-0.015831303,-0.0770317,0.0025419008,1.2402642,-0.92555946,0.018762054,-1.0060854,3.0524507,-0.07029334,-0.06396259,1.2689408,0.69421047
0.0,0.0,0.7999999999999999,0.5235987755982988,0.5235987755982988,0,-0.56649125,-0.90926844,0.04804753,-0.06959878,-0.0011548068,1.1820948,-0.09861582,0.006570042,-1.016533,3.0425522,-0.03755546,-0.18203837,1.2963861,1.0556779
0.0,0.0,0.7999999999999999,0.5235987755982988,0.5235987755982988,0,-0.54709876,-0.90399414,0.058500726,-0.07317767,-0.022418521,1.1191338,-0.5313143,-0.004018947,-1.0152607,3.0198717,-0.02805417,-0.07651191,1.2870401,0.35611564
0.0,0.0,0.7999999999999999,0.5235987755982988,0.5235987755982988,0,-0.5635536,-0.9068934,0.066229045,-0.07130576,-0.03504288,1.1532688,0.96635836,-0.018763015,-1.0107193,3.0647576,-0.042477712,-0.043762207,1.2758623,0.5978763
0.0,0.0,0.7999999999999999,0.5235987755982988,0.5235987755982988,0,-0.5647731,-0.90595716,0.0710359,-0.079579726,-0.046151187,1.143865,-0.41412097,0.038181964,-1.0098696,3.0673835,-0.043367814,0.06846869,1.296379,0.44095904
0.0,0.0,0.7999999999999999,0.5235987755982988,0.5235987755982988,0,-0.5791268,-0.906011,0.056736574,-0.078291655,0.034098167,1.1769189,0.27193978,0.010784801,-1.0144638,3.042699,-0.06586235,-0.022344546,1.3214713,0.8212851
0.0,0.0,0.7999999999999999,0.5235987755982988,0.5235987755982988,0,-0.5819248,-0.9033693,0.067248024,-0.0733619,-0.12300132,1.2445159,-1.0637639,0.019656466,-1.0053488,3.0269902,-0.06522305,0.055928424,1.2974921,0.2621766
0.0,0.0,0.7999999999999999,0.5235987755982988,0.5235987755982988,0,-0.5688327,-0.9055153,0.0129456315,-0.08095254,-0.17330407,1.2064685,0.09537653,0.048585005,-1.0190136,3.0016065,-0.08581345,0.0059150443,1.2664322,0.13333598
0.0,0.0,0.7999999999999999,0.5235987755982988,0.5235987755982988,0,-0.58982176,-0.90352154,0.15684599,-0.06335744,-0.07862399,1.1253842,0.56802756,0.028961273,-1.023416,2.993725,-0.035949253,-0.06643675,1.30738,-0.3586355
0.0,0.0,0.7999999999999999,0.5235987755982988,0.5235987755982988,0,-0.5930724,-0.9103919,0.061846077,-0.079905905,-0.0095567675,1.1042237,-0.52153003,0.012097024,-1.0118332,2.9862916,-0.063718855,-0.072561555,1.279384,0.6272424
0.0,0.0,0.7999999999999999,0.5235987755982988,0.5235987755982988,0,-0.55088204,-0.90634376,0.008287852,-0.08155758,0.06996909,1.1565965,0.4483931,0.034763996,-1.0131419,3.0134478,-0.033376746,-0.12787187,1.3187747,0.47162226
0.0,0.0,0.7999999999999999,0.5235987755982988,0.5235987755982988,0,-0.5840215,-0.90729815,0.060195953,-0.08222592,0.03618497,1.1539191,-0.10226093,0.05475897,-1.017757,3.023887,-0.04523693,-0.017190585,1.3036228,0.7693805
0.0,0.0,0.7999999999999999,0.5235987755982988,0.5235987755982988,0,-0.5548829,-0.91031504,0.09142184,-0.07544006,0.010216236,1.1964524,0.081960864,0.025176411,-1.0184281,3.0518527,-0.059898913,-0.16992517,1.29926,0.8247306
0.0,0.0,0.7999999999999999,0.5235987755982988,0.5235987755982988,0,-0.6111292,-0.9050924,0.11931821,-0.08469193,0.0027046958,1.1669079,-0.14370134,0.017443975,-1.0204499,3.028521,-0.07452394,-0.024751939,1.2827418,-0.22543757
0.0,0.0,0.7999999999999999,0.5235987755982988,0.5235987755982988,0,-0.59651595,-0.9072049,0.092579044,-0.085371345,-0.015676685,1.1871525,0.07394478,-0.020885138,-1.0192612,2.9562836,-0.030922428,-0.1004464,1.2766057,0.44502562
0.0,0.0,0.7999999999999999,0.5235987755982988,0.5235987755982988,0,-0.5955986,-0.90661895,0.0882319,-0.098806426,-0.06504492,1.178079,0.84057724,0.012489456,-1.0149994,3.0239048,-0.05827456,0.0708367,1.2471167,0.09520078
0.0,0.0,0.7999999999999999,0.5235987755982988,0.5235987755982988,0,-0.5618827,-0.9029032,0.07100708,-0.07514556,-0.052371293,1.1462492,-0.35414663,0.05786937,-1.0214422,3.0455084,-0.06410095,-0.11915811,1.301682,0.6418412
0.0,0.0,0.7999999999999999,0.5235987755982988,0.5235987755982988,0,-0.59750366,-0.9056493,0.080044925,-0.075536676,0.06890806,1.1545811,-1.3119633,0.055538062,-1.0173719,3.0371227,-0.024583697,0.15575537,1.3165148,-0.1944617
0.0,0.0,0.7999999999999999,0.5235987755982988,0.5235987755982988,0,-0.54733753,-0.90688646,0.07496757,-0.072455145,0.09515854,1.1839776,-0.19930087,0.040318877,-1.0142065,3.008983,-0.06319355,-0.0060820505,1.2873777,0.20796336
0.0,0.0,0.7999999999999999,0.5235987755982988,0.5235987755982988,0,-0.596474,-0.9054906,0.050353885,-0.0655742,-0.058076344,1.2458576,0.2588183,0.0629913,-1.0179616,3.0343218,-0.07218474,-0.004513348,1.3179332,0.77113086
0.0,0.0,0.7999999999999999,0.5235987755982988,0.5235987755982988,0,-0.5443531,-0.90903753,0.033587288,-0.089988135,0.0036040572,1.1827347,-0.25707573,0.0059022894,-1.0048826,3.0025432,-0.07199205,-0.022086065,1.2764351,0.7244629
0.0,0.0,0.7999999999999999,0.5235987755982988,0.5235987755982988,0,-0.57851166,-0.9062351,0.15643679,-0.07684001,-0.0074449033,1.1748966,-0.19784117,-0.017376969,-1.0115288,2.9807813,-0.040693287,0.0048249275,1.3259836,0.15114659
0.0,0.0,0.7999999999999999,0.5235987755982988,0.5235987755982988,0,-0.5800174,-0.9044041,0.09407216,-0.051493056,-0.046268605,1.2277614,-0.56579226,0.04368136,-1.0137527,3.0178761,-0.08092442,-0.07607446,1.2983627,0.46795827
0.0,0.0,0.7999999999999999,0.5235987755982988,0.5235987755982988,0,-0.5409461,-0.9108239,0.13285394,-0.06869851,0.117330834,1.2028521,-0.40697792,0.071503624,-1.012463,3.0458744,-0.03464328,0.06530323,1.2927438,0.66279495
0.0,0.0,0.7999999999999999,0.5235987755982988,0.5235987755982988,0,-0.59584635,-0.90810835,0.08398218,-0.0745963,0.039129388,1.2042565,-0.39999208,0.0007519484,-1.0170413,3.0155933,0.0062253354,-0.08475928,1.2937058,0.17998034
0.0,0.0,0.7999999999999999,0.5235987755982988,0.5235987755982988,0,-0.58260196,-0.9067125,0.05839103,-0.06872789,0.037963476,1.18326,0.1029053,0.01780953,-1.011087,2.943083,-0.060470473,-0.018936457,1.2820343,0.18580464
0.0,0.0,0.7999999999999999,0.5235987755982988,0.5235987755982988,0,-0.6291031,-0.90561986,0.048425186,-0.07128135,-0.09508151,1.2280939,0.89232534,0.0050888998,-1.0238283,2.9743633,-0.0017493058,0.049616504,1.3513716,0.37232688
0.0,0.0,0.7999999999999999,0.5235987755982988,0.5235987755982988,0,-0.58832866,-0.90547657,0.088816635,-0.08133764,0.02664696,1.1814785,0.0058103013,0.03055265,-1.0099083,3.0656383,-0.06960586,-0.017229397,1.2971407,0.22301574
0.0,0.0,0.7999999999999999,0.5235987755982988,0.5235987755982988,0,-0.57951474,-0.91200876,0.024009187,-0.07205041,0.029217206,1.1672909,-0.6486053,0.0063397884,-1.0182027,3.0111942,-0.029272677,0.017025622,1.2490872,-0.00468309
0.0,0.0,0.7999999999999999,0.5235987755982988,0.5235987755982988,0,-0.56532884,-0.90816844,0.045084137,-0.09074642,-0.073514506,1.195583,-0.37827444,0.03868152,-1.0154378,3.023209,-0.09702936,-0.03649089,1.2970809,0.62855977
0.0,0.0,0.7999999999999999,0.5235987755982988,0.5235987755982988,0,-0.6051512,-0.9038875,-0.003067449,-0.072541445,-0.020240303,1.2084106,0.39633393,0.013893155,-1.0186257,3.0577435,-0.035978824,0.004958423,1.2921541,-0.7694502
0.0,0.0,0.7999999999999999,0.5235987755982988,0.5235987755982988,0,-0.5834149,-0.9096203,0.09265361,-0.07230608,-0.10589299,1.1538212,-0.46640557,0.051238656,-1.0051612,3.010178,-0.08276097,-0.024503484,1.292746,0.22865579
0.0,0.0,0.7999999999999999,0.5235987755982988,0.5235987755982988,0,-0.54991,-0.90351737,0.051754467,-0.079593696,0.04683236,1.2294102,-0.4304566,0.03493167,-1.0132135,3.0537808,-0.059965122,0.004875356,1.3295404,0.5920264
0.0,0.0,0.7999999999999999,0.5235987755982988,0.5235987755982988,0,-0.55425143,-0.9055975,0.044540234,-0.08562698,-0.036706973,1.1718318,-0.6803105,0.029819325,-1.0134457,3.0513237,-0.086675145,-0.00919314,1.2756932,-0.08107529
0.0,0.0,0.7999999999999999,0.5235987755982988,0.5235987755982988,0,-0.54978055,-0.9092786,0.087568246,-0.066613056,-0.07564756,1.2041957,-0.392166,-0.02043,-1.0135207,3.0833015,-0.06311303,-0.03339934,1.2557906,-0.043656178
0.0,0.0,0.7999999999999999,0.5235987755982988,0.5235987755982988,0,-0.565574,-0.910013,0.09843509,-0.08104548,-0.014835149,1.2099533,0.5008109,0.016752552,-1.0193413,3.0114462,-0.059391312,0.054216404,1.2765269,-0.081440836
0.0,0.0,0.7999999999999999,0.5235987755982988,0.5235987755982988,0,-0.59774774,-0.90414923,0.057609685,-0.06526597,-0.071328744,1.1595205,-0.3100789,0.08112611,-1.0164405,3.0223186,-0.0650047,-0.07590775,1.2771796,-0.002535773
0.0,0.0,0.7999999999999999,0.5235987755982988,0.5235987755982988,0,-0.5546492,-0.90037215,0.09035004,-0.0758881,0.09345472,1.14487,0.17005715,0.03314489,-1.0092046,3.048245,-0.062252104,0.06926454,1.2697829,-0.042549662
0.0,0.0,0.7999999999999999,0.5235987755982988,0.5235987755982988,0,-0.5545516,-0.9029702,0.13013577,-0.07940358,-0.017998856,1.1933132,1.5721947,0.018595954,-1.0111239,3.0747912,-0.054506592,-0.060181905,1.2659969,0.6022338
0.0,0.0,0.7999999999999999,0.5235987755982988,0.5235987755982988,0,-0.5743742,-0.9036736,0.0858478,-0.06699526,-0.06848288,1.1879288,0.0027123375,-0.015402413,-1.0112545,2.9701443,-0.025532246,-0.019494008,1.3045374,0.6601199
0.0,0.0,0.7999999999999999,0.5235987755982988,0.5235987755982988,0,-0.54527664,-0.90906966,0.091341875,-0.06135967,-0.14431705,1.1840991,-0.39873284,0.018869918,-1.0141882,3.016173,-0.045651447,0.093614265,1.3249595,0.029053595
0.0,0.0,0.7999999999999999,0.5235987755982988,0.5235987755982988,0,-0.54520035,-0.9052945,0.015293746,-0.094258726,0.01606205,1.1799171,0.14615785,0.023511289,-1.0175477,3.0250232,-0.05605481,0.028131256,1.2940308,-0.024142299
0.0,0.0,0.7999999999999999,0.5235987755982988,0.5235987755982988,0,-0.570915,-0.9059103,0.08653824,-0.089397356,-0.012045819,1.1602327,-0.30461085,0.04052656,-1.0114187,3.0509388,-0.046255223,-0.20680879,1.2959353,0.48915434
0.0,0.0,0.7999999999999999,0.5235987755982988,0.5235987755982988,0,-0.57508254,-0.9069975,0.09572227,-0.07503937,0.07193142,1.1979091,-0.8062424,0.055948954,-1.0096407,3.06515,-0.036279943,-0.0058653383,1.3253825,0.24115768
0.0,0.0,0.7999999999999999,0.5235987755982988,0.5235987755982988,0,-0.5468925,-0.9037816,0.102586456,-0.06469366,-0.040547766,1.1391193,0.20077033,-0.00749603,-1.0243477,3.0033238,-0.07426898,-0.060478117,1.2857312,0.5311152
0.0,0.0,0.7999999999999999,0.5235987755982988,0.5235987755982988,0,-0.5794363,-0.90751886,0.057289276,-0.063433886,0.07913681,1.2267342,-0.47574985,0.03303347,-1.026193,2.9809673,-0.022852186,-0.0176006,1.3148191,0.26541024
0.0,0.0,0.7999999999999999,0.5235987755982988,0.5235987755982988,0,-0.5887257,-0.9032592,0.08614336,-0.059135877,0.019214883,1.1761817,0.8761778,0.04543966,-1.0190773,2.9923043,-0.030204885,-0.06618619,1.3194133,0.4171004
0.0,0.0,0.7999999999999999,0.5235987755982988,0.5235987755982988,0,-0.5530197,-0.90758634,0.08155248,-0.0825802,-0.1221652,1.1917506,-0.86290133,0.046064872,-1.010827,3.0824761,-0.056614146,0.0462987,1.3374436,-0.08970411
0.0,0.0,0.7999999999999999,0.5235987755982988,0.5235987755982988,0,-0.6272333,-0.90806097,0.12225409,-0.062035516,0.047779255,1.1633987,-0.44739133,0.0045947745,-1.0192409,3.0269163,-0.052174598,-0.048725717,1.300006,0.9145307
0.0,0.0,0.7999999999999999,0.5235987755982988,0.5235987755982988,0,-0.5738779,-0.90484047,0.10174765,-0.07660977,-0.03769985,1.2154082,0.44708297,-0.011151806,-1.0233697,3.0737777,-0.04381866,-0.10248063,1.2824639,0.46705067
0.0,0.0,0.7999999999999999,0.5235987755982988,0.5235987755982988,0,-0.5915195,-0.90898705,0.11291369,-0.08299629,-0.09822514,1.1837918,-1.2442473,0.021627653,-1.0147439,3.0216296,-0.046759445,-0.007689115,1.3164722,0.4125147
0.0,0.0,0.7999999999999999,0.5235987755982988,0.5235987755982988,0,-0.5909139,-0.9042082,0.12697652,-0.053226728,-0.1422854,1.1827284,0.73444307,-0.006129968,-1.0180694,2.9925113,-0.055613317,-0.10610335,1.3047783,0.2402023
0.0,0.0,0.7999999999999999,0.5235987755982988,0.5235987755982988,0,-0.6041564,-0.9052842,0.063901626,-0.09602415,-0.1496829,1.1631627,0.20544222,0.03944779,-1.0135623,2.9816196,-0.06710803,-0.0490055,1.2944545,0.59114015
0.0,0.0,0.7999999999999999,0.5235987755982988,0.5235987755982988,0,-0.580034,-0.90737474,0.06042359,-0.08024775,-0.145903,1.2442635,-1.2237084,0.022506537,-1.0220672,3.0379229,-0.049782872,-0.010905069,1.3580494,0.34413776
0.0,0.0,0.7999999999999999,0.5235987755982988,0.5235987755982988,0,-0.6070808,-0.90686816,0.03399162,-0.07741507,-0.09126243,1.2352036,-0.8865088,0.066792026,-1.0021462,2.995111,-0.03518586,0.104974,1.3292838,0.22172967
0.0,0.0,0.7999999999999999,0.5235987755982988,0.5235987755982988,0,-0.5964661,-0.90573347,0.06805886,-0.08693333,-0.11449276,1.1447539,-0.2760349,0.019674083,-1.0095978,3.044565,-0.030890089,-0.10288063,1.2962761,0.6125443
0.0,0.0,0.7999999999999999,0.5235987755982988,0.5235987755982988,0,-0.5734571,-0.90559065,0.12111185,-0.074473,-0.01552093,1.1855145,0.6781603,0.08042029,-1.0075527,3.0794947,-0.06436467,-0.012598779,1.2638146,0.23137249
0.0,0.0,0.7999999999999999,0.5235987755982988,0.5235987755982988,0,-0.5872951,-0.90661937,0.046726793,-0.08556348,-0.068660624,1.2190124,0.33219346,-0.012484513,-1.0130349,2.987541,-0.054049697,0.062027562,1.2946681,0.6155734
0.0,0.0,0.7999999999999999,0.5235987755982988,0.5235987755982988,0,-0.59259564,-0.90614855,0.10178365,-0.058494847,0.27109864,1.1285903,-0.8937546,0.062953025,-1.0181105,3.0282617,-0.083000466,-0.030115217,1.2779558,0.427113
0.0,0.0,0.7999999999999999,0.5235987755982988,0.5235987755982988,0,-0.559006,-0.9065472,0.061262127,-0.0668647,-0.05605734,1.2139049,0.6015445,0.0134261055,-1.0159366,3.0263882,-0.04930622,0.036714543,1.268793,0.30948532
0.0,0.0,0.7999999999999999,0.5235987755982988,0.5235987755982988,0,-0.61196476,-0.9072324,0.016395034,-0.067377985,0.0032431677,1.2033267,-0.09463841,0.0105405385,-1.0058272,3.1009448,-0.03587099,-0.15761723,1.2971919,0.903157
0.0,0.0,0.7999999999999999,0.5235987755982988,0.5235987755982988,0,-0.54044026,-0.90573496,0.06982946,-0.08688139,-0.08356942,1.1834046,-0.36073256,0.042039324,-1.0080788,3.0528407,-0.03646235,0.0034465916,1.2922338,0.6392986
0.0,0.0,0.7999999999999999,0.5235987755982988,0.5235987755982988,0,-0.5875256,-0.9049203,0.096072875,-0.089745,0.08226732,1.1840297,-0.6735411,0.04236626,-1.0099604,3.0682554,-0.047772776,-0.0055419626,1.2678442,0.33797872
0.0,0.0,0.7999999999999999,0.5235987755982988,0.5235987755982988,0,-0.5859985,-0.9060685,0.07487687,-0.07836766,-0.01901478,1.1595482,-0.3690252,0.041825548,-1.0106645,3.0074089,-0.061294727,-0.08466607,1.2922767,0.34927595
0.0,0.0,0.7999999999999999,0.5235987755982988,0.5235987755982988,0,-0.58156663,-0.9050465,0.050160035,-0.09329568,-0.0035988712,1.1692944,-0.4937995,0.010997857,-1.0089163,3.0213034,-0.030887764,-0.04407099,1.2870146,0.55355227
0.0,0.0,0.7999999999999999,0.5235987755982988,0.5235987755982988,0,-0.5829373,-0.9059154,0.13362667,-0.08073558,-0.07708185,1.190808,0.3472349,0.052006282,-1.0171281,3.0013049,-0.007991276,-0.0980117,1.2329626,0.62131095
0.0,0.0,0.7999999999999999,0.5235987755982988,0.5235987755982988,0,-0.587026,-0.9110903,0.021944951,-0.06788709,0.14593679,1.2482713,-0.38607332,0.031117475,-1.0163386,3.0557187,-0.013459747,-0.1102949,1.3228383,0.46037078
0.0,0.0,0.7999999999999999,0.5235987755982988,0.5235987755982988,0,-0.53792655,-0.90390193,0.13848062,-0.068704024,-0.16895385,1.218636,0.5870711,-0.040419493,-1.0139804,2.9899185,-0.061792582,0.021001631,1.3222263,0.6261009
0.0,0.0,0.7999999999999999,0.5235987755982988,0.5235987755982988,0,-0.586134,-0.907003,0.071816936,-0.07963301,0.036872,1.1865221,0.13806689,-0.023128018,-1.0167118,2.9766545,-0.042797204,0.05212174,1.2899742,0.2796094
0.0,0.0,0.7999999999999999,0.5235987755982988,0.5235987755982988,0,-0.5851809,-0.9070991,0.05583461,-0.06531942,-0.038247477,1.159188,-0.3044106,0.05006307,-1.0126938,3.053395,-0.049878694,0.007001288,1.3237922,0.6386568
0.0,0.0,0.7999999999999999,0.5235987755982988,0.5235987755982988,0,-0.59502965,-0.9032261,0.056840595,-0.068137884,-0.038075227,1.2363104,-0.5194876,0.02487684,-1.0161821,3.0525815,-0.060848035,-0.059708115,1.3121189,0.0055991095
0.0,0.0,0.7999999999999999,0.5235987755982988,0.5235987755982988,0,-0.54322624,-0.9044415,0.02049753,-0.0738504,-0.05221894,1.1294698,-0.79223114,-0.056490842,-1.0233145,3.036149,-0.061944157,-0.035876185,1.2377604,-0.047817588
0.0,0.0,0.7999999999999999,0.5235987755982988,0.5235987755982988,0,-0.55843407,-0.90271443,0.045930948,-0.066216506,-0.054757014,1.2049564,-0.079705775,0.02220941,-1.0099844,2.9884737,-0.067549504,-0.11993692,1.3040597,1.0564502
0.0,0.0,0.7999999999999999,0.5235987755982988,0.5235987755982988,0,-0.5636979,-0.9095129,0.043001357,-0.06458862,0.037269197,1.2199441,0.013268276,0.022939531,-1.00652,3.031982,-0.05880607,0.058522582,1.2896512,0.40410316
0.0,0.0,0.7999999999999999,0.5235987755982988,0.5235987755982988,0,-0.593695,-0.9115207,0.01765969,-0.074607104,0.13369541,1.1566801,0.19338173,-0.020849928,-1.0169568,3.0668344,-0.063209325,-0.10794211,1.273715,0.7715444
0.0,0.0,0.7999999999999999,0.5235987755982988,0.5235987755982988,0,-0.5876101,-0.90565157,0.027854359,-0.09814009,-0.04387897,1.151072,0.43927258,-0.014086664,-1.018636,2.9603164,-0.031069137,0.007633477,1.2744919,0.95008826
0.0,0.0,0.7999999999999999,0.5235987755982988,0.5235987755982988,0,-0.57765716,-0.90841764,0.066574976,-0.07134719,-0.040773243,1.1851287,-0.21504934,0.013721733,-1.0155306,2.9844158,-0.025091637,-0.047360513,1.2555348,0.07208838
0.0,0.0,0.7999999999999999,0.5235987755982988,0.5235987755982988,0,-0.57016164,-0.9063405,0.10980545,-0.07580961,0.06569572,1.1067973,0.05173926,0.031664684,-1.0196133,3.0612168,-0.07174481,-0.046453495,1.2592342,0.44418746
0.0,0.0,0.7999999999999999,0.5235987755982988,0.5235987755982988,0,-0.5911386,-0.9043194,0.121880226,-0.08804327,-0.008266927,1.1146333,-0.82258373,0.06495902,-1.0230006,3.022658,-0.08064637,-0.099989094,1.3662239,0.024149295
0.0,0.0,0.7999999999999999,0.5235987755982988,0.5235987755982988,0,-0.57803476,-0.9050506,0.075921364,-0.056036364,-0.027831862,1.1710553,0.8446907,0.03441286,-1.0116284,2.9689612,-0.06318416,-0.0186015,1.2949307,0.42267796
0.0,0.0,0.7999999999999999,0.5235987755982988,0.5235987755982988,0,-0.55756575,-0.9078832,0.083869755,-0.0695492,-0.11106368,1.1545177,-0.42882678,0.008442457,-1.0174057,3.0290277,-0.044633728,-0.16423424,1.2477397,0.05354634
0.0,0.0,0.7999999999999999,0.5235987755982988,0.5235987755982988,0,-0.5961742,-0.9062042,0.11683734,-0.07617939,-0.15342918,1.1577867,-0.3762378,0.019947086,-1.0231168,3.0673242,-0.042089164,0.035170738,1.2668754,0.15408127
0.0,0.0,0.7999999999999999,0.5235987755982988,0.5235987755982988,0,-0.56547165,-0.90384233,0.043887425,-0.06859179,-0.100632444,1.2051331,0.32629752,0.028194001,-1.022514,3.016896,-0.013333678,-0.12119374,1.3422945,0.23610872
0.0,0.0,0.7999999999999999,0.5235987755982988,0.5235987755982988,0,-0.55011266,-0.9084105,0.017607119,-0.08753791,-0.26573846,1.1979964,-0.79458386,0.04432733,-1.014156,2.9902375,-0.060067516,-0.06805616,1.3002527,0.016415609
0.0,0.0,0.7999999999999999,0.5235987755982988,0.5235987755982988,0,-0.551944,-0.9084431,0.09798411,-0.08677644,0.014137141,1.1399213,0.7778779,0.023560893,-1.0176134,3.0674272,-0.086594805,-0.16749777,1.3061968,0.58940333
0.0,0.0,0.7999999999999999,0.5235987755982988,0.5235987755982988,0,-0.57846606,-0.90963507,0.030478068,-0.061226547,-0.0022867278,1.2536707,-0.54184514,0.033922266,-1.0184764,2.9978447,-0.054104056,-0.08236477,1.2384336,0.5951054
0.0,0.0,0.7999999999999999,0.5235987755982988,0.5235987755982988,0,-0.5684213,-0.90182966,0.13402258,-0.044695977,-0.16901073,1.1753662,0.45726904,0.020852644,-1.0120004,2.996381,-0.02148608,-0.012396971,1.292684,0.106921144
0.0,0.0,0.7999999999999999,0.5235987755982988,0.5235987755982988,0,-0.55955875,-0.9105017,-0.011336296,-0.07851659,-0.02555502,1.2151126,-0.23912153,0.025851415,-1.0177028,2.979601,-0.014290589,0.0070541473,1.3307596,-0.043172475
0.0,0.0,0.7999999999999999,0.5235987755982988,0.5235987755982988,0,-0.5896204,-0.9038168,0.06646233,-0.07970961,-0.100026645,1.1560788,-0.15977244,0.016291132,-1.0143493,3.004613,-0.077958316,-0.07681974,1.2684429,0.3331704
0.0,0.0,0.7999999999999999,0.5235987755982988,0.5235987755982988,0,-0.5533898,-0.91329926,0.19075218,-0.089846194,-0.051786296,1.1481891,0.6197968,0.0024208352,-1.0156337,3.0347607,-0.081485875,-0.10720421,1.3096594,1.1598082
0.0,0.0,0.7999999999999999,0.5235987755982988,0.5235987755982988,0,-0.60811085,-0.9092171,0.045168787,-0.08588864,-0.03752581,1.1298423,0.40539923,0.04359867,-1.0103844,3.011711,-0.027496303,-0.013325944,1.3407209,-0.09326344
0.0,0.0,0.7999999999999999,0.5235987755982988,0.5235987755982988,0,-0.6080202,-0.9028797,0.09878471,-0.08475168,0.060862068,1.16483,0.09839176,0.014397602,-1.0217333,3.056394,-0.07032847,0.03839338,1.3039695,0.66931015
0.0,0.0,0.7999999999999999,0.5235987755982988,0.5235987755982988,0,-0.5713709,-0.90741915,0.09597769,-0.0935389,-0.011907147,1.2394522,0.59846914,-0.035298556,-1.014319,3.002125,-0.072020054,-0.1146847,1.3103397,0.88834924
0.0,0.0,0.7999999999999999,0.5235987755982988,0.5235987755982988,0,-0.5925036,-0.9090291,0.08288262,-0.07531455,-0.023011567,1.1610551,0.01436697,0.058154892,-1.0214151,3.0509818,-0.08051088,0.0011099967,1.3021425,0.64395845
0.0,0.0,0.7999999999999999,0.5235987755982988,0.5235987755982988,0,-0.6054759,-0.9078119,0.06811968,-0.08582868,0.050438132,1.1951678,-0.80065846,0.011902919,-1.0132058,3.083591,-0.023786314,-0.1367989,1.2781745,0.3303887
0.0,0.0,0.7999999999999999,0.5235987755982988,0.5235987755982988,0,-0.5763449,-0.9087887,0.06748026,-0.073526435,0.013481758,1.127822,-0.97610664,0.015636155,-1.0170095,3.017002,-0.030761244,0.018062029,1.2390254,0.83728516
0.0,0.0,0.7999999999999999,0.5235987755982988,0.5235987755982988,0,-0.59181565,-0.90533185,0.12457677,-0.07594421,-0.050284427,1.1788671,-0.35529408,0.0031713198,-1.0173867,3.0514426,-0.015179406,-0.037543125,1.3310838,0.22243589
0.0,0.0,0.7999999999999999,0.5235987755982988,0.5235987755982988,0,-0.5590545,-0.90665483,0.065100156,-0.08499256,0.04908608,1.1900792,0.65982753,0.052261364,-1.0142736,3.004817,-0.049730014,-0.0047980263,1.2980417,0.76257366
0.0,0.0,0.7999999999999999,0.5235987755982988,0.5235987755982988,0,-0.5975088,-0.9080078,0.062039476,-0.073679686,-0.104949825,1.1581333,-0.18649055,-0.033799235,-1.0114954,2.9950361,-0.10093985,0.025149815,1.300428,0.5100872
0.0,0.0,0.7999999999999999,0.5235987755982988,0.5235987755982988,0,-0.5756265,-0.9075751,0.084613636,-0.053508937,0.07003005,1.2294117,-0.23691852,0.041937195,-1.0076625,3.0628393,-0.05666736,-0.034237508,1.3002683,0.10230394
