sanky1234/BimanualDexCatch/isaacgymenvs/cem_results/football_pose_0.1_0.1_0.8999999999999999_0.5235987755982988_0.5235987755982988_0_2025-05-27.csv
x,y,z,roll,pitch,yaw,robot1/joint1,robot1/joint2,robot1/joint3,robot1/joint4,robot1/joint5,robot1/joint6,robot1/joint7,robot2/joint1,robot2/joint2,robot2/joint3,robot2/joint4,robot2/joint5,robot2/joint6,robot2/joint7
0.1,0.1,0.8999999999999999,0.5235987755982988,0.5235987755982988,0,-1.5166123,0.88656574,-0.6549632,0.30936748,0.07751973,1.4562713,-0.83022255,-0.7146929,-1.4109238,-0.2378715,-0.035694998,0.09061337,1.2167827,0.230925
0.1,0.1,0.8999999999999999,0.5235987755982988,0.5235987755982988,0,-1.5153891,0.88977414,-0.64642733,0.30843058,0.11447697,1.4767048,-1.1810011,-0.7161273,-1.4117671,-0.23496592,-0.11069495,0.087223284,1.1518725,0.5837817
0.1,0.1,0.8999999999999999,0.5235987755982988,0.5235987755982988,0,-1.5183265,0.88968873,-0.6475723,0.3095231,0.10894819,1.4720124,-0.61347216,-0.71384525,-1.4089137,-0.24284774,-0.0584981,0.120389536,1.1273085,0.24409012
0.1,0.1,0.8999999999999999,0.5235987755982988,0.5235987755982988,0,-1.518759,0.8912312,-0.6572422,0.30567604,0.13947742,1.4500328,-1.1799074,-0.7168156,-1.4112056,-0.23419443,-0.12738405,0.048099328,1.1080667,-0.38925716
0.1,0.1,0.8999999999999999,0.5235987755982988,0.5235987755982988,0,-1.5169315,0.88867694,-0.6635193,0.30542684,0.1505308,1.4673611,-0.9631462,-0.71699846,-1.4106429,-0.24879664,-0.05397179,0.12923634,1.1002355,0.1547372
0.1,0.1,0.8999999999999999,0.5235987755982988,0.5235987755982988,0,-1.5173697,0.8872003,-0.6436564,0.30792332,0.056592528,1.4829817,-0.7138611,-0.71358484,-1.4101676,-0.24359757,-0.094405524,0.07345531,1.3128446,0.6482426
0.1,0.1,0.8999999999999999,0.5235987755982988,0.5235987755982988,0,-1.5152453,0.8879696,-0.6487276,0.30905095,0.065906644,1.4765023,-0.5558441,-0.7141017,-1.4111276,-0.23532057,-0.055036176,0.13918556,1.2427702,-0.09055212
0.1,0.1,0.8999999999999999,0.5235987755982988,0.5235987755982988,0,-1.5137522,0.88805175,-0.649712,0.31004092,0.09515012,1.4476944,-0.80935407,-0.71426433,-1.4107755,-0.23809709,-0.07455907,0.021723721,1.0282749,-0.4213899
0.1,0.1,0.8999999999999999,0.5235987755982988,0.5235987755982988,0,-1.5159245,0.8897731,-0.6471552,0.3091945,0.15197715,1.473645,-1.1392964,-0.71489996,-1.4104706,-0.2418429,-0.110425405,0.16212906,1.1177297,0.10886148
0.1,0.1,0.8999999999999999,0.5235987755982988,0.5235987755982988,0,-1.5173048,0.88747793,-0.64867204,0.30593115,0.067837015,1.4791583,-1.173906,-0.7129097,-1.4104087,-0.2382473,-0.07353081,0.08935844,1.1252371,0.1156133
0.1,0.1,0.8999999999999999,0.5235987755982988,0.5235987755982988,0,-1.514993,0.88686574,-0.6463311,0.305881,0.07597677,1.4610423,-1.1236559,-0.71718127,-1.4116594,-0.24356154,-0.010347076,0.07169274,1.1499658,-0.20962626
0.1,0.1,0.8999999999999999,0.5235987755982988,0.5235987755982988,0,-1.5130363,0.887948,-0.64379954,0.30547148,0.09126054,1.4785731,-1.23857,-0.7155663,-1.410407,-0.24188454,-0.076965906,0.18255721,1.1729048,-0.0849399
0.1,0.1,0.8999999999999999,0.5235987755982988,0.5235987755982988,0,-1.5172175,0.8883176,-0.6491962,0.30585837,0.12119801,1.4650785,-0.9132503,-0.71508443,-1.4110166,-0.24066983,-0.11780116,0.06148558,1.1175759,-0.003909697
0.1,0.1,0.8999999999999999,0.5235987755982988,0.5235987755982988,0,-1.5159405,0.8872148,-0.65745085,0.30825284,0.15228333,1.4518554,-0.76423717,-0.715938,-1.4120775,-0.23475872,-0.114870414,-0.014901584,1.0471226,0.23617068
0.1,0.1,0.8999999999999999,0.5235987755982988,0.5235987755982988,0,-1.5150657,0.8897015,-0.6535824,0.30895942,0.14444663,1.4795476,-0.64438075,-0.7148163,-1.4106833,-0.24025024,-0.072520375,0.13524045,1.1585153,0.24093123
0.1,0.1,0.8999999999999999,0.5235987755982988,0.5235987755982988,0,-1.5184089,0.8861562,-0.64589256,0.30910817,0.092200376,1.4764358,-0.66396385,-0.7148666,-1.4113395,-0.23591602,-0.06792021,-0.007986135,1.1868484,0.28428754
0.1,0.1,0.8999999999999999,0.5235987755982988,0.5235987755982988,0,-1.5158752,0.889546,-0.6535038,0.31048393,0.14581628,1.4850711,-0.7706752,-0.717076,-1.4108496,-0.24560179,-0.048713982,0.11583193,1.1040771,-0.11075083
0.1,0.1,0.8999999999999999,0.5235987755982988,0.5235987755982988,0,-1.5151949,0.8887104,-0.64481056,0.31100345,0.107638754,1.4699515,-0.88947046,-0.7153108,-1.4109806,-0.23456159,-0.07907518,0.10322995,1.0667508,0.0032487852
0.1,0.1,0.8999999999999999,0.5235987755982988,0.5235987755982988,0,-1.5182195,0.8860471,-0.6495553,0.3082116,0.111162275,1.4908533,-1.0172105,-0.7117056,-1.4100784,-0.23716682,-0.090356335,-0.033657487,1.1807476,0.14405814
0.1,0.1,0.8999999999999999,0.5235987755982988,0.5235987755982988,0,-1.5204211,0.88870966,-0.6456626,0.3082635,0.08429546,1.4734269,-0.8218886,-0.71412635,-1.4111799,-0.23153783,-0.077070974,0.13223407,1.1477301,0.20364216
0.1,0.1,0.8999999999999999,0.5235987755982988,0.5235987755982988,0,-1.5153999,0.8865738,-0.658275,0.30775452,0.1178662,1.4898742,-0.7323491,-0.7155583,-1.4106563,-0.24513566,-0.040898018,0.018025398,1.1301335,0.1829657
0.1,0.1,0.8999999999999999,0.5235987755982988,0.5235987755982988,0,-1.5162704,0.88910383,-0.6533279,0.30580547,0.13283412,1.4963418,-0.9953709,-0.7156378,-1.4110807,-0.2423807,-0.047211677,-0.027761893,1.1962854,0.1731964
0.1,0.1,0.8999999999999999,0.5235987755982988,0.5235987755982988,0,-1.518463,0.8887386,-0.6495311,0.30676156,0.06562236,1.4830972,-0.5158419,-0.7156455,-1.4111086,-0.24085139,-0.08811259,0.03496524,1.1796852,0.00023323072
0.1,0.1,0.8999999999999999,0.5235987755982988,0.5235987755982988,0,-1.5163661,0.88552,-0.64333296,0.30830732,0.12727404,1.4738021,-0.95188695,-0.7156811,-1.4111155,-0.24194402,-0.084878184,0.009030623,1.1422042,0.33853638
0.1,0.1,0.8999999999999999,0.5235987755982988,0.5235987755982988,0,-1.5171847,0.8882492,-0.64602834,0.30760232,0.08906148,1.4709562,-1.4877906,-0.71475536,-1.4114848,-0.23571824,-0.07617109,0.07767875,1.0865083,0.18535836
0.1,0.1,0.8999999999999999,0.5235987755982988,0.5235987755982988,0,-1.5191168,0.8837678,-0.63646215,0.30666354,0.1205117,1.4802471,-0.512063,-0.7154958,-1.4114538,-0.24098925,-0.120530754,-0.029937848,1.0784907,-0.0825411
0.1,0.1,0.8999999999999999,0.5235987755982988,0.5235987755982988,0,-1.515872,0.8872182,-0.63929397,0.3072755,0.14079942,1.4721434,-0.68785125,-0.71375865,-1.4103928,-0.23602158,-0.07404681,-0.08495251,1.099599,0.29936853
0.1,0.1,0.8999999999999999,0.5235987755982988,0.5235987755982988,0,-1.5169635,0.88895804,-0.6479714,0.30807996,0.12232507,1.4843419,-0.89769244,-0.7143523,-1.4112669,-0.23647493,-0.09881563,0.09930313,1.0780686,-0.59624434
0.1,0.1,0.8999999999999999,0.5235987755982988,0.5235987755982988,0,-1.5160404,0.8895854,-0.64897203,0.30583012,0.12441245,1.5061944,-0.4590286,-0.71649915,-1.4110354,-0.24722026,-0.058730163,0.09701873,1.1912944,-0.111763395
0.1,0.1,0.8999999999999999,0.5235987755982988,0.5235987755982988,0,-1.5132583,0.89196,-0.65015095,0.30756858,0.09604085,1.467708,-0.5274758,-0.7155836,-1.4099002,-0.24541415,-0.09457716,0.10324211,1.0636722,-0.117028125
0.1,0.1,0.8999999999999999,0.5235987755982988,0.5235987755982988,0,-1.5170541,0.88972104,-0.65118563,0.30224037,0.1306209,1.4897876,-0.47642294,-0.71673995,-1.412037,-0.24279408,-0.09497004,0.1358704,1.0512576,0.034531184
0.1,0.1,0.8999999999999999,0.5235987755982988,0.5235987755982988,0,-1.5165983,0.8882417,-0.6429967,0.3083599,0.10781957,1.5023414,-0.76087916,-0.7155098,-1.4104124,-0.24249974,-0.03312672,0.1302459,1.0658593,-0.12912099
0.1,0.1,0.8999999999999999,0.5235987755982988,0.5235987755982988,0,-1.5184914,0.8901304,-0.645215,0.30809098,0.12534884,1.4729655,-1.0788584,-0.7164642,-1.4108603,-0.24825445,-0.1771826,0.1476696,1.1494641,0.31912994
0.1,0.1,0.8999999999999999,0.5235987755982988,0.5235987755982988,0,-1.5158415,0.88870597,-0.65279186,0.30167606,0.14096138,1.4692434,-0.68865323,-0.7174159,-1.4123495,-0.24208003,-0.12680121,0.13476105,1.1239657,0.0579126
0.1,0.1,0.8999999999999999,0.5235987755982988,0.5235987755982988,0,-1.5182441,0.88835335,-0.6394775,0.30549222,0.12831035,1.4728585,-0.087324545,-0.7135363,-1.4108716,-0.23881578,-0.0800706,0.19911826,1.1120559,0.3302033
0.1,0.1,0.8999999999999999,0.5235987755982988,0.5235987755982988,0,-1.5163909,0.8883231,-0.65015674,0.30739963,0.11878517,1.478282,-0.40304062,-0.7135363,-1.4101422,-0.24509247,-0.088778995,0.13283426,1.2663358,-0.041643996
0.1,0.1,0.8999999999999999,0.5235987755982988,0.5235987755982988,0,-1.5153755,0.88933915,-0.6497142,0.30871224,0.06759464,1.4559692,-0.79511285,-0.71755695,-1.4124426,-0.23639178,-0.048887983,0.031989302,1.0903845,0.17790933
0.1,0.1,0.8999999999999999,0.5235987755982988,0.5235987755982988,0,-1.5171809,0.8868378,-0.6528896,0.30772865,0.095320486,1.4710001,-0.40337017,-0.71483105,-1.4111092,-0.24231195,-0.06719049,0.082990155,1.2962512,0.7420944
0.1,0.1,0.8999999999999999,0.5235987755982988,0.5235987755982988,0,-1.5161531,0.88850605,-0.64533275,0.31455687,0.08834477,1.4683151,-0.549371,-0.71465385,-1.4097621,-0.24263167,-0.06082902,0.0577322,1.1078947,-0.049896207
0.1,0.1,0.8999999999999999,0.5235987755982988,0.5235987755982988,0,-1.5148561,0.8878643,-0.64593285,0.3072141,0.067213625,1.4804251,-1.0127885,-0.71746844,-1.412683,-0.23715295,-0.11120132,0.19114186,1.1805391,-0.075312555
0.1,0.1,0.8999999999999999,0.5235987755982988,0.5235987755982988,0,-1.5192151,0.8863029,-0.6474827,0.30704764,0.15551578,1.5009506,-0.6229749,-0.7142281,-1.411323,-0.23786801,-0.11045273,0.14383675,1.1667014,-0.0045209937
0.1,0.1,0.8999999999999999,0.5235987755982988,0.5235987755982988,0,-1.5198308,0.88588953,-0.64779425,0.30970436,0.10435585,1.4669933,-1.1726384,-0.7142574,-1.4103191,-0.24367149,-0.1283057,0.06414753,1.0801387,0.23320262
0.1,0.1,0.8999999999999999,0.5235987755982988,0.5235987755982988,0,-1.515951,0.8863371,-0.64387536,0.30450043,0.12990887,1.4869075,-0.8287713,-0.7155881,-1.4115001,-0.24354003,-0.039841957,0.09585901,1.1782541,-0.029050631
0.1,0.1,0.8999999999999999,0.5235987755982988,0.5235987755982988,0,-1.5175421,0.8873523,-0.644712,0.31012848,0.132601,1.462686,-0.99073565,-0.71566355,-1.4116656,-0.2368704,-0.049040195,0.03616397,1.2015492,0.15615472
0.1,0.1,0.8999999999999999,0.5235987755982988,0.5235987755982988,0,-1.5159699,0.8879456,-0.64943033,0.31322682,0.106889896,1.4841049,-0.8116157,-0.716209,-1.410968,-0.24002326,-0.06666938,-0.06282082,1.1201894,-0.1834251
0.1,0.1,0.8999999999999999,0.5235987755982988,0.5235987755982988,0,-1.52013,0.88663256,-0.6518757,0.30833608,0.07621808,1.4664121,-1.0879295,-0.7159576,-1.4102489,-0.25124878,-0.14634821,-0.0201259,1.124148,0.29233292
0.1,0.1,0.8999999999999999,0.5235987755982988,0.5235987755982988,0,-1.5139107,0.8856993,-0.6465853,0.3081419,0.14376213,1.4531827,0.04766989,-0.71524173,-1.4097161,-0.24839088,-0.124624394,0.15590423,1.1191944,0.21338286
0.1,0.1,0.8999999999999999,0.5235987755982988,0.5235987755982988,0,-1.5180157,0.88837504,-0.6453407,0.3051376,0.13881418,1.4878539,-0.79226667,-0.7128409,-1.4106356,-0.23931907,-0.089556836,-0.05089562,1.176588,-0.038522605
0.1,0.1,0.8999999999999999,0.5235987755982988,0.5235987755982988,0,-1.5148998,0.88895714,-0.6462045,0.30393502,0.095366895,1.4731352,-0.9685863,-0.7159288,-1.4116478,-0.24495268,-0.1540252,-0.100768626,1.060792,0.2626112
0.1,0.1,0.8999999999999999,0.5235987755982988,0.5235987755982988,0,-1.5167178,0.8913033,-0.6466008,0.30764025,0.10503607,1.456925,-0.69236916,-0.7149103,-1.4124211,-0.22878489,-0.10479127,0.028975267,1.2921383,0.18696068
0.1,0.1,0.8999999999999999,0.5235987755982988,0.5235987755982988,0,-1.5137479,0.88718724,-0.64836454,0.30971292,0.09248095,1.4719783,-0.59080774,-0.7172393,-1.4114615,-0.24052668,-0.13863261,-0.007288069,1.0681922,0.18679972
0.1,0.1,0.8999999999999999,0.5235987755982988,0.5235987755982988,0,-1.5170557,0.89043826,-0.64610803,0.3059257,0.18756457,1.4759945,-0.5507657,-0.71561676,-1.4113241,-0.24250373,-0.04480831,0.16948916,1.220564,-0.23721935
0.1,0.1,0.8999999999999999,0.5235987755982988,0.5235987755982988,0,-1.5159254,0.88820696,-0.6463232,0.30635378,0.14889926,1.4546598,-1.1788049,-0.7169739,-1.4120638,-0.23959535,-0.058020752,0.092215925,1.1145815,-0.0793566
0.1,0.1,0.8999999999999999,0.5235987755982988,0.5235987755982988,0,-1.5131844,0.88567865,-0.6485701,0.31113794,0.106928304,1.4704108,-0.82166004,-0.71366376,-1.4113386,-0.23525928,-0.046029687,-0.015365112,1.0323507,0.04485716
0.1,0.1,0.8999999999999999,0.5235987755982988,0.5235987755982988,0,-1.5160457,0.88887477,-0.6434431,0.30937392,0.1195625,1.4738687,-0.8610535,-0.71461695,-1.409917,-0.24237579,-0.06462973,0.14587581,1.1328816,0.2773273
0.1,0.1,0.8999999999999999,0.5235987755982988,0.5235987755982988,0,-1.5151725,0.88740885,-0.6460722,0.30555636,0.07669911,1.4524349,-1.235187,-0.7135065,-1.4100033,-0.24629723,-0.11607533,-0.031548116,1.1635057,0.08087754
0.1,0.1,0.8999999999999999,0.5235987755982988,0.5235987755982988,0,-1.5164418,0.8882232,-0.65027916,0.3077661,0.07564373,1.4610791,-1.2479162,-0.714371,-1.4112065,-0.23792697,-0.08751624,0.052215252,1.1625932,0.19171464
0.1,0.1,0.8999999999999999,0.5235987755982988,0.5235987755982988,0,-1.5192373,0.88866013,-0.64780277,0.30958283,0.09628371,1.4894351,-0.77316684,-0.7155148,-1.4113415,-0.2369839,-0.11005438,0.014793367,1.1542554,0.461322
0.1,0.1,0.8999999999999999,0.5235987755982988,0.5235987755982988,0,-1.518529,0.8884246,-0.6466574,0.30911854,0.14334129,1.4949403,-0.6827436,-0.71451193,-1.4107301,-0.24262704,-0.07086303,0.20611739,1.2713445,-0.2765924
0.1,0.1,0.8999999999999999,0.5235987755982988,0.5235987755982988,0,-1.5165943,0.88415736,-0.6454004,0.30790418,0.13503595,1.4650881,-0.6038861,-0.7138983,-1.4109523,-0.24236034,-0.13814019,-0.12870027,1.0597223,-0.16944902
0.1,0.1,0.8999999999999999,0.5235987755982988,0.5235987755982988,0,-1.5158261,0.8876976,-0.643948,0.30643585,0.12683725,1.4801077,-1.1726371,-0.7150246,-1.4107682,-0.23855732,-0.113704436,0.06433192,1.1595135,0.09228954
0.1,0.1,0.8999999999999999,0.5235987755982988,0.5235987755982988,0,-1.5151879,0.88880605,-0.6447689,0.30846098,0.071017,1.4672167,-0.3645716,-0.7171329,-1.4114602,-0.23865025,-0.07313212,-0.059358016,1.0697521,0.1877372
0.1,0.1,0.8999999999999999,0.5235987755982988,0.5235987755982988,0,-1.5175867,0.8868966,-0.6451196,0.3084677,0.077660106,1.4685782,-0.6642957,-0.71504205,-1.4114072,-0.2386332,-0.036254205,0.050435133,1.1351835,0.27404696
0.1,0.1,0.8999999999999999,0.5235987755982988,0.5235987755982988,0,-1.5185058,0.8868411,-0.65033185,0.3070732,0.1303328,1.4789172,-0.7756632,-0.7158831,-1.4107656,-0.24778393,-0.07274074,0.099360056,1.1034074,-0.22463317
0.1,0.1,0.8999999999999999,0.5235987755982988,0.5235987755982988,0,-1.5151206,0.8833823,-0.6484806,0.30660033,0.094292425,1.4602123,-0.96906483,-0.7155103,-1.4124161,-0.23491663,-0.08718897,-0.06392545,1.1474277,0.17225851
0.1,0.1,0.8999999999999999,0.5235987755982988,0.5235987755982988,0,-1.5126534,0.88813174,-0.648835,0.30703533,0.17350331,1.4620396,-0.9235019,-0.71266586,-1.4103276,-0.23543729,-0.060030993,0.0117720915,1.0880897,-0.06509129
0.1,0.1,0.8999999999999999,0.5235987755982988,0.5235987755982988,0,-1.5179188,0.88966477,-0.65054625,0.31191248,0.11423186,1.4500352,-0.541907,-0.71552163,-1.410314,-0.24262127,-0.040405363,-0.067315064,1.1432095,0.07426858
0.1,0.1,0.8999999999999999,0.5235987755982988,0.5235987755982988,0,-1.5166125,0.888434,-0.6563255,0.31127748,0.16976963,1.4813019,-0.95338666,-0.71635664,-1.4111966,-0.24057485,-0.0685704,0.0039068,1.1494249,0.30189446
0.1,0.1,0.8999999999999999,0.5235987755982988,0.5235987755982988,0,-1.5151957,0.88838464,-0.65134203,0.3079206,0.09811489,1.4686252,-0.21654193,-0.7146578,-1.4113528,-0.23837031,-0.09322783,0.05718769,1.1256466,-0.20482528
0.1,0.1,0.8999999999999999,0.5235987755982988,0.5235987755982988,0,-1.515305,0.8900459,-0.6543172,0.30894282,0.10742902,1.4609598,-0.75456834,-0.71592975,-1.4114722,-0.23994811,-0.053961996,0.11682592,1.0793587,0.2173263
0.1,0.1,0.8999999999999999,0.5235987755982988,0.5235987755982988,0,-1.517973,0.8893413,-0.6522749,0.30954906,0.17177512,1.4738868,-0.6963817,-0.71536285,-1.4107031,-0.2420419,-0.083140545,0.0684653,1.2145855,-0.05523694
0.1,0.1,0.8999999999999999,0.5235987755982988,0.5235987755982988,0,-1.5165819,0.8884151,-0.64247274,0.30549714,0.10695404,1.4365236,-0.7366657,-0.7145553,-1.4104248,-0.24086125,-0.03135413,-0.04947124,1.2182982,0.08620127
0.1,0.1,0.8999999999999999,0.5235987755982988,0.5235987755982988,0,-1.5172949,0.8870832,-0.6499215,0.30529314,0.09228076,1.4844577,-0.4818954,-0.71319574,-1.4113693,-0.236934,-0.06968535,0.08026578,1.0968864,0.10853359
0.1,0.1,0.8999999999999999,0.5235987755982988,0.5235987755982988,0,-1.5144749,0.89032346,-0.65272236,0.30983916,0.08045881,1.4719204,-0.9832856,-0.7143473,-1.410458,-0.24474443,-0.06888093,0.35332748,1.1295937,0.58150077
0.1,0.1,0.8999999999999999,0.5235987755982988,0.5235987755982988,0,-1.518418,0.8871185,-0.6609309,0.30857322,0.09613575,1.4660921,-0.9273007,-0.71416533,-1.4119904,-0.23079883,-0.051816292,0.07120313,1.0279118,0.29633194
0.1,0.1,0.8999999999999999,0.5235987755982988,0.5235987755982988,0,-1.5164268,0.8890062,-0.64983755,0.3081416,0.17218067,1.4891865,-0.7981395,-0.7165014,-1.4127493,-0.23391162,-0.08223802,-0.094595835,1.1617824,0.18435769
0.1,0.1,0.8999999999999999,0.5235987755982988,0.5235987755982988,0,-1.5134486,0.8883669,-0.64585173,0.3092049,0.13152373,1.478541,-0.49279726,-0.7147083,-1.4107246,-0.23881955,-0.10083514,0.019547423,1.1077193,0.40163454
0.1,0.1,0.8999999999999999,0.5235987755982988,0.5235987755982988,0,-1.5139381,0.89001364,-0.65048236,0.30694565,0.14159103,1.4789551,-0.29081437,-0.7187948,-1.4125098,-0.24467835,-0.0383237,0.0892201,1.1165826,-0.20826462
0.1,0.1,0.8999999999999999,0.5235987755982988,0.5235987755982988,0,-1.5157151,0.8869539,-0.64701605,0.30640325,0.08340009,1.4588301,-0.6059942,-0.7160142,-1.4121817,-0.23880853,-0.059806626,-0.010555073,1.1060228,0.38233477
0.1,0.1,0.8999999999999999,0.5235987755982988,0.5235987755982988,0,-1.5171442,0.8882754,-0.6472416,0.30566505,0.09696126,1.4819831,-0.7432227,-0.71610916,-1.412507,-0.2371131,-0.12073346,0.060494408,1.178369,0.2512389
0.1,0.1,0.8999999999999999,0.5235987755982988,0.5235987755982988,0,-1.5171452,0.8896405,-0.6567802,0.30973935,0.096654594,1.4743577,-0.85077983,-0.7149397,-1.4114412,-0.23705828,0.0013061404,-0.049241822,1.0804276,0.099955276
0.1,0.1,0.8999999999999999,0.5235987755982988,0.5235987755982988,0,-1.517184,0.8878184,-0.6479336,0.31316724,0.08590802,1.4443674,-0.707756,-0.71518916,-1.4094725,-0.25113302,-0.026659906,0.021076052,1.1102874,-0.065281756
0.1,0.1,0.8999999999999999,0.5235987755982988,0.5235987755982988,0,-1.5169516,0.88429266,-0.64574224,0.30568564,0.09774515,1.4991639,-0.92496836,-0.7163813,-1.4126258,-0.23892353,-0.103463486,-0.018854847,1.2299016,0.14818229
0.1,0.1,0.8999999999999999,0.5235987755982988,0.5235987755982988,0,-1.5151746,0.889038,-0.6427095,0.30809912,0.14436533,1.4773855,-0.5095863,-0.71683097,-1.4109864,-0.24371207,-0.029056484,0.05862147,1.1025172,-0.0038459676
0.1,0.1,0.8999999999999999,0.5235987755982988,0.5235987755982988,0,-1.515932,0.88925236,-0.6524113,0.30947348,0.07800191,1.4566942,-0.3729775,-0.71414715,-1.4110336,-0.2387299,-0.07839551,-0.020122861,1.2075039,0.37645188
0.1,0.1,0.8999999999999999,0.5235987755982988,0.5235987755982988,0,-1.5152551,0.8879365,-0.64815336,0.30560923,0.049980838,1.4677452,-0.9778855,-0.7160849,-1.4110789,-0.2493869,-0.10704969,0.07511158,1.194882,0.22436291
0.1,0.1,0.8999999999999999,0.5235987755982988,0.5235987755982988,0,-1.5185679,0.8855813,-0.6373009,0.31022692,0.093875535,1.4819523,-0.94250077,-0.7168895,-1.4122787,-0.23999088,-0.06584498,0.14253353,1.145009,-0.2780242
0.1,0.1,0.8999999999999999,0.5235987755982988,0.5235987755982988,0,-1.5157076,0.8870612,-0.65002716,0.3041792,0.14440562,1.4936712,-0.93181944,-0.7172418,-1.4131335,-0.2404272,-0.03982635,0.1581363,1.2739713,0.35288513
0.1,0.1,0.8999999999999999,0.5235987755982988,0.5235987755982988,0,-1.5149127,0.88711363,-0.6456654,0.30957708,0.079819754,1.4547583,-0.8620313,-0.7159846,-1.4120848,-0.23867694,-0.02951785,-0.043578606,1.1466746,-0.21585183
0.1,0.1,0.8999999999999999,0.5235987755982988,0.5235987755982988,0,-1.5167209,0.8904276,-0.6448696,0.30712444,0.12339546,1.465918,-0.9301192,-0.7161162,-1.4117676,-0.24104184,-0.076133765,0.07328158,1.103993,0.0044507678
0.1,0.1,0.8999999999999999,0.5235987755982988,0.5235987755982988,0,-1.516067,0.8847892,-0.6418145,0.31226933,0.061715633,1.4619774,-0.7201468,-0.714418,-1.4105762,-0.24621502,-0.006786956,0.044202074,1.0357567,-0.12056449
0.1,0.1,0.8999999999999999,0.5235987755982988,0.5235987755982988,0,-1.5158414,0.8869444,-0.6530731,0.31017762,0.07948581,1.4833213,-0.8047304,-0.71536624,-1.4111251,-0.24393868,-0.06886742,0.027321741,1.0661433,-0.16054617
0.1,0.1,0.8999999999999999,0.5235987755982988,0.5235987755982988,0,-1.5170205,0.8907949,-0.650068,0.3090347,0.12507893,1.4698745,-0.8094502,-0.7139922,-1.4111785,-0.23563185,-0.11768889,0.017148439,1.0892079,0.20804754
0.1,0.1,0.8999999999999999,0.5235987755982988,0.5235987755982988,0,-1.5188,0.8876784,-0.64538294,0.30866465,0.0664009,1.4788339,-0.95546633,-0.7136659,-1.4107316,-0.2403468,-0.027489705,0.12374296,1.1495025,-0.041067783
0.1,0.1,0.8999999999999999,0.5235987755982988,0.5235987755982988,0,-1.5175688,0.887469,-0.65099233,0.30882546,0.07542892,1.4599602,-1.27993,-0.71568257,-1.4114656,-0.24552895,-0.08747062,-0.06672667,0.965162,-0.09335037
0.1,0.1,0.8999999999999999,0.5235987755982988,0.5235987755982988,0,-1.5154591,0.88936126,-0.65041625,0.30602783,0.11402394,1.467881,-0.9785959,-0.71583295,-1.4119711,-0.24054414,-0.09092344,0.040480725,1.1076802,0.3670132
0.1,0.1,0.8999999999999999,0.5235987755982988,0.5235987755982988,0,-1.5176562,0.88390344,-0.64869225,0.3071763,0.11096965,1.4866065,-0.8559378,-0.71454096,-1.4120607,-0.23817788,-0.12922685,0.009682365,1.2211548,-0.20618528
0.1,0.1,0.8999999999999999,0.5235987755982988,0.5235987755982988,0,-1.5148153,0.88753647,-0.6413125,0.30968526,0.095632255,1.4726186,-0.7106371,-0.71677715,-1.4114648,-0.24068312,-0.07755322,0.13102251,1.1444423,0.013130087
0.1,0.1,0.8999999999999999,0.5235987755982988,0.5235987755982988,0,-1.5157167,0.887893,-0.64705944,0.30818206,0.063735306,1.4754343,-0.7285016,-0.7142617,-1.4111859,-0.24219385,-0.069391556,0.099269964,1.1580614,0.0052498197
0.1,0.1,0.8999999999999999,0.5235987755982988,0.5235987755982988,0,-1.5162739,0.8853302,-0.65372336,0.30961308,0.09219413,1.4910624,-0.9507927,-0.716552,-1.4124601,-0.24198875,-0.07103673,0.07357783,1.0541059,0.38286316
0.1,0.1,0.8999999999999999,0.5235987755982988,0.5235987755982988,0,-1.5165427,0.888053,-0.6522224,0.3082992,0.102830164,1.4755454,-0.92183614,-0.7163651,-1.4127619,-0.23642686,-0.11401592,0.08097183,1.0615051,-0.1759291
0.1,0.1,0.8999999999999999,0.5235987755982988,0.5235987755982988,0,-1.5178028,0.8865247,-0.64007914,0.31061226,0.09596451,1.486545,-0.5251824,-0.7129122,-1.4105821,-0.24028349,-0.065475665,0.1579068,1.1901132,0.21109644
0.1,0.1,0.8999999999999999,0.5235987755982988,0.5235987755982988,0,-1.5177507,0.8864097,-0.6455799,0.30610308,0.13565874,1.4524014,-0.28845063,-0.71372354,-1.4111334,-0.24344516,-0.1037519,0.061875075,1.069203,-0.02846161
0.1,0.1,0.8999999999999999,0.5235987755982988,0.5235987755982988,0,-1.5193102,0.89029056,-0.64015853,0.3077625,0.15152666,1.4733887,-0.97891426,-0.71532935,-1.411141,-0.23798756,-0.0816482,-0.024146557,1.2124606,-0.25759417
0.1,0.1,0.8999999999999999,0.5235987755982988,0.5235987755982988,0,-1.5167793,0.8868722,-0.64320403,0.30774814,0.1018448,1.4608696,-0.9071315,-0.71472484,-1.4114207,-0.24194185,-0.10299477,0.015858931,1.2153087,-0.06705423
0.1,0.1,0.8999999999999999,0.5235987755982988,0.5235987755982988,0,-1.5168763,0.8898084,-0.64245826,0.309004,0.08994336,1.502223,-0.75636953,-0.7140997,-1.4101439,-0.24346235,-0.041250467,0.018304132,1.1395053,0.35914734
0.1,0.1,0.8999999999999999,0.5235987755982988,0.5235987755982988,0,-1.5131592,0.887977,-0.65095043,0.3088968,0.08761564,1.4613743,-0.8868719,-0.71566385,-1.4124062,-0.23699696,-0.061042685,0.06745985,1.098394,0.31764752
0.1,0.1,0.8999999999999999,0.5235987755982988,0.5235987755982988,0,-1.51756,0.8875252,-0.65419483,0.3106217,0.1114535,1.4718381,-0.9183255,-0.71513534,-1.4116088,-0.23812228,-0.10585473,0.21580908,1.1323723,0.3183988
0.1,0.1,0.8999999999999999,0.5235987755982988,0.5235987755982988,0,-1.5167341,0.88965225,-0.64490116,0.3094802,0.10365278,1.4710356,-0.9298345,-0.71294165,-1.4105289,-0.23997582,-0.012376123,0.042045012,1.1772649,0.08520875
0.1,0.1,0.8999999999999999,0.5235987755982988,0.5235987755982988,0,-1.5124755,0.8886233,-0.6512127,0.30740145,0.077796206,1.4578751,-0.58720535,-0.71689624,-1.4119341,-0.23937668,-0.043815542,0.101296976,1.2458143,0.30685556
0.1,0.1,0.8999999999999999,0.5235987755982988,0.5235987755982988,0,-1.5180917,0.8876294,-0.65173376,0.30608138,0.09894268,1.4917705,-0.5705614,-0.7157969,-1.4117949,-0.2447279,-0.044271972,0.030580182,1.1778234,0.46753207
0.1,0.1,0.8999999999999999,0.5235987755982988,0.5235987755982988,0,-1.5137922,0.8905735,-0.6499183,0.3058738,0.12387728,1.4689168,-0.4377359,-0.7177538,-1.4132042,-0.23803863,-0.058549974,-0.004145608,1.2151304,0.124950536
0.1,0.1,0.8999999999999999,0.5235987755982988,0.5235987755982988,0,-1.519082,0.8880011,-0.65191734,0.3085063,0.11671132,1.4719409,-0.71253,-0.71528065,-1.4117714,-0.23708999,-0.049857557,-0.056003302,1.1107149,-0.050371837
0.1,0.1,0.8999999999999999,0.5235987755982988,0.5235987755982988,0,-1.5181861,0.88864636,-0.6473908,0.3048875,0.17907047,1.4594913,-1.318414,-0.71537244,-1.4110428,-0.24895045,-0.08090516,0.03209578,1.1832678,0.080706246
0.1,0.1,0.8999999999999999,0.5235987755982988,0.5235987755982988,0,-1.5135372,0.8887633,-0.6530473,0.30708173,0.10202991,1.4595888,-0.7567571,-0.71331006,-1.4108676,-0.24395943,-0.10231358,-0.0641855,1.088037,-0.03560878
0.1,0.1,0.8999999999999999,0.5235987755982988,0.5235987755982988,0,-1.5167358,0.88786113,-0.6406881,0.31004244,0.11672303,1.4737189,-0.80729043,-0.7162845,-1.4110892,-0.24361251,-0.06835909,0.17228113,1.0876031,0.020974431
0.1,0.1,0.8999999999999999,0.5235987755982988,0.5235987755982988,0,-1.51558,0.8882182,-0.65294904,0.30637687,0.15023986,1.467041,-0.9972182,-0.7151205,-1.412001,-0.23977667,-0.073302954,0.07408988,1.1700575,-0.11027261
0.1,0.1,0.8999999999999999,0.5235987755982988,0.5235987755982988,0,-1.5155295,0.8854404,-0.64354324,0.3089619,0.106134295,1.4478902,-0.9433584,-0.7172332,-1.4122462,-0.24349007,-0.08117939,0.022233441,1.0787865,0.37862718
0.1,0.1,0.8999999999999999,0.5235987755982988,0.5235987755982988,0,-1.5182767,0.8890006,-0.64698124,0.3057584,0.13979596,1.451262,-0.76664716,-0.71538764,-1.4120364,-0.240258,-0.10309458,0.14260377,1.1506267,0.25772175
0.1,0.1,0.8999999999999999,0.5235987755982988,0.5235987755982988,0,-1.5184395,0.88884515,-0.650392,0.30681366,0.09604143,1.4472607,-0.8104403,-0.7146715,-1.4109728,-0.2458576,-0.06261641,-0.11443449,1.1181053,-0.26201847
0.1,0.1,0.8999999999999999,0.5235987755982988,0.5235987755982988,0,-1.5173916,0.889884,-0.6511273,0.308797,0.074970834,1.4502865,-0.9371099,-0.716208,-1.4113184,-0.24526428,-0.09610331,0.122088894,1.072375,-0.21776716
0.1,0.1,0.8999999999999999,0.5235987755982988,0.5235987755982988,0,-1.5201384,0.88586205,-0.64199823,0.30511388,0.048830226,1.4712838,-0.8076401,-0.713468,-1.4111824,-0.24329358,-0.061915956,0.1411694,1.1701841,-0.03281673
0.1,0.1,0.8999999999999999,0.5235987755982988,0.5235987755982988,0,-1.5168458,0.8897144,-0.64949995,0.30611867,0.09844277,1.481851,-1.0323163,-0.7147706,-1.4115052,-0.24360074,-0.09791584,0.14965992,1.1674694,0.14379291
0.1,0.1,0.8999999999999999,0.5235987755982988,0.5235987755982988,0,-1.5190719,0.881761,-0.6525158,0.30874115,0.11220786,1.4863995,-0.38079938,-0.7153659,-1.4114772,-0.24732742,-0.051059652,0.065485656,1.2204123,-0.251832
0.1,0.1,0.8999999999999999,0.5235987755982988,0.5235987755982988,0,-1.517755,0.88695323,-0.6513707,0.30933607,0.12287261,1.4621409,-0.8111114,-0.714807,-1.4115655,-0.24082993,-0.086995274,0.116900176,1.0356079,0.09754405
0.1,0.1,0.8999999999999999,0.5235987755982988,0.5235987755982988,0,-1.5172603,0.88978857,-0.64670634,0.30767623,0.10979417,1.4638175,-0.41177183,-0.71489334,-1.4115889,-0.24026498,-0.07082843,0.115907714,1.0816607,0.15894806
0.1,0.1,0.8999999999999999,0.5235987755982988,0.5235987755982988,0,-1.5155085,0.88828963,-0.6513147,0.31193984,0.08964666,1.4904591,-0.6875643,-0.71604276,-1.4110659,-0.245759,-0.07015911,-0.07494652,1.1060609,-0.29190755
0.1,0.1,0.8999999999999999,0.5235987755982988,0.5235987755982988,0,-1.5144354,0.88924754,-0.6508925,0.30819046,0.13154508,1.4615611,-0.70982695,-0.7143826,-1.4118512,-0.23850043,-0.100565,0.057955183,1.1482608,0.04626827
0.1,0.1,0.8999999999999999,0.5235987755982988,0.5235987755982988,0,-1.5186187,0.89075285,-0.6523603,0.3048595,0.049325153,1.4846163,-1.0313351,-0.71615833,-1.4125789,-0.23870975,-0.12625463,0.1301202,1.1124724,-0.13231277
0.1,0.1,0.8999999999999999,0.5235987755982988,0.5235987755982988,0,-1.518446,0.8860277,-0.64651847,0.30617812,0.10554695,1.4636515,-1.3493394,-0.71527433,-1.4120215,-0.24206086,-0.086846866,0.018022008,1.1662747,0.28480837
0.1,0.1,0.8999999999999999,0.5235987755982988,0.5235987755982988,0,-1.5148468,0.8898264,-0.6475457,0.30475885,0.12989831,1.4766288,-0.97289,-0.7155304,-1.4123702,-0.24027404,-0.08522182,0.056253765,1.1496652,-0.09126808
0.1,0.1,0.8999999999999999,0.5235987755982988,0.5235987755982988,0,-1.516478,0.8866521,-0.6511342,0.30739477,0.10392524,1.4838234,-0.34495097,-0.71544254,-1.4124026,-0.24015976,-0.06737374,0.0944759,1.0823739,0.096319705
0.1,0.1,0.8999999999999999,0.5235987755982988,0.5235987755982988,0,-1.5162826,0.88709587,-0.65472347,0.30773443,0.13530917,1.4715965,-0.9089647,-0.71564037,-1.4118925,-0.24549922,-0.069704555,0.16408746,1.047402,0.24380638
0.1,0.1,0.8999999999999999,0.5235987755982988,0.5235987755982988,0,-1.5202913,0.8855459,-0.63930285,0.30550873,0.07482408,1.4488597,-0.6746422,-0.7139858,-1.4112927,-0.24490981,-0.11672444,0.022665298,1.0874673,0.5920256
0.1,0.1,0.8999999999999999,0.5235987755982988,0.5235987755982988,0,-1.5147645,0.8885965,-0.64712715,0.31001285,0.16751035,1.4761981,-0.54058063,-0.71586657,-1.4115345,-0.24722044,-0.12327875,0.2401875,1.1529765,0.48000273
0.1,0.1,0.8999999999999999,0.5235987755982988,0.5235987755982988,0,-1.5172628,0.8874948,-0.6448709,0.30803943,0.10126911,1.4626809,-1.3104234,-0.71543515,-1.4119737,-0.24172583,-0.07178082,-0.0071855863,1.173516,-0.25458655
0.1,0.1,0.8999999999999999,0.5235987755982988,0.5235987755982988,0,-1.515987,0.89043516,-0.6555051,0.3070144,0.0899368,1.4906191,-0.6144654,-0.7152289,-1.4116683,-0.2437468,-0.12711287,0.11882868,1.0977451,0.2964916
0.1,0.1,0.8999999999999999,0.5235987755982988,0.5235987755982988,0,-1.5183613,0.88942105,-0.64686894,0.3088775,0.13302141,1.4630332,-0.75406533,-0.71517104,-1.4115795,-0.24042606,-0.011885019,0.03762362,1.0829716,0.2566007
0.1,0.1,0.8999999999999999,0.5235987755982988,0.5235987755982988,0,-1.5153531,0.88958764,-0.65212023,0.3069666,0.112486795,1.492186,-0.5456443,-0.7145605,-1.4117937,-0.24162903,-0.0686963,0.13631408,1.1892093,0.050727855
0.1,0.1,0.8999999999999999,0.5235987755982988,0.5235987755982988,0,-1.5156137,0.8908848,-0.6497603,0.30726853,0.16051143,1.4464514,-0.67108804,-0.7136563,-1.4108657,-0.24344175,-0.08477811,0.09182243,1.0985708,0.38038242
0.1,0.1,0.8999999999999999,0.5235987755982988,0.5235987755982988,0,-1.5131631,0.8930092,-0.63935786,0.30592406,0.123496905,1.4615048,-0.6597432,-0.7135943,-1.410008,-0.2453889,-0.01642526,0.07915489,1.140191,0.05601823
0.1,0.1,0.8999999999999999,0.5235987755982988,0.5235987755982988,0,-1.5155653,0.8904683,-0.6473747,0.30640012,0.13595542,1.4709752,-0.67197543,-0.7153279,-1.4120109,-0.24250343,-0.026023652,0.09748709,1.2205062,0.05220134
0.1,0.1,0.8999999999999999,0.5235987755982988,0.5235987755982988,0,-1.5158998,0.88996273,-0.65087,0.3065802,0.12480278,1.4880824,-0.49726424,-0.71441454,-1.4116545,-0.24141343,-0.064758845,0.14328092,1.1489954,0.09045358
0.1,0.1,0.8999999999999999,0.5235987755982988,0.5235987755982988,0,-1.517588,0.8919346,-0.651387,0.30748412,0.07969465,1.493512,-0.63892496,-0.7134504,-1.4106314,-0.24364044,-0.048921656,0.08466481,1.1104656,-0.19538108
0.1,0.1,0.8999999999999999,0.5235987755982988,0.5235987755982988,0,-1.5191555,0.8898149,-0.6429282,0.30863512,0.08876558,1.4720321,-0.944693,-0.71503556,-1.4113774,-0.24202129,-0.057907198,0.13090523,1.1299201,-0.25582993
0.1,0.1,0.8999999999999999,0.5235987755982988,0.5235987755982988,0,-1.5169078,0.8904394,-0.6521084,0.3088179,0.15699346,1.4647915,-0.8266872,-0.71499836,-1.4115402,-0.24090813,-0.023868266,0.09603642,1.1182648,-0.17418109
0.1,0.1,0.8999999999999999,0.5235987755982988,0.5235987755982988,0,-1.5145079,0.8881513,-0.65013313,0.30890638,0.1207853,1.4547303,-0.7891341,-0.7160009,-1.4121747,-0.24228343,-0.06395865,0.052387044,1.1267502,0.1887624
0.1,0.1,0.8999999999999999,0.5235987755982988,0.5235987755982988,0,-1.5183886,0.8901037,-0.6543888,0.30762935,0.07987171,1.5042505,-0.78891057,-0.7141746,-1.4110775,-0.24578841,-0.08013676,0.24522583,1.0675716,0.515467
0.1,0.1,0.8999999999999999,0.5235987755982988,0.5235987755982988,0,-1.5144459,0.8884422,-0.65102005,0.30796704,0.15229942,1.4666642,-1.0015988,-0.7143384,-1.4120611,-0.23941287,-0.045824092,0.13352203,1.0710367,-0.32021332
0.1,0.1,0.8999999999999999,0.5235987755982988,0.5235987755982988,0,-1.5160309,0.8897062,-0.6465648,0.3073356,0.094533764,1.4805386,-0.6050558,-0.7138832,-1.4110124,-0.24520305,-0.07849104,0.17521447,1.1194996,0.03043613
0.1,0.1,0.8999999999999999,0.5235987755982988,0.5235987755982988,0,-1.5136135,0.88701755,-0.6483608,0.30560976,0.13648024,1.476426,-0.95373195,-0.71387184,-1.4115074,-0.24502406,-0.07453497,0.009829108,1.1300986,0.24611355
0.1,0.1,0.8999999999999999,0.5235987755982988,0.5235987755982988,0,-1.5149035,0.8882492,-0.64955986,0.3044535,0.1262653,1.4547007,-0.86746114,-0.7152352,-1.4116697,-0.2490779,-0.099048,0.19260138,1.1214461,-0.23953964
0.1,0.1,0.8999999999999999,0.5235987755982988,0.5235987755982988,0,-1.5168574,0.88529813,-0.6507206,0.3082789,0.11769721,1.4722338,-0.653864,-0.7155331,-1.4122876,-0.24115789,-0.11296339,0.1519869,1.1718098,0.31799683
0.1,0.1,0.8999999999999999,0.5235987755982988,0.5235987755982988,0,-1.5133194,0.88590384,-0.6525756,0.30784723,0.1327833,1.4935703,-0.62427086,-0.7122418,-1.4115942,-0.23833346,-0.117270574,-0.050523378,1.1800054,-0.016731638
0.1,0.1,0.8999999999999999,0.5235987755982988,0.5235987755982988,0,-1.5175784,0.8860284,-0.6481606,0.30955097,0.11225641,1.4697843,-0.90413195,-0.7162237,-1.4121462,-0.24355163,-0.10018762,0.15876812,1.2019511,0.076137796
0.1,0.1,0.8999999999999999,0.5235987755982988,0.5235987755982988,0,-1.5167062,0.8891972,-0.64492285,0.30670914,0.13914496,1.4997298,-0.72997093,-0.7141552,-1.4117154,-0.24126568,-0.04258469,0.05691945,1.157239,0.48643622
0.1,0.1,0.8999999999999999,0.5235987755982988,0.5235987755982988,0,-1.5136746,0.88720846,-0.6454653,0.3122589,0.12608697,1.4836745,-0.6229082,-0.71488696,-1.4114368,-0.23876154,-0.062642366,-0.011977235,1.1950732,0.17770597
0.1,0.1,0.8999999999999999,0.5235987755982988,0.5235987755982988,0,-1.5142742,0.8861882,-0.6469003,0.3074568,0.123233534,1.4787409,-0.83619803,-0.71539855,-1.413123,-0.2362283,-0.10272819,0.03861212,1.1095904,0.2296859
0.1,0.1,0.8999999999999999,0.5235987755982988,0.5235987755982988,0,-1.5190107,0.88724875,-0.64348465,0.30777273,0.085416585,1.4692394,-0.27623662,-0.7136269,-1.4117469,-0.2368696,-0.08309024,0.0048663886,1.1441277,-0.15377592
0.1,0.1,0.8999999999999999,0.5235987755982988,0.5235987755982988,0,-1.5152146,0.88555557,-0.65064484,0.3078962,0.1333934,1.4739386,-0.56106895,-0.71479434,-1.412532,-0.23967944,-0.15453668,0.022747677,1.1599078,0.09842739
0.1,0.1,0.8999999999999999,0.5235987755982988,0.5235987755982988,0,-1.5157862,0.88741755,-0.6487684,0.31072465,0.16282645,1.4723817,-0.878084,-0.71313506,-1.4103026,-0.2465325,-0.08215626,0.054784097,1.1045021,-0.03966671
0.1,0.1,0.8999999999999999,0.5235987755982988,0.5235987755982988,0,-1.5160884,0.88810027,-0.6505493,0.30926326,0.13452213,1.4664273,-0.84376854,-0.71486396,-1.4114355,-0.24375181,-0.045044202,0.117693715,1.1310385,-0.075587116
0.1,0.1,0.8999999999999999,0.5235987755982988,0.5235987755982988,0,-1.5142863,0.8878667,-0.64922434,0.30658892,0.08908094,1.4809846,-0.51400346,-0.71733654,-1.4133035,-0.2427178,-0.065329604,0.18238617,1.1254268,0.059917208
0.1,0.1,0.8999999999999999,0.5235987755982988,0.5235987755982988,0,-1.5166208,0.88847023,-0.65143603,0.30913895,0.15063846,1.4793488,-0.6907667,-0.7142238,-1.4115461,-0.24052079,-0.09305797,0.16190541,1.1422178,0.008317396
0.1,0.1,0.8999999999999999,0.5235987755982988,0.5235987755982988,0,-1.5180697,0.8901066,-0.646056,0.30574185,0.11194416,1.4764869,-0.6109674,-0.7142677,-1.4122065,-0.23752065,-0.04611512,0.030108245,1.0572101,0.24181946
0.1,0.1,0.8999999999999999,0.5235987755982988,0.5235987755982988,0,-1.5162417,0.8887031,-0.6486258,0.3048994,0.13786674,1.4831091,-0.9301541,-0.71548647,-1.4124792,-0.24340543,-0.0729593,0.062458355,1.1872661,-0.08612592
0.1,0.1,0.8999999999999999,0.5235987755982988,0.5235987755982988,0,-1.5158705,0.8861987,-0.6457159,0.30413583,0.09628329,1.4807618,-0.56931925,-0.7181582,-1.4129758,-0.24947824,-0.1120961,-0.022124602,1.18768,0.09770748
0.1,0.1,0.8999999999999999,0.5235987755982988,0.5235987755982988,0,-1.5179039,0.88676345,-0.64660746,0.3038772,0.13000418,1.4748336,-0.798034,-0.71501184,-1.413175,-0.23854837,-0.08583897,0.0416595,1.2702223,0.2745186
0.1,0.1,0.8999999999999999,0.5235987755982988,0.5235987755982988,0,-1.5182759,0.88700765,-0.64814025,0.3079032,0.08486434,1.4669294,-0.43461454,-0.71459305,-1.4118811,-0.23958491,-0.06766918,0.0163994,1.1527269,-0.22967258
0.1,0.1,0.8999999999999999,0.5235987755982988,0.5235987755982988,0,-1.5165002,0.88871294,-0.64830333,0.30730933,0.18654051,1.4803405,-0.66049874,-0.71499324,-1.4119209,-0.24291874,-0.032129068,0.05182195,1.2021202,-0.03883454
0.1,0.1,0.8999999999999999,0.5235987755982988,0.5235987755982988,0,-1.5152555,0.8891473,-0.6465476,0.306897,0.16133834,1.4641784,-0.735951,-0.714779,-1.4118496,-0.2447518,-0.055148028,0.08080782,1.0799031,0.088191964
0.1,0.1,0.8999999999999999,0.5235987755982988,0.5235987755982988,0,-1.5147291,0.8888262,-0.6469861,0.30893913,0.05788919,1.4509522,-0.9053025,-0.7153577,-1.4120414,-0.24257322,-0.11660491,0.07952215,1.1680005,-0.037010375
0.1,0.1,0.8999999999999999,0.5235987755982988,0.5235987755982988,0,-1.5177894,0.88693607,-0.6479735,0.3075035,0.148215,1.4573199,-1.0063969,-0.71347564,-1.4115764,-0.24143928,-0.053050462,-0.005792365,1.0918851,-0.21213514
0.1,0.1,0.8999999999999999,0.5235987755982988,0.5235987755982988,0,-1.5146449,0.8864477,-0.6537616,0.30844223,0.09859711,1.4664366,-0.85274833,-0.71571475,-1.4119039,-0.24756324,-0.10311401,0.06479831,1.2157907,-0.33582494
0.1,0.1,0.8999999999999999,0.5235987755982988,0.5235987755982988,0,-1.5156767,0.8881805,-0.64941716,0.30838197,0.06230821,1.4862102,-0.77663845,-0.7108433,-1.4098779,-0.24563067,-0.066077985,0.08331649,1.1670908,-0.12916541
0.1,0.1,0.8999999999999999,0.5235987755982988,0.5235987755982988,0,-1.5186541,0.8870785,-0.64818174,0.3075482,0.12936938,1.4573036,-1.1978092,-0.71385396,-1.4116687,-0.24265401,-0.10598308,0.026532738,1.0368646,-0.27597088
0.1,0.1,0.8999999999999999,0.5235987755982988,0.5235987755982988,0,-1.516975,0.89093554,-0.6458737,0.31023216,0.13399649,1.484505,-1.1219001,-0.71522456,-1.4122279,-0.24073242,-0.10655966,0.004189838,1.0958954,0.15894613
0.1,0.1,0.8999999999999999,0.5235987755982988,0.5235987755982988,0,-1.5174934,0.89019316,-0.6494121,0.3055554,0.118613146,1.4770504,-1.2572213,-0.7137928,-1.4121258,-0.23853378,-0.10333618,0.15367658,1.0855724,-0.1663041
0.1,0.1,0.8999999999999999,0.5235987755982988,0.5235987755982988,0,-1.5156841,0.8846199,-0.6521602,0.306724,0.037415292,1.4295275,-0.78717273,-0.71525115,-1.4125329,-0.24243677,-0.09519789,-0.054419737,1.1454264,-0.07064336
0.1,0.1,0.8999999999999999,0.5235987755982988,0.5235987755982988,0,-1.5152644,0.8893477,-0.64918065,0.30848792,0.1289121,1.477118,-1.0455685,-0.7141001,-1.4122773,-0.2361646,-0.053810753,-0.009852995,1.1709833,0.5987747
0.1,0.1,0.8999999999999999,0.5235987755982988,0.5235987755982988,0,-1.514287,0.88984835,-0.6521102,0.309568,0.0947364,1.4804035,-1.0998498,-0.71340454,-1.4113575,-0.24119626,-0.060859304,-0.027264528,1.0559626,0.2636641
0.1,0.1,0.8999999999999999,0.5235987755982988,0.5235987755982988,0,-1.517672,0.8888341,-0.64673585,0.30871424,0.17707162,1.4628081,-0.9241738,-0.7139774,-1.4112158,-0.24395409,-0.09341987,0.18527876,1.1756057,0.27759263
0.1,0.1,0.8999999999999999,0.5235987755982988,0.5235987755982988,0,-1.5156603,0.88531595,-0.65377104,0.3077101,0.09247618,1.4974248,-1.2554939,-0.71467346,-1.4125667,-0.2414651,-0.083891064,-0.046006933,1.1186961,0.2507033
0.1,0.1,0.8999999999999999,0.5235987755982988,0.5235987755982988,0,-1.5155504,0.8900836,-0.6468217,0.30853927,0.14211185,1.5094448,-0.6172501,-0.71635544,-1.4121414,-0.2467624,-0.0780141,0.13516909,1.0798392,-0.06549843
0.1,0.1,0.8999999999999999,0.5235987755982988,0.5235987755982988,0,-1.5179732,0.8898127,-0.6451771,0.30856305,0.103799686,1.5011035,-1.022501,-0.71334493,-1.4118947,-0.2403243,-0.065316126,-0.029024472,1.1807995,0.07576319
0.1,0.1,0.8999999999999999,0.5235987755982988,0.5235987755982988,0,-1.5145429,0.8894229,-0.6513477,0.31051064,0.12955631,1.4918734,-1.0200881,-0.7152166,-1.4116625,-0.24849549,-0.09656154,0.07302946,1.1103958,-0.011156125
0.1,0.1,0.8999999999999999,0.5235987755982988,0.5235987755982988,0,-1.5137501,0.88657516,-0.6483748,0.30731192,0.10204646,1.4843241,-0.94946456,-0.715351,-1.4137313,-0.23505175,-0.077979736,0.03461973,1.0839442,0.1962409
0.1,0.1,0.8999999999999999,0.5235987755982988,0.5235987755982988,0,-1.5160768,0.88861597,-0.64404917,0.30985925,0.12187562,1.4694436,-0.77705956,-0.71295345,-1.4112955,-0.2428026,-0.07626476,-0.034755,1.143276,0.2747526
0.1,0.1,0.8999999999999999,0.5235987755982988,0.5235987755982988,0,-1.516663,0.8893164,-0.64676976,0.3067994,0.1366981,1.4971967,-0.67660445,-0.7162474,-1.4122077,-0.24804816,-0.07336273,0.043327697,1.0591125,0.4455933
0.1,0.1,0.8999999999999999,0.5235987755982988,0.5235987755982988,0,-1.5163645,0.8881909,-0.6456362,0.30813402,0.15914261,1.4709963,-1.3003569,-0.7169847,-1.4122874,-0.24870504,-0.050416883,-0.114196606,1.1575322,0.002188912
0.1,0.1,0.8999999999999999,0.5235987755982988,0.5235987755982988,0,-1.5162361,0.89025426,-0.6474895,0.3074432,0.08083864,1.501497,-0.3921765,-0.7147842,-1.4121497,-0.24267527,-0.099670894,0.14288387,1.1501758,-0.43252423
0.1,0.1,0.8999999999999999,0.5235987755982988,0.5235987755982988,0,-1.5181634,0.8875511,-0.65001583,0.30870733,0.10530361,1.4977932,-0.11603539,-0.7148767,-1.4119884,-0.24451847,-0.09746663,0.07309849,1.1205397,0.025099002
0.1,0.1,0.8999999999999999,0.5235987755982988,0.5235987755982988,0,-1.5140375,0.88812387,-0.65050143,0.3068191,0.15135476,1.4580135,-0.54404557,-0.71506387,-1.4128519,-0.24077694,-0.06732467,0.08367374,1.1578718,-0.3643913
0.1,0.1,0.8999999999999999,0.5235987755982988,0.5235987755982988,0,-1.5166917,0.88742745,-0.64503974,0.30750212,0.084557675,1.4928622,-0.7116373,-0.71224755,-1.411878,-0.23819143,-0.10829849,-0.026763994,1.1797242,0.18569422
0.1,0.1,0.8999999999999999,0.5235987755982988,0.5235987755982988,0,-1.5140678,0.89041424,-0.6515928,0.3058017,0.0923972,1.4439958,-0.7611694,-0.7123777,-1.411793,-0.24008387,-0.089230895,0.048959095,1.1578804,0.24952151
0.1,0.1,0.8999999999999999,0.5235987755982988,0.5235987755982988,0,-1.5181605,0.88881004,-0.64384735,0.30589804,0.09823399,1.4752932,-0.8248314,-0.7127609,-1.4115727,-0.24337403,-0.05245426,0.17690238,1.2073617,0.36287332
0.1,0.1,0.8999999999999999,0.5235987755982988,0.5235987755982988,0,-1.5168619,0.88774115,-0.66009694,0.30751234,0.14602391,1.4634814,-0.94223,-0.7143273,-1.4119146,-0.24553894,-0.050924104,0.107784756,1.0466976,0.26088583
0.1,0.1,0.8999999999999999,0.5235987755982988,0.5235987755982988,0,-1.5161163,0.8883406,-0.64916575,0.3084214,0.13170607,1.4608715,-0.8985828,-0.71201915,-1.4111531,-0.24424449,-0.14458646,-0.048219707,1.0958754,0.22177872
0.1,0.1,0.8999999999999999,0.5235987755982988,0.5235987755982988,0,-1.5159686,0.89212245,-0.6501567,0.3069399,0.1509143,1.4726378,-0.80185354,-0.7132276,-1.4109517,-0.24907398,-0.06131799,0.09401635,1.0904446,-0.35224774
0.1,0.1,0.8999999999999999,0.5235987755982988,0.5235987755982988,0,-1.517769,0.8903045,-0.64334625,0.30958712,0.12927845,1.475698,-0.5231724,-0.71510583,-1.4125968,-0.24129353,-0.09054513,0.03163767,1.1929307,0.035686646
0.1,0.1,0.8999999999999999,0.5235987755982988,0.5235987755982988,0,-1.5155556,0.88856864,-0.6544294,0.30410743,0.11557936,1.4650354,-0.493456,-0.71329737,-1.4127829,-0.23984693,-0.07521043,-0.06508188,1.1704603,-0.06509624
0.1,0.1,0.8999999999999999,0.5235987755982988,0.5235987755982988,0,-1.5171158,0.887968,-0.6428737,0.30718917,0.06640148,1.4661666,-0.5533515,-0.71396273,-1.4122208,-0.2417532,-0.0774978,0.11845636,1.1568834,-0.51866484
0.1,0.1,0.8999999999999999,0.5235987755982988,0.5235987755982988,0,-1.5155265,0.8908229,-0.65021586,0.3079111,0.06871547,1.4568583,-0.53562355,-0.7153822,-1.4126952,-0.24369021,-0.11016398,-0.0013141211,1.1403029,0.06691158
0.1,0.1,0.8999999999999999,0.5235987755982988,0.5235987755982988,0,-1.5161911,0.8875552,-0.6433016,0.30827323,0.14831683,1.4704019,-1.07448,-0.71325994,-1.411524,-0.2452398,-0.070541784,0.05935776,1.1483372,-0.03176841
0.1,0.1,0.8999999999999999,0.5235987755982988,0.5235987755982988,0,-1.5155345,0.88485,-0.65153587,0.3112174,0.118441805,1.4731514,-0.76996887,-0.71366644,-1.4123851,-0.23986676,-0.036273055,-0.07121974,1.0389618,0.36697888
0.1,0.1,0.8999999999999999,0.5235987755982988,0.5235987755982988,0,-1.5167848,0.8892749,-0.6467411,0.3064216,0.05211211,1.4657797,-0.514284,-0.71346724,-1.411872,-0.24319181,-0.07570476,0.054552652,1.1342517,0.14887753
0.1,0.1,0.8999999999999999,0.5235987755982988,0.5235987755982988,0,-1.5166042,0.886961,-0.6520593,0.30841517,0.07513216,1.4750428,-1.0662649,-0.71350354,-1.4119736,-0.24363789,-0.11382459,-0.026958192,1.1241385,0.1717874
0.1,0.1,0.8999999999999999,0.5235987755982988,0.5235987755982988,0,-1.5158634,0.8874567,-0.648361,0.30647087,0.10453656,1.4680809,-0.73588747,-0.7147402,-1.4126062,-0.24550486,-0.02241688,-0.019154433,1.2148217,0.191491
0.1,0.1,0.8999999999999999,0.5235987755982988,0.5235987755982988,0,-1.5162231,0.8902506,-0.64622086,0.30598122,0.11479392,1.5071192,-0.72156876,-0.7123067,-1.4119291,-0.24305889,-0.06624422,0.06270715,1.1564544,0.2873303
0.1,0.1,0.8999999999999999,0.5235987755982988,0.5235987755982988,0,-1.5149415,0.88968587,-0.6486113,0.30892175,0.07514553,1.4981731,-0.7467384,-0.7118973,-1.4113779,-0.24922033,-0.06391634,-0.019473631,1.1184452,-0.27274293
0.1,0.1,0.8999999999999999,0.5235987755982988,0.5235987755982988,0,-1.51921,0.8832559,-0.64552367,0.30785424,0.0963085,1.486412,-0.6128912,-0.7139386,-1.4123286,-0.24840057,-0.05224638,0.077874795,1.1146677,0.15808634
0.1,0.1,0.8999999999999999,0.5235987755982988,0.5235987755982988,0,-1.5180845,0.8850335,-0.6422488,0.30864537,0.07320587,1.4727801,-1.0044043,-0.71415305,-1.4125999,-0.24148937,-0.055823866,0.031140365,1.1360053,0.1845888
0.1,0.1,0.8999999999999999,0.5235987755982988,0.5235987755982988,0,-1.515681,0.8874134,-0.64729273,0.3068078,0.025223786,1.487182,-0.60969037,-0.7167015,-1.4144139,-0.24223976,-0.011562169,0.11779041,1.1008952,0.212521
0.1,0.1,0.8999999999999999,0.5235987755982988,0.5235987755982988,0,-1.5166539,0.8876558,-0.65408534,0.30736527,0.15599173,1.4760488,-0.27101406,-0.71304905,-1.4115673,-0.2481523,-0.10184135,0.05311661,1.1915383,0.022068938
0.1,0.1,0.8999999999999999,0.5235987755982988,0.5235987755982988,0,-1.5159124,0.89126486,-0.6532917,0.30344152,0.14196935,1.4841182,-1.0020711,-0.71366245,-1.4127111,-0.24182142,-0.07544588,0.052024003,1.1607114,0.090877764
0.1,0.1,0.8999999999999999,0.5235987755982988,0.5235987755982988,0,-1.5178901,0.8918758,-0.6454644,0.30615917,0.12341706,1.4615086,-0.8395742,-0.7140041,-1.4132563,-0.23884593,-0.07925565,0.11046408,1.1103235,-0.15765996
0.1,0.1,0.8999999999999999,0.5235987755982988,0.5235987755982988,0,-1.5144868,0.88697547,-0.65440226,0.30866113,0.09129503,1.4634764,-0.88234776,-0.71367335,-1.412344,-0.24359347,-0.06121305,0.18907556,1.1310519,-0.0019813557
0.1,0.1,0.8999999999999999,0.5235987755982988,0.5235987755982988,0,-1.5182875,0.8851637,-0.6526382,0.30719307,0.11564128,1.4766217,-0.9120032,-0.7127165,-1.4128208,-0.24487083,-0.12733656,0.030504175,1.1748251,0.32060987
0.1,0.1,0.8999999999999999,0.5235987755982988,0.5235987755982988,0,-1.5184528,0.88556087,-0.64855635,0.30987146,0.10569906,1.4611092,-0.8191142,-0.7144681,-1.4129949,-0.24887244,-0.07567095,0.058107994,1.2574902,-0.18006003
0.1,0.1,0.8999999999999999,0.5235987755982988,0.5235987755982988,0,-1.5158662,0.8855034,-0.6466079,0.30869508,0.16724004,1.4775501,-0.9380772,-0.7127687,-1.4141556,-0.240179,-0.08048087,0.12389328,1.1774335,-0.11616422
0.1,0.1,0.8999999999999999,0.5235987755982988,0.5235987755982988,0,-1.5154868,0.89188695,-0.64724106,0.3060349,0.15508975,1.4600381,-0.55467176,-0.71360606,-1.4058558,-0.23896115,-0.09020032,0.024847284,1.1712885,0.075939514
0.1,0.1,0.8999999999999999,0.5235987755982988,0.5235987755982988,0,-1.5157583,0.8924557,-0.6396705,0.305088,0.1644447,1.4655104,-0.739633,-0.71386725,-1.4059675,-0.24158482,-0.058311276,-0.049811948,1.117411,-0.2657169
0.1,0.1,0.8999999999999999,0.5235987755982988,0.5235987755982988,0,-1.515528,0.8896397,-0.6411965,0.30655342,0.105024375,1.4559604,-0.59324163,-0.7170254,-1.4096712,-0.23623377,-0.069272384,0.09315618,1.2044421,0.45107704
0.1,0.1,0.8999999999999999,0.5235987755982988,0.5235987755982988,0,-1.5153401,0.88755983,-0.64211076,0.30969283,0.13333225,1.4907292,-0.47844794,-0.7164003,-1.4090368,-0.24111028,-0.059817977,0.13919283,1.1538477,-0.11393415
0.1,0.1,0.8999999999999999,0.5235987755982988,0.5235987755982988,0,-1.5148871,0.8899253,-0.65206033,0.3081558,0.0750212,1.4867245,-1.0857505,-0.7162429,-1.4095763,-0.24279557,-0.045024395,0.02869402,1.1075588,0.18636127
0.1,0.1,0.8999999999999999,0.5235987755982988,0.5235987755982988,0,-1.5160886,0.88995874,-0.6492153,0.30458477,0.080140635,1.4795133,-0.6405384,-0.7154525,-1.4103276,-0.23669781,-0.06038934,-0.075717434,1.0303385,0.36402953
0.1,0.1,0.8999999999999999,0.5235987755982988,0.5235987755982988,0,-1.5180523,0.8889886,-0.6453013,0.30583796,0.12593716,1.4664462,-0.55257475,-0.71497244,-1.4102188,-0.23503882,-0.11558584,-0.09183321,1.1169075,0.09132576
0.1,0.1,0.8999999999999999,0.5235987755982988,0.5235987755982988,0,-1.5170927,0.88682234,-0.6464463,0.3076705,0.1044145,1.4774323,-0.70209634,-0.7157697,-1.4098407,-0.24102625,-0.07094811,0.10614961,1.1494687,-0.27749783
0.1,0.1,0.8999999999999999,0.5235987755982988,0.5235987755982988,0,-1.5199049,0.88641495,-0.64298034,0.3060614,0.06624881,1.4531592,-1.0901769,-0.7140979,-1.4100417,-0.23551032,-0.05988312,0.15656057,1.1439861,-0.20633873
0.1,0.1,0.8999999999999999,0.5235987755982988,0.5235987755982988,0,-1.5138239,0.88517463,-0.6495884,0.30923483,0.08126736,1.4653084,-1.2924633,-0.7156874,-1.4107232,-0.2361571,-0.031407397,0.058512896,1.2199868,-0.31122422
0.1,0.1,0.8999999999999999,0.5235987755982988,0.5235987755982988,0,-1.5150613,0.8895218,-0.6512009,0.3094444,0.102776624,1.4934205,-1.1139094,-0.7160235,-1.4105397,-0.2389568,-0.031175187,0.216257,1.1418768,0.2711505
0.1,0.1,0.8999999999999999,0.5235987755982988,0.5235987755982988,0,-1.518858,0.885705,-0.64223,0.30633444,0.12370698,1.4741803,-1.1482948,-0.71539325,-1.4110769,-0.23493715,-0.07345248,0.044806603,1.1073792,-0.2929916
0.1,0.1,0.8999999999999999,0.5235987755982988,0.5235987755982988,0,-1.5164943,0.8883694,-0.6521772,0.30899078,0.12735279,1.4769278,-0.89546263,-0.71418536,-1.4101752,-0.23830065,-0.049364638,0.09979848,1.139505,-0.169034
0.1,0.1,0.8999999999999999,0.5235987755982988,0.5235987755982988,0,-1.518433,0.8905899,-0.6424604,0.31253418,0.17192528,1.48191,-0.71063125,-0.7154083,-1.4097786,-0.2398335,-0.061152477,0.10677616,1.1261078,-0.13925974
0.1,0.1,0.8999999999999999,0.5235987755982988,0.5235987755982988,0,-1.516737,0.8870188,-0.6435518,0.3121998,0.12165967,1.4622138,-0.5707831,-0.7134286,-1.4100024,-0.23732984,-0.13676976,-0.012143809,1.1252476,0.13729398
0.1,0.1,0.8999999999999999,0.5235987755982988,0.5235987755982988,0,-1.5189183,0.8879078,-0.6505617,0.3080457,0.095369466,1.4658549,-0.8586928,-0.71501964,-1.4107249,-0.23898955,-0.06965038,0.08034257,1.0930659,-0.1052749
0.1,0.1,0.8999999999999999,0.5235987755982988,0.5235987755982988,0,-1.5192932,0.890319,-0.6506239,0.3080377,0.09326472,1.4645774,-0.5707276,-0.71610427,-1.4090213,-0.24837705,-0.05982768,-0.031695854,1.072395,-0.05609462
0.1,0.1,0.8999999999999999,0.5235987755982988,0.5235987755982988,0,-1.5155058,0.8805922,-0.65211564,0.3054009,0.06545578,1.4806414,-0.87927085,-0.7159299,-1.4115576,-0.24205558,-0.12954313,0.074119784,1.12091,-0.16736811
0.1,0.1,0.8999999999999999,0.5235987755982988,0.5235987755982988,0,-1.5208565,0.88830644,-0.6455065,0.3111258,0.08916613,1.4855294,-0.54882824,-0.7156562,-1.4099044,-0.2458622,-0.03432171,-0.0033265427,1.1629289,0.17546904
0.1,0.1,0.8999999999999999,0.5235987755982988,0.5235987755982988,0,-1.5161461,0.88580877,-0.6482144,0.308041,0.13338323,1.4622023,-0.9229838,-0.71452224,-1.4113955,-0.23833752,-0.118376456,0.070272155,1.0450184,0.25572342
0.1,0.1,0.8999999999999999,0.5235987755982988,0.5235987755982988,0,-1.5159062,0.8908252,-0.64948565,0.30661818,0.10022916,1.4809061,-0.9225018,-0.7166027,-1.412155,-0.23690113,-0.05072182,0.105318114,1.2146945,0.23907995
0.1,0.1,0.8999999999999999,0.5235987755982988,0.5235987755982988,0,-1.5174831,0.8904396,-0.6454934,0.30905375,0.14040215,1.4950516,-1.4255195,-0.7147065,-1.411261,-0.23802991,-0.12037158,-0.09493278,1.017275,0.02895095
0.1,0.1,0.8999999999999999,0.5235987755982988,0.5235987755982988,0,-1.5152858,0.8881253,-0.65063405,0.30941135,0.06735865,1.4617404,-0.6089007,-0.71440405,-1.4106671,-0.24247617,-0.060871296,-0.033379927,1.1395974,0.2490319
0.1,0.1,0.8999999999999999,0.5235987755982988,0.5235987755982988,0,-1.5161967,0.89017445,-0.64647365,0.30267975,0.088726275,1.4851387,-0.30280915,-0.7151787,-1.4122193,-0.23686789,-0.13645944,0.048711617,1.1285435,0.04260793
0.1,0.1,0.8999999999999999,0.5235987755982988,0.5235987755982988,0,-1.517382,0.8900602,-0.6473113,0.30842745,0.1213576,1.4766527,-1.329851,-0.71730316,-1.412183,-0.23925754,-0.069420435,-0.03766884,1.188452,0.19510113
0.1,0.1,0.8999999999999999,0.5235987755982988,0.5235987755982988,0,-1.5157152,0.88633674,-0.6500862,0.30480838,0.13590743,1.4556956,-0.5838013,-0.71750224,-1.4124581,-0.24479684,0.00021509423,0.08272291,1.210784,0.028125402
0.1,0.1,0.8999999999999999,0.5235987755982988,0.5235987755982988,0,-1.514484,0.8893602,-0.6498451,0.3033577,0.08578294,1.460932,-0.63781375,-0.7140469,-1.4116403,-0.24037282,-0.07205863,-0.24027213,1.1610649,0.27842018
0.1,0.1,0.8999999999999999,0.5235987755982988,0.5235987755982988,0,-1.5153118,0.8882745,-0.65260476,0.30402187,0.08275291,1.4605368,-0.81169784,-0.7145676,-1.4114501,-0.24248612,-0.065952756,0.015899766,1.2338314,-0.0459395
0.1,0.1,0.8999999999999999,0.5235987755982988,0.5235987755982988,0,-1.5179284,0.8876455,-0.6439882,0.3059458,0.094393216,1.4688517,-0.82142496,-0.714823,-1.4117546,-0.24134566,-0.05920717,-0.09058532,1.2360055,0.15839449
0.1,0.1,0.8999999999999999,0.5235987755982988,0.5235987755982988,0,-1.5152402,0.8903906,-0.6474257,0.30793723,0.13098623,1.4871558,-1.1981755,-0.7155218,-1.4119287,-0.24043727,-0.057964668,0.10491302,1.1542737,0.16390271
0.1,0.1,0.8999999999999999,0.5235987755982988,0.5235987755982988,0,-1.5155234,0.8876181,-0.65231097,0.3094185,0.10011838,1.4556279,-1.0128962,-0.7151119,-1.4118361,-0.24107192,-0.09347215,-0.005653558,1.1783137,0.38107398
0.1,0.1,0.8999999999999999,0.5235987755982988,0.5235987755982988,0,-1.5163155,0.8867534,-0.6478144,0.30780947,0.12325588,1.4786404,-1.0354435,-0.7152047,-1.4124409,-0.24055718,-0.07118816,-0.040774047,1.1543372,-0.16055606
0.1,0.1,0.8999999999999999,0.5235987755982988,0.5235987755982988,0,-1.5172821,0.8838595,-0.6455618,0.30852145,0.077231735,1.473523,-0.78245574,-0.7140628,-1.4122769,-0.24068733,-0.0565298,-0.031764515,1.1594421,-0.004913181
0.1,0.1,0.8999999999999999,0.5235987755982988,0.5235987755982988,0,-1.5177901,0.88702023,-0.64568865,0.3085108,0.1473701,1.4789891,-0.6344149,-0.71489406,-1.4117407,-0.24585672,-0.03964018,0.16124149,1.1458813,-0.23151793
0.1,0.1,0.8999999999999999,0.5235987755982988,0.5235987755982988,0,-1.5138366,0.88727945,-0.6391596,0.30550057,0.14204086,1.4570266,-0.7487845,-0.71664405,-1.4100503,-0.24473266,-0.13755716,0.10593936,1.1545994,0.3098996
0.1,0.1,0.8999999999999999,0.5235987755982988,0.5235987755982988,0,-1.5170676,0.8848691,-0.64338964,0.30593136,0.093614966,1.4731011,-0.42524755,-0.71380764,-1.410708,-0.24049559,-0.08175331,-0.11122893,1.1698637,-0.10634175
