sanky1234/BimanualDexCatch/isaacgymenvs/cem_results/football_pose_-0.1_-0.2_0.8999999999999999_-0.5235987755982988_0.5235987755982988_0_2025-05-25.csv
x,y,z,roll,pitch,yaw,robot1/joint1,robot1/joint2,robot1/joint3,robot1/joint4,robot1/joint5,robot1/joint6,robot1/joint7,robot2/joint1,robot2/joint2,robot2/joint3,robot2/joint4,robot2/joint5,robot2/joint6,robot2/joint7
-0.1,-0.2,0.8999999999999999,-0.5235987755982988,0.5235987755982988,0,0.4832443,1.2291789,0.24617799,-0.0951872,-0.017683519,1.1942719,0.42252418,-0.10611465,0.9008084,-1.5025643,0.5790474,-0.3618745,0.4171785,-0.6342109
-0.1,-0.2,0.8999999999999999,-0.5235987755982988,0.5235987755982988,0,0.2403471,1.345267,-0.10648468,-0.1043265,0.073159374,1.2337728,0.77210313,-0.10632343,0.900671,-1.5018549,0.5786197,-0.34017152,0.41681182,-0.6097947
-0.1,-0.2,0.8999999999999999,-0.5235987755982988,0.5235987755982988,0,-0.68453467,1.3402516,-0.01319368,-0.12499599,-0.07123833,1.304748,0.22816716,-0.105325446,0.9002431,-1.5016456,0.57988816,-0.3454107,0.41577443,-0.65819174
-0.1,-0.2,0.8999999999999999,-0.5235987755982988,0.5235987755982988,0,0.1481272,1.3078103,0.023025643,-0.090780325,0.18072239,1.2786487,1.5812969,-0.10794965,0.9003417,-1.5007668,0.5791652,-0.353199,0.4160468,-0.669777
-0.1,-0.2,0.8999999999999999,-0.5235987755982988,0.5235987755982988,0,-0.47540325,1.2824569,0.08160709,-0.11080699,0.039921112,1.2932637,0.09478806,-0.106726,0.9010115,-1.5028901,0.5791478,-0.3517571,0.4149179,-0.6716035
-0.1,-0.2,0.8999999999999999,-0.5235987755982988,0.5235987755982988,0,-0.14881647,1.31562,-0.057292853,-0.045513857,-0.017528974,1.2605653,-0.3736325,-0.10676378,0.90134037,-1.5024582,0.5797184,-0.350397,0.4134868,-0.6419653
-0.1,-0.2,0.8999999999999999,-0.5235987755982988,0.5235987755982988,0,0.020625796,1.330041,-0.084738314,-0.07447865,-0.069975205,1.288787,-0.39702514,-0.10586321,0.9008415,-1.5017471,0.5798294,-0.33777222,0.41718143,-0.50007814
-0.1,-0.2,0.8999999999999999,-0.5235987755982988,0.5235987755982988,0,0.84648424,1.2819446,-0.042501964,-0.06461901,-0.05808288,1.2683885,-0.25214866,-0.10501767,0.9001242,-1.5037503,0.5793969,-0.3565808,0.4111477,-0.69043386
-0.1,-0.2,0.8999999999999999,-0.5235987755982988,0.5235987755982988,0,0.26405808,1.369665,0.02102446,-0.11536453,-0.08054225,1.2661257,-0.28720856,-0.1071673,0.8997434,-1.5009927,0.57993853,-0.35324535,0.41251463,-0.59584045
-0.1,-0.2,0.8999999999999999,-0.5235987755982988,0.5235987755982988,0,0.40260318,1.2798021,-0.061020162,-0.06432655,-0.101647474,1.2053013,-0.3957533,-0.10551574,0.9000891,-1.5041267,0.57970476,-0.34165877,0.41557854,-0.648493
-0.1,-0.2,0.8999999999999999,-0.5235987755982988,0.5235987755982988,0,0.30937132,1.2151835,0.002416008,-0.10508403,-0.06415329,1.2653079,-0.14481302,-0.10662783,0.9004326,-1.5016985,0.57990247,-0.3369216,0.4114171,-0.5398802
-0.1,-0.2,0.8999999999999999,-0.5235987755982988,0.5235987755982988,0,-0.40342793,1.2401487,-0.11424714,-0.13833968,-0.06507427,1.3269007,0.055232063,-0.10758831,0.9003356,-1.5013968,0.57832223,-0.3476325,0.41330144,-0.6692551
-0.1,-0.2,0.8999999999999999,-0.5235987755982988,0.5235987755982988,0,0.5106383,1.2976751,0.06802855,-0.05612,-0.07811223,1.2767171,0.8746684,-0.10675189,0.8999973,-1.502227,0.5793846,-0.3520054,0.41347972,-0.7060899
-0.1,-0.2,0.8999999999999999,-0.5235987755982988,0.5235987755982988,0,-0.17269525,1.235208,-0.1686226,-0.111620896,-0.14670502,1.2245423,-0.29935092,-0.10589403,0.9002651,-1.501859,0.5797572,-0.34489676,0.41619286,-0.634228
-0.1,-0.2,0.8999999999999999,-0.5235987755982988,0.5235987755982988,0,0.49778038,1.3350847,0.079571635,-0.05210613,0.00024610842,1.3018534,-0.064295046,-0.10695419,0.90084,-1.5008572,0.579413,-0.3660477,0.41505787,-0.5034188
-0.1,-0.2,0.8999999999999999,-0.5235987755982988,0.5235987755982988,0,0.044842962,1.2392175,0.17479777,-0.08391959,-0.069261186,1.3009608,0.6315801,-0.1077651,0.9008764,-1.5030164,0.57984877,-0.34915632,0.4146263,-0.62679416
-0.1,-0.2,0.8999999999999999,-0.5235987755982988,0.5235987755982988,0,0.98060167,1.2098789,0.1179566,-0.0950366,0.0013283606,1.3321635,-0.68242764,-0.106886834,0.90041506,-1.5032407,0.57889575,-0.36348665,0.41401386,-0.61800474
-0.1,-0.2,0.8999999999999999,-0.5235987755982988,0.5235987755982988,0,0.114458136,1.254541,0.1603428,-0.09085889,-0.15475841,1.1852869,1.6262214,-0.10720157,0.90019256,-1.503161,0.5791211,-0.36077088,0.41615257,-0.6570417
-0.1,-0.2,0.8999999999999999,-0.5235987755982988,0.5235987755982988,0,0.8483806,1.24766,0.098422475,-0.050282855,-0.17916991,1.282235,1.3509154,-0.10650432,0.9006974,-1.5021932,0.57974696,-0.36829796,0.41199756,-0.69520825
-0.1,-0.2,0.8999999999999999,-0.5235987755982988,0.5235987755982988,0,-0.42662916,1.2393836,-0.04685666,-0.08063189,0.14025207,1.2694426,-0.87882423,-0.10697578,0.9010281,-1.5039192,0.5787622,-0.35591733,0.4160268,-0.550564
-0.1,-0.2,0.8999999999999999,-0.5235987755982988,0.5235987755982988,0,0.15379886,1.2491963,-0.13221005,-0.081761874,0.04009161,1.255647,-0.5012482,-0.10522019,0.9012277,-1.5024796,0.5798492,-0.34435067,0.41568777,-0.5390564
-0.1,-0.2,0.8999999999999999,-0.5235987755982988,0.5235987755982988,0,-0.2610339,1.2349746,0.12795281,-0.021608552,0.004671971,1.2144965,0.22621056,-0.10666557,0.9005909,-1.5016774,0.5791829,-0.3548732,0.41352707,-0.646999
-0.1,-0.2,0.8999999999999999,-0.5235987755982988,0.5235987755982988,0,0.27175602,1.3297505,-0.07902749,-0.08147533,0.047521494,1.2594488,-0.7627271,-0.107137434,0.9001086,-1.4985281,0.57998127,-0.36122325,0.4148011,-0.62061507
-0.1,-0.2,0.8999999999999999,-0.5235987755982988,0.5235987755982988,0,0.9385038,1.2946553,0.19932869,-0.112947375,-0.05873556,1.2790027,0.6595764,-0.10632507,0.9009495,-1.502779,0.579389,-0.35544896,0.4158606,-0.65310246
-0.1,-0.2,0.8999999999999999,-0.5235987755982988,0.5235987755982988,0,0.088626295,1.330441,-0.04914817,-0.08102693,0.14274538,1.2859838,-1.200464,-0.10643283,0.90137774,-1.5020186,0.57985073,-0.3415087,0.4149221,-0.61880136
-0.1,-0.2,0.8999999999999999,-0.5235987755982988,0.5235987755982988,0,-1.099765,1.3081273,0.029097062,-0.05676385,0.08815601,1.252443,0.043074362,-0.10685745,0.9004667,-1.5024095,0.57896066,-0.3608505,0.41449004,-0.62737095
-0.1,-0.2,0.8999999999999999,-0.5235987755982988,0.5235987755982988,0,-0.17221,1.3435962,-0.053038605,-0.07197974,0.02921717,1.249937,-1.4639567,-0.10668252,0.9005339,-1.5054823,0.57859296,-0.3547633,0.41666633,-0.6305552
-0.1,-0.2,0.8999999999999999,-0.5235987755982988,0.5235987755982988,0,0.3662044,1.2774979,0.06924953,-0.08982154,-0.24067803,1.310095,-1.6829134,-0.10708353,0.90104246,-1.5040914,0.57943946,-0.3552272,0.4144324,-0.5654432
-0.1,-0.2,0.8999999999999999,-0.5235987755982988,0.5235987755982988,0,0.6383358,1.261694,-0.09709889,-0.13002075,0.11255741,1.22772,-0.7252615,-0.10604011,0.9005826,-1.5024335,0.57947505,-0.35190105,0.41596878,-0.6207326
-0.1,-0.2,0.8999999999999999,-0.5235987755982988,0.5235987755982988,0,0.28824097,1.2940867,-0.13201857,-0.05180772,0.10159642,1.1961603,0.57077116,-0.107108355,0.8995538,-1.5011206,0.5797407,-0.34432387,0.41645285,-0.4949786
-0.1,-0.2,0.8999999999999999,-0.5235987755982988,0.5235987755982988,0,0.19245441,1.3233835,-0.0742809,-0.10549091,-0.21014658,1.3631737,0.123788066,-0.1066114,0.90003675,-1.5026895,0.57937926,-0.3412394,0.4177661,-0.6230794
-0.1,-0.2,0.8999999999999999,-0.5235987755982988,0.5235987755982988,0,-0.40899336,1.2434705,-0.035965517,-0.096663795,-0.0975602,1.2786659,0.24094678,-0.107607804,0.90029335,-1.501731,0.5790619,-0.34940514,0.41427726,-0.63904095
-0.1,-0.2,0.8999999999999999,-0.5235987755982988,0.5235987755982988,0,0.13270083,1.2454448,-0.07204841,-0.15817307,-0.021427093,1.3314493,0.07426101,-0.106377,0.90023375,-1.5038314,0.5792512,-0.35689065,0.4140087,-0.6742235
-0.1,-0.2,0.8999999999999999,-0.5235987755982988,0.5235987755982988,0,-0.48886,1.2936254,0.022033872,-0.091265336,-0.23666732,1.2486707,-0.21607015,-0.10634225,0.90064627,-1.5031477,0.57968134,-0.34331277,0.4153127,-0.6238342
-0.1,-0.2,0.8999999999999999,-0.5235987755982988,0.5235987755982988,0,0.14999545,1.2750417,0.060247585,-0.09513191,-0.10580002,1.2711983,-1.4483967,-0.10591021,0.9003957,-1.5026859,0.5795197,-0.33914247,0.41758516,-0.58359456
-0.1,-0.2,0.8999999999999999,-0.5235987755982988,0.5235987755982988,0,0.6064025,1.2537292,0.0015914841,-0.09941243,-0.1215774,1.2706118,-1.0541399,-0.10677215,0.8998908,-1.5018945,0.5788376,-0.34888583,0.4169356,-0.62842196
-0.1,-0.2,0.8999999999999999,-0.5235987755982988,0.5235987755982988,0,0.21949822,1.1963449,-0.050387047,-0.050927058,-0.0925904,1.2658839,-0.18341939,-0.10597997,0.9003637,-1.5019597,0.5797538,-0.34091684,0.4139167,-0.5358241
-0.1,-0.2,0.8999999999999999,-0.5235987755982988,0.5235987755982988,0,-0.010907691,1.3742721,-0.0851,-0.08819353,-0.17522824,1.2321243,-0.06714023,-0.10626818,0.90038824,-1.5019598,0.5800893,-0.35169926,0.41581342,-0.5706864
-0.1,-0.2,0.8999999999999999,-0.5235987755982988,0.5235987755982988,0,-0.6355148,1.2781297,0.070536934,-0.08267462,0.009157597,1.3321159,0.97813433,-0.10632999,0.90058815,-1.5024769,0.5789317,-0.3460177,0.41693124,-0.6375112
-0.1,-0.2,0.8999999999999999,-0.5235987755982988,0.5235987755982988,0,0.18087019,1.2675108,0.14008382,-0.1273773,-0.038018335,1.2336473,-0.533633,-0.10576378,0.90100354,-1.5007501,0.5789334,-0.3589444,0.41627353,-0.58790857
-0.1,-0.2,0.8999999999999999,-0.5235987755982988,0.5235987755982988,0,-0.2761232,1.2916476,-0.034023847,-0.106766336,0.05925955,1.3309783,0.97726864,-0.106037274,0.90092665,-1.5038952,0.5796785,-0.34728786,0.41662773,-0.67830855
-0.1,-0.2,0.8999999999999999,-0.5235987755982988,0.5235987755982988,0,0.56198037,1.2824296,0.18692048,-0.06776699,0.099668495,1.2695209,-0.10355376,-0.105923146,0.9004564,-1.5029927,0.5795231,-0.34728473,0.41896412,-0.56988746
-0.1,-0.2,0.8999999999999999,-0.5235987755982988,0.5235987755982988,0,-0.50170225,1.299162,-0.14143749,-0.048699636,-0.21116486,1.3053848,-0.06002437,-0.10739407,0.90028,-1.50381,0.57931644,-0.34487393,0.41484442,-0.6659956
-0.1,-0.2,0.8999999999999999,-0.5235987755982988,0.5235987755982988,0,0.51208866,1.3077075,-0.009510401,-0.06280581,-0.07147561,1.244648,0.48775473,-0.10704406,0.90025556,-1.5015384,0.5788854,-0.36632514,0.4152168,-0.66549516
-0.1,-0.2,0.8999999999999999,-0.5235987755982988,0.5235987755982988,0,0.12841238,1.2716004,-0.13190974,-0.052802455,0.003760088,1.2800444,0.90671587,-0.10575974,0.90087324,-1.502352,0.5794808,-0.35792285,0.4143006,-0.5879864
-0.1,-0.2,0.8999999999999999,-0.5235987755982988,0.5235987755982988,0,0.65513337,1.2854263,-0.049504116,-0.11594715,-0.045090597,1.2786567,-0.79350686,-0.105281934,0.90011215,-1.5026509,0.5800129,-0.3470156,0.4159453,-0.60015094
-0.1,-0.2,0.8999999999999999,-0.5235987755982988,0.5235987755982988,0,0.026648493,1.3950853,-0.005393113,-0.059084505,-0.096233346,1.3514544,0.21581818,-0.10627272,0.90039605,-1.5020577,0.57956845,-0.34697163,0.41526973,-0.62396884
-0.1,-0.2,0.8999999999999999,-0.5235987755982988,0.5235987755982988,0,0.33003682,1.3056061,-0.027855545,-0.110190034,-0.17792873,1.2322695,-0.079935,-0.10543358,0.9007028,-1.5051173,0.5792426,-0.35023102,0.4164123,-0.63192147
-0.1,-0.2,0.8999999999999999,-0.5235987755982988,0.5235987755982988,0,-0.55845714,1.2867604,-0.05493589,-0.094421685,-0.1501406,1.2539026,-1.254107,-0.106711656,0.90000886,-1.5023578,0.5796344,-0.34665495,0.41728377,-0.66296506
-0.1,-0.2,0.8999999999999999,-0.5235987755982988,0.5235987755982988,0,-0.5597161,1.2509553,-0.06670519,-0.12376031,-0.064723074,1.2884381,-1.0400039,-0.10554127,0.90019846,-1.5021517,0.57997066,-0.3722293,0.41677836,-0.6960643
-0.1,-0.2,0.8999999999999999,-0.5235987755982988,0.5235987755982988,0,0.57828075,1.3100706,0.06705182,-0.06511525,0.11739203,1.237075,0.66115123,-0.106194146,0.9005599,-1.5018598,0.5796949,-0.35330406,0.4140433,-0.61917883
-0.1,-0.2,0.8999999999999999,-0.5235987755982988,0.5235987755982988,0,-0.18293709,1.1963378,0.002603731,-0.10900662,-0.23301072,1.3062006,-1.7236786,-0.106996916,0.90116996,-1.5042349,0.5799069,-0.35888252,0.41313517,-0.60977155
-0.1,-0.2,0.8999999999999999,-0.5235987755982988,0.5235987755982988,0,-0.66431355,1.2934552,-0.059756383,-0.060191203,-0.23832755,1.2972007,-0.23958915,-0.1066182,0.8997247,-1.5012447,0.5793601,-0.3525783,0.41658765,-0.6334712
-0.1,-0.2,0.8999999999999999,-0.5235987755982988,0.5235987755982988,0,0.40428877,1.3034586,0.02582357,-0.061655797,-0.10087074,1.3141011,-1.9364899,-0.10643727,0.8998566,-1.504682,0.5798665,-0.3521539,0.41389513,-0.62159175
-0.1,-0.2,0.8999999999999999,-0.5235987755982988,0.5235987755982988,0,-0.4691341,1.3914248,-0.04564686,-0.07773161,-0.043952227,1.2547361,0.6959921,-0.10617253,0.90058637,-1.5005645,0.5789068,-0.35113114,0.411725,-0.7089935
-0.1,-0.2,0.8999999999999999,-0.5235987755982988,0.5235987755982988,0,-0.5438394,1.1782067,-0.016937412,-0.10788376,0.011410065,1.2273961,-1.1794171,-0.10676189,0.9003767,-1.5019728,0.57897246,-0.34976175,0.41382,-0.54543346
-0.1,-0.2,0.8999999999999999,-0.5235987755982988,0.5235987755982988,0,-0.351986,1.283917,0.016301323,-0.118564226,-0.0121508995,1.3195655,0.24884725,-0.10511756,0.9005984,-1.5016673,0.5790774,-0.34759134,0.4173492,-0.695573
-0.1,-0.2,0.8999999999999999,-0.5235987755982988,0.5235987755982988,0,0.12381518,1.2712994,0.118481755,-0.12934925,0.03651262,1.2267867,-0.9802542,-0.10519033,0.90101606,-1.5044333,0.57930243,-0.34773126,0.41531575,-0.53736466
-0.1,-0.2,0.8999999999999999,-0.5235987755982988,0.5235987755982988,0,0.36446342,1.3175893,0.006099529,-0.09340007,0.090418786,1.2920159,-0.2954538,-0.1062276,0.90098447,-1.5030296,0.5791704,-0.34783128,0.41587076,-0.59212476
-0.1,-0.2,0.8999999999999999,-0.5235987755982988,0.5235987755982988,0,0.044050217,1.3097669,0.02670262,-0.11117289,-0.12988791,1.2223902,-0.07642695,-0.10605214,0.9006573,-1.500831,0.5788067,-0.35212278,0.41351447,-0.6090795
-0.1,-0.2,0.8999999999999999,-0.5235987755982988,0.5235987755982988,0,-0.45687005,1.3295431,-0.057934396,-0.084651664,-0.016765628,1.3464497,0.187173,-0.10686971,0.89970934,-1.5011536,0.5789763,-0.35936868,0.41641802,-0.62096775
-0.1,-0.2,0.8999999999999999,-0.5235987755982988,0.5235987755982988,0,-0.07560236,1.1993852,-0.19030227,-0.11947077,0.047860216,1.3227414,0.06006027,-0.10585357,0.90047574,-1.5031062,0.58027613,-0.355839,0.41391277,-0.5937395
-0.1,-0.2,0.8999999999999999,-0.5235987755982988,0.5235987755982988,0,0.5342292,1.3089066,-0.035266504,-0.067940846,0.057754226,1.182752,-1.1385852,-0.10743802,0.89993083,-1.5021605,0.5789144,-0.34354165,0.416005,-0.5329259
-0.1,-0.2,0.8999999999999999,-0.5235987755982988,0.5235987755982988,0,0.8025753,1.2868905,0.08504618,-0.059879906,-0.105221644,1.2709075,1.1064464,-0.107078835,0.90080667,-1.5033454,0.57847625,-0.35194916,0.4126127,-0.5913729
-0.1,-0.2,0.8999999999999999,-0.5235987755982988,0.5235987755982988,0,-0.9638314,1.2267083,0.038892306,-0.103931285,0.032392804,1.3368748,1.4385811,-0.10611271,0.9005746,-1.5035985,0.57896507,-0.35049695,0.4150817,-0.6545385
-0.1,-0.2,0.8999999999999999,-0.5235987755982988,0.5235987755982988,0,0.19867784,1.2286477,-0.1057041,-0.08222994,-0.044945285,1.3375913,-0.2964167,-0.10637127,0.9010201,-1.5028757,0.5803089,-0.3530395,0.4150702,-0.6671706
-0.1,-0.2,0.8999999999999999,-0.5235987755982988,0.5235987755982988,0,0.6646901,1.2464676,-0.08911699,-0.056355625,0.07662707,1.2866832,-0.12510403,-0.10665422,0.9004179,-1.5054841,0.5793405,-0.34602988,0.41182563,-0.5801058
-0.1,-0.2,0.8999999999999999,-0.5235987755982988,0.5235987755982988,0,0.42090645,1.2378157,-0.043598145,-0.051628366,-0.09219988,1.2732586,0.49807113,-0.10566937,0.9009304,-1.5043921,0.57973874,-0.34779027,0.4151833,-0.58232033
-0.1,-0.2,0.8999999999999999,-0.5235987755982988,0.5235987755982988,0,0.81666833,1.2391909,0.16910833,-0.11395083,-0.053211126,1.2855265,-0.972146,-0.10586252,0.9006078,-1.5027606,0.5793237,-0.34176764,0.41344234,-0.6556791
-0.1,-0.2,0.8999999999999999,-0.5235987755982988,0.5235987755982988,0,0.012177637,1.3704717,-0.02336272,-0.05506108,-0.07730076,1.2351471,-2.942722,-0.1063082,0.9005342,-1.501885,0.57873017,-0.35087007,0.41684723,-0.6563338
-0.1,-0.2,0.8999999999999999,-0.5235987755982988,0.5235987755982988,0,0.29242808,1.2469434,-0.16793786,-0.07036565,0.11177625,1.2939333,-0.008881248,-0.10563025,0.9008981,-1.4996113,0.5800494,-0.35292217,0.41398624,-0.6240217
-0.1,-0.2,0.8999999999999999,-0.5235987755982988,0.5235987755982988,0,0.22158262,1.2373443,-0.016811494,-0.0829119,0.16823485,1.2818619,-1.2199497,-0.10654601,0.9008225,-1.5045865,0.5788425,-0.3403466,0.4131313,-0.5918713
-0.1,-0.2,0.8999999999999999,-0.5235987755982988,0.5235987755982988,0,-0.12843093,1.3250067,-0.024764758,-0.08361073,-0.06629654,1.2310251,0.4475632,-0.1068246,0.89993775,-1.5021015,0.58004075,-0.3497985,0.4139536,-0.6886895
-0.1,-0.2,0.8999999999999999,-0.5235987755982988,0.5235987755982988,0,0.70946884,1.2950802,-0.01393942,-0.017474446,-0.020032227,1.262825,-0.9545415,-0.10693777,0.90025276,-1.5009476,0.57962596,-0.35215867,0.41647574,-0.5965299
-0.1,-0.2,0.8999999999999999,-0.5235987755982988,0.5235987755982988,0,0.052605666,1.360225,0.034007557,-0.114472546,-0.068563975,1.2734809,-0.19709724,-0.107683755,0.90000254,-1.5033138,0.5795359,-0.34356436,0.41486722,-0.6108709
-0.1,-0.2,0.8999999999999999,-0.5235987755982988,0.5235987755982988,0,0.27982047,1.265879,0.09375249,-0.16294709,0.07337783,1.2506676,-0.23974505,-0.10744989,0.9006806,-1.5021611,0.57922816,-0.3468374,0.41588098,-0.66473395
-0.1,-0.2,0.8999999999999999,-0.5235987755982988,0.5235987755982988,0,-0.3438107,1.3102803,0.016220616,-0.08371088,-0.01885965,1.2847272,0.89441234,-0.1074761,0.90043736,-1.5033718,0.5787359,-0.34067816,0.41654515,-0.54355884
-0.1,-0.2,0.8999999999999999,-0.5235987755982988,0.5235987755982988,0,0.19579895,1.2941704,0.06984801,-0.12016572,0.010975281,1.302104,-0.20004965,-0.10686312,0.9000165,-1.5034271,0.579275,-0.34098235,0.41846997,-0.5708201
-0.1,-0.2,0.8999999999999999,-0.5235987755982988,0.5235987755982988,0,0.6654104,1.3106738,0.05069984,-0.061044488,0.1537151,1.3581511,-0.14761771,-0.10691128,0.9000437,-1.5030096,0.5791812,-0.3565311,0.4156705,-0.58171165
-0.1,-0.2,0.8999999999999999,-0.5235987755982988,0.5235987755982988,0,-0.1959467,1.2337521,0.1522912,-0.10488037,-0.07663253,1.3152027,1.0915395,-0.10576699,0.90145,-1.5019355,0.57904243,-0.35594776,0.4185066,-0.6447735
-0.1,-0.2,0.8999999999999999,-0.5235987755982988,0.5235987755982988,0,0.05162717,1.3190992,-0.080687374,-0.09932456,0.12743126,1.3210498,0.41371822,-0.10665004,0.9008772,-1.5062795,0.5789916,-0.35458553,0.41186142,-0.59731084
-0.1,-0.2,0.8999999999999999,-0.5235987755982988,0.5235987755982988,0,-0.22964706,1.2782153,-0.13990647,-0.099834055,-0.08164653,1.2017561,-0.8064581,-0.10679208,0.9002526,-1.5024037,0.57902855,-0.33922207,0.41802803,-0.5493693
-0.1,-0.2,0.8999999999999999,-0.5235987755982988,0.5235987755982988,0,-0.97214824,1.3038825,-0.03663516,-0.066516094,-0.09725032,1.2582563,1.6156538,-0.10661245,0.9004609,-1.5036864,0.5799583,-0.362713,0.412858,-0.6802739
-0.1,-0.2,0.8999999999999999,-0.5235987755982988,0.5235987755982988,0,0.0011761684,1.2199823,-0.06965884,-0.07132436,0.15544064,1.3257663,-0.46140653,-0.10599479,0.9007402,-1.5024334,0.57989687,-0.35615215,0.41546404,-0.6859575
-0.1,-0.2,0.8999999999999999,-0.5235987755982988,0.5235987755982988,0,-0.2592938,1.2594852,0.03910469,-0.10425193,-0.14352779,1.2472903,1.3513671,-0.106529444,0.9000792,-1.5004355,0.5792727,-0.33924124,0.41658705,-0.67082685
-0.1,-0.2,0.8999999999999999,-0.5235987755982988,0.5235987755982988,0,0.022589184,1.3032416,0.09907811,-0.11721827,0.12727512,1.270367,-0.53452265,-0.10620084,0.90063375,-1.500403,0.5796325,-0.35033256,0.4155971,-0.5523133
-0.1,-0.2,0.8999999999999999,-0.5235987755982988,0.5235987755982988,0,-0.29621497,1.1931105,0.09164502,-0.076676846,-0.0964067,1.314957,0.44614044,-0.10663278,0.9002715,-1.5024841,0.5792458,-0.34895077,0.4153601,-0.65788335
-0.1,-0.2,0.8999999999999999,-0.5235987755982988,0.5235987755982988,0,-0.51834464,1.244717,0.02926458,-0.10110471,-0.06949005,1.2639891,0.38289374,-0.10625343,0.90021044,-1.4999815,0.57997,-0.3541076,0.41591564,-0.61993355
-0.1,-0.2,0.8999999999999999,-0.5235987755982988,0.5235987755982988,0,0.6572176,1.2756224,-0.027472643,-0.087057255,-0.19333468,1.3447566,-0.29697675,-0.10585481,0.9002076,-1.5012145,0.5796076,-0.3555919,0.41779724,-0.6423584
-0.1,-0.2,0.8999999999999999,-0.5235987755982988,0.5235987755982988,0,0.17265037,1.337021,-0.07386205,-0.08252575,-0.12853488,1.321389,0.020174943,-0.106649876,0.90058506,-1.5021861,0.57995254,-0.36096755,0.41529953,-0.6306109
-0.1,-0.2,0.8999999999999999,-0.5235987755982988,0.5235987755982988,0,0.6933718,1.3030607,-0.08928949,-0.06248499,0.011079903,1.2401129,0.49270573,-0.10718886,0.9002477,-1.5018163,0.57910895,-0.35426605,0.41349718,-0.6112168
-0.1,-0.2,0.8999999999999999,-0.5235987755982988,0.5235987755982988,0,0.09181886,1.2055339,-0.01946668,-0.13850416,0.17530315,1.224732,0.051434655,-0.10513073,0.9008025,-1.4997278,0.57938105,-0.3550875,0.41786873,-0.5581724
-0.1,-0.2,0.8999999999999999,-0.5235987755982988,0.5235987755982988,0,0.05841825,1.2680603,-0.062334113,-0.074634925,0.011932012,1.2446115,0.26844835,-0.10646746,0.9016779,-1.5025283,0.57919645,-0.35024554,0.41720638,-0.64203155
-0.1,-0.2,0.8999999999999999,-0.5235987755982988,0.5235987755982988,0,-0.7866722,1.2609495,-0.03226797,-0.06674612,-0.015601046,1.2420722,0.17717567,-0.10549249,0.9009364,-1.503577,0.58004725,-0.35707062,0.4136185,-0.62734485
-0.1,-0.2,0.8999999999999999,-0.5235987755982988,0.5235987755982988,0,-0.017714081,1.276663,0.05432845,-0.090394534,-0.018883094,1.2803754,0.31744215,-0.10757395,0.90087235,-1.4999247,0.57897437,-0.34919438,0.41506413,-0.69270724
-0.1,-0.2,0.8999999999999999,-0.5235987755982988,0.5235987755982988,0,-0.07818537,1.2331609,0.04406334,-0.11249403,-0.10644302,1.2401268,0.7713678,-0.1073153,0.9004524,-1.5025761,0.58008784,-0.35827017,0.41640323,-0.6716985
-0.1,-0.2,0.8999999999999999,-0.5235987755982988,0.5235987755982988,0,-0.2746067,1.2703651,0.06124156,-0.06955279,-0.08591425,1.2678868,0.12847894,-0.10646606,0.90072274,-1.5030702,0.5793827,-0.35248375,0.4140377,-0.60945004
-0.1,-0.2,0.8999999999999999,-0.5235987755982988,0.5235987755982988,0,0.07435434,1.3141758,-0.11418998,-0.045544494,-0.10402733,1.222593,1.3919419,-0.106974706,0.90096116,-1.5025432,0.58016264,-0.35152158,0.41262898,-0.6017378
-0.1,-0.2,0.8999999999999999,-0.5235987755982988,0.5235987755982988,0,0.19986406,1.3254286,-0.07823568,-0.05119911,0.06301011,1.2956572,0.5790291,-0.10650699,0.9009222,-1.5022944,0.5797305,-0.36025366,0.41473815,-0.58638805
-0.1,-0.2,0.8999999999999999,-0.5235987755982988,0.5235987755982988,0,0.46323818,1.3435915,-0.06426799,-0.04943163,-0.122045994,1.2619917,-0.34471387,-0.10650863,0.9008911,-1.5036547,0.57938325,-0.3361464,0.414776,-0.6501886
-0.1,-0.2,0.8999999999999999,-0.5235987755982988,0.5235987755982988,0,0.77985775,1.2637312,-0.03900108,-0.051229984,-0.0061735963,1.3282377,0.95223075,-0.10687941,0.9003337,-1.5033833,0.58002985,-0.3567689,0.41471744,-0.61310136
-0.1,-0.2,0.8999999999999999,-0.5235987755982988,0.5235987755982988,0,0.4755545,1.2988627,-0.015971778,-0.115835644,-0.005084532,1.3378352,-0.61018026,-0.10697852,0.9006994,-1.5032821,0.5794617,-0.36558852,0.41104764,-0.5215696
-0.1,-0.2,0.8999999999999999,-0.5235987755982988,0.5235987755982988,0,-0.4011927,1.3508004,0.1126043,-0.05694325,0.10494588,1.2916312,1.3131962,-0.105347246,0.9012938,-1.5017132,0.5805585,-0.34360084,0.41387615,-0.6188783
-0.1,-0.2,0.8999999999999999,-0.5235987755982988,0.5235987755982988,0,0.9300664,1.2795066,-0.2314689,-0.06628726,-0.14473335,1.3230213,-0.3845936,-0.10693673,0.900299,-1.502498,0.5790206,-0.34625557,0.41645417,-0.5593159
-0.1,-0.2,0.8999999999999999,-0.5235987755982988,0.5235987755982988,0,0.38591453,1.309691,0.023794279,-0.12963107,-0.123603575,1.2545791,0.3718017,-0.10624187,0.9010038,-1.5032836,0.57966566,-0.34560806,0.41300026,-0.589449
-0.1,-0.2,0.8999999999999999,-0.5235987755982988,0.5235987755982988,0,0.71118325,1.2840185,0.08574324,-0.06397689,-0.19142303,1.3224328,0.42408127,-0.10564523,0.90033907,-1.5019348,0.5791854,-0.34812418,0.41648442,-0.64181477
-0.1,-0.2,0.8999999999999999,-0.5235987755982988,0.5235987755982988,0,0.447752,1.3030947,-0.100277804,-0.09366407,-0.08960292,1.2660472,0.21967682,-0.10581472,0.90080297,-1.5016065,0.5792262,-0.35395393,0.41594028,-0.55950755
-0.1,-0.2,0.8999999999999999,-0.5235987755982988,0.5235987755982988,0,0.412281,1.3455762,0.0056378776,-0.122170076,0.07694632,1.3066244,1.4227849,-0.10671016,0.90202343,-1.5046108,0.5797452,-0.34985313,0.4139699,-0.64489305
-0.1,-0.2,0.8999999999999999,-0.5235987755982988,0.5235987755982988,0,0.11406667,1.2297871,-0.077370726,-0.061951604,0.12637287,1.2988732,0.7285732,-0.10606977,0.9000598,-1.5033543,0.57939976,-0.36043563,0.41599196,-0.60813206
-0.1,-0.2,0.8999999999999999,-0.5235987755982988,0.5235987755982988,0,-0.13115726,1.3079326,-0.09358046,-0.060866844,-0.23345372,1.2601674,1.61636,-0.10808101,0.90071976,-1.5026348,0.57939684,-0.35644552,0.4146611,-0.545315
-0.1,-0.2,0.8999999999999999,-0.5235987755982988,0.5235987755982988,0,-0.5439416,1.3424642,-0.12343332,-0.059186965,0.033947676,1.2924538,2.2508352,-0.10632574,0.9001653,-1.5003906,0.57953864,-0.34645793,0.41647074,-0.6197915
-0.1,-0.2,0.8999999999999999,-0.5235987755982988,0.5235987755982988,0,-0.06534501,1.2287024,-0.03946045,-0.047182713,-0.08255292,1.3481337,-0.2735119,-0.10730525,0.9010236,-1.5039403,0.57927525,-0.35273075,0.41616425,-0.53329694
-0.1,-0.2,0.8999999999999999,-0.5235987755982988,0.5235987755982988,0,0.7879712,1.3853434,0.05308858,-0.076488964,-0.008037621,1.2939502,-0.9257016,-0.10634247,0.90037715,-1.504882,0.57947934,-0.34795684,0.41464302,-0.6026038
-0.1,-0.2,0.8999999999999999,-0.5235987755982988,0.5235987755982988,0,0.061011594,1.2955397,0.04496264,-0.09240159,-0.022993296,1.2683965,-1.0220324,-0.10647251,0.89928794,-1.5042645,0.57961226,-0.35543025,0.42011154,-0.5994003
-0.1,-0.2,0.8999999999999999,-0.5235987755982988,0.5235987755982988,0,0.5088881,1.2934196,0.0071085794,-0.075496286,0.018699924,1.2915328,-0.9667079,-0.10671471,0.9007632,-1.5008019,0.5791725,-0.35536015,0.41676712,-0.6899741
-0.1,-0.2,0.8999999999999999,-0.5235987755982988,0.5235987755982988,0,-0.050873704,1.2176104,0.0028606697,-0.052537475,0.15399057,1.3635572,0.10641913,-0.107421115,0.89994276,-1.5011737,0.57965636,-0.35784507,0.4127671,-0.6689395
-0.1,-0.2,0.8999999999999999,-0.5235987755982988,0.5235987755982988,0,0.40180066,1.2627352,-0.09784513,-0.0667642,-0.06274435,1.2197129,-0.39590973,-0.10747669,0.9008243,-1.5018852,0.57974726,-0.36736625,0.41563386,-0.5786248
-0.1,-0.2,0.8999999999999999,-0.5235987755982988,0.5235987755982988,0,0.1700163,1.2774115,0.08776806,-0.07868888,-0.017508248,1.211503,1.075806,-0.10638256,0.90078676,-1.5010923,0.5795468,-0.3574906,0.41323027,-0.6422026
-0.1,-0.2,0.8999999999999999,-0.5235987755982988,0.5235987755982988,0,0.33065924,1.2634906,-0.005374399,-0.14079866,-0.03133251,1.3378017,-0.120095655,-0.10614577,0.9005443,-1.5024172,0.5804518,-0.33440337,0.4150256,-0.58975136
-0.1,-0.2,0.8999999999999999,-0.5235987755982988,0.5235987755982988,0,0.6583408,1.2330076,0.1223252,-0.110979155,0.08317655,1.1690409,0.23877703,-0.10597692,0.90174955,-1.4988987,0.57929033,-0.34558418,0.41362908,-0.5854972
-0.1,-0.2,0.8999999999999999,-0.5235987755982988,0.5235987755982988,0,0.21272065,1.2527771,0.009983095,-0.048366655,0.12548253,1.3155801,0.847278,-0.106404826,0.90022063,-1.5057257,0.57992303,-0.36378953,0.41502088,-0.6567071
-0.1,-0.2,0.8999999999999999,-0.5235987755982988,0.5235987755982988,0,0.9656712,1.1754912,0.08035421,-0.019804915,-0.032321457,1.33179,-0.9672284,-0.10737677,0.9005676,-1.5018609,0.5793912,-0.33984932,0.41693875,-0.6421314
-0.1,-0.2,0.8999999999999999,-0.5235987755982988,0.5235987755982988,0,1.1847603,1.268824,-0.032774273,-0.06544055,-0.011588937,1.3068204,-0.4045685,-0.106543794,0.89968055,-1.5031947,0.5794979,-0.34757918,0.4204655,-0.5219944
-0.1,-0.2,0.8999999999999999,-0.5235987755982988,0.5235987755982988,0,0.061059803,1.3398286,0.057230428,-0.08909442,0.046872,1.2975814,-1.1800939,-0.1063729,0.9009199,-1.5043217,0.5795061,-0.3578212,0.413145,-0.6215003
-0.1,-0.2,0.8999999999999999,-0.5235987755982988,0.5235987755982988,0,-0.18202816,1.2507412,0.0013899014,-0.041159723,0.02851765,1.2275434,-0.32358328,-0.10620284,0.9003498,-1.5023528,0.58000195,-0.34457844,0.4153575,-0.5233883
-0.1,-0.2,0.8999999999999999,-0.5235987755982988,0.5235987755982988,0,0.25212908,1.3136064,0.1106012,-0.11255211,-0.091567926,1.2918439,0.64032835,-0.106242694,0.9010924,-1.5028416,0.57836306,-0.3464263,0.41653904,-0.6756791
-0.1,-0.2,0.8999999999999999,-0.5235987755982988,0.5235987755982988,0,0.3917187,1.2580943,-0.026980093,-0.096611984,-0.029411647,1.2898921,0.41844535,-0.10639834,0.90101224,-1.5025568,0.57975364,-0.35153162,0.41603288,-0.6922969
-0.1,-0.2,0.8999999999999999,-0.5235987755982988,0.5235987755982988,0,0.18723467,1.3262658,-0.01687357,-0.12444095,-0.12360207,1.2712228,0.18575327,-0.107261024,0.90104884,-1.5024519,0.5790775,-0.34062862,0.41699257,-0.6525057
-0.1,-0.2,0.8999999999999999,-0.5235987755982988,0.5235987755982988,0,-0.27176744,1.2806455,-0.0335121,-0.0746784,-0.077453,1.3005087,-0.48199725,-0.10667457,0.90030813,-1.5030686,0.580035,-0.34800255,0.415751,-0.69359225
-0.1,-0.2,0.8999999999999999,-0.5235987755982988,0.5235987755982988,0,0.18040687,1.1877394,0.05339369,-0.09990904,0.04401939,1.2506148,0.07944541,-0.10578161,0.8998722,-1.5044001,0.57951766,-0.3517747,0.41186798,-0.6962369
-0.1,-0.2,0.8999999999999999,-0.5235987755982988,0.5235987755982988,0,-0.051933672,1.290418,-0.08489445,-0.14420092,-0.038243078,1.2300793,-0.94712585,-0.10664466,0.90078384,-1.501934,0.5788721,-0.36815873,0.416399,-0.5719459
-0.1,-0.2,0.8999999999999999,-0.5235987755982988,0.5235987755982988,0,0.17282593,1.2766155,-0.15411165,-0.103865325,-0.19255991,1.286069,0.9478103,-0.106724955,0.90114427,-1.5019412,0.58042705,-0.35526615,0.4125172,-0.6251454
-0.1,-0.2,0.8999999999999999,-0.5235987755982988,0.5235987755982988,0,-1.4202482,1.3659581,-0.018497773,-0.09386784,-0.097042814,1.3208419,-0.2996592,-0.10607947,0.90104467,-1.504063,0.57897204,-0.3417195,0.41261408,-0.5832226
-0.1,-0.2,0.8999999999999999,-0.5235987755982988,0.5235987755982988,0,-0.37004077,1.3464913,-0.034109615,-0.07127633,-0.18518208,1.3076174,-1.2979056,-0.10732763,0.9007824,-1.5014508,0.5785187,-0.35663468,0.41515437,-0.5065838
-0.1,-0.2,0.8999999999999999,-0.5235987755982988,0.5235987755982988,0,0.6945417,1.2749954,0.019469164,-0.06117726,-0.12559566,1.2766622,1.3161571,-0.10662745,0.9009882,-1.5005869,0.579498,-0.3465331,0.41280398,-0.60506356
-0.1,-0.2,0.8999999999999999,-0.5235987755982988,0.5235987755982988,0,-0.2702841,1.2455496,-0.06558013,-0.06960404,0.022196168,1.2752404,0.3145383,-0.10688311,0.9006776,-1.5005665,0.5794911,-0.35205653,0.4158593,-0.6462584
-0.1,-0.2,0.8999999999999999,-0.5235987755982988,0.5235987755982988,0,0.36846912,1.2441574,-0.09784808,-0.10556725,0.10802433,1.2239292,1.3666766,-0.10638275,0.89944404,-1.5028718,0.57983005,-0.36209372,0.41946757,-0.60486865
-0.1,-0.2,0.8999999999999999,-0.5235987755982988,0.5235987755982988,0,0.16791409,1.2925692,0.0061647664,-0.0829944,0.0394127,1.2774079,-0.17031337,-0.10649029,0.9007981,-1.5010581,0.5799432,-0.3595858,0.41324818,-0.549116
-0.1,-0.2,0.8999999999999999,-0.5235987755982988,0.5235987755982988,0,0.26911038,1.3414344,0.09831191,-0.08617182,-0.080586754,1.3585309,-1.5721414,-0.10717714,0.90022224,-1.5041401,0.57968384,-0.34599715,0.4168953,-0.619139
-0.1,-0.2,0.8999999999999999,-0.5235987755982988,0.5235987755982988,0,0.5081017,1.2515485,0.027575064,-0.09683829,-0.16024143,1.2808052,-0.28939965,-0.10500907,0.9008423,-1.5040126,0.5793192,-0.34641314,0.41684127,-0.7023455
-0.1,-0.2,0.8999999999999999,-0.5235987755982988,0.5235987755982988,0,-0.73905337,1.307763,-0.13276698,-0.09090293,-0.043575898,1.2880064,-0.7765664,-0.106047094,0.9004913,-1.5004424,0.5797037,-0.3498443,0.41451418,-0.6286115
-0.1,-0.2,0.8999999999999999,-0.5235987755982988,0.5235987755982988,0,-0.15654296,1.2216719,0.08839507,-0.08149396,-0.084710516,1.321757,0.09020164,-0.10726364,0.9003861,-1.5007042,0.5793316,-0.3489705,0.41561875,-0.62020373
-0.1,-0.2,0.8999999999999999,-0.5235987755982988,0.5235987755982988,0,-1.0986267,1.2505096,0.029114751,-0.10381979,-0.028679648,1.3271074,-1.4651393,-0.105297364,0.900879,-1.5018159,0.57987165,-0.34599176,0.41316026,-0.62283295
-0.1,-0.2,0.8999999999999999,-0.5235987755982988,0.5235987755982988,0,-0.059584435,1.3184707,-0.06835577,-0.037116863,-0.045186784,1.3633947,1.0899476,-0.107680775,0.90087324,-1.5043507,0.5798779,-0.36196586,0.41465202,-0.5998054
-0.1,-0.2,0.8999999999999999,-0.5235987755982988,0.5235987755982988,0,0.2597083,1.3137876,0.056720156,-0.06069682,-0.24145044,1.3107718,1.3731439,-0.105508626,0.9009935,-1.503368,0.57944554,-0.335151,0.41675866,-0.60597795
-0.1,-0.2,0.8999999999999999,-0.5235987755982988,0.5235987755982988,0,0.1947081,1.268579,0.03814121,-0.10024397,-0.19344851,1.260828,-1.9692011,-0.10705887,0.9012187,-1.5026717,0.57911146,-0.35741302,0.4158421,-0.56390387
-0.1,-0.2,0.8999999999999999,-0.5235987755982988,0.5235987755982988,0,0.0036095486,1.2874485,-0.028394764,-0.096109964,0.026957422,1.381119,-0.8999214,-0.1069367,0.9005643,-1.5032734,0.58005404,-0.35146916,0.41614336,-0.5480684
-0.1,-0.2,0.8999999999999999,-0.5235987755982988,0.5235987755982988,0,0.10910263,1.2856717,0.13635759,-0.058196574,-0.16299933,1.2945392,0.7865169,-0.10654493,0.90005654,-1.498056,0.57916033,-0.35356647,0.4164674,-0.63150865
-0.1,-0.2,0.8999999999999999,-0.5235987755982988,0.5235987755982988,0,0.18739597,1.3048375,-0.009110251,-0.081393935,-0.13496993,1.2814882,-0.969311,-0.107354425,0.9011082,-1.5044099,0.5792798,-0.3524125,0.4163901,-0.590667
-0.1,-0.2,0.8999999999999999,-0.5235987755982988,0.5235987755982988,0,-0.5703085,1.3022768,-0.1256413,-0.13701124,0.06015082,1.2741575,0.7842813,-0.106531695,0.9003748,-1.5031097,0.57971585,-0.34843418,0.4165446,-0.63312614
-0.1,-0.2,0.8999999999999999,-0.5235987755982988,0.5235987755982988,0,0.42542556,1.3325089,-0.16213368,-0.071143754,-0.023582647,1.2735182,1.0344948,-0.107123904,0.90044034,-1.502219,0.57870144,-0.36329094,0.41736597,-0.53080535
-0.1,-0.2,0.8999999999999999,-0.5235987755982988,0.5235987755982988,0,1.056773,1.2759662,0.073840916,-0.06953768,-0.018776765,1.348955,-0.4749129,-0.10705278,0.8998464,-1.5011542,0.57934195,-0.35500142,0.41589287,-0.60849214
-0.1,-0.2,0.8999999999999999,-0.5235987755982988,0.5235987755982988,0,-0.43916103,1.2392442,0.0858355,-0.1244941,0.051982135,1.2448497,1.0844642,-0.107261375,0.90078974,-1.5034803,0.5787942,-0.36098215,0.41597235,-0.53054523
-0.1,-0.2,0.8999999999999999,-0.5235987755982988,0.5235987755982988,0,-0.4474512,1.2967107,-0.06582917,-0.13721354,-0.08914683,1.2818388,0.090289496,-0.10653036,0.9010806,-1.501632,0.5791548,-0.35915935,0.41827863,-0.647388
-0.1,-0.2,0.8999999999999999,-0.5235987755982988,0.5235987755982988,0,-0.6873353,1.2406136,0.06749093,-0.07566207,0.017847419,1.3242644,-0.6551641,-0.10675203,0.9011156,-1.5017176,0.5794374,-0.35482708,0.41462842,-0.6124709
-0.1,-0.2,0.8999999999999999,-0.5235987755982988,0.5235987755982988,0,-0.110462375,1.2710297,0.19351564,-0.067946054,-0.122308485,1.212086,-0.11294728,-0.10756432,0.90095633,-1.5024981,0.57956165,-0.3636517,0.41764897,-0.6010872
-0.1,-0.2,0.8999999999999999,-0.5235987755982988,0.5235987755982988,0,0.7873261,1.3459318,-0.07396545,-0.07987996,0.017825127,1.2190088,1.4174961,-0.10654346,0.90032405,-1.5019037,0.57931864,-0.356664,0.41703603,-0.6328972
-0.1,-0.2,0.8999999999999999,-0.5235987755982988,0.5235987755982988,0,0.01845169,1.2966342,0.1548286,-0.042968977,0.06214627,1.3183364,0.7475845,-0.106527925,0.901156,-1.5011587,0.5801805,-0.35132015,0.41337332,-0.6006969
-0.1,-0.2,0.8999999999999999,-0.5235987755982988,0.5235987755982988,0,-0.22563353,1.2925266,0.017005553,-0.086338244,-0.2930947,1.3281608,-1.0682803,-0.10612848,0.900663,-1.5034769,0.5799512,-0.33773556,0.41527522,-0.61395735
-0.1,-0.2,0.8999999999999999,-0.5235987755982988,0.5235987755982988,0,-0.47636268,1.211528,-0.07128223,-0.08210013,0.100799985,1.2783605,-0.034014508,-0.10756903,0.90099955,-1.504433,0.5793776,-0.34310725,0.41555834,-0.5902223
-0.1,-0.2,0.8999999999999999,-0.5235987755982988,0.5235987755982988,0,0.8712437,1.2326504,0.16825746,-0.0722287,0.13280371,1.2609528,0.5387831,-0.106152155,0.9015518,-1.5033225,0.57949173,-0.35310516,0.41799453,-0.5533231
-0.1,-0.2,0.8999999999999999,-0.5235987755982988,0.5235987755982988,0,-0.7118489,1.2920512,0.00904211,-0.082124054,-0.044874795,1.2280942,-0.041087467,-0.10594799,0.9001108,-1.5046375,0.5797575,-0.3533741,0.41932955,-0.7418853
-0.1,-0.2,0.8999999999999999,-0.5235987755982988,0.5235987755982988,0,0.74917305,1.2997934,0.13199754,-0.043365993,0.1657236,1.2975092,1.0802361,-0.10703433,0.9011611,-1.5016505,0.58026624,-0.3640375,0.4159587,-0.675412
-0.1,-0.2,0.8999999999999999,-0.5235987755982988,0.5235987755982988,0,1.0391918,1.2909052,0.0792287,-0.10974903,0.008537848,1.280276,0.04516384,-0.10650688,0.900261,-1.5028987,0.57957506,-0.3643357,0.41934305,-0.59483826
-0.1,-0.2,0.8999999999999999,-0.5235987755982988,0.5235987755982988,0,0.06528475,1.3381194,0.08351241,-0.079306304,0.0022327236,1.2256162,0.10253299,-0.106254004,0.9003491,-1.5039331,0.5802263,-0.3463605,0.41500464,-0.500713
-0.1,-0.2,0.8999999999999999,-0.5235987755982988,0.5235987755982988,0,-0.44268584,1.2548413,0.10369059,-0.091151275,0.12298323,1.3116503,-1.9901154,-0.10725302,0.90095854,-1.5043861,0.5797361,-0.35006267,0.41535628,-0.63179314
-0.1,-0.2,0.8999999999999999,-0.5235987755982988,0.5235987755982988,0,-0.21599822,1.2414211,0.035997346,-0.10205743,0.024004633,1.3188125,-0.2662637,-0.10670208,0.9003385,-1.5002302,0.5799862,-0.34996992,0.41832313,-0.6408157
-0.1,-0.2,0.8999999999999999,-0.5235987755982988,0.5235987755982988,0,0.36727536,1.2972295,-0.015021796,-0.11573267,0.06513957,1.2521868,1.0525608,-0.10597034,0.9005298,-1.5031078,0.57922035,-0.35504195,0.41765845,-0.5953751
-0.1,-0.2,0.8999999999999999,-0.5235987755982988,0.5235987755982988,0,0.34631,1.3005927,0.04837854,-0.08017045,-0.02234722,1.3508707,0.06358316,-0.10568325,0.9005115,-1.5037178,0.5791978,-0.35239556,0.41726828,-0.57670444
-0.1,-0.2,0.8999999999999999,-0.5235987755982988,0.5235987755982988,0,0.52243656,1.3185649,0.102541305,-0.07376686,-0.20144844,1.2897849,-0.5318082,-0.10705732,0.90001947,-1.5031675,0.5794892,-0.3656986,0.41909227,-0.58453023
-0.1,-0.2,0.8999999999999999,-0.5235987755982988,0.5235987755982988,0,-0.43006736,1.3223025,-0.1236461,-0.07043783,-0.15276103,1.2750902,-0.3789396,-0.107225366,0.90124804,-1.5016658,0.5799351,-0.3423365,0.4153048,-0.7034436
-0.1,-0.2,0.8999999999999999,-0.5235987755982988,0.5235987755982988,0,-0.018408058,1.2775897,0.041572392,-0.09223431,-0.059665717,1.261054,-0.60430056,-0.10545447,0.900669,-1.5048348,0.57921094,-0.36262664,0.4104127,-0.6009906
-0.1,-0.2,0.8999999999999999,-0.5235987755982988,0.5235987755982988,0,-0.7165745,1.3281782,0.03991833,-0.12047981,0.043596096,1.2700062,-0.008866467,-0.10789701,0.90111053,-1.5051527,0.5792395,-0.35604185,0.41549394,-0.6628198
-0.1,-0.2,0.8999999999999999,-0.5235987755982988,0.5235987755982988,0,0.8082053,1.376931,0.02461422,-0.077817366,0.079321295,1.2311131,-0.36240774,-0.10676526,0.90100133,-1.5006906,0.5798694,-0.34441787,0.41551948,-0.5904685
-0.1,-0.2,0.8999999999999999,-0.5235987755982988,0.5235987755982988,0,-0.72634614,1.3127899,0.07204212,-0.0828473,-0.047954623,1.2671819,0.48054302,-0.106047645,0.9012297,-1.502538,0.5796285,-0.35856268,0.41794372,-0.629776
-0.1,-0.2,0.8999999999999999,-0.5235987755982988,0.5235987755982988,0,-0.04244208,1.3752093,0.03655795,-0.08052347,-0.17399529,1.2555707,0.83561856,-0.10718095,0.9007591,-1.5010576,0.579524,-0.35887137,0.41471022,-0.5269093
-0.1,-0.2,0.8999999999999999,-0.5235987755982988,0.5235987755982988,0,0.4884971,1.2780641,-0.0695394,-0.096220136,-0.13304175,1.3459978,0.9202029,-0.106100194,0.8998902,-1.50318,0.5795648,-0.36136287,0.41759476,-0.7414291
-0.1,-0.2,0.8999999999999999,-0.5235987755982988,0.5235987755982988,0,0.12676051,1.2705289,0.026318988,-0.08786083,0.1453819,1.2875556,-0.27338764,-0.10652845,0.9002631,-1.5044955,0.57952344,-0.35311553,0.41467702,-0.6377799
-0.1,-0.2,0.8999999999999999,-0.5235987755982988,0.5235987755982988,0,0.7184832,1.2178123,-0.087385654,-0.07504901,-0.032119177,1.238468,0.24489129,-0.10680301,0.9008991,-1.5026069,0.5796139,-0.36050174,0.4203423,-0.653271
-0.1,-0.2,0.8999999999999999,-0.5235987755982988,0.5235987755982988,0,-0.49750376,1.250557,0.04515926,-0.062087264,-0.10379876,1.2402413,-1.1909139,-0.10665442,0.90070784,-1.5049962,0.5793077,-0.35119298,0.4154126,-0.638277
-0.1,-0.2,0.8999999999999999,-0.5235987755982988,0.5235987755982988,0,-0.49903128,1.3373376,0.016378155,-0.092040814,-0.0016821236,1.283432,-0.13668829,-0.10648908,0.9008607,-1.5020096,0.57992697,-0.3454286,0.4168196,-0.6095269
-0.1,-0.2,0.8999999999999999,-0.5235987755982988,0.5235987755982988,0,-0.30725986,1.2522246,-0.012280377,-0.09094664,0.029264411,1.2496657,-0.64052486,-0.10599454,0.90061235,-1.5006895,0.5796463,-0.36626938,0.4194658,-0.62276524
-0.1,-0.2,0.8999999999999999,-0.5235987755982988,0.5235987755982988,0,0.32690886,1.3108376,0.04276557,-0.0768024,0.07231989,1.2197793,-0.40872774,-0.10724586,0.9003167,-1.5014529,0.5799879,-0.35469395,0.41900745,-0.6589634
-0.1,-0.2,0.8999999999999999,-0.5235987755982988,0.5235987755982988,0,0.58037734,1.2688688,-0.040594254,-0.07086604,0.02528986,1.2798061,-0.12034981,-0.106360324,0.90037054,-1.5039179,0.5796563,-0.3459097,0.41633946,-0.5559174
-0.1,-0.2,0.8999999999999999,-0.5235987755982988,0.5235987755982988,0,0.08188823,1.1609309,-0.11145246,-0.13560699,0.016879302,1.2301071,-0.767528,-0.10648133,0.9009385,-1.5032707,0.5801793,-0.34299397,0.4172306,-0.63879967
-0.1,-0.2,0.8999999999999999,-0.5235987755982988,0.5235987755982988,0,-0.5639306,1.2466668,-0.120000854,-0.102634974,0.02177528,1.2303407,1.1017268,-0.10605741,0.90029156,-1.5040414,0.5800768,-0.34150675,0.41674587,-0.63267297
-0.1,-0.2,0.8999999999999999,-0.5235987755982988,0.5235987755982988,0,-0.1084903,1.3568125,0.18323964,-0.08250652,0.15327145,1.320798,0.89597267,-0.10715727,0.90071344,-1.5033131,0.579019,-0.3474013,0.41773584,-0.57000256
-0.1,-0.2,0.8999999999999999,-0.5235987755982988,0.5235987755982988,0,0.055032603,1.3029975,-0.1368386,-0.045405276,0.07456763,1.3666253,-0.97401845,-0.106065415,0.9001099,-1.5024914,0.57977563,-0.3392012,0.41668054,-0.5555133
-0.1,-0.2,0.8999999999999999,-0.5235987755982988,0.5235987755982988,0,0.21768862,1.2661096,-0.07648292,-0.07695225,0.05556723,1.2854911,2.1031313,-0.10689067,0.9004649,-1.5055376,0.5796735,-0.3513929,0.4149384,-0.57713765
-0.1,-0.2,0.8999999999999999,-0.5235987755982988,0.5235987755982988,0,0.2841068,1.3292347,-0.07987484,-0.08871638,0.061424803,1.2729505,-0.64531493,-0.10721379,0.9010421,-1.4999866,0.5800017,-0.35551518,0.41785783,-0.6234411
-0.1,-0.2,0.8999999999999999,-0.5235987755982988,0.5235987755982988,0,-0.43390262,1.3039987,-0.0023388683,-0.122645505,0.13181937,1.2391757,-0.2611443,-0.105454534,0.9004087,-1.5038563,0.5789412,-0.34672162,0.41198274,-0.6236162
-0.1,-0.2,0.8999999999999999,-0.5235987755982988,0.5235987755982988,0,0.2177411,1.3517811,-0.12121831,-0.094739445,-0.12730677,1.2268609,0.19755702,-0.106143,0.8999158,-1.5042187,0.5793787,-0.33661994,0.41533262,-0.54117113
-0.1,-0.2,0.8999999999999999,-0.5235987755982988,0.5235987755982988,0,0.76443577,1.2876835,0.021300761,-0.08493678,-0.018914651,1.2984431,-0.9336417,-0.10662368,0.9010677,-1.5030754,0.57976013,-0.34080976,0.41644156,-0.7274884
-0.1,-0.2,0.8999999999999999,-0.5235987755982988,0.5235987755982988,0,0.56175005,1.3044953,0.060379904,-0.116066515,-0.040586285,1.2412522,1.224333,-0.106137246,0.900029,-1.5006042,0.5796458,-0.3603548,0.41437998,-0.5817246
-0.1,-0.2,0.8999999999999999,-0.5235987755982988,0.5235987755982988,0,-0.1329915,1.3569882,0.096342884,-0.107888654,-0.020547342,1.2763892,-0.26623136,-0.10684749,0.9002578,-1.5031836,0.57921636,-0.3463767,0.41538593,-0.61026305
-0.1,-0.2,0.8999999999999999,-0.5235987755982988,0.5235987755982988,0,0.17564118,1.3642114,-0.011829237,-0.082130425,-0.13914627,1.2311283,-0.77371496,-0.106839515,0.9006918,-1.5017562,0.57955873,-0.34435922,0.4107848,-0.6233469
-0.1,-0.2,0.8999999999999999,-0.5235987755982988,0.5235987755982988,0,-0.40885416,1.3074138,-0.0069129197,-0.06632422,-0.086445644,1.3050033,-0.7167449,-0.10524494,0.9009342,-1.5010402,0.5786401,-0.35257682,0.4175538,-0.65757257
-0.1,-0.2,0.8999999999999999,-0.5235987755982988,0.5235987755982988,0,-0.15244132,1.3036584,-0.051705867,-0.0869532,-0.11409068,1.332939,-1.7914275,-0.106780164,0.899932,-1.5043154,0.57934934,-0.3454942,0.41382366,-0.59659266
-0.1,-0.2,0.8999999999999999,-0.5235987755982988,0.5235987755982988,0,0.119239405,1.3242667,-0.01347926,-0.124597766,0.039971285,1.2694726,-0.080390714,-0.10686402,0.90069294,-1.5007231,0.57907474,-0.3365103,0.41649985,-0.70318377
-0.1,-0.2,0.8999999999999999,-0.5235987755982988,0.5235987755982988,0,-0.32409963,1.2459466,0.106855884,-0.10095393,-0.008715279,1.3134676,-0.22303717,-0.105684325,0.9009684,-1.5018897,0.578498,-0.35403228,0.4134529,-0.5372318
-0.1,-0.2,0.8999999999999999,-0.5235987755982988,0.5235987755982988,0,0.17046072,1.2254902,0.078502074,-0.056029197,0.005999048,1.3216648,-0.4162098,-0.107888736,0.9008612,-1.5027491,0.57889634,-0.34414363,0.41433054,-0.601151
-0.1,-0.2,0.8999999999999999,-0.5235987755982988,0.5235987755982988,0,0.28945813,1.3096846,0.031461075,-0.08726972,0.0067133633,1.3320318,1.5344417,-0.1069775,0.8997636,-1.5013288,0.5801268,-0.36128002,0.4145785,-0.5860578
-0.1,-0.2,0.8999999999999999,-0.5235987755982988,0.5235987755982988,0,-0.08105041,1.1899232,-0.02745363,-0.14298339,-0.03561724,1.2447108,0.673538,-0.10640498,0.90092814,-1.5017515,0.5792612,-0.34810975,0.41259283,-0.5609273
-0.1,-0.2,0.8999999999999999,-0.5235987755982988,0.5235987755982988,0,0.6150032,1.2606676,-0.010396359,-0.05333158,0.054473937,1.3805233,0.45617744,-0.10695294,0.9006179,-1.5025382,0.5795263,-0.3628515,0.4181875,-0.6386174
-0.1,-0.2,0.8999999999999999,-0.5235987755982988,0.5235987755982988,0,0.85301346,1.3710512,-0.07955725,-0.063679345,-0.050577562,1.253598,-0.90362185,-0.10596295,0.9014012,-1.5028888,0.5796621,-0.35092345,0.4159491,-0.59193426
-0.1,-0.2,0.8999999999999999,-0.5235987755982988,0.5235987755982988,0,0.9143255,1.3053927,-0.13634294,-0.11923856,0.08425264,1.2543036,-0.914522,-0.10662627,0.90045995,-1.5037849,0.5783923,-0.3488576,0.42101362,-0.6477697
-0.1,-0.2,0.8999999999999999,-0.5235987755982988,0.5235987755982988,0,0.07635225,1.3274152,0.07215199,-0.1299115,-0.10035833,1.2644917,-0.9709086,-0.10636433,0.8999433,-1.5017359,0.5790619,-0.34429896,0.41489416,-0.60503924
-0.1,-0.2,0.8999999999999999,-0.5235987755982988,0.5235987755982988,0,0.17935875,1.2602832,-0.009209028,-0.1409192,-0.0067308214,1.323853,-0.2044317,-0.106893905,0.900885,-1.5007735,0.5792546,-0.34790513,0.41462833,-0.65755147
-0.1,-0.2,0.8999999999999999,-0.5235987755982988,0.5235987755982988,0,0.35965455,1.2780665,-0.14490895,-0.081922196,0.004044947,1.2799555,0.1880315,-0.1067836,0.90056455,-1.5016706,0.5793875,-0.35613522,0.41695952,-0.58084416
-0.1,-0.2,0.8999999999999999,-0.5235987755982988,0.5235987755982988,0,0.22135879,1.289204,-0.0021538734,-0.0882099,0.090745606,1.2955064,-0.34384695,-0.10661565,0.90101355,-1.503558,0.57973117,-0.33935508,0.4146294,-0.5623145
-0.1,-0.2,0.8999999999999999,-0.5235987755982988,0.5235987755982988,0,1.7950742,1.2963171,-0.030890709,-0.13231823,-0.010490882,1.2756754,0.10046973,-0.10576674,0.90051764,-1.5023077,0.57964957,-0.35918483,0.41470948,-0.5826329
-0.1,-0.2,0.8999999999999999,-0.5235987755982988,0.5235987755982988,0,-0.30197197,1.3293624,0.096285604,-0.09536869,0.11158165,1.2895961,0.23701221,-0.10734219,0.9001501,-1.5039309,0.57969826,-0.34542206,0.41453165,-0.6564695
-0.1,-0.2,0.8999999999999999,-0.5235987755982988,0.5235987755982988,0,1.2662115,1.2213873,0.026335496,-0.089743435,-0.20500003,1.2659167,0.99821514,-0.10638737,0.9004402,-1.5035925,0.57942957,-0.3544449,0.41272223,-0.6024719
-0.1,-0.2,0.8999999999999999,-0.5235987755982988,0.5235987755982988,0,0.3022778,1.2570211,-0.1538371,-0.09781921,0.1214332,1.2940792,-0.229036,-0.10631152,0.9002018,-1.5011164,0.5789202,-0.3455625,0.41439268,-0.63648736
-0.1,-0.2,0.8999999999999999,-0.5235987755982988,0.5235987755982988,0,0.42366993,1.2584251,0.09323628,-0.06308611,-0.019691106,1.3615808,-1.1252522,-0.10690549,0.90065676,-1.5024945,0.57865584,-0.3430848,0.41502097,-0.5900459
-0.1,-0.2,0.8999999999999999,-0.5235987755982988,0.5235987755982988,0,0.5567286,1.3195872,-0.037883174,-0.05078084,0.06526742,1.2636052,0.83254105,-0.107136875,0.9007188,-1.5028359,0.5799568,-0.355038,0.41443646,-0.62834734
-0.1,-0.2,0.8999999999999999,-0.5235987755982988,0.5235987755982988,0,0.6219901,1.350944,0.09625277,-0.11213042,0.14989091,1.3132424,1.7262101,-0.10681001,0.900234,-1.5043503,0.5795455,-0.3487841,0.41587582,-0.60322684
-0.1,-0.2,0.8999999999999999,-0.5235987755982988,0.5235987755982988,0,0.58692497,1.1945682,0.048347022,-0.09214755,-0.2160003,1.2689404,1.2305894,-0.105890505,0.9005871,-1.5017165,0.5796089,-0.35296175,0.4168716,-0.5740499
-0.1,-0.2,0.8999999999999999,-0.5235987755982988,0.5235987755982988,0,0.35047486,1.2758836,0.08380752,-0.084650606,0.003869071,1.2514609,-1.0110185,-0.10666056,0.90161645,-1.5037404,0.57932687,-0.36909357,0.4151947,-0.5962241
-0.1,-0.2,0.8999999999999999,-0.5235987755982988,0.5235987755982988,0,0.11779035,1.2929062,-0.09374363,-0.09714525,0.19815491,1.3567282,-0.123219006,-0.106045365,0.90106654,-1.5025724,0.57968986,-0.34396753,0.41467264,-0.6684722
-0.1,-0.2,0.8999999999999999,-0.5235987755982988,0.5235987755982988,0,1.0074385,1.2769357,0.08108014,-0.072300434,0.11523036,1.2681392,-0.40859082,-0.1066217,0.9005259,-1.5015317,0.5790482,-0.34420833,0.4153165,-0.647785
-0.1,-0.2,0.8999999999999999,-0.5235987755982988,0.5235987755982988,0,0.15321496,1.268496,-0.077177204,-0.08797485,-0.11648387,1.2202193,0.6418245,-0.10687255,0.900531,-1.5047618,0.5793029,-0.35069382,0.41635245,-0.5850013
-0.1,-0.2,0.8999999999999999,-0.5235987755982988,0.5235987755982988,0,0.15033226,1.2333511,0.017951341,-0.11972616,-0.087064266,1.175175,-1.6344273,-0.10673634,0.90075,-1.5020204,0.579785,-0.35019475,0.41234973,-0.56090176
-0.1,-0.2,0.8999999999999999,-0.5235987755982988,0.5235987755982988,0,1.135408,1.3231256,-0.03416661,-0.067076765,-0.06843899,1.2713015,0.3108216,-0.10656122,0.9010152,-1.5026457,0.579098,-0.35528705,0.4130848,-0.4803448
-0.1,-0.2,0.8999999999999999,-0.5235987755982988,0.5235987755982988,0,-0.632022,1.255762,0.023169288,-0.06487023,0.040652942,1.3943737,0.5482092,-0.10645785,0.89989954,-1.5016145,0.57949275,-0.34558833,0.4152125,-0.5929409
-0.1,-0.2,0.8999999999999999,-0.5235987755982988,0.5235987755982988,0,-0.05336048,1.3060192,0.06456212,-0.108466156,-0.07164831,1.2310869,0.91531104,-0.10603854,0.90035486,-1.501368,0.5796591,-0.36253536,0.41413182,-0.55763817
-0.1,-0.2,0.8999999999999999,-0.5235987755982988,0.5235987755982988,0,-0.5060714,1.307304,0.11248995,-0.13435307,-0.14002538,1.2327063,-0.43559578,-0.105906,0.90011096,-1.5037861,0.5795537,-0.36107147,0.41717795,-0.5517862
-0.1,-0.2,0.8999999999999999,-0.5235987755982988,0.5235987755982988,0,0.063825764,1.3136032,-0.01914141,-0.07611518,-0.10705094,1.2864021,-0.56896925,-0.10664279,0.9003446,-1.502601,0.5796255,-0.3375428,0.41501087,-0.58865625
-0.1,-0.2,0.8999999999999999,-0.5235987755982988,0.5235987755982988,0,-0.3195848,1.2822882,-0.07266208,-0.12535146,-0.06865505,1.2985699,-0.13218392,-0.10611575,0.9008146,-1.5029157,0.5800935,-0.34629568,0.41509783,-0.64095587
-0.1,-0.2,0.8999999999999999,-0.5235987755982988,0.5235987755982988,0,0.3475608,1.3484809,-0.0037879306,-0.06729222,0.12890275,1.2117256,-0.07446069,-0.10556399,0.90077436,-1.5037792,0.58038855,-0.3459714,0.41534135,-0.62240535
-0.1,-0.2,0.8999999999999999,-0.5235987755982988,0.5235987755982988,0,1.4321175,1.2523471,-0.007841995,-0.10149407,-0.05082675,1.2772988,-1.318732,-0.10623774,0.9006073,-1.5015466,0.5796456,-0.35657284,0.41518605,-0.5988861
-0.1,-0.2,0.8999999999999999,-0.5235987755982988,0.5235987755982988,0,0.62576824,1.250644,0.15155618,-0.118235596,-0.012580677,1.3455734,0.05411736,-0.10690404,0.9001147,-1.5014814,0.5796842,-0.35489702,0.41509983,-0.5918437
-0.1,-0.2,0.8999999999999999,-0.5235987755982988,0.5235987755982988,0,-0.7432502,1.2851386,0.07252535,-0.10929392,-0.078863956,1.3006611,0.14942941,-0.10658362,0.9005658,-1.5030857,0.5800262,-0.35908836,0.41473973,-0.6440846
-0.1,-0.2,0.8999999999999999,-0.5235987755982988,0.5235987755982988,0,-0.16474387,1.3293191,0.11233747,-0.076017655,0.09282625,1.2947499,1.5527829,-0.10619185,0.90005803,-1.5045483,0.5797354,-0.3451389,0.41815567,-0.5996538
-0.1,-0.2,0.8999999999999999,-0.5235987755982988,0.5235987755982988,0,0.034633216,1.2933527,0.13744715,-0.025858883,0.15182117,1.3188127,-1.2315207,-0.10749743,0.9002187,-1.504456,0.5790305,-0.3597071,0.4167642,-0.59649974
-0.1,-0.2,0.8999999999999999,-0.5235987755982988,0.5235987755982988,0,-0.5956966,1.3048255,0.046740804,-0.078688525,-0.005490553,1.2411298,0.19274886,-0.105643846,0.90057874,-1.5029541,0.57929236,-0.3431219,0.4166603,-0.57735115
-0.1,-0.2,0.8999999999999999,-0.5235987755982988,0.5235987755982988,0,-0.52364165,1.2438421,0.10841861,-0.086415894,-0.08762807,1.2775329,0.22707847,-0.10780419,0.90027255,-1.5016239,0.57968944,-0.36385056,0.41583946,-0.64604837
-0.1,-0.2,0.8999999999999999,-0.5235987755982988,0.5235987755982988,0,-0.37338853,1.250662,-0.00430594,-0.12362841,0.11323488,1.3349093,-0.6519922,-0.10609985,0.8999776,-1.503623,0.5801521,-0.36275706,0.41622984,-0.5668739
-0.1,-0.2,0.8999999999999999,-0.5235987755982988,0.5235987755982988,0,-0.60722846,1.3094414,-0.11790814,-0.09735426,0.010011249,1.2374068,-0.118638396,-0.10697846,0.9006281,-1.5020001,0.57900286,-0.344424,0.41414377,-0.61586046
-0.1,-0.2,0.8999999999999999,-0.5235987755982988,0.5235987755982988,0,-0.030264063,1.3281174,-0.07486457,-0.047778185,0.06917214,1.2860559,0.71077204,-0.10550073,0.90068656,-1.4999654,0.57991207,-0.36300772,0.4144122,-0.5781673
-0.1,-0.2,0.8999999999999999,-0.5235987755982988,0.5235987755982988,0,0.11785031,1.2305309,-0.11646141,-0.11107339,0.076753534,1.2642207,0.9561009,-0.10599941,0.9007199,-1.5004059,0.5809883,-0.34934947,0.41289073,-0.6390343
-0.1,-0.2,0.8999999999999999,-0.5235987755982988,0.5235987755982988,0,0.18050973,1.3488659,0.07872035,-0.08526579,-0.099238075,1.3010348,-0.41128328,-0.10723156,0.8997141,-1.5025487,0.58002263,-0.34480917,0.41765237,-0.6637594
-0.1,-0.2,0.8999999999999999,-0.5235987755982988,0.5235987755982988,0,0.45210412,1.1643219,0.15063296,-0.07677021,-0.11241953,1.2368741,-1.0978271,-0.106878236,0.90118885,-1.5018735,0.58018047,-0.36556968,0.41491517,-0.65560895
-0.1,-0.2,0.8999999999999999,-0.5235987755982988,0.5235987755982988,0,-0.035238475,1.276516,0.16641532,-0.04648352,0.014666511,1.2758199,-0.7292731,-0.10658139,0.8998633,-1.501321,0.5789701,-0.3556103,0.41882086,-0.5358362
-0.1,-0.2,0.8999999999999999,-0.5235987755982988,0.5235987755982988,0,-0.12028056,1.2398733,0.028329283,-0.0933293,0.0817205,1.2819695,0.33692026,-0.10707302,0.90035236,-1.5014478,0.57958245,-0.34404528,0.418331,-0.6205936
-0.1,-0.2,0.8999999999999999,-0.5235987755982988,0.5235987755982988,0,0.39306036,1.3360481,-0.062596366,-0.063745454,-0.108064875,1.2388471,0.6813623,-0.10744594,0.9009743,-1.5016344,0.5795136,-0.34986004,0.41370088,-0.6425022
-0.1,-0.2,0.8999999999999999,-0.5235987755982988,0.5235987755982988,0,0.1574677,1.2927784,0.013214935,-0.09601647,-0.15845618,1.282795,0.097160056,-0.10577755,0.9005855,-1.5017325,0.5792939,-0.3624243,0.41399235,-0.58240163
-0.1,-0.2,0.8999999999999999,-0.5235987755982988,0.5235987755982988,0,0.597525,1.3094872,0.011403118,-0.11340729,-0.12016998,1.251783,-0.3462118,-0.106047936,0.9010565,-1.5014102,0.5788382,-0.35624364,0.41658294,-0.5633524
-0.1,-0.2,0.8999999999999999,-0.5235987755982988,0.5235987755982988,0,0.21919422,1.342618,-0.13743988,-0.083974846,0.11981162,1.3371421,0.67052567,-0.105587736,0.9003804,-1.5002981,0.5797033,-0.3564585,0.41760218,-0.58610606
-0.1,-0.2,0.8999999999999999,-0.5235987755982988,0.5235987755982988,0,-0.06825906,1.2673085,0.046521876,-0.053719413,-0.006255162,1.2698743,0.5955963,-0.10743592,0.89992845,-1.5029805,0.579357,-0.35330048,0.4137708,-0.5736721
-0.1,-0.2,0.8999999999999999,-0.5235987755982988,0.5235987755982988,0,-0.79064626,1.2817199,0.073118456,-0.08123411,0.025083372,1.2547451,1.3076309,-0.10488946,0.9002839,-1.5013579,0.5789964,-0.3483888,0.4154139,-0.6907489
-0.1,-0.2,0.8999999999999999,-0.5235987755982988,0.5235987755982988,0,-0.47474176,1.328027,-0.09629241,-0.12768976,-0.19090168,1.2608488,-1.626139,-0.10616432,0.90042233,-1.5010566,0.5799274,-0.34528932,0.4122688,-0.7416927
-0.1,-0.2,0.8999999999999999,-0.5235987755982988,0.5235987755982988,0,0.45034876,1.2639585,0.13483027,-0.078502335,-0.02184777,1.3328571,-1.9142663,-0.106771596,0.90089655,-1.5012012,0.5790799,-0.35535198,0.41508535,-0.5769249
-0.1,-0.2,0.8999999999999999,-0.5235987755982988,0.5235987755982988,0,0.9909502,1.3206623,-0.060237568,-0.08521218,-0.24781156,1.2763963,1.8918469,-0.10691383,0.89978415,-1.5010184,0.58032537,-0.3589094,0.41423467,-0.5683435
-0.1,-0.2,0.8999999999999999,-0.5235987755982988,0.5235987755982988,0,-0.20305905,1.3199244,0.077576965,-0.07909605,-0.11930882,1.2606696,0.562479,-0.10674175,0.9003344,-1.5033817,0.57931346,-0.34551445,0.41788137,-0.6446214
-0.1,-0.2,0.8999999999999999,-0.5235987755982988,0.5235987755982988,0,-0.35477084,1.2286915,-0.015373803,-0.049758382,-0.0746602,1.2247012,0.3865282,-0.10733699,0.9002268,-1.5004474,0.57975453,-0.35320687,0.41570818,-0.5609323
