sanky1234/BimanualDexCatch/isaacgymenvs/cem_results/football_pose_-0.2_-0.2_0.6_-0.5235987755982988_-0.5235987755982988_0.523598775598299.csv
x,y,z,roll,pitch,yaw,robot1/joint1,robot1/joint2,robot1/joint3,robot1/joint4,robot1/joint5,robot1/joint6,robot1/joint7,robot2/joint1,robot2/joint2,robot2/joint3,robot2/joint4,robot2/joint5,robot2/joint6,robot2/joint7
-0.2,-0.2,0.6,-0.5235987755982988,-0.5235987755982988,0.523598775598299,1.1479611,1.533822,0.2809631,0.46628198,0.17871593,0.48233345,0.23789604,-0.34632403,1.5465105,-0.31791097,-0.60919034,-0.062225826,1.3213639,1.5038877
-0.2,-0.2,0.6,-0.5235987755982988,-0.5235987755982988,0.523598775598299,1.1257432,1.5340729,0.2710896,0.48163268,0.19525485,0.48850974,0.1440041,-0.35139322,1.5422522,-0.31478956,-0.62631255,-0.073167905,1.3233875,1.6595845
-0.2,-0.2,0.6,-0.5235987755982988,-0.5235987755982988,0.523598775598299,1.1553885,1.5337623,0.27987096,0.45334384,0.27881,0.48837763,0.30347973,-0.34396106,1.5408437,-0.32822222,-0.6367306,-0.0017998008,1.304498,1.5083802
-0.2,-0.2,0.6,-0.5235987755982988,-0.5235987755982988,0.523598775598299,1.1636759,1.537082,0.26516178,0.45344037,0.19529696,0.48776084,0.35801107,-0.344835,1.5335766,-0.32084015,-0.6726248,-0.0563401,1.3125103,1.6262753
-0.2,-0.2,0.6,-0.5235987755982988,-0.5235987755982988,0.523598775598299,1.1495705,1.5431331,0.28436336,0.4540814,0.21319526,0.4789045,0.24781094,-0.359252,1.5337961,-0.30890542,-0.6606687,0.026184093,1.317398,1.7094182
-0.2,-0.2,0.6,-0.5235987755982988,-0.5235987755982988,0.523598775598299,1.1595525,1.5443349,0.2729423,0.45230606,0.26332033,0.49270445,0.3827904,-0.34537417,1.5342052,-0.3011719,-0.6436001,-0.08764204,1.345015,1.5329081
-0.2,-0.2,0.6,-0.5235987755982988,-0.5235987755982988,0.523598775598299,1.1242746,1.5255456,0.26379243,0.4922793,0.19868143,0.48013434,0.19911167,-0.34347802,1.5463061,-0.32180086,-0.6467023,-0.066160984,1.3457048,1.6587033
-0.2,-0.2,0.6,-0.5235987755982988,-0.5235987755982988,0.523598775598299,1.098269,1.5257558,0.2674876,0.44086742,0.25493538,0.49834067,0.261036,-0.34703255,1.5409865,-0.31294057,-0.71123224,-0.06118025,1.3367099,1.5903783
-0.2,-0.2,0.6,-0.5235987755982988,-0.5235987755982988,0.523598775598299,1.1283523,1.5336716,0.27593756,0.44546393,0.16391666,0.50024647,0.25280264,-0.34602115,1.5437417,-0.32329908,-0.6754179,-0.056999985,1.3135316,1.4713668
-0.2,-0.2,0.6,-0.5235987755982988,-0.5235987755982988,0.523598775598299,1.1212385,1.5260403,0.26485962,0.46384755,0.17831895,0.5031231,0.3168599,-0.3512224,1.5408832,-0.32604042,-0.5752471,-0.013295506,1.3241915,1.7597836
-0.2,-0.2,0.6,-0.5235987755982988,-0.5235987755982988,0.523598775598299,1.1370226,1.5359278,0.26545423,0.46896803,0.20584154,0.503361,0.26010695,-0.32713127,1.5460808,-0.2931185,-0.64131755,-0.039596774,1.3071245,1.6556621
-0.2,-0.2,0.6,-0.5235987755982988,-0.5235987755982988,0.523598775598299,1.1119525,1.535636,0.27293438,0.47532156,0.21896148,0.49965206,0.3112019,-0.34141517,1.5435066,-0.29095715,-0.64793307,0.019376753,1.3036878,1.5309896
-0.2,-0.2,0.6,-0.5235987755982988,-0.5235987755982988,0.523598775598299,1.1707519,1.5258482,0.27370706,0.4452589,0.24023691,0.49234632,0.25911543,-0.34298417,1.5268873,-0.32401797,-0.59825444,-0.012280024,1.3000427,1.6489537
-0.2,-0.2,0.6,-0.5235987755982988,-0.5235987755982988,0.523598775598299,1.1479577,1.5375865,0.2780453,0.44238383,0.15655093,0.4901322,0.3135404,-0.34956458,1.5372236,-0.29320538,-0.63773876,-0.08539404,1.3368737,1.6229542
-0.2,-0.2,0.6,-0.5235987755982988,-0.5235987755982988,0.523598775598299,1.1279477,1.5228419,0.26121315,0.43960047,0.27306685,0.48852196,0.21425667,-0.34901467,1.53739,-0.3049073,-0.6603705,0.0072151613,1.3341086,1.6224804
-0.2,-0.2,0.6,-0.5235987755982988,-0.5235987755982988,0.523598775598299,1.1315984,1.5285386,0.26608267,0.44455254,0.20563234,0.486895,0.28653196,-0.3474031,1.540912,-0.2939788,-0.6660912,-0.027858278,1.330218,1.6368469
-0.2,-0.2,0.6,-0.5235987755982988,-0.5235987755982988,0.523598775598299,1.1973736,1.5287147,0.27387413,0.45631352,0.19127975,0.48055446,0.29591694,-0.36234468,1.5342813,-0.33292258,-0.62920105,-0.029834732,1.2957212,1.6065398
-0.2,-0.2,0.6,-0.5235987755982988,-0.5235987755982988,0.523598775598299,1.1558976,1.5457947,0.2791744,0.43744114,0.19966312,0.48742214,0.26898086,-0.33634084,1.5406071,-0.3322343,-0.6039115,-0.08644554,1.2764667,1.545689
-0.2,-0.2,0.6,-0.5235987755982988,-0.5235987755982988,0.523598775598299,1.168898,1.5368454,0.27491146,0.45600718,0.24668658,0.48870087,0.25725433,-0.34555158,1.532851,-0.29627925,-0.62365466,-0.028733611,1.302432,1.7171313
-0.2,-0.2,0.6,-0.5235987755982988,-0.5235987755982988,0.523598775598299,1.1343627,1.5268853,0.2797252,0.43315658,0.20970006,0.49432296,0.34837845,-0.34784666,1.547606,-0.29095003,-0.68149656,-0.06862456,1.3214068,1.6534495
-0.2,-0.2,0.6,-0.5235987755982988,-0.5235987755982988,0.523598775598299,1.1031065,1.5446742,0.27643093,0.45886698,0.22931707,0.49536636,0.2377882,-0.34705898,1.53644,-0.29704964,-0.6523692,-0.04359948,1.3167336,1.4442787
-0.2,-0.2,0.6,-0.5235987755982988,-0.5235987755982988,0.523598775598299,1.1729666,1.5291674,0.27613008,0.4713325,0.1327534,0.4820412,0.33633947,-0.36285746,1.5452362,-0.32144138,-0.67258036,-0.06873204,1.3016549,1.749391
-0.2,-0.2,0.6,-0.5235987755982988,-0.5235987755982988,0.523598775598299,1.133504,1.5301374,0.26235837,0.45883355,0.24309261,0.49226958,0.25675815,-0.34848905,1.5421895,-0.31566793,-0.6816998,-0.056697752,1.343393,1.6003296
-0.2,-0.2,0.6,-0.5235987755982988,-0.5235987755982988,0.523598775598299,1.124823,1.540898,0.27050516,0.46008113,0.1593026,0.49625033,0.14885175,-0.35076943,1.5403962,-0.32079902,-0.7278006,-0.052380126,1.2920256,1.5555407
-0.2,-0.2,0.6,-0.5235987755982988,-0.5235987755982988,0.523598775598299,1.1719099,1.5352225,0.26855105,0.45476058,0.20427266,0.4708723,0.2607358,-0.34211266,1.5330054,-0.2946335,-0.6392299,-0.07144486,1.3251245,1.6341928
-0.2,-0.2,0.6,-0.5235987755982988,-0.5235987755982988,0.523598775598299,1.0779943,1.5312545,0.25587016,0.48070464,0.1944498,0.5033463,0.30688825,-0.34608516,1.536241,-0.29343763,-0.63592535,-0.030851785,1.3263321,1.7368081
-0.2,-0.2,0.6,-0.5235987755982988,-0.5235987755982988,0.523598775598299,1.132845,1.5500734,0.27225426,0.41608533,0.19827525,0.49915427,0.27057102,-0.35086325,1.5413598,-0.30179608,-0.6636897,-0.025375964,1.2792104,1.6111795
-0.2,-0.2,0.6,-0.5235987755982988,-0.5235987755982988,0.523598775598299,1.1450725,1.5415325,0.2766558,0.470198,0.1802696,0.48229524,0.21805105,-0.34498852,1.5354387,-0.3195511,-0.64031434,-0.07285298,1.301915,1.6033329
-0.2,-0.2,0.6,-0.5235987755982988,-0.5235987755982988,0.523598775598299,1.062663,1.5364347,0.27398303,0.4715954,0.14199574,0.49490467,0.25033447,-0.35308886,1.5314494,-0.312377,-0.623251,0.0003151331,1.304513,1.7246623
-0.2,-0.2,0.6,-0.5235987755982988,-0.5235987755982988,0.523598775598299,1.169956,1.5317774,0.26190138,0.4690188,0.26499593,0.50767946,0.22200768,-0.3485405,1.5450088,-0.27185085,-0.6333514,-0.04863504,1.3200172,1.782073
-0.2,-0.2,0.6,-0.5235987755982988,-0.5235987755982988,0.523598775598299,1.1704051,1.5288494,0.2704396,0.43421125,0.27135003,0.49781385,0.28133646,-0.34055477,1.5425733,-0.3430345,-0.6429675,-0.055392787,1.3103845,1.6096047
-0.2,-0.2,0.6,-0.5235987755982988,-0.5235987755982988,0.523598775598299,1.1528541,1.5425134,0.27081236,0.45637983,0.31346905,0.4771678,0.27115703,-0.33831918,1.5448682,-0.29414716,-0.66996217,-0.10479848,1.318927,1.5788058
-0.2,-0.2,0.6,-0.5235987755982988,-0.5235987755982988,0.523598775598299,1.136003,1.5264103,0.25662506,0.4570849,0.24034189,0.47548681,0.1777678,-0.35339308,1.5392686,-0.3254439,-0.6598535,-0.058054157,1.3124986,1.7825613
-0.2,-0.2,0.6,-0.5235987755982988,-0.5235987755982988,0.523598775598299,1.1062791,1.5273026,0.27014747,0.44407442,0.2747114,0.48254186,0.33871484,-0.34930953,1.5375496,-0.30124414,-0.6660169,-0.030445687,1.3274277,1.4387133
-0.2,-0.2,0.6,-0.5235987755982988,-0.5235987755982988,0.523598775598299,1.1560476,1.5431799,0.27581918,0.45719838,0.2295689,0.49203536,0.28600597,-0.35111424,1.5374972,-0.31653816,-0.62486374,-0.04356891,1.30869,1.6569842
-0.2,-0.2,0.6,-0.5235987755982988,-0.5235987755982988,0.523598775598299,1.101474,1.5364146,0.26301497,0.48145732,0.25603372,0.48138386,0.2406982,-0.34737533,1.5338774,-0.30582473,-0.6892483,-0.05750065,1.2763373,1.5825635
-0.2,-0.2,0.6,-0.5235987755982988,-0.5235987755982988,0.523598775598299,1.1465312,1.5335417,0.27889615,0.4853399,0.23684454,0.50184435,0.33477435,-0.3527784,1.5276332,-0.31009963,-0.6097974,-0.096819706,1.2951164,1.5689139
-0.2,-0.2,0.6,-0.5235987755982988,-0.5235987755982988,0.523598775598299,1.1153817,1.535906,0.27558547,0.47893366,0.20656312,0.4946241,0.3466729,-0.34477103,1.5517676,-0.34293145,-0.58759075,-0.018122572,1.296945,1.567219
-0.2,-0.2,0.6,-0.5235987755982988,-0.5235987755982988,0.523598775598299,1.1550372,1.5382799,0.27629575,0.4775921,0.23881634,0.49568352,0.17629097,-0.35849196,1.5350965,-0.2972692,-0.65119934,-0.05081457,1.3132945,1.5948223
-0.2,-0.2,0.6,-0.5235987755982988,-0.5235987755982988,0.523598775598299,1.1674031,1.533442,0.27845705,0.46239185,0.16458376,0.48159555,0.29558668,-0.3385568,1.5420325,-0.30811736,-0.6369903,-0.056286946,1.3428302,1.7260864
-0.2,-0.2,0.6,-0.5235987755982988,-0.5235987755982988,0.523598775598299,1.1696746,1.5320507,0.27965793,0.47419277,0.20161583,0.49566936,0.29291245,-0.34617314,1.5413833,-0.30637798,-0.65518594,-0.04179954,1.3119255,1.600214
-0.2,-0.2,0.6,-0.5235987755982988,-0.5235987755982988,0.523598775598299,1.1154174,1.5445772,0.26976702,0.44189343,0.2430952,0.49435446,0.26785654,-0.34726182,1.5381274,-0.32757214,-0.6497483,0.004014345,1.301903,1.5942967
-0.2,-0.2,0.6,-0.5235987755982988,-0.5235987755982988,0.523598775598299,1.1309135,1.5369003,0.28598848,0.41923654,0.26314673,0.48744097,0.31767416,-0.34068596,1.5475813,-0.29436743,-0.6734027,-0.07556612,1.3240181,1.5293148
-0.2,-0.2,0.6,-0.5235987755982988,-0.5235987755982988,0.523598775598299,1.1268649,1.5362141,0.280604,0.45254284,0.2024677,0.48499316,0.33883855,-0.34334314,1.5539178,-0.31408262,-0.63304865,-0.11480126,1.2965589,1.6104636
-0.2,-0.2,0.6,-0.5235987755982988,-0.5235987755982988,0.523598775598299,1.1270955,1.5358411,0.27908856,0.45187563,0.19710088,0.49160963,0.24000485,-0.34286442,1.5474546,-0.28802788,-0.6609862,-0.020802947,1.319113,1.6094186
-0.2,-0.2,0.6,-0.5235987755982988,-0.5235987755982988,0.523598775598299,1.153307,1.5435709,0.27140778,0.4609841,0.20448397,0.48756123,0.31379375,-0.3439085,1.5400476,-0.29077995,-0.6555473,-0.022945857,1.3011112,1.550303
-0.2,-0.2,0.6,-0.5235987755982988,-0.5235987755982988,0.523598775598299,1.1420904,1.5232532,0.27426273,0.434097,0.29321176,0.5016672,0.2752387,-0.34751055,1.5449296,-0.3260625,-0.6299794,-0.040674932,1.3001248,1.4459239
-0.2,-0.2,0.6,-0.5235987755982988,-0.5235987755982988,0.523598775598299,1.0992532,1.547987,0.2783382,0.45268854,0.28423506,0.47160178,0.37695402,-0.3375926,1.5286363,-0.30045694,-0.70413536,-0.011915561,1.301359,1.6506178
-0.2,-0.2,0.6,-0.5235987755982988,-0.5235987755982988,0.523598775598299,1.144289,1.5319803,0.2816451,0.470244,0.20996825,0.48183888,0.2752705,-0.3568357,1.5361494,-0.2818575,-0.6770527,-0.06088156,1.3062388,1.6839207
-0.2,-0.2,0.6,-0.5235987755982988,-0.5235987755982988,0.523598775598299,1.0878522,1.5243363,0.28840327,0.4575487,0.2470804,0.47736087,0.26446655,-0.34704965,1.5504855,-0.337252,-0.69717276,0.0039813817,1.3073695,1.7761929
-0.2,-0.2,0.6,-0.5235987755982988,-0.5235987755982988,0.523598775598299,1.1342176,1.5355331,0.2591115,0.49465147,0.155611,0.45978135,0.252798,-0.35320157,1.5348657,-0.2659628,-0.6002368,-0.021365125,1.3298374,1.709385
-0.2,-0.2,0.6,-0.5235987755982988,-0.5235987755982988,0.523598775598299,1.144492,1.5318781,0.27871943,0.43213663,0.19854945,0.48436794,0.26393792,-0.3395746,1.5464255,-0.33272144,-0.65166026,-0.036080256,1.2752147,1.5382283
-0.2,-0.2,0.6,-0.5235987755982988,-0.5235987755982988,0.523598775598299,1.1508138,1.5377414,0.26900208,0.4690124,0.15891904,0.4887956,0.19183002,-0.3460124,1.5426073,-0.31040767,-0.6368959,-0.044849433,1.3165182,1.4611797
-0.2,-0.2,0.6,-0.5235987755982988,-0.5235987755982988,0.523598775598299,1.1638933,1.5328063,0.27342814,0.47891143,0.17826968,0.5022023,0.22429663,-0.33321816,1.5384207,-0.3076389,-0.6948863,-0.063725494,1.3146772,1.7555573
-0.2,-0.2,0.6,-0.5235987755982988,-0.5235987755982988,0.523598775598299,1.1390299,1.5357974,0.27253568,0.46372867,0.23434985,0.4860449,0.32157135,-0.3658123,1.5517576,-0.33810896,-0.6411928,-0.057751574,1.2957056,1.7466291
-0.2,-0.2,0.6,-0.5235987755982988,-0.5235987755982988,0.523598775598299,1.0754353,1.5362285,0.27878597,0.46728086,0.20948298,0.47587675,0.20802408,-0.35568744,1.5398433,-0.2781469,-0.655054,-0.030712938,1.2967572,1.6192068
-0.2,-0.2,0.6,-0.5235987755982988,-0.5235987755982988,0.523598775598299,1.1303447,1.5242907,0.27778164,0.44325304,0.16838883,0.49165064,0.2898319,-0.35175577,1.53117,-0.3250126,-0.64833397,-0.032721315,1.2964737,1.5543957
-0.2,-0.2,0.6,-0.5235987755982988,-0.5235987755982988,0.523598775598299,1.1417631,1.5323908,0.27583042,0.4744552,0.18091829,0.48414057,0.26248115,-0.3363653,1.5412678,-0.28083873,-0.6327082,-0.088162564,1.3377997,1.6104857
-0.2,-0.2,0.6,-0.5235987755982988,-0.5235987755982988,0.523598775598299,1.1357574,1.5479299,0.26385897,0.45176753,0.22752109,0.4899212,0.2158586,-0.35817435,1.54943,-0.3152463,-0.6492672,-0.049739074,1.2847251,1.5826079
-0.2,-0.2,0.6,-0.5235987755982988,-0.5235987755982988,0.523598775598299,1.1707205,1.5390476,0.27566564,0.4542834,0.21854894,0.48674256,0.21480769,-0.3409161,1.5374851,-0.32874626,-0.6908275,-0.06453202,1.2986615,1.6000059
-0.2,-0.2,0.6,-0.5235987755982988,-0.5235987755982988,0.523598775598299,1.1291397,1.5398635,0.271114,0.44166106,0.26873347,0.5055895,0.20253533,-0.35597202,1.5466237,-0.28120607,-0.59045154,-0.049774814,1.3202484,1.5657935
-0.2,-0.2,0.6,-0.5235987755982988,-0.5235987755982988,0.523598775598299,1.1790309,1.5380988,0.269636,0.5034535,0.2359283,0.49444228,0.23937619,-0.35138088,1.5445999,-0.2948395,-0.61836046,-0.022015752,1.3501174,1.5934026
-0.2,-0.2,0.6,-0.5235987755982988,-0.5235987755982988,0.523598775598299,1.1165556,1.5222723,0.27345255,0.4933118,0.18908346,0.4774547,0.27237904,-0.34751213,1.534621,-0.30460694,-0.6692645,-0.0152399,1.3324764,1.6133908
-0.2,-0.2,0.6,-0.5235987755982988,-0.5235987755982988,0.523598775598299,1.1218661,1.5202031,0.28421748,0.45875716,0.21503583,0.49481416,0.28583917,-0.34755793,1.55043,-0.34659404,-0.648093,-0.030204168,1.3074685,1.6181376
-0.2,-0.2,0.6,-0.5235987755982988,-0.5235987755982988,0.523598775598299,1.1516428,1.5353913,0.2643646,0.45414168,0.19662093,0.4788257,0.21262981,-0.3542569,1.5418615,-0.34796184,-0.7009475,-0.03087068,1.3212438,1.6707256
-0.2,-0.2,0.6,-0.5235987755982988,-0.5235987755982988,0.523598775598299,1.1431025,1.5338134,0.27823243,0.4428993,0.23704182,0.4894798,0.34186664,-0.3314293,1.5477198,-0.298964,-0.62527555,-0.1166644,1.2984942,1.7144893
-0.2,-0.2,0.6,-0.5235987755982988,-0.5235987755982988,0.523598775598299,1.1286578,1.5307821,0.2709917,0.49579436,0.19949771,0.48801562,0.15727358,-0.34342173,1.5349096,-0.3107622,-0.60202676,-0.011199477,1.3086013,1.5516325
-0.2,-0.2,0.6,-0.5235987755982988,-0.5235987755982988,0.523598775598299,1.1088215,1.5285293,0.27269334,0.49455023,0.19979547,0.4920617,0.28837305,-0.34073284,1.5408078,-0.2937866,-0.61785674,-0.07118284,1.3072687,1.6269208
-0.2,-0.2,0.6,-0.5235987755982988,-0.5235987755982988,0.523598775598299,1.1213357,1.5375851,0.28130564,0.45174485,0.17439751,0.509225,0.3298724,-0.34970352,1.5448058,-0.29867414,-0.66699284,-0.03970185,1.3274847,1.5369987
-0.2,-0.2,0.6,-0.5235987755982988,-0.5235987755982988,0.523598775598299,1.1557677,1.5273122,0.27759916,0.4906851,0.23611408,0.50188065,0.27359846,-0.34099132,1.5310733,-0.29841188,-0.61085075,-0.07067185,1.3286036,1.6657466
-0.2,-0.2,0.6,-0.5235987755982988,-0.5235987755982988,0.523598775598299,1.1547201,1.5455284,0.28757644,0.4413914,0.26147237,0.48770627,0.15509945,-0.34004217,1.5520154,-0.29397812,-0.65242654,-0.067297965,1.3178989,1.516494
-0.2,-0.2,0.6,-0.5235987755982988,-0.5235987755982988,0.523598775598299,1.1703455,1.5337095,0.2616224,0.47205487,0.19665039,0.49629492,0.27892765,-0.34756967,1.545277,-0.32009527,-0.6825132,-0.041070867,1.2874392,1.5585227
-0.2,-0.2,0.6,-0.5235987755982988,-0.5235987755982988,0.523598775598299,1.1425239,1.5296482,0.27452466,0.4502106,0.19789611,0.5084768,0.3593814,-0.34001434,1.5523075,-0.3050004,-0.62343943,-0.062169045,1.2959703,1.552683
-0.2,-0.2,0.6,-0.5235987755982988,-0.5235987755982988,0.523598775598299,1.1246631,1.539942,0.28260008,0.46695742,0.19325535,0.47554734,0.17792407,-0.34613562,1.5436689,-0.35113552,-0.65116096,-0.02127664,1.3342782,1.6120588
-0.2,-0.2,0.6,-0.5235987755982988,-0.5235987755982988,0.523598775598299,1.121124,1.5367328,0.26464602,0.47524038,0.19017442,0.5058523,0.18722555,-0.3492132,1.5473502,-0.30427328,-0.5953006,-0.03813731,1.3179196,1.6536355
-0.2,-0.2,0.6,-0.5235987755982988,-0.5235987755982988,0.523598775598299,1.130431,1.5330882,0.268926,0.4539038,0.16816096,0.49822813,0.34336182,-0.3543196,1.5579659,-0.28810158,-0.6305003,-0.010638844,1.305465,1.601617
-0.2,-0.2,0.6,-0.5235987755982988,-0.5235987755982988,0.523598775598299,1.1390173,1.5483991,0.25736514,0.43904397,0.1907713,0.47445738,0.30090025,-0.34495738,1.540365,-0.31969497,-0.6580085,-0.04349173,1.3306397,1.6591959
-0.2,-0.2,0.6,-0.5235987755982988,-0.5235987755982988,0.523598775598299,1.1486424,1.530996,0.27289775,0.45275086,0.28687528,0.47965807,0.29990533,-0.3390819,1.5520306,-0.3273835,-0.6068341,-0.044271857,1.3162763,1.5760729
-0.2,-0.2,0.6,-0.5235987755982988,-0.5235987755982988,0.523598775598299,1.1488112,1.5450337,0.27536654,0.48794532,0.2011519,0.48408097,0.31172842,-0.3500905,1.5538694,-0.32612684,-0.6530133,-0.06270032,1.3074824,1.7263961
-0.2,-0.2,0.6,-0.5235987755982988,-0.5235987755982988,0.523598775598299,1.1513013,1.538416,0.2696932,0.45706803,0.2010207,0.49850002,0.26839224,-0.35402435,1.5450264,-0.32586536,-0.65862393,-0.05366899,1.3137352,1.6970096
-0.2,-0.2,0.6,-0.5235987755982988,-0.5235987755982988,0.523598775598299,1.1125706,1.5414995,0.27409887,0.44530118,0.2426409,0.50441355,0.27090126,-0.35080287,1.5469176,-0.2974879,-0.6244052,-0.05827924,1.3142064,1.5139103
-0.2,-0.2,0.6,-0.5235987755982988,-0.5235987755982988,0.523598775598299,1.1197158,1.5239154,0.28174895,0.4925597,0.2130791,0.48677224,0.3889101,-0.35350624,1.5414324,-0.32726753,-0.59426636,-0.06828234,1.3035244,1.6517365
-0.2,-0.2,0.6,-0.5235987755982988,-0.5235987755982988,0.523598775598299,1.1593901,1.5231105,0.26596507,0.48859605,0.18107224,0.504672,0.24727573,-0.3548778,1.5456166,-0.31538188,-0.60514677,-0.014696361,1.292407,1.5272763
-0.2,-0.2,0.6,-0.5235987755982988,-0.5235987755982988,0.523598775598299,1.1409396,1.5293689,0.26196122,0.44938698,0.2061762,0.49273917,0.24815336,-0.34787524,1.5401475,-0.3007973,-0.6471163,-0.05601083,1.3155288,1.6650684
-0.2,-0.2,0.6,-0.5235987755982988,-0.5235987755982988,0.523598775598299,1.1393209,1.5378193,0.26218656,0.4478752,0.22747363,0.48702684,0.26356286,-0.35219058,1.5518928,-0.30651462,-0.6731211,-0.06671247,1.3244032,1.5586267
-0.2,-0.2,0.6,-0.5235987755982988,-0.5235987755982988,0.523598775598299,1.1098617,1.5386896,0.27654806,0.43786067,0.14655228,0.4779011,0.23440157,-0.34031755,1.5292199,-0.29802027,-0.6807351,-0.1045487,1.3155298,1.671266
-0.2,-0.2,0.6,-0.5235987755982988,-0.5235987755982988,0.523598775598299,1.1723222,1.530871,0.29011148,0.45021737,0.22337657,0.48491392,0.17778067,-0.3504345,1.5411524,-0.30947077,-0.6569488,-0.025546297,1.3313404,1.5102674
-0.2,-0.2,0.6,-0.5235987755982988,-0.5235987755982988,0.523598775598299,1.139007,1.5321753,0.28354916,0.4705102,0.19195299,0.4929688,0.30990446,-0.3442336,1.5465671,-0.28704146,-0.6745443,-0.03594621,1.3311795,1.5762038
-0.2,-0.2,0.6,-0.5235987755982988,-0.5235987755982988,0.523598775598299,1.1637291,1.5410147,0.27782655,0.4291765,0.1911544,0.49365228,0.30525073,-0.35384843,1.5455061,-0.3079146,-0.6624156,-0.0591136,1.2997897,1.7240609
-0.2,-0.2,0.6,-0.5235987755982988,-0.5235987755982988,0.523598775598299,1.1024759,1.5350002,0.27308497,0.49736297,0.19164631,0.46838474,0.26284993,-0.355807,1.544033,-0.28436348,-0.60390556,-0.0011128056,1.2967225,1.6815963
-0.2,-0.2,0.6,-0.5235987755982988,-0.5235987755982988,0.523598775598299,1.1557001,1.5342749,0.28385672,0.4805911,0.25980446,0.49937087,0.26726553,-0.34498352,1.5390114,-0.2921516,-0.5758264,-0.035351217,1.313334,1.6700737
-0.2,-0.2,0.6,-0.5235987755982988,-0.5235987755982988,0.523598775598299,1.1347324,1.5350134,0.2799468,0.44396517,0.15461165,0.4901714,0.2994833,-0.34611592,1.5470558,-0.30047354,-0.6743492,-0.08912001,1.3256733,1.6425418
-0.2,-0.2,0.6,-0.5235987755982988,-0.5235987755982988,0.523598775598299,1.108638,1.5415735,0.27366936,0.43607578,0.23725419,0.49309272,0.17605416,-0.3546558,1.5451547,-0.3095259,-0.6879074,-0.053546086,1.3333249,1.5107251
-0.2,-0.2,0.6,-0.5235987755982988,-0.5235987755982988,0.523598775598299,1.1279427,1.5318424,0.26670417,0.44936544,0.15255772,0.5123029,0.265518,-0.3505392,1.5455834,-0.2943134,-0.6754624,-0.04180379,1.3370315,1.6380446
-0.2,-0.2,0.6,-0.5235987755982988,-0.5235987755982988,0.523598775598299,1.1258287,1.5339489,0.27054498,0.48105943,0.28605247,0.4878986,0.20676611,-0.33810222,1.5441512,-0.27602145,-0.6800218,-0.060982786,1.3221512,1.6188197
-0.2,-0.2,0.6,-0.5235987755982988,-0.5235987755982988,0.523598775598299,1.1347073,1.5314213,0.27643758,0.44709378,0.20438753,0.466102,0.28511748,-0.34419224,1.5285306,-0.29556808,-0.6405581,-0.0948345,1.3186672,1.5368677
-0.2,-0.2,0.6,-0.5235987755982988,-0.5235987755982988,0.523598775598299,1.1369649,1.5338773,0.28101984,0.45710847,0.19698662,0.49018312,0.26972076,-0.3435108,1.5523671,-0.30885854,-0.63167614,-0.09166228,1.2837343,1.6010609
-0.2,-0.2,0.6,-0.5235987755982988,-0.5235987755982988,0.523598775598299,1.1710671,1.55518,0.2783618,0.44733268,0.25321913,0.49403825,0.27519694,-0.34031308,1.5429206,-0.31823975,-0.67216635,-0.044690885,1.2881658,1.5494266
-0.2,-0.2,0.6,-0.5235987755982988,-0.5235987755982988,0.523598775598299,1.1581397,1.5415832,0.28178793,0.45308897,0.17450848,0.49389878,0.24518375,-0.3372235,1.5561087,-0.28952923,-0.6652859,-0.029289192,1.3507106,1.4358042
-0.2,-0.2,0.6,-0.5235987755982988,-0.5235987755982988,0.523598775598299,1.1740203,1.5424299,0.27273232,0.4564951,0.2229104,0.48688167,0.33908233,-0.35413435,1.534064,-0.2933588,-0.61318845,-0.046187565,1.3115793,1.5409275
-0.2,-0.2,0.6,-0.5235987755982988,-0.5235987755982988,0.523598775598299,1.1336614,1.5478643,0.26079348,0.47070354,0.2845641,0.4820427,0.21195129,-0.3626524,1.53242,-0.31953332,-0.61360526,0.0100555625,1.2994032,1.5554144
-0.2,-0.2,0.6,-0.5235987755982988,-0.5235987755982988,0.523598775598299,1.1459627,1.5331782,0.27556938,0.47786266,0.23342505,0.49916995,0.29612458,-0.35196698,1.5423131,-0.3047587,-0.6556864,-0.07256958,1.32068,1.7726929
-0.2,-0.2,0.6,-0.5235987755982988,-0.5235987755982988,0.523598775598299,1.1141132,1.5266204,0.2625675,0.47526532,0.12213791,0.50837445,0.29838213,-0.3439181,1.5432596,-0.3254955,-0.63104784,-0.054690823,1.325697,1.6843628
-0.2,-0.2,0.6,-0.5235987755982988,-0.5235987755982988,0.523598775598299,1.1203227,1.5297059,0.26953638,0.47011042,0.21451882,0.49658978,0.18026417,-0.34342942,1.5477394,-0.29570568,-0.6129581,-0.0132807,1.3181819,1.6646866
-0.2,-0.2,0.6,-0.5235987755982988,-0.5235987755982988,0.523598775598299,1.0733565,1.5367863,0.26733282,0.45734167,0.2381546,0.50949347,0.33489412,-0.35173568,1.5406078,-0.2995054,-0.6764318,-0.024441296,1.304979,1.5674356
-0.2,-0.2,0.6,-0.5235987755982988,-0.5235987755982988,0.523598775598299,1.0871189,1.5344145,0.2818351,0.4901664,0.18798478,0.49062073,0.32678112,-0.34787893,1.5513924,-0.3307315,-0.6383929,-0.026954636,1.3253462,1.6813387
-0.2,-0.2,0.6,-0.5235987755982988,-0.5235987755982988,0.523598775598299,1.1303681,1.5287002,0.27642724,0.47422683,0.23022053,0.49738193,0.2735376,-0.33961102,1.541706,-0.2759965,-0.61864895,-0.023021068,1.3424172,1.7797911
-0.2,-0.2,0.6,-0.5235987755982988,-0.5235987755982988,0.523598775598299,1.1445268,1.5182042,0.27231124,0.44808573,0.1348331,0.4712349,0.32769826,-0.34738314,1.5535676,-0.31848043,-0.679433,-0.05178802,1.3067907,1.6472398
-0.2,-0.2,0.6,-0.5235987755982988,-0.5235987755982988,0.523598775598299,1.1277503,1.5318902,0.26936966,0.46274418,0.19561061,0.4939962,0.27395296,-0.34747776,1.542698,-0.28954384,-0.66846186,-0.07283649,1.3264813,1.6801697
-0.2,-0.2,0.6,-0.5235987755982988,-0.5235987755982988,0.523598775598299,1.1719728,1.5247576,0.27833283,0.46472973,0.23067777,0.49315563,0.21565016,-0.3486676,1.5643132,-0.30800134,-0.602121,-0.0650106,1.3151,1.6771764
-0.2,-0.2,0.6,-0.5235987755982988,-0.5235987755982988,0.523598775598299,1.1334773,1.5394136,0.27526695,0.43272698,0.25217628,0.48787686,0.37380067,-0.3467508,1.5536662,-0.29892513,-0.634529,-0.08630907,1.3141651,1.6949624
-0.2,-0.2,0.6,-0.5235987755982988,-0.5235987755982988,0.523598775598299,1.1060307,1.5288152,0.27867857,0.4961494,0.15040389,0.47750756,0.23761345,-0.3393959,1.5369412,-0.31261113,-0.64172125,-0.023337599,1.3261126,1.6594687
-0.2,-0.2,0.6,-0.5235987755982988,-0.5235987755982988,0.523598775598299,1.1739663,1.5344611,0.2791446,0.45654395,0.21073009,0.4958781,0.2340912,-0.34387273,1.5446286,-0.2850277,-0.66360426,-0.043109268,1.3320625,1.6948903
-0.2,-0.2,0.6,-0.5235987755982988,-0.5235987755982988,0.523598775598299,1.1260693,1.5406196,0.27864882,0.46985903,0.2087706,0.4802249,0.30425525,-0.35404882,1.5445824,-0.3022045,-0.6466961,-0.01508298,1.3147533,1.7228934
-0.2,-0.2,0.6,-0.5235987755982988,-0.5235987755982988,0.523598775598299,1.1450636,1.5302478,0.26962522,0.436074,0.16414104,0.4802299,0.2705429,-0.34065473,1.5476823,-0.30699888,-0.66166437,-0.038065474,1.3118849,1.6248497
-0.2,-0.2,0.6,-0.5235987755982988,-0.5235987755982988,0.523598775598299,1.0964503,1.5243225,0.2672265,0.45092347,0.20084356,0.4871614,0.25913185,-0.34840506,1.5502946,-0.29890358,-0.6750279,-0.08589102,1.2966889,1.6727844
-0.2,-0.2,0.6,-0.5235987755982988,-0.5235987755982988,0.523598775598299,1.0981418,1.5258149,0.26133165,0.46888202,0.29176494,0.4937366,0.2671627,-0.34673843,1.5460632,-0.32371682,-0.6259372,-0.028916897,1.3261055,1.6062131
-0.2,-0.2,0.6,-0.5235987755982988,-0.5235987755982988,0.523598775598299,1.1513852,1.5309403,0.2843007,0.49171412,0.1700187,0.5041438,0.28103116,-0.34992152,1.5425797,-0.2970211,-0.60688424,-0.04655073,1.3436611,1.5630836
-0.2,-0.2,0.6,-0.5235987755982988,-0.5235987755982988,0.523598775598299,1.1240389,1.5361577,0.27505085,0.47590363,0.18776928,0.5070482,0.2882712,-0.35087454,1.5445757,-0.29691288,-0.60631263,-0.038905118,1.3257806,1.5661994
-0.2,-0.2,0.6,-0.5235987755982988,-0.5235987755982988,0.523598775598299,1.0931945,1.5230005,0.27853638,0.49731106,0.20331018,0.4901697,0.366792,-0.33954594,1.5457906,-0.30951208,-0.64327765,-0.07468551,1.3175083,1.6894782
-0.2,-0.2,0.6,-0.5235987755982988,-0.5235987755982988,0.523598775598299,1.1420763,1.5298026,0.26481563,0.46897784,0.27100748,0.48611397,0.29466015,-0.33809128,1.5413853,-0.31005698,-0.65180707,-0.08044759,1.3086454,1.6159703
-0.2,-0.2,0.6,-0.5235987755982988,-0.5235987755982988,0.523598775598299,1.1305938,1.5215994,0.28098008,0.5004354,0.1998237,0.46289092,0.21834117,-0.3587932,1.5365123,-0.33286864,-0.6262613,0.0071735256,1.3065163,1.6900902
-0.2,-0.2,0.6,-0.5235987755982988,-0.5235987755982988,0.523598775598299,1.1200984,1.5451742,0.2805513,0.43977326,0.21962328,0.51152843,0.21565259,-0.3558084,1.5367541,-0.29103082,-0.6498369,0.012024119,1.2920669,1.6222429
-0.2,-0.2,0.6,-0.5235987755982988,-0.5235987755982988,0.523598775598299,1.1297541,1.5372188,0.2887397,0.42978776,0.20634145,0.47091684,0.3644074,-0.34241948,1.5546513,-0.3037,-0.63174695,-0.034928262,1.3201569,1.7322464
-0.2,-0.2,0.6,-0.5235987755982988,-0.5235987755982988,0.523598775598299,1.1275469,1.5297244,0.26749203,0.46977192,0.1748056,0.48599324,0.2387909,-0.34894538,1.5351262,-0.29489636,-0.6122388,-0.04508675,1.316797,1.4991623
-0.2,-0.2,0.6,-0.5235987755982988,-0.5235987755982988,0.523598775598299,1.1085367,1.541206,0.2733439,0.42788988,0.20803085,0.47234878,0.3781802,-0.34281787,1.5413759,-0.331686,-0.7109479,-0.024860991,1.3261617,1.6177347
-0.2,-0.2,0.6,-0.5235987755982988,-0.5235987755982988,0.523598775598299,1.1394686,1.5369318,0.27574724,0.46320447,0.28565887,0.4727795,0.25327545,-0.36168706,1.5444093,-0.30017477,-0.66686636,-0.03330683,1.3025787,1.6096818
-0.2,-0.2,0.6,-0.5235987755982988,-0.5235987755982988,0.523598775598299,1.1660931,1.5285279,0.27280435,0.46653938,0.20734766,0.4817907,0.3312285,-0.36271402,1.5440968,-0.29002008,-0.62644196,-0.09061759,1.3127246,1.7178059
-0.2,-0.2,0.6,-0.5235987755982988,-0.5235987755982988,0.523598775598299,1.1400025,1.538097,0.26633343,0.43900412,0.19391415,0.48190323,0.25245056,-0.3424348,1.543376,-0.273621,-0.61247045,-0.04811112,1.3047076,1.6612275
-0.2,-0.2,0.6,-0.5235987755982988,-0.5235987755982988,0.523598775598299,1.1284432,1.5434569,0.27037132,0.45770925,0.24294545,0.4721347,0.25028735,-0.35291386,1.549789,-0.28566307,-0.659249,-0.06332348,1.3049963,1.5764557
-0.2,-0.2,0.6,-0.5235987755982988,-0.5235987755982988,0.523598775598299,1.120053,1.5418242,0.27632308,0.4771347,0.2573244,0.49033043,0.26312912,-0.3407836,1.5365752,-0.3043506,-0.6243014,-0.0934583,1.3091341,1.5511043
-0.2,-0.2,0.6,-0.5235987755982988,-0.5235987755982988,0.523598775598299,1.0891347,1.534626,0.27627885,0.46609393,0.20947202,0.49275973,0.25899506,-0.34145388,1.544932,-0.2924737,-0.6699803,-0.028560538,1.3164208,1.6315222
-0.2,-0.2,0.6,-0.5235987755982988,-0.5235987755982988,0.523598775598299,1.1556892,1.5230159,0.2715698,0.47233063,0.30640078,0.47930026,0.3022008,-0.35608214,1.54704,-0.29856655,-0.6603998,-0.07976937,1.3204467,1.7138884
-0.2,-0.2,0.6,-0.5235987755982988,-0.5235987755982988,0.523598775598299,1.1091802,1.5224775,0.27902454,0.48822165,0.27761427,0.48474148,0.27358964,-0.34200996,1.5335602,-0.27933964,-0.5895564,-0.06586799,1.3123201,1.550015
-0.2,-0.2,0.6,-0.5235987755982988,-0.5235987755982988,0.523598775598299,1.1053307,1.5429676,0.27421865,0.43601447,0.2602998,0.4941548,0.19960693,-0.35437134,1.5455028,-0.30079177,-0.66520673,-0.099344045,1.3214152,1.6934059
-0.2,-0.2,0.6,-0.5235987755982988,-0.5235987755982988,0.523598775598299,1.1273754,1.5302552,0.26728293,0.4721581,0.17859684,0.495125,0.26611578,-0.35030276,1.5426079,-0.3121062,-0.6550455,-0.044672508,1.3270054,1.6556135
-0.2,-0.2,0.6,-0.5235987755982988,-0.5235987755982988,0.523598775598299,1.1455828,1.5354439,0.26909623,0.4852251,0.2495723,0.49339554,0.30808493,-0.3538134,1.5367067,-0.298484,-0.6084799,-0.0075538475,1.3193815,1.6671182
-0.2,-0.2,0.6,-0.5235987755982988,-0.5235987755982988,0.523598775598299,1.1230086,1.5277139,0.27459157,0.46194956,0.15320525,0.47843257,0.22981396,-0.3500715,1.541343,-0.29093844,-0.649887,-0.07522631,1.3025123,1.6190757
-0.2,-0.2,0.6,-0.5235987755982988,-0.5235987755982988,0.523598775598299,1.145353,1.5328499,0.281545,0.45018032,0.29782492,0.4946813,0.16153316,-0.3564611,1.5458658,-0.31852835,-0.65427136,0.012270014,1.3275912,1.6073962
-0.2,-0.2,0.6,-0.5235987755982988,-0.5235987755982988,0.523598775598299,1.1291267,1.5381556,0.2762337,0.45778295,0.24443541,0.4896111,0.3396208,-0.3517337,1.5390617,-0.2726584,-0.6878978,-0.05479909,1.2997702,1.5411178
-0.2,-0.2,0.6,-0.5235987755982988,-0.5235987755982988,0.523598775598299,1.1117462,1.5310739,0.27962086,0.48339677,0.1882152,0.48871633,0.31551328,-0.34913966,1.5298657,-0.2804864,-0.6161521,-0.047667388,1.3366116,1.5484887
-0.2,-0.2,0.6,-0.5235987755982988,-0.5235987755982988,0.523598775598299,1.1243666,1.5520132,0.25743812,0.43697092,0.15608384,0.49805677,0.37584528,-0.34153825,1.5275258,-0.31323647,-0.59204006,-0.093203485,1.3196771,1.7189909
-0.2,-0.2,0.6,-0.5235987755982988,-0.5235987755982988,0.523598775598299,1.1384044,1.5279886,0.27956548,0.46452987,0.21695998,0.50378036,0.26539114,-0.34307954,1.5416759,-0.29364127,-0.6201749,-0.045896266,1.3382602,1.6856903
-0.2,-0.2,0.6,-0.5235987755982988,-0.5235987755982988,0.523598775598299,1.1171489,1.531877,0.28516412,0.46033448,0.14866,0.4896215,0.27397677,-0.33104876,1.5401937,-0.31973985,-0.63513464,-0.052887343,1.3233051,1.6268299
-0.2,-0.2,0.6,-0.5235987755982988,-0.5235987755982988,0.523598775598299,1.1387529,1.5192554,0.2614918,0.48524886,0.23314998,0.4852139,0.19780542,-0.33211735,1.538153,-0.28394076,-0.5910164,-0.057501875,1.2863444,1.5489393
-0.2,-0.2,0.6,-0.5235987755982988,-0.5235987755982988,0.523598775598299,1.1384565,1.538104,0.26806906,0.4657305,0.24838449,0.47526005,0.3399265,-0.3552552,1.5428059,-0.30459282,-0.62992424,-0.018978635,1.3090438,1.6085391
-0.2,-0.2,0.6,-0.5235987755982988,-0.5235987755982988,0.523598775598299,1.1415844,1.5315983,0.27729362,0.47890353,0.22720249,0.4789613,0.29043108,-0.33461156,1.5404804,-0.30454472,-0.6471639,-0.0415428,1.3320162,1.6237471
-0.2,-0.2,0.6,-0.5235987755982988,-0.5235987755982988,0.523598775598299,1.1846638,1.5364522,0.27210867,0.45476952,0.22386427,0.49715686,0.30139196,-0.34459662,1.5457945,-0.31681266,-0.65286624,-0.09320746,1.3347466,1.6361544
-0.2,-0.2,0.6,-0.5235987755982988,-0.5235987755982988,0.523598775598299,1.1590322,1.5310984,0.2683653,0.46036196,0.15123379,0.4992902,0.2502048,-0.35068187,1.5421628,-0.2870757,-0.6062693,-0.029798813,1.3077214,1.7478688
-0.2,-0.2,0.6,-0.5235987755982988,-0.5235987755982988,0.523598775598299,1.1117985,1.5313834,0.27666235,0.4572564,0.20067953,0.48275465,0.28652972,-0.34808514,1.5390929,-0.31918693,-0.6419555,0.057641275,1.2912831,1.5193164
-0.2,-0.2,0.6,-0.5235987755982988,-0.5235987755982988,0.523598775598299,1.0693403,1.5361087,0.27542755,0.47698736,0.21314155,0.48962125,0.32280803,-0.33408913,1.5321127,-0.30475658,-0.6376308,-0.069373496,1.3057848,1.6588342
-0.2,-0.2,0.6,-0.5235987755982988,-0.5235987755982988,0.523598775598299,1.1083497,1.5275991,0.26787847,0.4714764,0.22858746,0.49315602,0.30819002,-0.3473065,1.5468899,-0.31772363,-0.6244097,-0.058414973,1.3042217,1.6998138
-0.2,-0.2,0.6,-0.5235987755982988,-0.5235987755982988,0.523598775598299,1.1412884,1.5313774,0.27532426,0.43334314,0.2297902,0.48217306,0.3565391,-0.34161192,1.538154,-0.32820642,-0.76044333,-0.028240243,1.3422071,1.6387496
-0.2,-0.2,0.6,-0.5235987755982988,-0.5235987755982988,0.523598775598299,1.1316422,1.522651,0.2727613,0.4800113,0.2707812,0.48330724,0.3145829,-0.3553959,1.5443262,-0.3223313,-0.64667267,-0.07050017,1.3160872,1.5429265
-0.2,-0.2,0.6,-0.5235987755982988,-0.5235987755982988,0.523598775598299,1.129629,1.5335099,0.28902334,0.47721976,0.17074606,0.4886258,0.3167444,-0.341833,1.5448493,-0.32291123,-0.61655676,-0.014156451,1.2895132,1.680344
-0.2,-0.2,0.6,-0.5235987755982988,-0.5235987755982988,0.523598775598299,1.1696777,1.5327636,0.2775919,0.46853802,0.23496665,0.4903538,0.20722643,-0.3416732,1.5504041,-0.27877733,-0.62437737,-0.022229616,1.3125147,1.6726146
-0.2,-0.2,0.6,-0.5235987755982988,-0.5235987755982988,0.523598775598299,1.0962468,1.5222467,0.26250958,0.503324,0.24147655,0.4943178,0.26540926,-0.33217457,1.5445248,-0.3137938,-0.60413927,-0.08901744,1.3489183,1.6251365
-0.2,-0.2,0.6,-0.5235987755982988,-0.5235987755982988,0.523598775598299,1.1340495,1.5416652,0.26837337,0.45018396,0.21441576,0.49312648,0.23806833,-0.35587436,1.5592185,-0.33044478,-0.65260035,-0.022770165,1.3299122,1.7516263
-0.2,-0.2,0.6,-0.5235987755982988,-0.5235987755982988,0.523598775598299,1.0882992,1.538279,0.25764468,0.48797807,0.20616919,0.48895746,0.22746709,-0.34900382,1.5367061,-0.323804,-0.60945404,-0.023304852,1.3162307,1.6500701
-0.2,-0.2,0.6,-0.5235987755982988,-0.5235987755982988,0.523598775598299,1.1580528,1.5336125,0.25814122,0.4427778,0.26334915,0.47143462,0.24711303,-0.34583375,1.5404434,-0.29765934,-0.61934054,-0.068875924,1.3238732,1.6038768
-0.2,-0.2,0.6,-0.5235987755982988,-0.5235987755982988,0.523598775598299,1.1311827,1.5398757,0.2705181,0.4797067,0.18644743,0.48243678,0.30623168,-0.34370336,1.5417142,-0.30650026,-0.60014653,-0.052002948,1.2900467,1.5858412
-0.2,-0.2,0.6,-0.5235987755982988,-0.5235987755982988,0.523598775598299,1.1323498,1.5431247,0.27687657,0.48368558,0.18957011,0.47370192,0.26675886,-0.34699637,1.536235,-0.29429126,-0.6412749,-0.057681654,1.3120031,1.7254431
-0.2,-0.2,0.6,-0.5235987755982988,-0.5235987755982988,0.523598775598299,1.1177566,1.5388385,0.270208,0.47343302,0.19713217,0.48885632,0.19163054,-0.35264057,1.5494757,-0.3015114,-0.65068275,-0.014117419,1.3372536,1.6089985
-0.2,-0.2,0.6,-0.5235987755982988,-0.5235987755982988,0.523598775598299,1.2038611,1.5390948,0.2660192,0.43838233,0.18362075,0.49819154,0.31830245,-0.34445575,1.5343287,-0.29416487,-0.6543028,-0.014715071,1.2907284,1.6229986
-0.2,-0.2,0.6,-0.5235987755982988,-0.5235987755982988,0.523598775598299,1.1291445,1.5283053,0.27689055,0.4741189,0.17232697,0.48886952,0.23056057,-0.3493506,1.5404285,-0.29605243,-0.628014,-0.006359661,1.3050545,1.625414
-0.2,-0.2,0.6,-0.5235987755982988,-0.5235987755982988,0.523598775598299,1.1283687,1.543801,0.2686392,0.47736803,0.23693809,0.5063256,0.26736724,-0.35143942,1.5381696,-0.29372796,-0.5899804,-0.06640662,1.283861,1.597767
-0.2,-0.2,0.6,-0.5235987755982988,-0.5235987755982988,0.523598775598299,1.1245948,1.5474119,0.2669349,0.46686283,0.22747466,0.5027479,0.22491449,-0.35553244,1.5438493,-0.30363008,-0.6220421,-0.05654942,1.3293233,1.5808843
-0.2,-0.2,0.6,-0.5235987755982988,-0.5235987755982988,0.523598775598299,1.1141402,1.5485817,0.2658211,0.4404671,0.24421848,0.49480838,0.34222913,-0.35205033,1.550167,-0.3008587,-0.6552822,-0.057555426,1.3053175,1.5765129
-0.2,-0.2,0.6,-0.5235987755982988,-0.5235987755982988,0.523598775598299,1.1419971,1.5419401,0.27464753,0.4684513,0.15990849,0.4609398,0.32346866,-0.3474639,1.545696,-0.3117588,-0.66351306,-0.037382085,1.31258,1.6135328
-0.2,-0.2,0.6,-0.5235987755982988,-0.5235987755982988,0.523598775598299,1.1219039,1.5376015,0.2698419,0.479036,0.21472132,0.49789926,0.22200754,-0.33941886,1.547274,-0.30197844,-0.6445647,0.007021738,1.3521495,1.5709006
-0.2,-0.2,0.6,-0.5235987755982988,-0.5235987755982988,0.523598775598299,1.1126361,1.5407202,0.26866207,0.4498568,0.24757673,0.4870115,0.21806554,-0.35121065,1.5616916,-0.3155544,-0.687444,-0.037508775,1.2968891,1.631245
-0.2,-0.2,0.6,-0.5235987755982988,-0.5235987755982988,0.523598775598299,1.1353163,1.5331318,0.27392706,0.4762779,0.18390493,0.4797356,0.3079689,-0.3565374,1.5426443,-0.3111744,-0.6453967,-0.016560392,1.3210819,1.5756198
-0.2,-0.2,0.6,-0.5235987755982988,-0.5235987755982988,0.523598775598299,1.1377728,1.5285988,0.269418,0.43466192,0.24379694,0.4939729,0.233983,-0.3442257,1.5409662,-0.2987284,-0.6912022,-0.062037252,1.3284428,1.459038
-0.2,-0.2,0.6,-0.5235987755982988,-0.5235987755982988,0.523598775598299,1.1062117,1.5260562,0.26537433,0.478233,0.2539219,0.48935127,0.3354463,-0.34941584,1.5598685,-0.32548863,-0.63801545,-0.02162649,1.3421777,1.543352
-0.2,-0.2,0.6,-0.5235987755982988,-0.5235987755982988,0.523598775598299,1.1396804,1.5379629,0.27829197,0.47639403,0.28370944,0.48315594,0.22786781,-0.347421,1.54427,-0.29022595,-0.6296169,-0.07076689,1.3045702,1.5537069
-0.2,-0.2,0.6,-0.5235987755982988,-0.5235987755982988,0.523598775598299,1.1055733,1.5287228,0.26566616,0.47083503,0.2247053,0.4917868,0.18837813,-0.35095906,1.5490967,-0.3088313,-0.6208514,-0.05272862,1.3003062,1.5430609
-0.2,-0.2,0.6,-0.5235987755982988,-0.5235987755982988,0.523598775598299,1.1139051,1.527625,0.27357677,0.4427235,0.1890443,0.50651723,0.22589524,-0.3468204,1.5322846,-0.29132876,-0.66402334,-0.005014407,1.3032233,1.6673719
-0.2,-0.2,0.6,-0.5235987755982988,-0.5235987755982988,0.523598775598299,1.1379527,1.5296447,0.2820412,0.45994282,0.16898878,0.49287677,0.24265835,-0.35193664,1.5466549,-0.329889,-0.6369308,-0.040651705,1.2838664,1.6529152
-0.2,-0.2,0.6,-0.5235987755982988,-0.5235987755982988,0.523598775598299,1.1109661,1.5377611,0.26564875,0.4318268,0.21630585,0.48987,0.28718084,-0.34497225,1.557002,-0.31441504,-0.6956849,-0.036511444,1.3112221,1.7193568
-0.2,-0.2,0.6,-0.5235987755982988,-0.5235987755982988,0.523598775598299,1.174616,1.5440843,0.27395636,0.46802467,0.22458446,0.48121458,0.19193573,-0.35041943,1.5436543,-0.30253547,-0.6494099,-0.052226245,1.3215207,1.5406682
-0.2,-0.2,0.6,-0.5235987755982988,-0.5235987755982988,0.523598775598299,1.1239482,1.5437628,0.28949386,0.45104098,0.2634389,0.49566212,0.36135635,-0.3513679,1.5337062,-0.31599665,-0.66332644,-0.108166955,1.2927574,1.6219354
-0.2,-0.2,0.6,-0.5235987755982988,-0.5235987755982988,0.523598775598299,1.1564966,1.5338304,0.2856124,0.48143315,0.22840396,0.47969466,0.30550748,-0.3381311,1.551319,-0.3248801,-0.64013016,-0.060148846,1.323862,1.5947951
-0.2,-0.2,0.6,-0.5235987755982988,-0.5235987755982988,0.523598775598299,1.1335384,1.5228574,0.2595156,0.48008355,0.16042015,0.48779464,0.13515511,-0.33802485,1.5451078,-0.3399287,-0.6234621,-0.040971074,1.3143394,1.5908165
-0.2,-0.2,0.6,-0.5235987755982988,-0.5235987755982988,0.523598775598299,1.2117563,1.5324551,0.27476582,0.4414064,0.2244157,0.49059683,0.33753368,-0.35448927,1.5539918,-0.28406474,-0.66344905,-0.021597937,1.3151435,1.6778934
-0.2,-0.2,0.6,-0.5235987755982988,-0.5235987755982988,0.523598775598299,1.1384642,1.5284505,0.27219495,0.45885137,0.21308948,0.4943616,0.24056579,-0.35808843,1.5378159,-0.29138944,-0.67581385,-0.04573354,1.3075424,1.7470539
-0.2,-0.2,0.6,-0.5235987755982988,-0.5235987755982988,0.523598775598299,1.1023264,1.5294951,0.2819166,0.45837486,0.1811138,0.49490649,0.31215072,-0.34333014,1.5446718,-0.3292824,-0.6567726,-0.11176005,1.3108263,1.5665058
-0.2,-0.2,0.6,-0.5235987755982988,-0.5235987755982988,0.523598775598299,1.1214398,1.5399991,0.2644652,0.44196028,0.18210244,0.48112974,0.26168677,-0.33247468,1.5368974,-0.279054,-0.6595888,-0.04048671,1.304138,1.4527074
-0.2,-0.2,0.6,-0.5235987755982988,-0.5235987755982988,0.523598775598299,1.1125466,1.5360258,0.2631515,0.4512983,0.11141946,0.4854676,0.24908133,-0.34438053,1.538257,-0.2942208,-0.6721057,-0.042307302,1.3134522,1.7560326
-0.2,-0.2,0.6,-0.5235987755982988,-0.5235987755982988,0.523598775598299,1.1339302,1.5364373,0.2770061,0.4553099,0.24228993,0.4881584,0.33970287,-0.35328287,1.5453585,-0.3226056,-0.6506244,-0.098722525,1.3095773,1.6467224
-0.2,-0.2,0.6,-0.5235987755982988,-0.5235987755982988,0.523598775598299,1.1143829,1.5327423,0.27668595,0.46093464,0.17667943,0.49772754,0.23246023,-0.3598296,1.5500607,-0.30821767,-0.6245796,-0.08675159,1.2796601,1.573118
-0.2,-0.2,0.6,-0.5235987755982988,-0.5235987755982988,0.523598775598299,1.1237879,1.5402812,0.27246013,0.46235967,0.17052753,0.4919009,0.18756129,-0.36180228,1.551802,-0.31121227,-0.664235,-0.023617914,1.3104516,1.5532705
-0.2,-0.2,0.6,-0.5235987755982988,-0.5235987755982988,0.523598775598299,1.1170117,1.5279286,0.27323678,0.48088983,0.12412533,0.48921117,0.1448085,-0.35281166,1.5392711,-0.30935806,-0.6488862,-0.05385611,1.347763,1.5964031
-0.2,-0.2,0.6,-0.5235987755982988,-0.5235987755982988,0.523598775598299,1.142432,1.5252128,0.28287625,0.46193707,0.17228478,0.47601727,0.2770095,-0.34469038,1.5455072,-0.30735922,-0.6332812,-0.012772419,1.3177795,1.4970843
-0.2,-0.2,0.6,-0.5235987755982988,-0.5235987755982988,0.523598775598299,1.2084157,1.5318221,0.2856924,0.46745622,0.2069621,0.48004273,0.34605587,-0.3421525,1.5390002,-0.31391218,-0.60018766,-0.06501166,1.3275295,1.6773508
-0.2,-0.2,0.6,-0.5235987755982988,-0.5235987755982988,0.523598775598299,1.1179926,1.5359865,0.27946353,0.44211784,0.2105348,0.48614168,0.20669168,-0.34644833,1.5495126,-0.2730777,-0.67581254,0.011610469,1.3071625,1.545242
-0.2,-0.2,0.6,-0.5235987755982988,-0.5235987755982988,0.523598775598299,1.1168042,1.5331846,0.26938853,0.45749182,0.15098305,0.49619338,0.2862988,-0.3407008,1.5464851,-0.31868044,-0.6679356,-0.040303268,1.3036685,1.6008868
-0.2,-0.2,0.6,-0.5235987755982988,-0.5235987755982988,0.523598775598299,1.1159824,1.5298913,0.26123363,0.4693145,0.24439341,0.47654554,0.33186093,-0.33580434,1.5444827,-0.31297103,-0.6416344,-0.08517788,1.29525,1.5252492
-0.2,-0.2,0.6,-0.5235987755982988,-0.5235987755982988,0.523598775598299,1.1703877,1.5278751,0.2658151,0.45117763,0.25581604,0.4858009,0.26571566,-0.33929956,1.554622,-0.32018793,-0.66981214,-0.06739326,1.328727,1.4452417
-0.2,-0.2,0.6,-0.5235987755982988,-0.5235987755982988,0.523598775598299,1.1208973,1.5315657,0.26716843,0.46638718,0.23945539,0.48641005,0.38590872,-0.34298468,1.5403023,-0.2851627,-0.6403628,-0.036529727,1.3245523,1.5197711
-0.2,-0.2,0.6,-0.5235987755982988,-0.5235987755982988,0.523598775598299,1.1359832,1.5231078,0.26985684,0.45992437,0.21835873,0.5002582,0.2615732,-0.35584208,1.5389313,-0.30308464,-0.65881526,-0.02008291,1.2806149,1.5338331
-0.2,-0.2,0.6,-0.5235987755982988,-0.5235987755982988,0.523598775598299,1.1584977,1.5363548,0.26706153,0.45189878,0.21979164,0.48280653,0.3006946,-0.36043143,1.545756,-0.28722906,-0.6939195,-0.05574457,1.3098135,1.6963527
-0.2,-0.2,0.6,-0.5235987755982988,-0.5235987755982988,0.523598775598299,1.10224,1.5403485,0.27510568,0.4586886,0.25324404,0.49362856,0.29204226,-0.34637666,1.5489907,-0.31873965,-0.64175195,-0.07486232,1.2964926,1.6570951
-0.2,-0.2,0.6,-0.5235987755982988,-0.5235987755982988,0.523598775598299,1.1689488,1.5430455,0.27749193,0.46671596,0.22199994,0.4809375,0.2817791,-0.34914652,1.5474435,-0.2824005,-0.6361812,0.0019165161,1.3297815,1.7091503
-0.2,-0.2,0.6,-0.5235987755982988,-0.5235987755982988,0.523598775598299,1.2028672,1.5355085,0.28137824,0.4651632,0.21105437,0.50259346,0.256123,-0.34071732,1.5460466,-0.33357942,-0.60409236,-0.055290222,1.3119751,1.5444582
-0.2,-0.2,0.6,-0.5235987755982988,-0.5235987755982988,0.523598775598299,1.2024741,1.5324839,0.25633797,0.46624413,0.28112653,0.48767266,0.34276065,-0.33648807,1.5406495,-0.30727786,-0.61021143,-0.023173977,1.3240191,1.5431536
-0.2,-0.2,0.6,-0.5235987755982988,-0.5235987755982988,0.523598775598299,1.0974774,1.5392879,0.27272472,0.44908607,0.16064684,0.49896708,0.24675299,-0.3392896,1.548347,-0.3007488,-0.6644283,-0.026069785,1.3337967,1.5970938
-0.2,-0.2,0.6,-0.5235987755982988,-0.5235987755982988,0.523598775598299,1.1093135,1.5306542,0.27699044,0.44669288,0.20944852,0.50125843,0.2890326,-0.34412256,1.5438275,-0.31406268,-0.65320027,-0.071365595,1.3050057,1.7308671
-0.2,-0.2,0.6,-0.5235987755982988,-0.5235987755982988,0.523598775598299,1.1281043,1.5240877,0.26382056,0.48398098,0.17251766,0.49753153,0.25556853,-0.36100882,1.5451337,-0.28847003,-0.626046,-0.023037264,1.3403506,1.6341331
-0.2,-0.2,0.6,-0.5235987755982988,-0.5235987755982988,0.523598775598299,1.0988555,1.529847,0.27829587,0.49150503,0.2045975,0.48422095,0.18738069,-0.34305483,1.5386071,-0.3034624,-0.60008085,-0.046701744,1.3193487,1.7178063
-0.2,-0.2,0.6,-0.5235987755982988,-0.5235987755982988,0.523598775598299,1.1330354,1.5390545,0.27508724,0.43723482,0.21391012,0.48799202,0.26824376,-0.33242005,1.5381844,-0.27409294,-0.6691113,-0.03522849,1.3110652,1.6269209
-0.2,-0.2,0.6,-0.5235987755982988,-0.5235987755982988,0.523598775598299,1.1718456,1.5361186,0.28099748,0.4242466,0.17993145,0.48195365,0.22310546,-0.35466394,1.5385376,-0.29162905,-0.6289796,-0.111997046,1.2959253,1.5472542
-0.2,-0.2,0.6,-0.5235987755982988,-0.5235987755982988,0.523598775598299,1.1354858,1.5266087,0.28042507,0.4640174,0.2564918,0.47990286,0.29159105,-0.3471948,1.5336717,-0.2913605,-0.6167483,-0.036060903,1.2992128,1.6130517
-0.2,-0.2,0.6,-0.5235987755982988,-0.5235987755982988,0.523598775598299,1.0950848,1.531169,0.2679253,0.4619556,0.2505518,0.5065238,0.34206176,-0.3436652,1.5550766,-0.3079495,-0.6594937,-0.08495612,1.3013145,1.7043369
-0.2,-0.2,0.6,-0.5235987755982988,-0.5235987755982988,0.523598775598299,1.1482981,1.5356145,0.28635058,0.4829445,0.27225414,0.48830643,0.28221935,-0.34561485,1.5438217,-0.29351193,-0.58063257,-0.058505274,1.3343357,1.5223296
-0.2,-0.2,0.6,-0.5235987755982988,-0.5235987755982988,0.523598775598299,1.1013452,1.5171938,0.2825665,0.4387266,0.1625088,0.50118524,0.32185644,-0.34549436,1.5426658,-0.2982251,-0.7029445,-0.011167287,1.2977806,1.6347796
-0.2,-0.2,0.6,-0.5235987755982988,-0.5235987755982988,0.523598775598299,1.1314311,1.5309666,0.26848504,0.4748777,0.2071974,0.47769552,0.30724922,-0.3349024,1.5321736,-0.31756702,-0.641099,-0.05935333,1.3105308,1.7026796
-0.2,-0.2,0.6,-0.5235987755982988,-0.5235987755982988,0.523598775598299,1.1558905,1.5390277,0.2791729,0.45746085,0.23512211,0.48778716,0.2198538,-0.35336286,1.5439551,-0.29177436,-0.6399887,-0.05552517,1.3248556,1.6750195
-0.2,-0.2,0.6,-0.5235987755982988,-0.5235987755982988,0.523598775598299,1.0879129,1.5450096,0.28236958,0.4715067,0.2123927,0.47213703,0.24097036,-0.32560268,1.5403024,-0.2900373,-0.59531885,-0.06790332,1.3223805,1.667479
-0.2,-0.2,0.6,-0.5235987755982988,-0.5235987755982988,0.523598775598299,1.1431007,1.5368081,0.2677829,0.4320105,0.20814472,0.50645465,0.35294956,-0.34239107,1.5580506,-0.28054768,-0.650022,-0.057697043,1.3126094,1.6712544
-0.2,-0.2,0.6,-0.5235987755982988,-0.5235987755982988,0.523598775598299,1.0969504,1.5265148,0.2741939,0.48062962,0.2141548,0.50189817,0.3250516,-0.34700477,1.5385127,-0.32932016,-0.6565976,-0.079978086,1.3117718,1.5945089
-0.2,-0.2,0.6,-0.5235987755982988,-0.5235987755982988,0.523598775598299,1.1184313,1.5352069,0.28600344,0.47181535,0.17554636,0.49024782,0.28147662,-0.35241094,1.561763,-0.3252718,-0.60109437,-0.09637656,1.3008913,1.5064232
-0.2,-0.2,0.6,-0.5235987755982988,-0.5235987755982988,0.523598775598299,1.1348376,1.5248846,0.27661768,0.4624822,0.18101667,0.47849962,0.2923985,-0.3460159,1.5360725,-0.28930467,-0.63655293,0.0061188387,1.312385,1.5604686
-0.2,-0.2,0.6,-0.5235987755982988,-0.5235987755982988,0.523598775598299,1.0909991,1.5447357,0.28091413,0.4282335,0.2619063,0.49064755,0.25526106,-0.3516109,1.5473171,-0.3094957,-0.7084105,-0.029801624,1.3263537,1.6816431
-0.2,-0.2,0.6,-0.5235987755982988,-0.5235987755982988,0.523598775598299,1.0984224,1.5250722,0.26722425,0.49195194,0.24177097,0.4996183,0.26469037,-0.35188022,1.5350177,-0.343765,-0.672601,-0.03964387,1.3206156,1.5252436
-0.2,-0.2,0.6,-0.5235987755982988,-0.5235987755982988,0.523598775598299,1.1062847,1.5355823,0.2738274,0.42641938,0.25131094,0.48795015,0.36203402,-0.33916697,1.5509983,-0.29620737,-0.6828179,-0.07935794,1.3071898,1.692852
-0.2,-0.2,0.6,-0.5235987755982988,-0.5235987755982988,0.523598775598299,1.1596916,1.5331326,0.26608002,0.42907917,0.35678017,0.4899593,0.26189846,-0.35979515,1.5393081,-0.2936432,-0.67544997,-0.06708017,1.3009124,1.5953625
-0.2,-0.2,0.6,-0.5235987755982988,-0.5235987755982988,0.523598775598299,1.1051577,1.5451162,0.27487606,0.4598666,0.14329271,0.50536364,0.36291662,-0.3699783,1.5441717,-0.31980726,-0.65444297,-0.038988035,1.3222317,1.602474
-0.2,-0.2,0.6,-0.5235987755982988,-0.5235987755982988,0.523598775598299,1.1972862,1.5300899,0.26655897,0.43682113,0.23027684,0.48787162,0.3076619,-0.34250924,1.5456107,-0.3316196,-0.7191703,-0.03676785,1.3188595,1.4864122
-0.2,-0.2,0.6,-0.5235987755982988,-0.5235987755982988,0.523598775598299,1.1337768,1.5322545,0.2849649,0.4746496,0.24891123,0.4766677,0.32261717,-0.34376892,1.54386,-0.2988697,-0.6081745,-0.045069404,1.3506597,1.6604531
-0.2,-0.2,0.6,-0.5235987755982988,-0.5235987755982988,0.523598775598299,1.1626576,1.5345765,0.28404826,0.4461009,0.17019437,0.49802658,0.3006412,-0.34820428,1.5379066,-0.2713958,-0.63144755,-0.081590146,1.327802,1.7211046
-0.2,-0.2,0.6,-0.5235987755982988,-0.5235987755982988,0.523598775598299,1.1536481,1.5411673,0.26920784,0.44746682,0.13368903,0.48080927,0.32571712,-0.3393135,1.5492951,-0.30215704,-0.66215074,-0.068657,1.3097342,1.7443951
-0.2,-0.2,0.6,-0.5235987755982988,-0.5235987755982988,0.523598775598299,1.1153097,1.5391221,0.28422078,0.45795038,0.26714432,0.48922673,0.25436366,-0.36011085,1.5500256,-0.3323143,-0.6130918,-0.05760087,1.3262041,1.6904876
-0.2,-0.2,0.6,-0.5235987755982988,-0.5235987755982988,0.523598775598299,1.1718904,1.5370426,0.2725159,0.45214012,0.2191212,0.5096437,0.31386027,-0.3435148,1.5426201,-0.31069311,-0.63164735,-0.011364325,1.3025839,1.6236317
-0.2,-0.2,0.6,-0.5235987755982988,-0.5235987755982988,0.523598775598299,1.1775277,1.5304275,0.2676297,0.4187696,0.26603553,0.477752,0.36614785,-0.35220587,1.5423753,-0.30808124,-0.6292836,-0.09972334,1.320602,1.6087537
-0.2,-0.2,0.6,-0.5235987755982988,-0.5235987755982988,0.523598775598299,1.135731,1.5290976,0.29743877,0.4688863,0.19028072,0.48638952,0.32869235,-0.35332537,1.5499933,-0.28593472,-0.6395341,-0.05504428,1.3393066,1.5664781
-0.2,-0.2,0.6,-0.5235987755982988,-0.5235987755982988,0.523598775598299,1.1177367,1.5326377,0.28029236,0.431916,0.21097368,0.50782925,0.24288887,-0.34417915,1.5488942,-0.27522132,-0.6481884,-0.07140598,1.3273282,1.583822
-0.2,-0.2,0.6,-0.5235987755982988,-0.5235987755982988,0.523598775598299,1.1930797,1.5292546,0.27804014,0.45077407,0.21540318,0.48163775,0.2500177,-0.35626692,1.5462096,-0.31651008,-0.65189445,-0.03408529,1.3051611,1.5779692
-0.2,-0.2,0.6,-0.5235987755982988,-0.5235987755982988,0.523598775598299,1.1532651,1.5237623,0.27837202,0.4537798,0.25700733,0.49293676,0.26021916,-0.34216407,1.5406251,-0.3305406,-0.64662534,0.0040180082,1.3098725,1.5583882
-0.2,-0.2,0.6,-0.5235987755982988,-0.5235987755982988,0.523598775598299,1.1557231,1.5344611,0.27286977,0.4333611,0.290753,0.49504408,0.2795329,-0.3414301,1.5235834,-0.29417863,-0.64616126,-0.050306432,1.3110656,1.6796142
-0.2,-0.2,0.6,-0.5235987755982988,-0.5235987755982988,0.523598775598299,1.1454077,1.5349807,0.27825275,0.45751774,0.20271805,0.5021591,0.3383511,-0.35074326,1.5484349,-0.29241776,-0.6418275,-0.04790775,1.3369606,1.5333141
-0.2,-0.2,0.6,-0.5235987755982988,-0.5235987755982988,0.523598775598299,1.1209091,1.5324879,0.26417127,0.47742668,0.23378958,0.49926385,0.2921036,-0.34499896,1.5447036,-0.31789532,-0.6075397,-0.0763923,1.3239514,1.6393636
-0.2,-0.2,0.6,-0.5235987755982988,-0.5235987755982988,0.523598775598299,1.1023111,1.5377196,0.26814246,0.47175092,0.21875058,0.49802434,0.18804567,-0.34210926,1.5475814,-0.30229506,-0.62412107,-0.05381167,1.3273494,1.6172857
-0.2,-0.2,0.6,-0.5235987755982988,-0.5235987755982988,0.523598775598299,1.1162947,1.5272089,0.278835,0.4268589,0.23404159,0.48527387,0.2290932,-0.3453579,1.5386275,-0.31140512,-0.6742853,-0.02916916,1.3289063,1.6322598
-0.2,-0.2,0.6,-0.5235987755982988,-0.5235987755982988,0.523598775598299,1.1617713,1.5330014,0.27372554,0.4267527,0.17633015,0.4833258,0.28309986,-0.3472469,1.5439594,-0.27539986,-0.7053342,-0.12167466,1.318344,1.6823951
-0.2,-0.2,0.6,-0.5235987755982988,-0.5235987755982988,0.523598775598299,1.0992016,1.5364327,0.28494912,0.45315135,0.2563837,0.49109134,0.2614207,-0.3524759,1.5394268,-0.31743458,-0.66708416,-0.02882538,1.3128988,1.7294143
-0.2,-0.2,0.6,-0.5235987755982988,-0.5235987755982988,0.523598775598299,1.141146,1.5346951,0.29196933,0.45201907,0.20300065,0.48147124,0.25969344,-0.3476203,1.5383312,-0.32410243,-0.6115909,-0.06196929,1.2834879,1.5314969
-0.2,-0.2,0.6,-0.5235987755982988,-0.5235987755982988,0.523598775598299,1.1413052,1.5305644,0.2809965,0.45187578,0.13482606,0.4941978,0.31558904,-0.34480137,1.5501292,-0.30451205,-0.6614173,-0.073727675,1.3230642,1.7773504
-0.2,-0.2,0.6,-0.5235987755982988,-0.5235987755982988,0.523598775598299,1.1528149,1.5417314,0.27110207,0.4430376,0.17333592,0.49173173,0.29085174,-0.33243713,1.5329939,-0.3116622,-0.6485085,-0.052708626,1.3234591,1.6861569
-0.2,-0.2,0.6,-0.5235987755982988,-0.5235987755982988,0.523598775598299,1.120396,1.5418189,0.2793652,0.45769495,0.18130323,0.48138982,0.36249977,-0.36476147,1.5478648,-0.30996573,-0.684041,-0.07384376,1.3062314,1.6429613
-0.2,-0.2,0.6,-0.5235987755982988,-0.5235987755982988,0.523598775598299,1.1254411,1.5245796,0.27294406,0.461791,0.2056432,0.47066832,0.3919877,-0.34307706,1.5399514,-0.34010935,-0.656527,-0.033806045,1.3156854,1.6336498
-0.2,-0.2,0.6,-0.5235987755982988,-0.5235987755982988,0.523598775598299,1.1493497,1.5221643,0.27390116,0.47161585,0.23456958,0.4852964,0.3244156,-0.3459607,1.5424538,-0.33436632,-0.6561093,-0.023055278,1.320772,1.5664927
-0.2,-0.2,0.6,-0.5235987755982988,-0.5235987755982988,0.523598775598299,1.0889194,1.5377575,0.27595714,0.46001875,0.26176032,0.48261327,0.26793966,-0.32945564,1.5394871,-0.30247033,-0.6699206,-0.021555476,1.3261114,1.578361
-0.2,-0.2,0.6,-0.5235987755982988,-0.5235987755982988,0.523598775598299,1.1035079,1.5400481,0.27118465,0.45269898,0.13424352,0.48035493,0.23253031,-0.34247527,1.5466267,-0.30852735,-0.6595073,-0.05679777,1.3190817,1.4957684
-0.2,-0.2,0.6,-0.5235987755982988,-0.5235987755982988,0.523598775598299,1.1065581,1.5266558,0.27246714,0.47938478,0.17955051,0.4893948,0.23276833,-0.34985492,1.5404611,-0.29266304,-0.6279531,-0.066285625,1.3168896,1.5590938
-0.2,-0.2,0.6,-0.5235987755982988,-0.5235987755982988,0.523598775598299,1.1650094,1.5369787,0.27381855,0.4395755,0.26378474,0.50087196,0.30779016,-0.34916446,1.5554751,-0.307936,-0.7034014,-0.058321342,1.3065777,1.5727779
-0.2,-0.2,0.6,-0.5235987755982988,-0.5235987755982988,0.523598775598299,1.0738273,1.5277871,0.27551973,0.44695187,0.21468835,0.5039013,0.3124973,-0.34715593,1.5431364,-0.30875334,-0.640442,0.029857477,1.3069705,1.5952375
-0.2,-0.2,0.6,-0.5235987755982988,-0.5235987755982988,0.523598775598299,1.1543653,1.5313499,0.28384364,0.43903548,0.2441102,0.503348,0.36163747,-0.34885168,1.5418884,-0.32285687,-0.6312982,-0.058062285,1.3099184,1.6208112
-0.2,-0.2,0.6,-0.5235987755982988,-0.5235987755982988,0.523598775598299,1.1263124,1.5455394,0.26490447,0.42620915,0.24678876,0.49693757,0.27055982,-0.340362,1.5443507,-0.32129365,-0.59642357,-0.043187242,1.323453,1.6699829
-0.2,-0.2,0.6,-0.5235987755982988,-0.5235987755982988,0.523598775598299,1.1273657,1.5493606,0.25992185,0.42153457,0.18813145,0.4824501,0.2881911,-0.34789145,1.5432857,-0.29836446,-0.7042576,-0.010574793,1.2782624,1.6358691
-0.2,-0.2,0.6,-0.5235987755982988,-0.5235987755982988,0.523598775598299,1.1175653,1.5262041,0.27368745,0.4779194,0.23099911,0.4901413,0.2894465,-0.34998077,1.5455196,-0.30576164,-0.5938243,0.011953551,1.3302968,1.584458
-0.2,-0.2,0.6,-0.5235987755982988,-0.5235987755982988,0.523598775598299,1.0885022,1.5359141,0.27850822,0.44079825,0.22695273,0.4835432,0.31435177,-0.3391497,1.5515461,-0.32655787,-0.67949533,-0.0638726,1.3134462,1.5286005
-0.2,-0.2,0.6,-0.5235987755982988,-0.5235987755982988,0.523598775598299,1.0835309,1.5380732,0.29080772,0.49391562,0.22926985,0.47503766,0.22354981,-0.34351045,1.5434955,-0.31218824,-0.68462145,-0.037889156,1.3468275,1.4870182
-0.2,-0.2,0.6,-0.5235987755982988,-0.5235987755982988,0.523598775598299,1.1428752,1.560832,0.2801809,0.42204478,0.26467997,0.4904837,0.2618042,-0.34247535,1.5324899,-0.30330163,-0.64264864,-0.0142075075,1.3051424,1.644076
-0.2,-0.2,0.6,-0.5235987755982988,-0.5235987755982988,0.523598775598299,1.1474943,1.536006,0.28546458,0.454065,0.21093842,0.4776251,0.2692043,-0.3538784,1.5337222,-0.28808436,-0.62598103,0.0033009995,1.337183,1.682792
-0.2,-0.2,0.6,-0.5235987755982988,-0.5235987755982988,0.523598775598299,1.1174277,1.5356667,0.264537,0.46024367,0.25904518,0.4889461,0.35672182,-0.3539699,1.5472206,-0.30642468,-0.6604689,-0.06598744,1.3246703,1.6287465
-0.2,-0.2,0.6,-0.5235987755982988,-0.5235987755982988,0.523598775598299,1.1671908,1.5446911,0.28613368,0.44535437,0.24767496,0.49094146,0.25872242,-0.33617368,1.5444058,-0.3398035,-0.66058457,0.009295036,1.2885242,1.4999851
-0.2,-0.2,0.6,-0.5235987755982988,-0.5235987755982988,0.523598775598299,1.0901214,1.5296888,0.27054048,0.43109563,0.18963937,0.4938683,0.3117148,-0.3523464,1.5459502,-0.30811116,-0.68437105,0.015318442,1.3149108,1.4934279
-0.2,-0.2,0.6,-0.5235987755982988,-0.5235987755982988,0.523598775598299,1.1594303,1.5417413,0.27561328,0.427032,0.19409323,0.4957214,0.28664947,-0.3348551,1.5429811,-0.298847,-0.6055799,-0.03205448,1.3060443,1.6355295
-0.2,-0.2,0.6,-0.5235987755982988,-0.5235987755982988,0.523598775598299,1.1557108,1.524167,0.26937914,0.46051177,0.22228454,0.51263815,0.23604801,-0.3458877,1.5351634,-0.29893208,-0.627296,-0.06986781,1.3168904,1.7302685
-0.2,-0.2,0.6,-0.5235987755982988,-0.5235987755982988,0.523598775598299,1.1460392,1.5482141,0.2733067,0.45085728,0.23867267,0.50654835,0.28295568,-0.3322096,1.5377774,-0.3217896,-0.63962626,-0.056008477,1.3318212,1.6025659
-0.2,-0.2,0.6,-0.5235987755982988,-0.5235987755982988,0.523598775598299,1.1529877,1.5560277,0.27682292,0.4317182,0.17047115,0.49700978,0.19420789,-0.34370202,1.5355525,-0.29492185,-0.6767718,-0.05954575,1.3288525,1.6116719
-0.2,-0.2,0.6,-0.5235987755982988,-0.5235987755982988,0.523598775598299,1.1224284,1.5352422,0.2883442,0.4500136,0.22832023,0.48390013,0.2536021,-0.35185882,1.5479463,-0.3215577,-0.6726668,-0.05448064,1.3322809,1.5935802
-0.2,-0.2,0.6,-0.5235987755982988,-0.5235987755982988,0.523598775598299,1.1720665,1.5256687,0.28011775,0.43471134,0.23329423,0.48694184,0.20341755,-0.32968637,1.5400587,-0.30270883,-0.6603487,-0.054378115,1.3133779,1.5780774
-0.2,-0.2,0.6,-0.5235987755982988,-0.5235987755982988,0.523598775598299,1.0410146,1.5273347,0.27186474,0.46161538,0.14750199,0.4978771,0.22826996,-0.34095842,1.5535252,-0.29957557,-0.6170827,-0.03701473,1.2966027,1.7140925
-0.2,-0.2,0.6,-0.5235987755982988,-0.5235987755982988,0.523598775598299,1.1691159,1.5376474,0.26655084,0.4698677,0.22233053,0.47118476,0.25255936,-0.3422745,1.5420218,-0.3021136,-0.6126846,-0.0761947,1.3227637,1.6394334
-0.2,-0.2,0.6,-0.5235987755982988,-0.5235987755982988,0.523598775598299,1.1001725,1.530419,0.2661226,0.47448045,0.20064014,0.49158084,0.26934907,-0.34260222,1.5339512,-0.32025388,-0.6178548,-0.04113948,1.3074788,1.6518342
-0.2,-0.2,0.6,-0.5235987755982988,-0.5235987755982988,0.523598775598299,1.1158946,1.5217857,0.2685742,0.4487045,0.20480317,0.4857322,0.32955164,-0.33985883,1.5430249,-0.31496102,-0.6875877,-0.06683992,1.3284265,1.5329537
-0.2,-0.2,0.6,-0.5235987755982988,-0.5235987755982988,0.523598775598299,1.1366684,1.5271827,0.2784536,0.45116514,0.21116905,0.474615,0.28061378,-0.3406628,1.5438681,-0.29507756,-0.61648655,-0.046628922,1.3135823,1.59999
-0.2,-0.2,0.6,-0.5235987755982988,-0.5235987755982988,0.523598775598299,1.1020384,1.5330696,0.27248594,0.44383278,0.20754255,0.47923133,0.20691483,-0.34717897,1.5417373,-0.2850344,-0.65921336,-0.0958649,1.3472399,1.655198
-0.2,-0.2,0.6,-0.5235987755982988,-0.5235987755982988,0.523598775598299,1.1560259,1.5350994,0.27321824,0.4624673,0.25555503,0.49291837,0.36937806,-0.34554452,1.5385838,-0.3166086,-0.6437537,-0.048001416,1.3285254,1.6443286
-0.2,-0.2,0.6,-0.5235987755982988,-0.5235987755982988,0.523598775598299,1.0893737,1.5492305,0.28064778,0.4524506,0.13732179,0.48896068,0.2650163,-0.34832788,1.547538,-0.28490126,-0.6163575,-0.072088905,1.3174627,1.4455332
-0.2,-0.2,0.6,-0.5235987755982988,-0.5235987755982988,0.523598775598299,1.0808727,1.5248495,0.28308633,0.45858577,0.26886293,0.49311137,0.28112444,-0.34183437,1.551946,-0.31784892,-0.6087974,-0.06659576,1.2773111,1.5257555
-0.2,-0.2,0.6,-0.5235987755982988,-0.5235987755982988,0.523598775598299,1.0935794,1.5294892,0.2769379,0.47492865,0.20899357,0.48099628,0.21460682,-0.35409865,1.5504668,-0.31550056,-0.65131754,-0.04657944,1.365631,1.6770357
-0.2,-0.2,0.6,-0.5235987755982988,-0.5235987755982988,0.523598775598299,1.0989472,1.5226717,0.2717719,0.4435279,0.21567108,0.49362746,0.28305182,-0.36235008,1.5513312,-0.28887874,-0.6652293,-0.07503286,1.317947,1.645065
-0.2,-0.2,0.6,-0.5235987755982988,-0.5235987755982988,0.523598775598299,1.077749,1.5241386,0.2794441,0.44365576,0.22898665,0.48457745,0.23867296,-0.33972532,1.5381974,-0.2989921,-0.68689036,-0.0074554468,1.3364671,1.5088633
-0.2,-0.2,0.6,-0.5235987755982988,-0.5235987755982988,0.523598775598299,1.1142155,1.5312362,0.2834082,0.43420228,0.2430552,0.4830816,0.33769003,-0.33514753,1.5430317,-0.30995354,-0.7075219,-0.06030909,1.3131785,1.5757891
-0.2,-0.2,0.6,-0.5235987755982988,-0.5235987755982988,0.523598775598299,1.1080867,1.5367243,0.27357098,0.46450654,0.23553427,0.4898067,0.19513848,-0.34126005,1.5302442,-0.29781398,-0.6257116,-0.0633261,1.3285735,1.5561228
-0.2,-0.2,0.6,-0.5235987755982988,-0.5235987755982988,0.523598775598299,1.1433113,1.5471534,0.26370627,0.43789327,0.20050918,0.4832153,0.21176851,-0.35116732,1.5343337,-0.32729977,-0.66072184,-0.06689776,1.323409,1.752181
-0.2,-0.2,0.6,-0.5235987755982988,-0.5235987755982988,0.523598775598299,1.1127204,1.5320945,0.27540603,0.47131673,0.20281309,0.4839621,0.35415754,-0.35275805,1.5430003,-0.30412155,-0.64902663,-0.0050184485,1.330465,1.6246369
-0.2,-0.2,0.6,-0.5235987755982988,-0.5235987755982988,0.523598775598299,1.1468296,1.5246754,0.27840906,0.45292845,0.27869114,0.497787,0.27183276,-0.3487619,1.5322146,-0.31495377,-0.64694244,-0.012495166,1.352036,1.6455424
-0.2,-0.2,0.6,-0.5235987755982988,-0.5235987755982988,0.523598775598299,1.1624978,1.5412953,0.2777757,0.43095994,0.1755525,0.48714408,0.19973357,-0.3380019,1.5374676,-0.30524164,-0.6814633,-0.058139518,1.3218285,1.5046107
-0.2,-0.2,0.6,-0.5235987755982988,-0.5235987755982988,0.523598775598299,1.0962768,1.5339767,0.27650732,0.45759955,0.28513476,0.4944185,0.29213163,-0.33558923,1.5486215,-0.28402337,-0.62232095,-0.085829794,1.3205616,1.615604
-0.2,-0.2,0.6,-0.5235987755982988,-0.5235987755982988,0.523598775598299,1.1302613,1.5513908,0.27762315,0.4959826,0.24000035,0.48534098,0.28094664,-0.3488987,1.5416776,-0.3221021,-0.5626852,-0.016710555,1.3096799,1.699191
-0.2,-0.2,0.6,-0.5235987755982988,-0.5235987755982988,0.523598775598299,1.1306728,1.5210378,0.29065388,0.47473353,0.29011232,0.48634145,0.34977427,-0.33888933,1.531877,-0.32242313,-0.5852814,-0.07679578,1.3317468,1.608836
-0.2,-0.2,0.6,-0.5235987755982988,-0.5235987755982988,0.523598775598299,1.1003705,1.5410262,0.2824426,0.47344494,0.22797048,0.4792621,0.32103196,-0.33922768,1.5386479,-0.31644872,-0.6058382,-0.027771415,1.3252113,1.5620766
-0.2,-0.2,0.6,-0.5235987755982988,-0.5235987755982988,0.523598775598299,1.2134812,1.5343935,0.2664287,0.46355718,0.21426196,0.48889711,0.35599148,-0.3453669,1.5390065,-0.340225,-0.6207193,-0.032786645,1.3249816,1.6726035
-0.2,-0.2,0.6,-0.5235987755982988,-0.5235987755982988,0.523598775598299,1.1350259,1.5280409,0.2716036,0.46009552,0.24120541,0.5010656,0.37430093,-0.33569533,1.5488071,-0.2923418,-0.62828547,-0.02101044,1.3133646,1.6033576
-0.2,-0.2,0.6,-0.5235987755982988,-0.5235987755982988,0.523598775598299,1.1109821,1.52691,0.27108502,0.47496295,0.24611712,0.49770698,0.20659812,-0.33196858,1.5524963,-0.29210633,-0.60946774,-0.07393836,1.3513616,1.6952196
-0.2,-0.2,0.6,-0.5235987755982988,-0.5235987755982988,0.523598775598299,1.1105044,1.5354006,0.25651342,0.46706542,0.15896812,0.48295033,0.31795245,-0.3433969,1.5594349,-0.3163482,-0.6468331,-0.057620905,1.3203158,1.6180879
-0.2,-0.2,0.6,-0.5235987755982988,-0.5235987755982988,0.523598775598299,1.153066,1.5374396,0.26502243,0.45210627,0.14460987,0.48795083,0.2619074,-0.34782118,1.5423825,-0.29091936,-0.63292515,-0.03621879,1.3220204,1.5280285
-0.2,-0.2,0.6,-0.5235987755982988,-0.5235987755982988,0.523598775598299,1.1449335,1.5323956,0.282819,0.43635017,0.25572282,0.4935471,0.26480994,-0.35593086,1.5484794,-0.28614163,-0.6129915,-0.010146566,1.3146749,1.6230854
-0.2,-0.2,0.6,-0.5235987755982988,-0.5235987755982988,0.523598775598299,1.1349213,1.5371623,0.27437484,0.45029575,0.17841065,0.48880515,0.21836342,-0.3464532,1.5377034,-0.2930993,-0.64917976,-0.08538699,1.3247386,1.5474573
-0.2,-0.2,0.6,-0.5235987755982988,-0.5235987755982988,0.523598775598299,1.1788633,1.5255542,0.28194696,0.4555892,0.17875001,0.48993823,0.28479776,-0.34442958,1.5456516,-0.32067534,-0.65441114,-0.023098085,1.30564,1.438534
-0.2,-0.2,0.6,-0.5235987755982988,-0.5235987755982988,0.523598775598299,1.0884621,1.5370253,0.262703,0.48817256,0.26694396,0.49351847,0.33257407,-0.34744346,1.5463476,-0.313223,-0.58350813,-0.005214808,1.3327644,1.6060615
-0.2,-0.2,0.6,-0.5235987755982988,-0.5235987755982988,0.523598775598299,1.1209874,1.5275303,0.27420008,0.45228064,0.23220392,0.49440467,0.21189344,-0.34390882,1.535871,-0.32138607,-0.6557452,-0.052758195,1.2972615,1.5621095
-0.2,-0.2,0.6,-0.5235987755982988,-0.5235987755982988,0.523598775598299,1.1870346,1.5248972,0.27061865,0.44371167,0.20107618,0.4979455,0.24906735,-0.3370709,1.549782,-0.2877557,-0.6405807,-0.0891251,1.3328829,1.5867606
-0.2,-0.2,0.6,-0.5235987755982988,-0.5235987755982988,0.523598775598299,1.1585332,1.5379877,0.27109593,0.45175487,0.20060837,0.5046901,0.25815877,-0.3536081,1.5450317,-0.32398129,-0.59914076,-0.01360068,1.3145313,1.5503247
-0.2,-0.2,0.6,-0.5235987755982988,-0.5235987755982988,0.523598775598299,1.1396391,1.5223405,0.27433205,0.45053923,0.22113264,0.5031252,0.30470383,-0.3453043,1.5353615,-0.2995053,-0.62072283,-0.022003176,1.3209914,1.6273952
-0.2,-0.2,0.6,-0.5235987755982988,-0.5235987755982988,0.523598775598299,1.1196829,1.5338974,0.2752885,0.45583692,0.25652257,0.48809895,0.33596954,-0.34608343,1.5435041,-0.31389314,-0.6807408,-0.07036136,1.3189074,1.7851162
-0.2,-0.2,0.6,-0.5235987755982988,-0.5235987755982988,0.523598775598299,1.1060727,1.5401734,0.26598662,0.42773008,0.23994003,0.49388233,0.20995332,-0.34171703,1.5438036,-0.29191673,-0.5895781,-0.070979394,1.3063384,1.6263624
-0.2,-0.2,0.6,-0.5235987755982988,-0.5235987755982988,0.523598775598299,1.1113592,1.5297362,0.27127126,0.46078774,0.2589282,0.49168652,0.26426962,-0.33791244,1.5462976,-0.3176248,-0.59626275,-0.06308681,1.3083045,1.7128806
-0.2,-0.2,0.6,-0.5235987755982988,-0.5235987755982988,0.523598775598299,1.1469289,1.5271757,0.276305,0.43093598,0.24240528,0.48719504,0.34166297,-0.3428343,1.5447695,-0.3152841,-0.6783195,-0.028489375,1.3247015,1.4932454
-0.2,-0.2,0.6,-0.5235987755982988,-0.5235987755982988,0.523598775598299,1.1367964,1.5337741,0.26692188,0.44111943,0.18294491,0.5026255,0.30904073,-0.3455429,1.5418355,-0.2996542,-0.5864659,-0.042497523,1.2598133,1.6098253
-0.2,-0.2,0.6,-0.5235987755982988,-0.5235987755982988,0.523598775598299,1.1069164,1.5327041,0.28133607,0.45117313,0.19991484,0.46880597,0.25367793,-0.35557717,1.535772,-0.29832414,-0.6839087,-0.08119132,1.3246742,1.5871857
-0.2,-0.2,0.6,-0.5235987755982988,-0.5235987755982988,0.523598775598299,1.1605147,1.5240086,0.27655607,0.42892754,0.23091574,0.49514595,0.27464774,-0.3457251,1.5491942,-0.29516035,-0.67347056,-0.04959756,1.302319,1.4992528
-0.2,-0.2,0.6,-0.5235987755982988,-0.5235987755982988,0.523598775598299,1.1124723,1.5293508,0.28938428,0.44766673,0.2462878,0.49699286,0.3191538,-0.34579545,1.5448784,-0.29399186,-0.59914863,-0.04940109,1.3033456,1.6369785
-0.2,-0.2,0.6,-0.5235987755982988,-0.5235987755982988,0.523598775598299,1.1394807,1.5398393,0.2786734,0.44340858,0.18566294,0.49295494,0.24728273,-0.3455274,1.5531999,-0.30849084,-0.62415713,-0.029787773,1.2970287,1.5623763
-0.2,-0.2,0.6,-0.5235987755982988,-0.5235987755982988,0.523598775598299,1.0710624,1.5343046,0.2731016,0.45903844,0.19128093,0.49975917,0.3324816,-0.33208093,1.5378469,-0.29866958,-0.6122623,0.00918845,1.3077081,1.530743
-0.2,-0.2,0.6,-0.5235987755982988,-0.5235987755982988,0.523598775598299,1.138463,1.5318196,0.2732355,0.44823936,0.1501644,0.49371666,0.3058867,-0.3441012,1.5446092,-0.2888186,-0.62637055,-0.036358938,1.3042846,1.4819499
-0.2,-0.2,0.6,-0.5235987755982988,-0.5235987755982988,0.523598775598299,1.1285512,1.5288185,0.28084627,0.47516456,0.17080866,0.50315386,0.2934943,-0.3471066,1.5412891,-0.29092413,-0.63426167,-0.059586372,1.3179889,1.6131574
-0.2,-0.2,0.6,-0.5235987755982988,-0.5235987755982988,0.523598775598299,1.145686,1.5320258,0.26625028,0.4647451,0.23340492,0.47999865,0.25417963,-0.34886217,1.5419796,-0.29669824,-0.67598325,-0.047295462,1.3338225,1.5269382
-0.2,-0.2,0.6,-0.5235987755982988,-0.5235987755982988,0.523598775598299,1.1523097,1.5229963,0.27490354,0.4669971,0.23911422,0.4769685,0.2568942,-0.3455227,1.5411799,-0.31475997,-0.64305663,0.00776145,1.305886,1.69981
-0.2,-0.2,0.6,-0.5235987755982988,-0.5235987755982988,0.523598775598299,1.1163318,1.5300109,0.28124058,0.45586026,0.1924929,0.5119238,0.29427105,-0.3360712,1.5475566,-0.31256706,-0.6162354,-0.032218117,1.3550981,1.6116337
-0.2,-0.2,0.6,-0.5235987755982988,-0.5235987755982988,0.523598775598299,1.1252141,1.529635,0.2811375,0.45028293,0.16821633,0.4989692,0.17636913,-0.35180238,1.5360976,-0.31359565,-0.6439348,-0.037067223,1.3157603,1.5946053
-0.2,-0.2,0.6,-0.5235987755982988,-0.5235987755982988,0.523598775598299,1.1642162,1.5331436,0.27842605,0.4351851,0.1994172,0.50693846,0.3822095,-0.3449046,1.5452334,-0.3014314,-0.6313612,-0.017463697,1.3169068,1.7234095
-0.2,-0.2,0.6,-0.5235987755982988,-0.5235987755982988,0.523598775598299,1.1247835,1.5303838,0.2656678,0.4771727,0.30070713,0.47843176,0.3121678,-0.33758003,1.5351766,-0.2924179,-0.60032606,-0.04808283,1.3313608,1.6038082
-0.2,-0.2,0.6,-0.5235987755982988,-0.5235987755982988,0.523598775598299,1.1594349,1.5353757,0.27010557,0.43251336,0.24940862,0.49218902,0.18035144,-0.3398116,1.5562047,-0.30835187,-0.63815826,-0.10424568,1.3427536,1.7264017
-0.2,-0.2,0.6,-0.5235987755982988,-0.5235987755982988,0.523598775598299,1.1564962,1.5392646,0.2754871,0.42793396,0.21590668,0.47532842,0.36275816,-0.3310071,1.5295857,-0.29299954,-0.67618084,-0.082946695,1.3242385,1.5204802
-0.2,-0.2,0.6,-0.5235987755982988,-0.5235987755982988,0.523598775598299,1.1120299,1.5340432,0.26660496,0.4426462,0.15931804,0.49997947,0.26363644,-0.33853787,1.5455767,-0.30167833,-0.6435004,-0.064350724,1.355663,1.5200322
-0.2,-0.2,0.6,-0.5235987755982988,-0.5235987755982988,0.523598775598299,1.1338588,1.5385543,0.26290643,0.49090564,0.18423285,0.4933268,0.21363589,-0.33993217,1.5370301,-0.31798822,-0.5915895,-0.051572114,1.3828712,1.5563273
-0.2,-0.2,0.6,-0.5235987755982988,-0.5235987755982988,0.523598775598299,1.1119102,1.5200304,0.25590044,0.44866145,0.25873193,0.48541278,0.33231103,-0.34727997,1.5417224,-0.29116198,-0.6451442,-0.05221542,1.3085008,1.6680816
-0.2,-0.2,0.6,-0.5235987755982988,-0.5235987755982988,0.523598775598299,1.1077374,1.5395048,0.27183583,0.43347704,0.15587774,0.5184042,0.25308946,-0.35125324,1.5447738,-0.29649433,-0.6547527,-0.012449424,1.303723,1.5078222
-0.2,-0.2,0.6,-0.5235987755982988,-0.5235987755982988,0.523598775598299,1.1464952,1.5400863,0.284417,0.44834077,0.22753358,0.4990379,0.34410644,-0.34101814,1.5443707,-0.29822356,-0.5885139,-0.039887417,1.3206754,1.6015486
-0.2,-0.2,0.6,-0.5235987755982988,-0.5235987755982988,0.523598775598299,1.1974308,1.5395212,0.2696937,0.44244304,0.21592222,0.496907,0.23555794,-0.3447557,1.5360159,-0.3049108,-0.6614427,-0.08082184,1.3369185,1.5003031
-0.2,-0.2,0.6,-0.5235987755982988,-0.5235987755982988,0.523598775598299,1.1508007,1.5322161,0.270942,0.47691813,0.18540388,0.50315696,0.24501885,-0.3496313,1.5496441,-0.33228695,-0.68487275,-0.042863954,1.2983025,1.6072696
-0.2,-0.2,0.6,-0.5235987755982988,-0.5235987755982988,0.523598775598299,1.1125776,1.5408337,0.28509763,0.44917962,0.2647941,0.47587118,0.25331536,-0.3473608,1.5526974,-0.29739565,-0.66690433,-0.044979744,1.3297075,1.6924026
-0.2,-0.2,0.6,-0.5235987755982988,-0.5235987755982988,0.523598775598299,1.1739926,1.5351268,0.27859452,0.439851,0.18640412,0.5158825,0.28318313,-0.36219877,1.5329872,-0.29953727,-0.6921714,-0.047318872,1.3167834,1.5797231
-0.2,-0.2,0.6,-0.5235987755982988,-0.5235987755982988,0.523598775598299,1.1925157,1.5296736,0.2789205,0.42466247,0.22322275,0.47353944,0.2908009,-0.35499236,1.5494838,-0.2957956,-0.6667746,-0.05012985,1.3058329,1.6121228
-0.2,-0.2,0.6,-0.5235987755982988,-0.5235987755982988,0.523598775598299,1.154438,1.5389105,0.2705284,0.4519359,0.16409405,0.4971453,0.3630373,-0.34965444,1.5455021,-0.31400183,-0.62824595,-0.0053980458,1.3184596,1.5541935
-0.2,-0.2,0.6,-0.5235987755982988,-0.5235987755982988,0.523598775598299,1.0947562,1.5267861,0.2670823,0.462727,0.19998066,0.5083426,0.30829537,-0.34930345,1.5340761,-0.27906153,-0.6024833,-0.061941158,1.300333,1.6010054
-0.2,-0.2,0.6,-0.5235987755982988,-0.5235987755982988,0.523598775598299,1.1530591,1.5420254,0.26259595,0.4222635,0.15317163,0.4776159,0.3076197,-0.34041625,1.5518259,-0.28528467,-0.65317905,-0.025144672,1.300635,1.4105017
-0.2,-0.2,0.6,-0.5235987755982988,-0.5235987755982988,0.523598775598299,1.1102904,1.5316164,0.27025586,0.46814153,0.20943953,0.4913872,0.2954511,-0.34843665,1.5423825,-0.3279485,-0.6530853,-0.04307891,1.3109735,1.8028831
-0.2,-0.2,0.6,-0.5235987755982988,-0.5235987755982988,0.523598775598299,1.111562,1.5294957,0.27816117,0.4455305,0.14996165,0.49749115,0.30264395,-0.3430876,1.5375341,-0.31141952,-0.6288668,-0.03483244,1.3311335,1.6380459
-0.2,-0.2,0.6,-0.5235987755982988,-0.5235987755982988,0.523598775598299,1.1311345,1.5252249,0.2807511,0.4693112,0.22279719,0.48802042,0.302084,-0.33674723,1.5444468,-0.289927,-0.6155823,-0.06324994,1.323311,1.5717602
-0.2,-0.2,0.6,-0.5235987755982988,-0.5235987755982988,0.523598775598299,1.078193,1.5313507,0.2682851,0.4315103,0.26213518,0.49981442,0.3035457,-0.34832206,1.5359144,-0.33408606,-0.7233565,-0.06336553,1.3308691,1.6062835
-0.2,-0.2,0.6,-0.5235987755982988,-0.5235987755982988,0.523598775598299,1.155283,1.5475472,0.2715513,0.47860697,0.25323802,0.48900998,0.26332304,-0.35307252,1.5324204,-0.28688598,-0.6885022,-0.053742252,1.3225302,1.7218701
-0.2,-0.2,0.6,-0.5235987755982988,-0.5235987755982988,0.523598775598299,1.1404371,1.5380226,0.26895908,0.46080488,0.14241733,0.48698223,0.29752427,-0.341534,1.5465789,-0.3072756,-0.66316086,-0.04995237,1.3590022,1.5716075
-0.2,-0.2,0.6,-0.5235987755982988,-0.5235987755982988,0.523598775598299,1.1320902,1.5393804,0.27150592,0.45317885,0.24918382,0.46871808,0.29554558,-0.34349716,1.5407469,-0.29759604,-0.6618781,-0.02872967,1.309897,1.6609241
-0.2,-0.2,0.6,-0.5235987755982988,-0.5235987755982988,0.523598775598299,1.0931323,1.5331712,0.26713315,0.47831443,0.18840031,0.5025909,0.34010458,-0.34227693,1.5431727,-0.29808795,-0.6252397,-0.017554373,1.3280894,1.5890833
-0.2,-0.2,0.6,-0.5235987755982988,-0.5235987755982988,0.523598775598299,1.1141574,1.5314622,0.28248,0.45309278,0.2557662,0.4923309,0.2819377,-0.33685628,1.5443999,-0.2964124,-0.6273074,-0.06535549,1.3127606,1.5213419
-0.2,-0.2,0.6,-0.5235987755982988,-0.5235987755982988,0.523598775598299,1.069205,1.5391848,0.28352144,0.4409372,0.28509787,0.4986314,0.3177897,-0.353814,1.5310582,-0.30465516,-0.69547987,-0.013913131,1.3462086,1.703861
-0.2,-0.2,0.6,-0.5235987755982988,-0.5235987755982988,0.523598775598299,1.1640922,1.523854,0.28019696,0.4773012,0.26827466,0.4861666,0.204256,-0.34395358,1.5440687,-0.2991692,-0.5886056,-0.03234511,1.3015481,1.7098452
-0.2,-0.2,0.6,-0.5235987755982988,-0.5235987755982988,0.523598775598299,1.0940263,1.5237933,0.27987948,0.45080012,0.27727288,0.49510846,0.17280683,-0.3435451,1.5417717,-0.30505478,-0.6352709,-0.082400165,1.3331255,1.5307105
-0.2,-0.2,0.6,-0.5235987755982988,-0.5235987755982988,0.523598775598299,1.1241918,1.5325252,0.2752441,0.44850868,0.211731,0.4909935,0.17068703,-0.33767164,1.5548816,-0.28735152,-0.64406675,0.026951991,1.3589942,1.638307
-0.2,-0.2,0.6,-0.5235987755982988,-0.5235987755982988,0.523598775598299,1.1376613,1.5266159,0.26755565,0.44865847,0.25517324,0.488424,0.28817657,-0.351158,1.5518898,-0.3208499,-0.7125767,-0.03939881,1.3227458,1.6572732
-0.2,-0.2,0.6,-0.5235987755982988,-0.5235987755982988,0.523598775598299,1.117678,1.5384437,0.26628336,0.46432033,0.2382805,0.48643404,0.33461475,-0.34074396,1.5331742,-0.28709492,-0.6373207,-0.076941706,1.3150007,1.571808
-0.2,-0.2,0.6,-0.5235987755982988,-0.5235987755982988,0.523598775598299,1.1429797,1.5323092,0.2790249,0.48105276,0.2924048,0.48502353,0.23166749,-0.3496123,1.5379661,-0.29686514,-0.56603664,-0.049593817,1.3392752,1.64062
-0.2,-0.2,0.6,-0.5235987755982988,-0.5235987755982988,0.523598775598299,1.1079657,1.5348741,0.27552307,0.44805464,0.24155222,0.47342202,0.2901731,-0.33499515,1.536864,-0.31880727,-0.716689,-0.08765116,1.337351,1.5400815
-0.2,-0.2,0.6,-0.5235987755982988,-0.5235987755982988,0.523598775598299,1.1348886,1.5425591,0.2776156,0.4601544,0.24379689,0.48435313,0.35419074,-0.35033193,1.5308332,-0.2803764,-0.5936678,-0.04372999,1.3404045,1.5418799
-0.2,-0.2,0.6,-0.5235987755982988,-0.5235987755982988,0.523598775598299,1.13179,1.5304441,0.26419494,0.42094126,0.19258533,0.48499545,0.25216487,-0.34235618,1.5406336,-0.31617218,-0.67916375,-0.06280942,1.3068267,1.6004547
-0.2,-0.2,0.6,-0.5235987755982988,-0.5235987755982988,0.523598775598299,1.1202646,1.522958,0.27147806,0.42426282,0.20303401,0.50962234,0.2469148,-0.35532337,1.5400922,-0.30471286,-0.67648715,-0.07569874,1.3403366,1.5363363
-0.2,-0.2,0.6,-0.5235987755982988,-0.5235987755982988,0.523598775598299,1.1243671,1.5413467,0.27484107,0.48997483,0.23541494,0.48368108,0.38469294,-0.35261428,1.542444,-0.3073574,-0.63837016,-0.08473381,1.316226,1.6579003
-0.2,-0.2,0.6,-0.5235987755982988,-0.5235987755982988,0.523598775598299,1.1153927,1.5333371,0.28646597,0.44098327,0.25437167,0.49615473,0.22956789,-0.34997067,1.5344912,-0.32626095,-0.66634387,-0.073656015,1.3315258,1.5468311
-0.2,-0.2,0.6,-0.5235987755982988,-0.5235987755982988,0.523598775598299,1.1313835,1.5384634,0.2750447,0.49652347,0.16305935,0.4779335,0.25276414,-0.34554857,1.5330378,-0.32610953,-0.5802738,-0.07034844,1.3205539,1.8124646
-0.2,-0.2,0.6,-0.5235987755982988,-0.5235987755982988,0.523598775598299,1.1295577,1.5496547,0.26901507,0.4546937,0.25227502,0.47922727,0.33504733,-0.3414268,1.5326767,-0.29746634,-0.618295,-0.07557596,1.319328,1.6922876
-0.2,-0.2,0.6,-0.5235987755982988,-0.5235987755982988,0.523598775598299,1.1404785,1.5206035,0.27391148,0.43101472,0.21862502,0.49702042,0.25610775,-0.3370697,1.5463371,-0.29467615,-0.65405947,-0.06826736,1.3301728,1.6186328
-0.2,-0.2,0.6,-0.5235987755982988,-0.5235987755982988,0.523598775598299,1.1682063,1.5344374,0.2707411,0.44890836,0.2414955,0.48296088,0.31086215,-0.34683844,1.5516235,-0.30282825,-0.6383193,-0.08260803,1.3297836,1.5714936
-0.2,-0.2,0.6,-0.5235987755982988,-0.5235987755982988,0.523598775598299,1.1265647,1.5349264,0.27794918,0.46154463,0.16544896,0.4789051,0.23210019,-0.34463835,1.541602,-0.327408,-0.60343814,-0.062518544,1.336026,1.6424075
-0.2,-0.2,0.6,-0.5235987755982988,-0.5235987755982988,0.523598775598299,1.0911866,1.5397434,0.27260715,0.44779322,0.2617763,0.5036026,0.32227203,-0.3495793,1.5326871,-0.3122538,-0.6078342,0.00042102867,1.3096344,1.6197418
-0.2,-0.2,0.6,-0.5235987755982988,-0.5235987755982988,0.523598775598299,1.1489854,1.5252349,0.26796803,0.43800774,0.2817623,0.4916695,0.20838565,-0.34417403,1.538433,-0.29645535,-0.6279684,-0.06480224,1.3078983,1.5544484
-0.2,-0.2,0.6,-0.5235987755982988,-0.5235987755982988,0.523598775598299,1.1493696,1.5271904,0.2678897,0.5109735,0.20835058,0.5090891,0.27663592,-0.34718266,1.5378245,-0.33270955,-0.6589591,-0.046138916,1.3080008,1.5050105
-0.2,-0.2,0.6,-0.5235987755982988,-0.5235987755982988,0.523598775598299,1.1227319,1.5506947,0.28080577,0.43514913,0.21120568,0.4862022,0.26998287,-0.34835166,1.540422,-0.29751992,-0.7045198,-0.10960911,1.331907,1.548746
-0.2,-0.2,0.6,-0.5235987755982988,-0.5235987755982988,0.523598775598299,1.1108797,1.5285318,0.27991167,0.44704473,0.1308489,0.4947605,0.26704323,-0.34960952,1.5427129,-0.2992976,-0.60626376,-0.03307865,1.3250036,1.6155387
-0.2,-0.2,0.6,-0.5235987755982988,-0.5235987755982988,0.523598775598299,1.1233115,1.5441583,0.2741874,0.43707922,0.21507795,0.50484794,0.24970332,-0.3476768,1.5441284,-0.3210691,-0.7028259,-0.050017256,1.3458744,1.5191987
-0.2,-0.2,0.6,-0.5235987755982988,-0.5235987755982988,0.523598775598299,1.1308041,1.539077,0.25421217,0.5151001,0.25813174,0.48143724,0.2568545,-0.34707698,1.5463473,-0.30288157,-0.59239846,-0.01178716,1.3336099,1.6190045
-0.2,-0.2,0.6,-0.5235987755982988,-0.5235987755982988,0.523598775598299,1.0855064,1.536125,0.28427422,0.45112264,0.21128228,0.5030154,0.31653258,-0.34200293,1.5358171,-0.30892727,-0.663695,-0.103526585,1.3025037,1.5586177
-0.2,-0.2,0.6,-0.5235987755982988,-0.5235987755982988,0.523598775598299,1.1836431,1.5374624,0.26336473,0.4606823,0.13958102,0.48312467,0.48240063,-0.3374287,1.5400841,-0.30932006,-0.6496361,-0.05313808,1.3611012,1.6224979
-0.2,-0.2,0.6,-0.5235987755982988,-0.5235987755982988,0.523598775598299,1.1135541,1.5400696,0.27269688,0.4577783,0.2242699,0.4827922,0.29574117,-0.3504219,1.5570188,-0.30917066,-0.68818957,-0.07037921,1.3143708,1.5529547
-0.2,-0.2,0.6,-0.5235987755982988,-0.5235987755982988,0.523598775598299,1.1036295,1.5346035,0.28372332,0.45181343,0.228036,0.47934455,0.2710847,-0.3455806,1.5397309,-0.3149942,-0.5989932,-0.01683157,1.3297943,1.6135863
-0.2,-0.2,0.6,-0.5235987755982988,-0.5235987755982988,0.523598775598299,1.1417828,1.5316682,0.28118342,0.43884325,0.20687576,0.50315565,0.24171023,-0.35169613,1.551187,-0.30728576,-0.6238016,-0.10249407,1.3064762,1.6559391
-0.2,-0.2,0.6,-0.5235987755982988,-0.5235987755982988,0.523598775598299,1.1653723,1.5349967,0.27643088,0.45758817,0.24207723,0.48407862,0.29349372,-0.33384764,1.5418688,-0.29049468,-0.62837243,-0.02011578,1.3211334,1.510249
-0.2,-0.2,0.6,-0.5235987755982988,-0.5235987755982988,0.523598775598299,1.160386,1.5219226,0.27303484,0.47828004,0.21807072,0.4920921,0.29440206,-0.34805864,1.5373694,-0.30200216,-0.61238444,0.02716769,1.3095081,1.6436608
-0.2,-0.2,0.6,-0.5235987755982988,-0.5235987755982988,0.523598775598299,1.1831139,1.540517,0.27799577,0.43828776,0.28747752,0.5057415,0.21446344,-0.35254666,1.5454761,-0.31268314,-0.7087193,-0.01365647,1.3321701,1.5485258
-0.2,-0.2,0.6,-0.5235987755982988,-0.5235987755982988,0.523598775598299,1.1079572,1.5348622,0.28739035,0.46220502,0.2539704,0.47097483,0.33168247,-0.35262445,1.5502505,-0.3220931,-0.6145794,-0.026747169,1.3276578,1.5956951
-0.2,-0.2,0.6,-0.5235987755982988,-0.5235987755982988,0.523598775598299,1.1465266,1.530249,0.28809988,0.4468503,0.25455695,0.50364006,0.37622756,-0.34392348,1.5489168,-0.31346938,-0.64714897,-0.07994416,1.3248936,1.7006072
-0.2,-0.2,0.6,-0.5235987755982988,-0.5235987755982988,0.523598775598299,1.1454381,1.5407865,0.2758215,0.4309666,0.27015483,0.5085815,0.2635843,-0.33561915,1.5403457,-0.3165414,-0.6330988,0.0074478686,1.3037504,1.640858
-0.2,-0.2,0.6,-0.5235987755982988,-0.5235987755982988,0.523598775598299,1.1550114,1.5369835,0.27554882,0.46385765,0.15873763,0.4844211,0.22760184,-0.3404544,1.5429024,-0.30274588,-0.6169444,-0.04504446,1.3181872,1.5748156
-0.2,-0.2,0.6,-0.5235987755982988,-0.5235987755982988,0.523598775598299,1.125364,1.5278639,0.27978012,0.43963546,0.24020515,0.49349022,0.2967742,-0.33644274,1.5505246,-0.30547944,-0.65566355,-0.08122721,1.3280989,1.4952856
-0.2,-0.2,0.6,-0.5235987755982988,-0.5235987755982988,0.523598775598299,1.116736,1.5260234,0.27691743,0.43326107,0.25619033,0.49257627,0.3557161,-0.34860447,1.5435839,-0.31120762,-0.67803687,-0.023365159,1.3294672,1.6521726
-0.2,-0.2,0.6,-0.5235987755982988,-0.5235987755982988,0.523598775598299,1.1154187,1.5297841,0.27944955,0.43927824,0.27545455,0.47798675,0.34832853,-0.3526577,1.5333118,-0.31280655,-0.6401252,-0.072028615,1.2970142,1.5439256
-0.2,-0.2,0.6,-0.5235987755982988,-0.5235987755982988,0.523598775598299,1.1278965,1.5382162,0.27662542,0.48465934,0.2772859,0.4935252,0.25301108,-0.33181143,1.5566899,-0.30472723,-0.5834878,-0.017839879,1.2820904,1.4561417
-0.2,-0.2,0.6,-0.5235987755982988,-0.5235987755982988,0.523598775598299,1.1576722,1.5392106,0.26975435,0.45093518,0.19085856,0.51144165,0.18769382,-0.3473933,1.5373697,-0.30126357,-0.63851583,-0.054790325,1.3237467,1.6169894
-0.2,-0.2,0.6,-0.5235987755982988,-0.5235987755982988,0.523598775598299,1.1460279,1.5401157,0.28094015,0.4147354,0.2677904,0.48442107,0.3247563,-0.3437604,1.5482088,-0.30812782,-0.68679005,-0.008365902,1.3028252,1.6828005
-0.2,-0.2,0.6,-0.5235987755982988,-0.5235987755982988,0.523598775598299,1.1128163,1.5322678,0.26443255,0.44309416,0.23241606,0.4879039,0.2485269,-0.34481356,1.5459349,-0.28445137,-0.63223547,-0.037807,1.3422083,1.6182936
-0.2,-0.2,0.6,-0.5235987755982988,-0.5235987755982988,0.523598775598299,1.1152049,1.5355651,0.280357,0.44964322,0.20738819,0.48352706,0.27519464,-0.35997838,1.5311803,-0.31109652,-0.5711659,-0.037561588,1.3060149,1.5734363
-0.2,-0.2,0.6,-0.5235987755982988,-0.5235987755982988,0.523598775598299,1.1295722,1.5353855,0.27845907,0.4531662,0.18948199,0.49505436,0.29825014,-0.35799256,1.5361013,-0.3123763,-0.6511266,-0.023062754,1.3331244,1.6085312
-0.2,-0.2,0.6,-0.5235987755982988,-0.5235987755982988,0.523598775598299,1.1016241,1.5314468,0.27633893,0.42803618,0.25797284,0.48349103,0.3520166,-0.3558373,1.5406383,-0.3006531,-0.6540883,-0.051865753,1.3496084,1.7417839
-0.2,-0.2,0.6,-0.5235987755982988,-0.5235987755982988,0.523598775598299,1.1356624,1.5291029,0.27189887,0.4522359,0.2850471,0.49070963,0.23294501,-0.3551443,1.5400541,-0.32588887,-0.60367715,-0.033897176,1.313622,1.564078
-0.2,-0.2,0.6,-0.5235987755982988,-0.5235987755982988,0.523598775598299,1.1058755,1.530164,0.2737855,0.4589858,0.25348622,0.49085772,0.30436784,-0.35046524,1.5444217,-0.30641094,-0.6235209,-0.071239434,1.3045973,1.4410985
-0.2,-0.2,0.6,-0.5235987755982988,-0.5235987755982988,0.523598775598299,1.1675214,1.5253628,0.27046865,0.45700148,0.24971202,0.48608416,0.37956524,-0.3477062,1.5391108,-0.30618742,-0.6711778,-0.05790262,1.3659583,1.6974443
-0.2,-0.2,0.6,-0.5235987755982988,-0.5235987755982988,0.523598775598299,1.1330675,1.5245278,0.27519014,0.44588158,0.20342979,0.49899194,0.22373492,-0.35032764,1.5393525,-0.3231649,-0.64067215,-0.08326085,1.2986662,1.5787561
-0.2,-0.2,0.6,-0.5235987755982988,-0.5235987755982988,0.523598775598299,1.1098413,1.54634,0.27801663,0.45098868,0.23246706,0.47609913,0.28884643,-0.36548784,1.5485231,-0.29756486,-0.67724323,-0.04876026,1.2807478,1.7452592
-0.2,-0.2,0.6,-0.5235987755982988,-0.5235987755982988,0.523598775598299,1.1021473,1.5268834,0.27920213,0.46025664,0.21347542,0.47394097,0.33780766,-0.33617675,1.5310279,-0.32809514,-0.6167613,-0.05871598,1.3173013,1.749415
-0.2,-0.2,0.6,-0.5235987755982988,-0.5235987755982988,0.523598775598299,1.1221153,1.5330325,0.27129993,0.46231213,0.26422283,0.48477274,0.30353144,-0.3501611,1.547606,-0.29236335,-0.6237987,-0.0021055404,1.3405918,1.6096994
-0.2,-0.2,0.6,-0.5235987755982988,-0.5235987755982988,0.523598775598299,1.095592,1.5427464,0.26490867,0.4597499,0.22062382,0.4936123,0.37582022,-0.3489773,1.5387936,-0.31418085,-0.6371173,-0.08669049,1.3250815,1.6227477
-0.2,-0.2,0.6,-0.5235987755982988,-0.5235987755982988,0.523598775598299,1.1008385,1.5267884,0.27447444,0.4627244,0.17802522,0.46023324,0.3617324,-0.34039602,1.5454205,-0.28991175,-0.6457217,-0.10891612,1.3550444,1.6839379
-0.2,-0.2,0.6,-0.5235987755982988,-0.5235987755982988,0.523598775598299,1.086557,1.5438974,0.28284928,0.4571007,0.26414156,0.49308467,0.36055866,-0.34957615,1.5371273,-0.28809637,-0.61763173,-0.04163262,1.3106945,1.5625495
-0.2,-0.2,0.6,-0.5235987755982988,-0.5235987755982988,0.523598775598299,1.1587535,1.5290929,0.26591504,0.44981688,0.18253066,0.48001853,0.33853272,-0.35184097,1.5392933,-0.3087887,-0.5899468,0.030279692,1.3109342,1.5356752
-0.2,-0.2,0.6,-0.5235987755982988,-0.5235987755982988,0.523598775598299,1.0966294,1.5311089,0.26968,0.43408728,0.26563388,0.48729995,0.29962727,-0.3457088,1.5401784,-0.2886631,-0.6660857,-0.026040217,1.3167,1.5542861
-0.2,-0.2,0.6,-0.5235987755982988,-0.5235987755982988,0.523598775598299,1.1163669,1.5288833,0.27306485,0.4431493,0.22927235,0.4796653,0.21789618,-0.34608215,1.5333387,-0.33239308,-0.6600821,-0.076063484,1.3210453,1.6583917
-0.2,-0.2,0.6,-0.5235987755982988,-0.5235987755982988,0.523598775598299,1.1042717,1.5301417,0.27472064,0.47643274,0.20849827,0.4729017,0.36017826,-0.33402935,1.5446212,-0.2937227,-0.6517996,-0.09674952,1.3346252,1.7314796
-0.2,-0.2,0.6,-0.5235987755982988,-0.5235987755982988,0.523598775598299,1.1209049,1.532848,0.2676449,0.44909975,0.14731674,0.483353,0.2510423,-0.35106,1.5458412,-0.32437995,-0.65512013,-0.081346534,1.3262119,1.6023997
-0.2,-0.2,0.6,-0.5235987755982988,-0.5235987755982988,0.523598775598299,1.1112207,1.5250458,0.26675838,0.4495731,0.21109955,0.48929846,0.24520831,-0.33899796,1.5439914,-0.30766207,-0.61472934,-0.08772824,1.2830689,1.4652364
-0.2,-0.2,0.6,-0.5235987755982988,-0.5235987755982988,0.523598775598299,1.0852988,1.5363896,0.290824,0.45208824,0.20985828,0.47769615,0.38338917,-0.34222904,1.5399159,-0.32079008,-0.64935994,-0.066209726,1.3304338,1.588449
-0.2,-0.2,0.6,-0.5235987755982988,-0.5235987755982988,0.523598775598299,1.0887507,1.5438737,0.27242163,0.44950637,0.24634568,0.49924442,0.3219372,-0.3482356,1.5502985,-0.30466437,-0.64430857,-0.07876475,1.3411669,1.6350628
-0.2,-0.2,0.6,-0.5235987755982988,-0.5235987755982988,0.523598775598299,1.0922223,1.532666,0.27424172,0.45135835,0.20049891,0.49199998,0.2845905,-0.35013738,1.5443894,-0.29309225,-0.6918132,-0.033011794,1.3155085,1.7050743
-0.2,-0.2,0.6,-0.5235987755982988,-0.5235987755982988,0.523598775598299,1.1147902,1.5265392,0.2826071,0.44482687,0.22600412,0.4762756,0.23515365,-0.360969,1.5374826,-0.28055334,-0.6285811,-0.046547722,1.3127172,1.643281
-0.2,-0.2,0.6,-0.5235987755982988,-0.5235987755982988,0.523598775598299,1.1592404,1.5464203,0.26929024,0.42754105,0.23979822,0.50808,0.25895324,-0.34553796,1.5394781,-0.31008464,-0.6364195,-0.009040545,1.3524926,1.6819202
-0.2,-0.2,0.6,-0.5235987755982988,-0.5235987755982988,0.523598775598299,1.0928323,1.5443282,0.27927905,0.45151874,0.2297621,0.48759544,0.2658505,-0.35642388,1.5473926,-0.28573358,-0.6363931,-0.10203238,1.3077004,1.6460568
-0.2,-0.2,0.6,-0.5235987755982988,-0.5235987755982988,0.523598775598299,1.1787224,1.5399865,0.2630516,0.43736714,0.22879389,0.499969,0.2788151,-0.34124616,1.5504608,-0.27709815,-0.6784376,-0.0659045,1.3109555,1.6196585
-0.2,-0.2,0.6,-0.5235987755982988,-0.5235987755982988,0.523598775598299,1.1250905,1.539099,0.2741651,0.44893637,0.2697397,0.48653054,0.21342278,-0.35598403,1.5375626,-0.29066488,-0.6107535,-0.026354041,1.3065485,1.5628071
-0.2,-0.2,0.6,-0.5235987755982988,-0.5235987755982988,0.523598775598299,1.1504205,1.5327137,0.28626338,0.4652227,0.22716407,0.5185154,0.23700872,-0.3425997,1.5571291,-0.32480535,-0.61812145,-0.052174874,1.296094,1.6303527
-0.2,-0.2,0.6,-0.5235987755982988,-0.5235987755982988,0.523598775598299,1.1189784,1.5299624,0.28857896,0.4491916,0.3264553,0.48450303,0.27436343,-0.3530733,1.5504239,-0.33397517,-0.6535903,-0.026625011,1.3009474,1.5588856
-0.2,-0.2,0.6,-0.5235987755982988,-0.5235987755982988,0.523598775598299,1.1115625,1.5334437,0.2639286,0.4419751,0.1732579,0.49089706,0.3291928,-0.35589316,1.5423343,-0.31785613,-0.6575545,-0.10617448,1.3237269,1.7544843
-0.2,-0.2,0.6,-0.5235987755982988,-0.5235987755982988,0.523598775598299,1.1038108,1.5277667,0.27673927,0.44263023,0.21100189,0.5010218,0.36088422,-0.3400332,1.5446055,-0.28681695,-0.5934932,-0.117730774,1.3092124,1.596753
-0.2,-0.2,0.6,-0.5235987755982988,-0.5235987755982988,0.523598775598299,1.113467,1.5239003,0.2744738,0.46348894,0.21382925,0.4798699,0.3489698,-0.34557566,1.5489678,-0.32949445,-0.6727839,-0.11998719,1.3406497,1.7293245
-0.2,-0.2,0.6,-0.5235987755982988,-0.5235987755982988,0.523598775598299,1.0989457,1.5390815,0.28108102,0.4690873,0.23333265,0.46829566,0.29907694,-0.35803834,1.5446633,-0.28872687,-0.593134,-0.11055734,1.3214644,1.526103
-0.2,-0.2,0.6,-0.5235987755982988,-0.5235987755982988,0.523598775598299,1.1303841,1.5357804,0.27227148,0.433644,0.18999903,0.50437397,0.30726913,-0.35058346,1.5505236,-0.34568763,-0.68083924,-0.04391599,1.3078114,1.6249293
-0.2,-0.2,0.6,-0.5235987755982988,-0.5235987755982988,0.523598775598299,1.1265836,1.5384191,0.28055692,0.42659685,0.2440163,0.49238116,0.32812622,-0.3427835,1.5513796,-0.28943855,-0.6428776,-0.08922079,1.3237967,1.7379864
-0.2,-0.2,0.6,-0.5235987755982988,-0.5235987755982988,0.523598775598299,1.1094812,1.5353411,0.2640918,0.44471997,0.2394136,0.4929796,0.24137461,-0.35153443,1.5305816,-0.31608057,-0.6273493,-0.05739162,1.3179134,1.6029269
-0.2,-0.2,0.6,-0.5235987755982988,-0.5235987755982988,0.523598775598299,1.1389751,1.5279464,0.27716094,0.46683756,0.18725795,0.4742367,0.4417372,-0.3521741,1.5336456,-0.32216552,-0.61758596,-0.038582206,1.3274572,1.7112755
-0.2,-0.2,0.6,-0.5235987755982988,-0.5235987755982988,0.523598775598299,1.1351027,1.5272489,0.28135514,0.47474384,0.19864558,0.48755568,0.2809649,-0.35990933,1.5505451,-0.3206991,-0.6203745,-0.03743185,1.3208703,1.7909594
-0.2,-0.2,0.6,-0.5235987755982988,-0.5235987755982988,0.523598775598299,1.1116894,1.5324246,0.2731571,0.45198873,0.26542872,0.51145595,0.27123025,-0.34238243,1.5354533,-0.3183903,-0.5989626,-0.012777543,1.2974982,1.4722548
-0.2,-0.2,0.6,-0.5235987755982988,-0.5235987755982988,0.523598775598299,1.1212894,1.5422676,0.2645152,0.4615659,0.20643614,0.49052623,0.30316028,-0.34141162,1.5488675,-0.3121264,-0.6676297,-0.057889957,1.3148218,1.7271568
-0.2,-0.2,0.6,-0.5235987755982988,-0.5235987755982988,0.523598775598299,1.1436837,1.5375149,0.26287568,0.42518598,0.21567334,0.49055037,0.3449232,-0.353068,1.5499513,-0.3145021,-0.64195687,-0.054812174,1.2968998,1.5282488
-0.2,-0.2,0.6,-0.5235987755982988,-0.5235987755982988,0.523598775598299,1.127697,1.5402888,0.27799475,0.45430198,0.23520693,0.47851822,0.24607226,-0.34034482,1.5448693,-0.29553556,-0.656158,-0.07722203,1.3142195,1.7195492
-0.2,-0.2,0.6,-0.5235987755982988,-0.5235987755982988,0.523598775598299,1.1207912,1.5268983,0.28374282,0.49371457,0.19299068,0.49307305,0.2677763,-0.35623795,1.5388166,-0.3101062,-0.6075004,-0.037732136,1.2761621,1.5609194
-0.2,-0.2,0.6,-0.5235987755982988,-0.5235987755982988,0.523598775598299,1.153914,1.5459706,0.27597362,0.47456172,0.23048897,0.48971018,0.2236725,-0.36060974,1.5336134,-0.3226931,-0.6256426,-0.059759468,1.3307902,1.7029673
-0.2,-0.2,0.6,-0.5235987755982988,-0.5235987755982988,0.523598775598299,1.109425,1.5296845,0.2640808,0.41431212,0.26905525,0.4845432,0.2790612,-0.33885464,1.5345352,-0.30568218,-0.6207856,-0.020566674,1.298508,1.4607997
-0.2,-0.2,0.6,-0.5235987755982988,-0.5235987755982988,0.523598775598299,1.1214465,1.5510491,0.27451438,0.45094562,0.27920172,0.47496995,0.2630913,-0.34839416,1.5423131,-0.31728327,-0.632765,-0.0643426,1.3267926,1.6970708
-0.2,-0.2,0.6,-0.5235987755982988,-0.5235987755982988,0.523598775598299,1.135392,1.5371101,0.27709967,0.45079863,0.19017981,0.46302828,0.22544794,-0.34431455,1.533456,-0.297705,-0.64483637,-0.029039944,1.3340225,1.6646981
-0.2,-0.2,0.6,-0.5235987755982988,-0.5235987755982988,0.523598775598299,1.1420007,1.5191611,0.27083355,0.44875783,0.15012862,0.4750807,0.2192137,-0.34728882,1.5536109,-0.27608365,-0.6537004,-0.03910442,1.3462709,1.5974594
-0.2,-0.2,0.6,-0.5235987755982988,-0.5235987755982988,0.523598775598299,1.1603703,1.5422902,0.27379972,0.46307927,0.21059215,0.4965971,0.29947436,-0.34891424,1.5395627,-0.30487612,-0.5961821,-0.040112514,1.3284172,1.5069615
-0.2,-0.2,0.6,-0.5235987755982988,-0.5235987755982988,0.523598775598299,1.1056868,1.5387702,0.28136772,0.4421491,0.19743879,0.49927318,0.36107814,-0.35089782,1.5392232,-0.3249569,-0.6732468,-0.0450812,1.3291913,1.3731058
-0.2,-0.2,0.6,-0.5235987755982988,-0.5235987755982988,0.523598775598299,1.1373624,1.5303912,0.27527314,0.45467272,0.2624995,0.4795115,0.33583724,-0.35935122,1.5376533,-0.28711647,-0.6584727,-0.021912074,1.3246593,1.5445426
-0.2,-0.2,0.6,-0.5235987755982988,-0.5235987755982988,0.523598775598299,1.1232173,1.5387349,0.27011007,0.4632367,0.21919467,0.4840315,0.29156157,-0.34699416,1.5331814,-0.29875055,-0.6798344,-0.09156145,1.3216745,1.5580931
-0.2,-0.2,0.6,-0.5235987755982988,-0.5235987755982988,0.523598775598299,1.1047739,1.5434601,0.27513123,0.49581677,0.1990112,0.48101655,0.114993066,-0.34552804,1.5506805,-0.29880995,-0.6426951,-0.08460349,1.339623,1.6237501
-0.2,-0.2,0.6,-0.5235987755982988,-0.5235987755982988,0.523598775598299,1.1364392,1.5312095,0.27390963,0.51100385,0.22940938,0.48643813,0.25240844,-0.34226453,1.552283,-0.31307206,-0.6165323,-0.07915009,1.3662822,1.7235134
-0.2,-0.2,0.6,-0.5235987755982988,-0.5235987755982988,0.523598775598299,1.1332748,1.5324808,0.27889597,0.45673236,0.21578817,0.47773615,0.24107899,-0.34727642,1.5383527,-0.32476467,-0.6776215,-0.07574031,1.3147285,1.6082331
