sanky1234/BimanualDexCatch/isaacgymenvs/cem_results/football_pose_-0.2_0.10000000000000003_0.6_-0.5235987755982988_0.0_0_2025-05-25.csv
x,y,z,roll,pitch,yaw,robot1/joint1,robot1/joint2,robot1/joint3,robot1/joint4,robot1/joint5,robot1/joint6,robot1/joint7,robot2/joint1,robot2/joint2,robot2/joint3,robot2/joint4,robot2/joint5,robot2/joint6,robot2/joint7
-0.2,0.10000000000000003,0.6,-0.5235987755982988,0.0,0,0.14826545,1.9641058,0.4703849,-0.6783491,0.29038793,1.5192593,-1.064219,-1.1588428,1.3484402,0.33164507,0.12951915,-0.39643317,1.0841397,1.4427227
-0.2,0.10000000000000003,0.6,-0.5235987755982988,0.0,0,0.1754673,1.9441417,0.4722531,-0.7154581,0.2615912,1.517138,-0.089491695,-1.189348,1.3461266,0.31520092,0.12140703,-0.37762946,1.0714757,1.3283936
-0.2,0.10000000000000003,0.6,-0.5235987755982988,0.0,0,0.12043799,1.9929063,0.48544985,-0.6791539,0.297885,1.522763,0.5135307,-1.1769853,1.3355714,0.33612236,0.1179084,-0.40311065,1.07516,1.2078617
-0.2,0.10000000000000003,0.6,-0.5235987755982988,0.0,0,0.13452789,1.9578271,0.46838263,-0.69732976,0.30842867,1.5141685,-0.75091165,-1.2090666,1.3544679,0.339705,0.1206083,-0.38093102,1.0903254,1.4257512
-0.2,0.10000000000000003,0.6,-0.5235987755982988,0.0,0,0.15558662,1.9480582,0.47785884,-0.6831953,0.26759374,1.5205714,-1.2724661,-1.1920881,1.3548833,0.33219463,0.13625519,-0.37851387,1.0910624,1.1429057
-0.2,0.10000000000000003,0.6,-0.5235987755982988,0.0,0,0.13978563,1.9740654,0.47931746,-0.69756615,0.29724717,1.5401906,0.067549415,-1.179647,1.3507528,0.35078362,0.13323241,-0.38598204,1.0776451,1.0591044
-0.2,0.10000000000000003,0.6,-0.5235987755982988,0.0,0,0.104148716,1.9613072,0.45855644,-0.68192583,0.2702856,1.5144414,-0.91958505,-1.2118908,1.3484554,0.33186787,0.12398288,-0.35645136,1.0475281,1.3075869
-0.2,0.10000000000000003,0.6,-0.5235987755982988,0.0,0,0.1352832,1.9865696,0.45899373,-0.7019981,0.29430982,1.5286012,-0.63734066,-1.1946757,1.3607506,0.30737638,0.11844132,-0.39101797,1.0737671,1.4418931
-0.2,0.10000000000000003,0.6,-0.5235987755982988,0.0,0,0.13610525,1.961238,0.46856576,-0.6929123,0.28080633,1.5271354,-2.41622,-1.1935264,1.3606284,0.31652808,0.14420445,-0.37054437,1.0928923,1.2978874
-0.2,0.10000000000000003,0.6,-0.5235987755982988,0.0,0,0.13161105,1.9801414,0.5087617,-0.6952777,0.29934952,1.5032157,-1.0739894,-1.1745797,1.3623544,0.3055224,0.12209579,-0.39979,1.0802314,1.2702487
-0.2,0.10000000000000003,0.6,-0.5235987755982988,0.0,0,0.12490164,1.9758022,0.43714625,-0.71818376,0.29016396,1.5353428,-0.4439765,-1.1908333,1.3502781,0.36168557,0.118856445,-0.38832217,1.084461,1.2363622
-0.2,0.10000000000000003,0.6,-0.5235987755982988,0.0,0,0.09687137,1.9832056,0.48908436,-0.71688974,0.31133252,1.524663,-0.83190084,-1.2011039,1.3656465,0.3514346,0.13909025,-0.37864718,1.0893859,1.2709521
-0.2,0.10000000000000003,0.6,-0.5235987755982988,0.0,0,0.1823441,1.94108,0.48074362,-0.7034616,0.29795587,1.4817979,-2.506929,-1.1704345,1.3519864,0.33915094,0.13922413,-0.39845455,1.0893672,1.3686004
-0.2,0.10000000000000003,0.6,-0.5235987755982988,0.0,0,0.13946648,1.9720564,0.4837268,-0.71221226,0.27901018,1.5322185,-0.8423983,-1.1738265,1.3581594,0.31970826,0.121810876,-0.38690424,1.0712782,1.2733929
-0.2,0.10000000000000003,0.6,-0.5235987755982988,0.0,0,0.1186607,1.9626559,0.46509832,-0.70789003,0.2833524,1.5349904,-0.58626777,-1.1948608,1.3513486,0.33515942,0.12690756,-0.40709183,1.0837553,1.2234325
-0.2,0.10000000000000003,0.6,-0.5235987755982988,0.0,0,0.14065462,1.9657329,0.46014783,-0.6909293,0.30773744,1.5244505,-2.3566747,-1.1836386,1.3557208,0.33192974,0.1412459,-0.37947464,1.0973994,1.1507647
-0.2,0.10000000000000003,0.6,-0.5235987755982988,0.0,0,0.16785598,1.9737877,0.4571698,-0.70229256,0.31071782,1.5338584,-0.6968144,-1.1867003,1.3662214,0.3094951,0.12313108,-0.37595353,1.1059111,1.5324861
-0.2,0.10000000000000003,0.6,-0.5235987755982988,0.0,0,0.14594994,1.9796638,0.48780692,-0.69406277,0.2711958,1.5425123,-1.1286873,-1.1601665,1.3447903,0.2983965,0.11769661,-0.373521,1.0912942,1.1751465
-0.2,0.10000000000000003,0.6,-0.5235987755982988,0.0,0,0.15279987,1.9746127,0.47525683,-0.6982954,0.28007197,1.531738,-0.835094,-1.180977,1.357854,0.32684657,0.13768432,-0.41061854,1.0759413,1.2266477
-0.2,0.10000000000000003,0.6,-0.5235987755982988,0.0,0,0.14001802,1.9693295,0.46997523,-0.7111891,0.28450823,1.5222313,-0.65638804,-1.171772,1.3546084,0.31619415,0.12758186,-0.38599387,1.1006327,1.4485801
-0.2,0.10000000000000003,0.6,-0.5235987755982988,0.0,0,0.10970754,1.9865557,0.48193276,-0.6723627,0.28594908,1.5156713,-0.110599466,-1.2152008,1.3491514,0.3243362,0.12886916,-0.35373923,1.1040666,1.1653016
-0.2,0.10000000000000003,0.6,-0.5235987755982988,0.0,0,0.17303267,1.9579655,0.47850597,-0.72979194,0.30050468,1.5245218,-0.06081179,-1.1655307,1.358304,0.32223547,0.124378756,-0.39277813,1.0876079,1.3241929
-0.2,0.10000000000000003,0.6,-0.5235987755982988,0.0,0,0.13647671,1.9595407,0.46671182,-0.7077242,0.28843617,1.5447409,-2.3421931,-1.140661,1.3511839,0.29009593,0.13315241,-0.37066084,1.087815,1.1614176
-0.2,0.10000000000000003,0.6,-0.5235987755982988,0.0,0,0.14192212,1.9641696,0.46239638,-0.7010345,0.3117927,1.528155,-0.056941655,-1.1810561,1.3619305,0.3363125,0.1227067,-0.39075175,1.0872685,1.4589167
-0.2,0.10000000000000003,0.6,-0.5235987755982988,0.0,0,0.13939615,1.9630188,0.48593274,-0.6990543,0.290108,1.5306606,-0.0415715,-1.2190962,1.3493695,0.30807933,0.122439295,-0.3941005,1.0734437,1.3531556
-0.2,0.10000000000000003,0.6,-0.5235987755982988,0.0,0,0.14853947,1.9845265,0.47052956,-0.72721434,0.31024635,1.5305501,-0.5494608,-1.2162851,1.349659,0.3268503,0.11757287,-0.36610857,1.0847906,1.5007958
-0.2,0.10000000000000003,0.6,-0.5235987755982988,0.0,0,0.15214476,1.9704839,0.4664867,-0.69523674,0.3053057,1.5210795,0.057858802,-1.2003658,1.3655983,0.31606835,0.11202213,-0.36622033,1.0675461,1.3406954
-0.2,0.10000000000000003,0.6,-0.5235987755982988,0.0,0,0.12955317,1.9377515,0.4824726,-0.6845405,0.29032314,1.514892,-1.4233309,-1.197653,1.3496426,0.32305005,0.1355195,-0.38539392,1.0699615,1.4020398
-0.2,0.10000000000000003,0.6,-0.5235987755982988,0.0,0,0.14438644,1.9700902,0.4634618,-0.68943423,0.3046659,1.5442555,-1.255568,-1.1976434,1.3554139,0.33755296,0.12107722,-0.3607549,1.067265,1.2421917
-0.2,0.10000000000000003,0.6,-0.5235987755982988,0.0,0,0.11290766,1.9677557,0.48055547,-0.7104948,0.30359742,1.5173253,-0.83194506,-1.1924173,1.3563951,0.34298304,0.12570836,-0.37703615,1.0830287,1.1914778
-0.2,0.10000000000000003,0.6,-0.5235987755982988,0.0,0,0.13367082,1.9693847,0.5074706,-0.6558711,0.29147667,1.518482,-1.7899476,-1.2180319,1.3456982,0.3185828,0.12217551,-0.35987782,1.0859511,1.3070202
-0.2,0.10000000000000003,0.6,-0.5235987755982988,0.0,0,0.17686073,1.9975563,0.46504924,-0.67931587,0.27834517,1.5318164,0.009550818,-1.1786319,1.3419086,0.32064402,0.1170823,-0.39345026,1.0659548,1.2413979
-0.2,0.10000000000000003,0.6,-0.5235987755982988,0.0,0,0.20946415,1.972618,0.50391716,-0.75189465,0.30614278,1.5138731,-1.6440225,-1.182776,1.3523319,0.31644028,0.1343564,-0.38859677,1.0857506,1.4820454
-0.2,0.10000000000000003,0.6,-0.5235987755982988,0.0,0,0.08565631,1.9928851,0.5105171,-0.69127005,0.24248473,1.5406457,-0.7696973,-1.2334887,1.3372868,0.30297,0.11800294,-0.3760577,1.0901787,1.345363
-0.2,0.10000000000000003,0.6,-0.5235987755982988,0.0,0,0.1628427,1.9690435,0.5005644,-0.67261547,0.27958184,1.5149584,-1.4487877,-1.1798065,1.3570402,0.3272109,0.12231124,-0.3803017,1.0799859,1.5498822
-0.2,0.10000000000000003,0.6,-0.5235987755982988,0.0,0,0.13674317,1.9745551,0.48786554,-0.7127827,0.3005334,1.5482134,-0.44796672,-1.2141997,1.3579055,0.30004907,0.12297985,-0.38287303,1.09822,1.3534951
-0.2,0.10000000000000003,0.6,-0.5235987755982988,0.0,0,0.18921539,1.9855026,0.47842297,-0.7256975,0.30328482,1.4998783,-2.3450654,-1.1827619,1.3569944,0.35080907,0.11848744,-0.3679486,1.0733588,1.1048273
-0.2,0.10000000000000003,0.6,-0.5235987755982988,0.0,0,0.12083237,1.9548413,0.47738636,-0.6659743,0.2698937,1.5458597,-1.5407218,-1.2000794,1.3471966,0.32002467,0.11188598,-0.37367982,1.0957199,1.0173844
-0.2,0.10000000000000003,0.6,-0.5235987755982988,0.0,0,0.16845372,1.9701247,0.47214508,-0.6954513,0.30676797,1.5276061,-1.9897114,-1.1880835,1.3624873,0.3162202,0.12920527,-0.38911012,1.09503,1.2929163
-0.2,0.10000000000000003,0.6,-0.5235987755982988,0.0,0,0.118509114,1.9528755,0.47149038,-0.67982197,0.28784835,1.5286268,-0.6082989,-1.2098062,1.3517466,0.30856818,0.119730935,-0.37232846,1.084795,1.0578492
-0.2,0.10000000000000003,0.6,-0.5235987755982988,0.0,0,0.14768305,1.9758406,0.4736261,-0.710559,0.30923873,1.5309677,-2.7750304,-1.1921481,1.3462963,0.32134664,0.12381518,-0.34543046,1.062328,1.3188018
-0.2,0.10000000000000003,0.6,-0.5235987755982988,0.0,0,0.17378622,1.9785293,0.4672937,-0.6896834,0.29658246,1.5038525,-1.9529167,-1.227054,1.3672936,0.31335002,0.13014576,-0.3587491,1.0968151,1.2782668
-0.2,0.10000000000000003,0.6,-0.5235987755982988,0.0,0,0.12687959,1.9387444,0.4872859,-0.6850914,0.31859866,1.5212842,-2.378805,-1.1901377,1.3468442,0.32987115,0.124383636,-0.40373802,1.0844463,1.3378747
-0.2,0.10000000000000003,0.6,-0.5235987755982988,0.0,0,0.14156024,1.9890165,0.48611045,-0.72332454,0.289387,1.5410594,0.4211976,-1.2010651,1.3481286,0.3111366,0.1221358,-0.35775167,1.0746949,1.0722325
-0.2,0.10000000000000003,0.6,-0.5235987755982988,0.0,0,0.12727912,1.9845686,0.49393785,-0.7002321,0.2871669,1.5320723,-0.06697349,-1.1948985,1.3530674,0.3400966,0.13391584,-0.37379423,1.0923232,1.2448026
-0.2,0.10000000000000003,0.6,-0.5235987755982988,0.0,0,0.15250775,1.968,0.4782605,-0.6967983,0.27056745,1.5093414,-1.8272598,-1.1994541,1.3514639,0.3261086,0.13351442,-0.3706275,1.0859001,1.3571824
-0.2,0.10000000000000003,0.6,-0.5235987755982988,0.0,0,0.119264886,1.9734733,0.49957123,-0.6798271,0.2881086,1.532002,-1.8073709,-1.1719528,1.3602577,0.31829265,0.12176742,-0.3380794,1.0869727,1.371128
-0.2,0.10000000000000003,0.6,-0.5235987755982988,0.0,0,0.1781396,1.9758065,0.47888348,-0.7193502,0.2876913,1.5223083,-1.8437209,-1.2053105,1.3511814,0.32752603,0.12845062,-0.3757649,1.0951108,1.0461438
-0.2,0.10000000000000003,0.6,-0.5235987755982988,0.0,0,0.139205,1.9557012,0.48269182,-0.68866944,0.29073372,1.5265439,-0.7652175,-1.1943778,1.3549141,0.324216,0.110400565,-0.38294733,1.0662086,1.4688504
-0.2,0.10000000000000003,0.6,-0.5235987755982988,0.0,0,0.15064229,1.9684732,0.47821748,-0.7087277,0.32152268,1.5262185,-2.793336,-1.1788359,1.341669,0.31532654,0.13672353,-0.39884937,1.0666885,1.4225819
-0.2,0.10000000000000003,0.6,-0.5235987755982988,0.0,0,0.12084053,1.9710745,0.45314884,-0.6915954,0.29432493,1.5427831,-0.0050815386,-1.2350838,1.3522468,0.33545735,0.12274148,-0.3855635,1.0612437,1.0576231
-0.2,0.10000000000000003,0.6,-0.5235987755982988,0.0,0,0.1549005,1.9782299,0.45004126,-0.67997146,0.30657616,1.5161926,0.42734417,-1.168958,1.3656096,0.35021693,0.13747604,-0.4077138,1.0884138,0.9170741
-0.2,0.10000000000000003,0.6,-0.5235987755982988,0.0,0,0.17237656,1.9075435,0.48995423,-0.73315656,0.2881459,1.5478517,-3.019452,-1.2111728,1.3478726,0.30850485,0.1278833,-0.37575623,1.0521042,1.4587415
-0.2,0.10000000000000003,0.6,-0.5235987755982988,0.0,0,0.14539953,1.9367344,0.4756735,-0.70290345,0.2910451,1.5154629,-0.86426806,-1.2093458,1.3461161,0.34205818,0.1235925,-0.36042735,1.0622226,1.3369272
-0.2,0.10000000000000003,0.6,-0.5235987755982988,0.0,0,0.18815605,1.9712857,0.48192874,-0.7226508,0.28840733,1.5242345,-1.270261,-1.1754233,1.3634377,0.33392084,0.13002218,-0.3847817,1.0825409,1.2768468
-0.2,0.10000000000000003,0.6,-0.5235987755982988,0.0,0,0.124393895,1.970694,0.48145652,-0.72242373,0.32957774,1.5397782,-1.6114205,-1.1884573,1.3551645,0.32578307,0.13360709,-0.36179575,1.0887209,1.1644359
-0.2,0.10000000000000003,0.6,-0.5235987755982988,0.0,0,0.15691908,1.9754477,0.47354105,-0.69125056,0.2984759,1.5217988,-1.9398524,-1.1902854,1.3426043,0.35685834,0.11852971,-0.3656348,1.0824337,1.2942389
-0.2,0.10000000000000003,0.6,-0.5235987755982988,0.0,0,0.13069493,1.9808402,0.46924198,-0.6857048,0.27836385,1.5318115,-1.1149356,-1.1997867,1.351722,0.3438374,0.11467906,-0.39154625,1.0742186,1.2104075
-0.2,0.10000000000000003,0.6,-0.5235987755982988,0.0,0,0.1451808,1.9840633,0.48631006,-0.70475084,0.2967826,1.5205089,0.4870966,-1.2057542,1.3576576,0.30194965,0.13735642,-0.36914834,1.070237,1.245313
-0.2,0.10000000000000003,0.6,-0.5235987755982988,0.0,0,0.12467961,1.9646357,0.4698688,-0.66617703,0.29207525,1.5343378,-1.8678709,-1.1773368,1.3550653,0.28776798,0.12365836,-0.39863172,1.0939817,1.3948247
-0.2,0.10000000000000003,0.6,-0.5235987755982988,0.0,0,0.13761996,1.9765285,0.46904325,-0.6835759,0.3141165,1.5156904,-2.474395,-1.1617445,1.3623651,0.31596044,0.12563328,-0.3768,1.063943,1.3942578
-0.2,0.10000000000000003,0.6,-0.5235987755982988,0.0,0,0.15404998,1.9606913,0.47816953,-0.6844808,0.29434863,1.5054035,-2.547956,-1.188159,1.3510777,0.31541,0.12689373,-0.38710138,1.0917591,1.5700035
-0.2,0.10000000000000003,0.6,-0.5235987755982988,0.0,0,0.10817112,1.9731389,0.4769088,-0.67734814,0.28877234,1.5360374,-1.2637163,-1.2235804,1.3415315,0.36673686,0.12362422,-0.3857501,1.0918673,1.2185181
-0.2,0.10000000000000003,0.6,-0.5235987755982988,0.0,0,0.15464564,1.952083,0.4750759,-0.6768997,0.288776,1.5264567,-1.5064049,-1.1680305,1.3507594,0.33828992,0.12740745,-0.38101706,1.0746695,1.5565279
-0.2,0.10000000000000003,0.6,-0.5235987755982988,0.0,0,0.17076169,1.96321,0.45407647,-0.71421,0.2998796,1.547404,-1.0379494,-1.1882132,1.3747668,0.32686028,0.12488882,-0.3535046,1.0817897,1.3398662
-0.2,0.10000000000000003,0.6,-0.5235987755982988,0.0,0,0.1570332,1.948522,0.4766003,-0.7070624,0.29298806,1.528104,0.35332352,-1.2326632,1.3523682,0.33122104,0.124156944,-0.3877567,1.0942119,1.3010219
-0.2,0.10000000000000003,0.6,-0.5235987755982988,0.0,0,0.14323616,1.9714165,0.47449374,-0.6747512,0.2995093,1.5015152,-1.0116446,-1.1736026,1.3464797,0.30798143,0.13000673,-0.39702758,1.0898397,1.1259986
-0.2,0.10000000000000003,0.6,-0.5235987755982988,0.0,0,0.15698136,1.9710685,0.50102407,-0.698148,0.31760007,1.5158159,0.43758988,-1.1620749,1.3667336,0.3323898,0.12722355,-0.38785222,1.0757625,1.0598911
-0.2,0.10000000000000003,0.6,-0.5235987755982988,0.0,0,0.13960838,1.9554849,0.48706904,-0.68151957,0.28354496,1.5142092,0.3797289,-1.1893569,1.347058,0.2946394,0.11925925,-0.38055107,1.0745822,1.2886566
-0.2,0.10000000000000003,0.6,-0.5235987755982988,0.0,0,0.15871288,1.9711226,0.47436702,-0.695003,0.26792562,1.514557,-1.7474718,-1.1903651,1.3586204,0.3270727,0.13704132,-0.35232288,1.0976444,1.5384887
-0.2,0.10000000000000003,0.6,-0.5235987755982988,0.0,0,0.11557973,1.9648257,0.4853362,-0.6981548,0.30384865,1.5268759,-0.64088225,-1.1750783,1.3601314,0.31645587,0.11438971,-0.35200447,1.0749606,1.4218653
-0.2,0.10000000000000003,0.6,-0.5235987755982988,0.0,0,0.11435849,1.9844896,0.47539854,-0.7108095,0.31213993,1.5491459,-0.043065473,-1.1713963,1.3578417,0.32514358,0.12073563,-0.37101614,1.0772814,1.3687894
-0.2,0.10000000000000003,0.6,-0.5235987755982988,0.0,0,0.15394221,1.9800131,0.47548246,-0.71515197,0.31073266,1.5366102,-1.0476258,-1.2159789,1.3488646,0.33660024,0.12675506,-0.38115042,1.069737,1.3798927
-0.2,0.10000000000000003,0.6,-0.5235987755982988,0.0,0,0.120237954,1.9358733,0.48430708,-0.6740403,0.28664592,1.5322144,-0.45991874,-1.1967958,1.3462148,0.3178153,0.12493248,-0.38731343,1.0776333,1.5698966
-0.2,0.10000000000000003,0.6,-0.5235987755982988,0.0,0,0.20546624,1.9801409,0.46402976,-0.73056906,0.29627025,1.5284417,-0.9121009,-1.1689315,1.3571435,0.32353637,0.11288711,-0.3505146,1.0847744,1.2203798
-0.2,0.10000000000000003,0.6,-0.5235987755982988,0.0,0,0.17350478,1.9847761,0.49804208,-0.6930771,0.292169,1.5340681,-1.3004616,-1.1969092,1.3596201,0.33064342,0.12565343,-0.36466894,1.0753084,1.1478757
-0.2,0.10000000000000003,0.6,-0.5235987755982988,0.0,0,0.1507411,1.9734162,0.47052854,-0.7071844,0.29727647,1.5450515,-0.64156115,-1.1642195,1.3561809,0.33094448,0.12021125,-0.3898959,1.0697107,1.3704804
-0.2,0.10000000000000003,0.6,-0.5235987755982988,0.0,0,0.17515989,1.9693784,0.47852737,-0.7424761,0.2964533,1.5385491,0.4965927,-1.2122533,1.3455987,0.32631588,0.12347883,-0.3788859,1.0984071,1.6137031
-0.2,0.10000000000000003,0.6,-0.5235987755982988,0.0,0,0.14316225,1.9475085,0.45506665,-0.69616437,0.30383286,1.5406234,-0.7133134,-1.1856173,1.3387933,0.32703128,0.13097464,-0.37848848,1.0736163,1.302906
-0.2,0.10000000000000003,0.6,-0.5235987755982988,0.0,0,0.114762776,1.9764175,0.47626504,-0.67191094,0.29325157,1.5295726,-1.7927909,-1.196174,1.3564646,0.29000795,0.14417087,-0.3773345,1.074086,1.2930981
-0.2,0.10000000000000003,0.6,-0.5235987755982988,0.0,0,0.16270232,1.9615576,0.47933292,-0.7207399,0.27870783,1.5251827,-0.36695442,-1.1952316,1.3629794,0.33365735,0.12701346,-0.3883477,1.0865425,1.51189
-0.2,0.10000000000000003,0.6,-0.5235987755982988,0.0,0,0.15435098,1.9760195,0.49444386,-0.69882613,0.26432273,1.5407023,-1.6547735,-1.2040995,1.3432313,0.3411429,0.11495786,-0.37288547,1.0723386,1.3375217
-0.2,0.10000000000000003,0.6,-0.5235987755982988,0.0,0,0.16940287,1.9782937,0.46399936,-0.68732405,0.29803073,1.5159137,-0.75385773,-1.1961366,1.3556826,0.35612983,0.1388061,-0.3694191,1.0682378,1.2637284
-0.2,0.10000000000000003,0.6,-0.5235987755982988,0.0,0,0.17233023,1.9784181,0.49153996,-0.69303304,0.28391632,1.5139835,-1.3012619,-1.189592,1.3541085,0.32796177,0.12408237,-0.34302688,1.0717247,1.4442365
-0.2,0.10000000000000003,0.6,-0.5235987755982988,0.0,0,0.16613783,1.9565394,0.45594174,-0.70981014,0.26838276,1.5420116,-0.2389594,-1.161416,1.3614221,0.32273427,0.11774459,-0.38512316,1.0715815,1.4856522
-0.2,0.10000000000000003,0.6,-0.5235987755982988,0.0,0,0.14422928,1.9624776,0.4681179,-0.691994,0.3046004,1.5243684,-0.8643387,-1.1848423,1.3483691,0.33374932,0.13501169,-0.36904696,1.0901469,1.3000845
-0.2,0.10000000000000003,0.6,-0.5235987755982988,0.0,0,0.13093519,1.9590791,0.4965722,-0.71585745,0.28971988,1.5254847,-0.5362937,-1.1856892,1.3501606,0.33870015,0.12254696,-0.3719084,1.0895587,1.0867351
-0.2,0.10000000000000003,0.6,-0.5235987755982988,0.0,0,0.112522796,1.9816058,0.47442165,-0.6619286,0.27179238,1.5327805,-1.8636158,-1.2006651,1.3649915,0.31994495,0.121610925,-0.34738308,1.0758672,1.1145096
-0.2,0.10000000000000003,0.6,-0.5235987755982988,0.0,0,0.11593671,1.9786484,0.47871324,-0.6758481,0.2760537,1.5274261,-0.06012287,-1.1953994,1.352694,0.29776764,0.135565,-0.37486255,1.0769418,1.3892263
-0.2,0.10000000000000003,0.6,-0.5235987755982988,0.0,0,0.1820623,1.9673648,0.48093286,-0.6945295,0.29555893,1.535309,-1.3902302,-1.1819881,1.3629496,0.32323232,0.13122794,-0.36800992,1.0627288,1.2612404
-0.2,0.10000000000000003,0.6,-0.5235987755982988,0.0,0,0.13684411,1.9630136,0.46727982,-0.69353426,0.31476545,1.5227737,-0.034369793,-1.1980014,1.3400174,0.3186198,0.13369669,-0.3879166,1.0952457,1.392107
-0.2,0.10000000000000003,0.6,-0.5235987755982988,0.0,0,0.15520991,1.9600167,0.4970797,-0.6843016,0.30142266,1.5050534,-1.0679214,-1.2020458,1.3613746,0.3253627,0.108135134,-0.38019472,1.0631256,0.9810217
-0.2,0.10000000000000003,0.6,-0.5235987755982988,0.0,0,0.15914632,1.9696503,0.4666558,-0.71864223,0.28946576,1.5235826,-2.9605746,-1.19204,1.3453938,0.32949793,0.14288445,-0.3786341,1.092394,1.3464823
-0.2,0.10000000000000003,0.6,-0.5235987755982988,0.0,0,0.15660995,1.9637778,0.45972675,-0.7163979,0.29653162,1.5420811,-0.2981678,-1.1986521,1.3545706,0.3179286,0.13415478,-0.35387138,1.0881069,1.1415756
-0.2,0.10000000000000003,0.6,-0.5235987755982988,0.0,0,0.14258364,1.9600185,0.4974785,-0.6933396,0.29622528,1.5112218,0.07933416,-1.2089039,1.3560106,0.33096954,0.12847775,-0.36078468,1.0505161,1.1307789
-0.2,0.10000000000000003,0.6,-0.5235987755982988,0.0,0,0.16902971,1.9424504,0.47204039,-0.7004191,0.3094372,1.5322173,-1.0722737,-1.212382,1.3544526,0.32089517,0.11910928,-0.35081008,1.0950724,1.3283402
-0.2,0.10000000000000003,0.6,-0.5235987755982988,0.0,0,0.13796747,1.9637363,0.4829002,-0.6814065,0.29111278,1.531785,-1.12075,-1.2044902,1.3603456,0.36029404,0.12980251,-0.370172,1.076071,1.2609097
-0.2,0.10000000000000003,0.6,-0.5235987755982988,0.0,0,0.12599221,1.9770894,0.47393465,-0.720308,0.2718684,1.520315,0.33773705,-1.2078552,1.3477777,0.37340614,0.14228421,-0.37379888,1.089856,1.0548952
-0.2,0.10000000000000003,0.6,-0.5235987755982988,0.0,0,0.18370385,1.9718049,0.46774468,-0.7035615,0.30538225,1.5262948,-1.408461,-1.1969908,1.3523109,0.3159682,0.12985447,-0.36375886,1.08395,1.2361028
-0.2,0.10000000000000003,0.6,-0.5235987755982988,0.0,0,0.19383433,1.976187,0.4661896,-0.7255336,0.30322808,1.5486515,-1.537662,-1.2174063,1.3520012,0.30633417,0.12383787,-0.35341218,1.0755824,1.2811767
-0.2,0.10000000000000003,0.6,-0.5235987755982988,0.0,0,0.17590517,1.956477,0.49611142,-0.69976956,0.2855422,1.5283018,-2.4001045,-1.1780374,1.3461851,0.33985955,0.11488802,-0.40263176,1.072386,1.4520475
-0.2,0.10000000000000003,0.6,-0.5235987755982988,0.0,0,0.16492148,1.9778067,0.4791709,-0.72279334,0.29221353,1.5415622,-1.7836046,-1.1954551,1.3538464,0.32720655,0.12505002,-0.36741358,1.0930402,1.6006765
-0.2,0.10000000000000003,0.6,-0.5235987755982988,0.0,0,0.17456119,1.9717021,0.48454785,-0.707724,0.27442676,1.5275286,-1.0949087,-1.1924865,1.357384,0.3123115,0.11642054,-0.37314677,1.0774189,1.3939368
-0.2,0.10000000000000003,0.6,-0.5235987755982988,0.0,0,0.17812331,1.9869637,0.46724224,-0.68174446,0.27443007,1.5366594,-1.3336985,-1.2011632,1.350358,0.3173641,0.109757684,-0.38872376,1.0942174,1.2846016
-0.2,0.10000000000000003,0.6,-0.5235987755982988,0.0,0,0.16408357,1.9736159,0.47002634,-0.68882257,0.26747394,1.5234269,-1.0196822,-1.2105837,1.3562864,0.32082522,0.13270827,-0.39606586,1.0811437,1.2029723
-0.2,0.10000000000000003,0.6,-0.5235987755982988,0.0,0,0.14487234,1.9836673,0.45213675,-0.69643503,0.30114415,1.5260745,-0.25026694,-1.1973363,1.3544061,0.28152487,0.11502478,-0.37296224,1.0911318,1.3020762
-0.2,0.10000000000000003,0.6,-0.5235987755982988,0.0,0,0.16830152,1.9708958,0.45649713,-0.66676325,0.2761247,1.5280159,-1.1460817,-1.1670872,1.3455758,0.3161766,0.13509801,-0.36635146,1.0922837,1.1685063
-0.2,0.10000000000000003,0.6,-0.5235987755982988,0.0,0,0.16641039,1.9786808,0.46978724,-0.69597244,0.27808326,1.5274967,-1.4823432,-1.1998669,1.3444399,0.33024248,0.13427795,-0.37035087,1.0854203,1.2418263
-0.2,0.10000000000000003,0.6,-0.5235987755982988,0.0,0,0.1729993,1.9815171,0.4757987,-0.7079902,0.2797888,1.5295435,-1.5633432,-1.1794808,1.3502574,0.32551965,0.116858765,-0.3868988,1.0734062,1.3205185
-0.2,0.10000000000000003,0.6,-0.5235987755982988,0.0,0,0.16249578,1.9774927,0.48839465,-0.7061225,0.30367604,1.5151658,-1.6926911,-1.2045237,1.358754,0.31026042,0.1317886,-0.3752101,1.0611956,1.2861574
-0.2,0.10000000000000003,0.6,-0.5235987755982988,0.0,0,0.18404698,1.9827135,0.49361703,-0.74697036,0.33208206,1.5371935,-0.5798756,-1.2052628,1.344118,0.34490407,0.11376234,-0.39091182,1.0847268,1.1218685
-0.2,0.10000000000000003,0.6,-0.5235987755982988,0.0,0,0.1788734,1.9696561,0.4733889,-0.7304845,0.29857567,1.5234312,-0.9188512,-1.2357321,1.3524041,0.34048435,0.11495576,-0.38869593,1.0909176,1.1242888
-0.2,0.10000000000000003,0.6,-0.5235987755982988,0.0,0,0.15728568,1.9781415,0.4543244,-0.66815495,0.2792158,1.5320758,-1.8929787,-1.1954601,1.3543454,0.31995127,0.12326728,-0.38470444,1.0814099,1.4841474
-0.2,0.10000000000000003,0.6,-0.5235987755982988,0.0,0,0.13805513,1.972073,0.47117478,-0.6976786,0.2660112,1.5409707,-1.5715127,-1.2154578,1.3621844,0.32540223,0.12352935,-0.37845716,1.0767952,1.3412497
-0.2,0.10000000000000003,0.6,-0.5235987755982988,0.0,0,0.17240119,1.949029,0.44388348,-0.67102396,0.298394,1.5297927,-1.1401614,-1.2118094,1.3633438,0.31664586,0.1147299,-0.35736525,1.0771327,1.3021433
-0.2,0.10000000000000003,0.6,-0.5235987755982988,0.0,0,0.16935442,1.9707505,0.46894208,-0.7072003,0.28100118,1.5451323,-0.94097596,-1.2089797,1.3535821,0.34065682,0.1213469,-0.3517759,1.0820928,1.3885462
-0.2,0.10000000000000003,0.6,-0.5235987755982988,0.0,0,0.17723887,1.9789652,0.46497077,-0.7320114,0.3060498,1.5415595,-0.8345813,-1.20778,1.3461152,0.321274,0.12878625,-0.37895766,1.0641701,1.4677235
-0.2,0.10000000000000003,0.6,-0.5235987755982988,0.0,0,0.11533239,1.9904085,0.5216183,-0.68574095,0.31939366,1.5301733,-1.5127602,-1.1956675,1.3570625,0.30083248,0.13800105,-0.37380698,1.0684106,1.2226391
-0.2,0.10000000000000003,0.6,-0.5235987755982988,0.0,0,0.17685497,1.9909855,0.49644047,-0.733751,0.27541995,1.5542076,-1.0815227,-1.2012688,1.3529001,0.3309689,0.1320155,-0.38049826,1.0652658,1.1861144
-0.2,0.10000000000000003,0.6,-0.5235987755982988,0.0,0,0.18663013,1.9838092,0.4624131,-0.71512187,0.32703355,1.5284289,-1.8012131,-1.2025522,1.3414685,0.3105679,0.116243705,-0.38088414,1.0734369,1.3519182
-0.2,0.10000000000000003,0.6,-0.5235987755982988,0.0,0,0.19106957,1.9712763,0.45779598,-0.72482437,0.28330085,1.5250069,-0.31740564,-1.1911355,1.3568853,0.32420856,0.1380873,-0.36078712,1.0820541,1.296501
-0.2,0.10000000000000003,0.6,-0.5235987755982988,0.0,0,0.16148382,1.9658395,0.48396233,-0.69050086,0.27983594,1.511962,-0.6346794,-1.1848325,1.3481708,0.3225347,0.13237862,-0.3921874,1.0851816,1.4773606
-0.2,0.10000000000000003,0.6,-0.5235987755982988,0.0,0,0.15514162,1.9675426,0.4748138,-0.69729,0.30396736,1.5319366,-1.9099625,-1.2150521,1.3564657,0.33587286,0.12663934,-0.37445417,1.0748465,1.2226437
-0.2,0.10000000000000003,0.6,-0.5235987755982988,0.0,0,0.16322434,1.9662644,0.4505139,-0.69851243,0.30971342,1.5168061,-1.6722789,-1.1668766,1.3326174,0.3298603,0.11635537,-0.38016787,1.0856904,1.3232086
-0.2,0.10000000000000003,0.6,-0.5235987755982988,0.0,0,0.15631987,1.968676,0.4794357,-0.6862322,0.29206544,1.529844,-1.0703195,-1.2167171,1.3522453,0.33825988,0.11805425,-0.33991385,1.084152,1.1063209
-0.2,0.10000000000000003,0.6,-0.5235987755982988,0.0,0,0.14222553,1.9911956,0.4937835,-0.6646896,0.2871796,1.5255947,-1.1253121,-1.1827362,1.3455844,0.33355707,0.12779751,-0.3616429,1.0721846,1.3205386
-0.2,0.10000000000000003,0.6,-0.5235987755982988,0.0,0,0.13200426,1.9866736,0.49240932,-0.6882965,0.29328847,1.527773,-0.5609076,-1.1972555,1.3583928,0.31542787,0.106719024,-0.39445248,1.073511,1.2968818
-0.2,0.10000000000000003,0.6,-0.5235987755982988,0.0,0,0.14195517,1.9609103,0.4731134,-0.68751353,0.28586397,1.5215206,-0.2577788,-1.2224354,1.3653958,0.29947197,0.12602702,-0.37183774,1.0968289,1.185528
-0.2,0.10000000000000003,0.6,-0.5235987755982988,0.0,0,0.15233192,1.9607499,0.46046513,-0.6885727,0.29696694,1.5361795,-2.0638428,-1.206149,1.3650929,0.31070325,0.13073742,-0.37727773,1.0724123,1.0653688
-0.2,0.10000000000000003,0.6,-0.5235987755982988,0.0,0,0.131428,1.9714801,0.47002795,-0.6742666,0.28072026,1.5286107,-0.8341043,-1.2066777,1.3589829,0.33761021,0.12995546,-0.37460387,1.0767645,1.6326083
-0.2,0.10000000000000003,0.6,-0.5235987755982988,0.0,0,0.15480913,1.961686,0.45216334,-0.6751885,0.29799405,1.5325067,-1.8380878,-1.1940237,1.347759,0.29055965,0.13207664,-0.38098952,1.0620062,1.3032669
-0.2,0.10000000000000003,0.6,-0.5235987755982988,0.0,0,0.12630257,1.9888552,0.4785135,-0.6739679,0.3014058,1.523585,-1.1039934,-1.2089325,1.3498297,0.32901463,0.12225759,-0.37552094,1.0823809,1.3118571
-0.2,0.10000000000000003,0.6,-0.5235987755982988,0.0,0,0.16246934,1.9925972,0.47857994,-0.7011349,0.31499448,1.528583,-2.4986248,-1.188459,1.3524202,0.3243467,0.13851269,-0.35156605,1.085521,1.3329492
-0.2,0.10000000000000003,0.6,-0.5235987755982988,0.0,0,0.14727189,1.9826068,0.4805898,-0.6720402,0.2946031,1.513651,-0.94155127,-1.2162994,1.359158,0.30450577,0.13776839,-0.37343937,1.0766839,1.1424034
-0.2,0.10000000000000003,0.6,-0.5235987755982988,0.0,0,0.18442452,1.9567281,0.47798353,-0.7022466,0.29380766,1.4993163,-2.1589031,-1.1989831,1.3593234,0.32552963,0.12123779,-0.3607089,1.0847526,1.2181576
-0.2,0.10000000000000003,0.6,-0.5235987755982988,0.0,0,0.12338394,1.9698983,0.49616608,-0.67668855,0.29310578,1.5400056,-1.8234115,-1.2074287,1.35814,0.30334428,0.121492356,-0.3733062,1.0788015,1.2097952
-0.2,0.10000000000000003,0.6,-0.5235987755982988,0.0,0,0.1619011,1.9861469,0.47463456,-0.7339552,0.29001385,1.5375264,-3.0926564,-1.1621577,1.353905,0.3507505,0.1280541,-0.37398472,1.0799115,1.3330576
-0.2,0.10000000000000003,0.6,-0.5235987755982988,0.0,0,0.16987486,1.9746009,0.46217677,-0.68563855,0.3072238,1.5486686,-1.3584284,-1.2045735,1.3455591,0.3485664,0.124290384,-0.399147,1.076481,1.4777445
-0.2,0.10000000000000003,0.6,-0.5235987755982988,0.0,0,0.16773972,1.9729298,0.51763415,-0.7048096,0.28654104,1.5057503,-1.2435234,-1.1872934,1.3550856,0.31174895,0.12047526,-0.38366348,1.0834079,1.472259
-0.2,0.10000000000000003,0.6,-0.5235987755982988,0.0,0,0.14097738,1.9642081,0.4591482,-0.68141645,0.2711939,1.5339878,0.50958145,-1.1833802,1.3509539,0.33323073,0.11603246,-0.38019383,1.0715013,1.3865416
-0.2,0.10000000000000003,0.6,-0.5235987755982988,0.0,0,0.16642924,1.9680027,0.4599534,-0.7039279,0.2684722,1.5479985,-1.8649125,-1.1722898,1.3559874,0.3195448,0.13495316,-0.38672027,1.061198,1.1335789
-0.2,0.10000000000000003,0.6,-0.5235987755982988,0.0,0,0.11140301,1.9730569,0.48738042,-0.6707526,0.26765847,1.5216261,-1.2062339,-1.2006093,1.3527734,0.33636174,0.11350467,-0.38316825,1.0654637,1.185911
-0.2,0.10000000000000003,0.6,-0.5235987755982988,0.0,0,0.14205399,1.9751434,0.5069822,-0.68215334,0.2749528,1.5175022,-1.5968336,-1.2050307,1.3485563,0.32135284,0.11696789,-0.37970322,1.0964675,1.1264172
-0.2,0.10000000000000003,0.6,-0.5235987755982988,0.0,0,0.15381122,1.9551889,0.496789,-0.6967034,0.27609757,1.5441668,-0.44731295,-1.1974171,1.3410833,0.30713847,0.12876195,-0.3916439,1.0774956,1.2071115
-0.2,0.10000000000000003,0.6,-0.5235987755982988,0.0,0,0.1570342,1.9636197,0.49168777,-0.7015494,0.29266557,1.5305921,-0.8696401,-1.1765108,1.3456001,0.29963624,0.10699003,-0.39927027,1.096455,1.3105121
-0.2,0.10000000000000003,0.6,-0.5235987755982988,0.0,0,0.15973134,1.9604801,0.4426433,-0.67657566,0.2924486,1.5108991,-1.2743276,-1.1922448,1.3433487,0.30904442,0.117705844,-0.33971882,1.0949966,1.2895831
-0.2,0.10000000000000003,0.6,-0.5235987755982988,0.0,0,0.16187847,1.9886721,0.480686,-0.7076103,0.30613837,1.5379889,-1.5363157,-1.2002339,1.3590806,0.31900126,0.11057895,-0.39896816,1.0622336,1.3422005
-0.2,0.10000000000000003,0.6,-0.5235987755982988,0.0,0,0.1647829,1.9857104,0.44985324,-0.6743586,0.2782894,1.5290769,-1.7349777,-1.1781591,1.3509659,0.33190823,0.12155567,-0.37957737,1.0838968,1.4075739
-0.2,0.10000000000000003,0.6,-0.5235987755982988,0.0,0,0.15166889,1.9599518,0.45727912,-0.6741555,0.28294066,1.5200785,-2.1598284,-1.1830541,1.3452071,0.31506485,0.122349314,-0.3848058,1.0648369,1.1934893
-0.2,0.10000000000000003,0.6,-0.5235987755982988,0.0,0,0.15195128,1.9813027,0.46806085,-0.70563495,0.2998198,1.5186899,-1.9510467,-1.1944438,1.3516933,0.33042967,0.11262941,-0.37665975,1.0796266,1.2681371
-0.2,0.10000000000000003,0.6,-0.5235987755982988,0.0,0,0.16564223,1.9698341,0.49317354,-0.7053979,0.2599924,1.5035884,-1.627494,-1.1913303,1.3582249,0.31654528,0.1287797,-0.37302262,1.0608453,1.30142
-0.2,0.10000000000000003,0.6,-0.5235987755982988,0.0,0,0.1462312,1.9766712,0.46971586,-0.6479432,0.28168955,1.5210704,-0.8652648,-1.1811992,1.3398049,0.320265,0.1232628,-0.39783925,1.0778124,1.19058
-0.2,0.10000000000000003,0.6,-0.5235987755982988,0.0,0,0.18072402,1.9596986,0.45958987,-0.69120246,0.28523156,1.5174692,-1.5762272,-1.2180165,1.3564963,0.31193924,0.12692474,-0.35733175,1.0673171,1.1205097
-0.2,0.10000000000000003,0.6,-0.5235987755982988,0.0,0,0.15176544,1.9825445,0.4840302,-0.6775133,0.25729325,1.5383122,-1.1924382,-1.164338,1.3545572,0.31732506,0.13196445,-0.36523253,1.0645806,1.3653116
-0.2,0.10000000000000003,0.6,-0.5235987755982988,0.0,0,0.14144965,1.9904771,0.49046192,-0.6623658,0.27192166,1.5322101,-0.9994624,-1.1816417,1.3626598,0.32823825,0.12012773,-0.36886635,1.0783533,1.0697191
-0.2,0.10000000000000003,0.6,-0.5235987755982988,0.0,0,0.12492279,1.9858046,0.47515708,-0.66369206,0.287689,1.5375432,-0.7587437,-1.1817471,1.3579684,0.33741662,0.13934039,-0.3798578,1.0739111,1.4434105
-0.2,0.10000000000000003,0.6,-0.5235987755982988,0.0,0,0.15211913,1.9899952,0.46316376,-0.67069155,0.2925492,1.530759,-0.8073213,-1.1913718,1.3562357,0.3058054,0.12223304,-0.37523517,1.0787187,1.3711898
-0.2,0.10000000000000003,0.6,-0.5235987755982988,0.0,0,0.16159993,1.9715924,0.48847985,-0.7166191,0.2959479,1.5452433,-1.7620229,-1.2027711,1.3487957,0.34137025,0.1225598,-0.41129997,1.0816036,1.2501704
-0.2,0.10000000000000003,0.6,-0.5235987755982988,0.0,0,0.17023829,1.9833524,0.47143638,-0.6701439,0.28851172,1.5400573,-1.3939568,-1.2284156,1.3552378,0.32618847,0.12631975,-0.37186807,1.082454,1.235424
-0.2,0.10000000000000003,0.6,-0.5235987755982988,0.0,0,0.1598312,1.972983,0.48727307,-0.6626811,0.29552823,1.5158019,-0.98618346,-1.1860536,1.3485441,0.3122799,0.12714337,-0.35984826,1.0837535,1.0601972
-0.2,0.10000000000000003,0.6,-0.5235987755982988,0.0,0,0.16546202,1.9922243,0.47389132,-0.69724494,0.2375266,1.5528502,-1.4321182,-1.2030193,1.3498662,0.3272458,0.11512987,-0.39882478,1.0828032,1.3790658
-0.2,0.10000000000000003,0.6,-0.5235987755982988,0.0,0,0.15825759,1.9887563,0.46314287,-0.67864436,0.3315899,1.531797,-1.4867318,-1.1980156,1.343389,0.30214164,0.13209671,-0.40084928,1.079357,1.4814308
-0.2,0.10000000000000003,0.6,-0.5235987755982988,0.0,0,0.15492412,1.965186,0.48800874,-0.68781984,0.29246888,1.5272095,-1.6616353,-1.1822875,1.3534698,0.31185523,0.117175706,-0.34868485,1.0961041,1.1589351
-0.2,0.10000000000000003,0.6,-0.5235987755982988,0.0,0,0.16307096,1.9448868,0.47241372,-0.6761384,0.32030568,1.5169588,-1.4682947,-1.2255893,1.3600086,0.29202536,0.112071484,-0.3488508,1.0701141,1.2984439
-0.2,0.10000000000000003,0.6,-0.5235987755982988,0.0,0,0.13672012,1.9797901,0.48082846,-0.68751824,0.26325524,1.5241287,-0.012271305,-1.1922209,1.355531,0.32339638,0.124470614,-0.37105143,1.0701998,1.4496722
-0.2,0.10000000000000003,0.6,-0.5235987755982988,0.0,0,0.1547415,1.9783895,0.46829182,-0.6761948,0.29246724,1.5416732,-1.0194658,-1.1619043,1.3643764,0.31542844,0.12494625,-0.37275454,1.0816696,1.1415255
-0.2,0.10000000000000003,0.6,-0.5235987755982988,0.0,0,0.18058948,1.9759173,0.48370573,-0.7156604,0.28203112,1.5300858,-0.82566947,-1.2275696,1.3569796,0.3123534,0.11272467,-0.3745705,1.0690868,1.5122437
-0.2,0.10000000000000003,0.6,-0.5235987755982988,0.0,0,0.10831882,1.9659225,0.49901387,-0.70406806,0.2935966,1.5492551,0.09814874,-1.2059436,1.3524616,0.32673517,0.12192081,-0.3775439,1.0781898,1.3387537
-0.2,0.10000000000000003,0.6,-0.5235987755982988,0.0,0,0.15775135,1.957324,0.47765177,-0.69917077,0.31666067,1.5362809,-1.312746,-1.2074208,1.3454143,0.31024346,0.12610143,-0.37549952,1.0738077,1.047381
-0.2,0.10000000000000003,0.6,-0.5235987755982988,0.0,0,0.14748926,1.9838302,0.46518156,-0.69344467,0.29854143,1.5333081,-1.3617882,-1.2080095,1.3484895,0.31567794,0.1267083,-0.38814834,1.0932865,1.6726383
-0.2,0.10000000000000003,0.6,-0.5235987755982988,0.0,0,0.16504362,1.963764,0.49216005,-0.6948779,0.28806856,1.5152239,-1.0520523,-1.2128954,1.3479925,0.3152336,0.11803024,-0.3540641,1.0851614,1.5626652
-0.2,0.10000000000000003,0.6,-0.5235987755982988,0.0,0,0.15801793,1.9843208,0.4727495,-0.6651192,0.30165964,1.5381975,-1.0675604,-1.2237675,1.3629262,0.33867463,0.13023844,-0.3841866,1.0996722,1.3242835
-0.2,0.10000000000000003,0.6,-0.5235987755982988,0.0,0,0.14359698,1.9793643,0.46340474,-0.6992034,0.28960603,1.5349866,0.06690657,-1.2015656,1.3450744,0.33603096,0.11367347,-0.41381356,1.0653756,1.5755789
-0.2,0.10000000000000003,0.6,-0.5235987755982988,0.0,0,0.17971887,1.957828,0.48515135,-0.7049335,0.29371622,1.5302076,-1.1719493,-1.1671885,1.3446776,0.32995757,0.116152704,-0.39039084,1.0764296,1.552359
-0.2,0.10000000000000003,0.6,-0.5235987755982988,0.0,0,0.12156266,1.9708884,0.46188352,-0.64876086,0.29141152,1.510396,-1.5732409,-1.2044581,1.3545024,0.3396897,0.12813354,-0.396845,1.0798659,1.2022824
-0.2,0.10000000000000003,0.6,-0.5235987755982988,0.0,0,0.17087023,1.9620233,0.4745697,-0.69905156,0.29617897,1.5275358,-1.2497205,-1.1523994,1.3453788,0.33138332,0.118402325,-0.39623165,1.0817283,1.142891
-0.2,0.10000000000000003,0.6,-0.5235987755982988,0.0,0,0.16666818,1.9871268,0.48990026,-0.72222364,0.31490785,1.5206653,-0.39179325,-1.206768,1.3433589,0.3239081,0.12436512,-0.3910172,1.0734053,1.1324168
-0.2,0.10000000000000003,0.6,-0.5235987755982988,0.0,0,0.16980743,1.9660876,0.48192993,-0.6823357,0.25050458,1.5301521,-1.2421843,-1.1721195,1.343342,0.33530077,0.12372344,-0.38862103,1.0906632,1.2795885
-0.2,0.10000000000000003,0.6,-0.5235987755982988,0.0,0,0.17279154,1.9832503,0.5014973,-0.7214304,0.30981222,1.5209985,-0.71442735,-1.1936102,1.3532771,0.3143446,0.119020544,-0.38307327,1.0840238,1.5828342
-0.2,0.10000000000000003,0.6,-0.5235987755982988,0.0,0,0.122508064,1.9671873,0.46829268,-0.69511265,0.32573578,1.5274186,-2.985838,-1.1959217,1.348285,0.30981216,0.11982972,-0.38252562,1.0737815,1.2717421
-0.2,0.10000000000000003,0.6,-0.5235987755982988,0.0,0,0.15491301,1.958338,0.45938134,-0.694099,0.29592207,1.5163119,-0.6792613,-1.1886679,1.348519,0.32914338,0.1260732,-0.37201568,1.096288,1.3677816
-0.2,0.10000000000000003,0.6,-0.5235987755982988,0.0,0,0.1550459,1.9774139,0.46564484,-0.7109221,0.32206285,1.5205643,-0.6446166,-1.1833802,1.3357675,0.32845238,0.12342045,-0.34987733,1.0780532,1.2470008
-0.2,0.10000000000000003,0.6,-0.5235987755982988,0.0,0,0.13828672,1.9692689,0.47210678,-0.6689054,0.26345035,1.5266628,-1.2712761,-1.1900938,1.3424559,0.312578,0.119632915,-0.35526386,1.0818689,1.3130223
-0.2,0.10000000000000003,0.6,-0.5235987755982988,0.0,0,0.1340011,1.979968,0.4979667,-0.6693868,0.32526934,1.5260957,-1.4449872,-1.1938345,1.3359773,0.31507188,0.12120675,-0.38974565,1.0818679,1.3806667
-0.2,0.10000000000000003,0.6,-0.5235987755982988,0.0,0,0.15715507,1.9539506,0.4775174,-0.70377964,0.33403653,1.5124049,-3.065395,-1.1859479,1.3482091,0.32931617,0.1344545,-0.39447755,1.076075,1.205647
-0.2,0.10000000000000003,0.6,-0.5235987755982988,0.0,0,0.16938744,1.972629,0.47664306,-0.68758845,0.28829587,1.5320799,-1.2388903,-1.2080237,1.35072,0.31801584,0.13134922,-0.35539418,1.073448,1.3728142
-0.2,0.10000000000000003,0.6,-0.5235987755982988,0.0,0,0.18089339,1.9701647,0.49178895,-0.69459724,0.31531233,1.5346724,-1.0650145,-1.2035166,1.3485725,0.3087204,0.12323303,-0.3688875,1.087998,1.2199941
-0.2,0.10000000000000003,0.6,-0.5235987755982988,0.0,0,0.16935207,1.9735742,0.4804797,-0.67346036,0.30009216,1.5291699,-1.6139262,-1.1625847,1.3460166,0.31949973,0.12708192,-0.37994942,1.0549752,1.1265305
-0.2,0.10000000000000003,0.6,-0.5235987755982988,0.0,0,0.1443646,1.9927398,0.49371123,-0.66921943,0.29330426,1.5327262,-1.4414995,-1.1972302,1.3395951,0.32523945,0.13067058,-0.36368343,1.07634,1.1249778
-0.2,0.10000000000000003,0.6,-0.5235987755982988,0.0,0,0.17523412,1.9607033,0.46158412,-0.6767652,0.29100472,1.525419,-1.3443056,-1.1827766,1.3511009,0.32550174,0.12009333,-0.37662813,1.0715356,1.5805784
-0.2,0.10000000000000003,0.6,-0.5235987755982988,0.0,0,0.15510549,1.9580815,0.48955032,-0.676391,0.2948366,1.4976244,0.43797716,-1.195616,1.3627615,0.3023457,0.1208978,-0.35958496,1.0665075,1.3244828
-0.2,0.10000000000000003,0.6,-0.5235987755982988,0.0,0,0.15918736,1.9683105,0.4755368,-0.6526298,0.3057604,1.5280141,-1.5420285,-1.2071912,1.3432268,0.31684056,0.12416565,-0.3676379,1.087745,1.2693502
-0.2,0.10000000000000003,0.6,-0.5235987755982988,0.0,0,0.136376,1.9705347,0.46266854,-0.6929047,0.30069086,1.5357615,-0.16278552,-1.1819457,1.3517338,0.33385593,0.1277398,-0.40704733,1.0737392,1.4699327
-0.2,0.10000000000000003,0.6,-0.5235987755982988,0.0,0,0.16395669,1.957328,0.48834082,-0.69417167,0.30113283,1.521035,-2.7829928,-1.1769147,1.3514326,0.32915702,0.13088763,-0.40456894,1.1132567,1.2816206
-0.2,0.10000000000000003,0.6,-0.5235987755982988,0.0,0,0.17379653,1.9927243,0.49225846,-0.6855832,0.3019225,1.5183818,-1.0481374,-1.1795652,1.3492206,0.33432686,0.11897503,-0.41489583,1.0942369,1.1807494
-0.2,0.10000000000000003,0.6,-0.5235987755982988,0.0,0,0.17455481,1.9675771,0.476772,-0.7144118,0.28789836,1.5350299,-1.6227616,-1.2165569,1.3619657,0.32319188,0.13012248,-0.3802623,1.0823908,1.6235969
-0.2,0.10000000000000003,0.6,-0.5235987755982988,0.0,0,0.12979907,1.9795387,0.5058234,-0.69387984,0.30522972,1.5275875,-1.6048747,-1.2039053,1.3485587,0.33283046,0.13200462,-0.37596333,1.087419,1.2634339
-0.2,0.10000000000000003,0.6,-0.5235987755982988,0.0,0,0.15414008,1.9699738,0.49012387,-0.67234445,0.28235796,1.5323223,-2.3929715,-1.2281809,1.3536531,0.34046632,0.12520452,-0.38019982,1.0821298,1.4529701
-0.2,0.10000000000000003,0.6,-0.5235987755982988,0.0,0,0.16970536,1.9771047,0.47367746,-0.71360475,0.29936025,1.5229449,-2.2636962,-1.1881621,1.3490627,0.3218647,0.12843579,-0.36965626,1.0922961,1.4251164
-0.2,0.10000000000000003,0.6,-0.5235987755982988,0.0,0,0.21111146,1.9704101,0.4883409,-0.75319076,0.3083426,1.526176,-2.215239,-1.1934435,1.3591528,0.347214,0.11511973,-0.3773069,1.0886624,1.330794
-0.2,0.10000000000000003,0.6,-0.5235987755982988,0.0,0,0.16803533,1.9911398,0.50762695,-0.71793294,0.27986312,1.5320828,0.14472853,-1.196698,1.3531083,0.31012797,0.13167427,-0.39551854,1.0654359,1.3574033
-0.2,0.10000000000000003,0.6,-0.5235987755982988,0.0,0,0.18217754,1.964365,0.48964268,-0.7300962,0.27995726,1.5157585,-2.4406974,-1.2223008,1.3632355,0.3104608,0.12376231,-0.36843443,1.0714699,1.1670365
-0.2,0.10000000000000003,0.6,-0.5235987755982988,0.0,0,0.14323342,1.9740746,0.5192904,-0.7006209,0.29361635,1.5498676,0.36405534,-1.1848726,1.354164,0.3127105,0.13858624,-0.40515798,1.0797191,1.2150465
-0.2,0.10000000000000003,0.6,-0.5235987755982988,0.0,0,0.14697902,1.9701399,0.5036193,-0.68887013,0.28782788,1.5278162,-2.5416777,-1.1925222,1.3546929,0.31138948,0.1140634,-0.35481775,1.0774972,1.2790024
-0.2,0.10000000000000003,0.6,-0.5235987755982988,0.0,0,0.18052983,1.9804109,0.48321465,-0.6702788,0.29883015,1.519223,-2.701885,-1.1805173,1.3555492,0.32996783,0.121698365,-0.3973484,1.0938238,1.496115
-0.2,0.10000000000000003,0.6,-0.5235987755982988,0.0,0,0.18242961,1.9716129,0.47384897,-0.6771978,0.2793428,1.5150353,0.15120144,-1.1942027,1.3556888,0.33165076,0.12434268,-0.38394633,1.086359,1.211273
-0.2,0.10000000000000003,0.6,-0.5235987755982988,0.0,0,0.13666287,1.9645687,0.46008593,-0.6866658,0.29291254,1.5252612,0.24668989,-1.1684341,1.3473696,0.31635004,0.13283278,-0.39890152,1.0711716,1.7629083
-0.2,0.10000000000000003,0.6,-0.5235987755982988,0.0,0,0.17545837,1.9661665,0.4771356,-0.72026557,0.30460063,1.5424951,-0.40099367,-1.1890349,1.3457144,0.33171013,0.1264534,-0.38369447,1.0888231,1.1983345
-0.2,0.10000000000000003,0.6,-0.5235987755982988,0.0,0,0.103792265,1.9778438,0.49575928,-0.654054,0.30850667,1.5448227,-0.06169246,-1.1756815,1.3591918,0.2875766,0.106569715,-0.38394055,1.0793419,1.231893
-0.2,0.10000000000000003,0.6,-0.5235987755982988,0.0,0,0.13484417,1.9927427,0.49070853,-0.6822309,0.2873499,1.5356383,-2.3726528,-1.220844,1.3548294,0.3200695,0.11770873,-0.36578056,1.0793192,1.1799455
-0.2,0.10000000000000003,0.6,-0.5235987755982988,0.0,0,0.16697386,1.9944446,0.47076488,-0.71935636,0.35493764,1.5332954,-0.5283635,-1.2107186,1.3483189,0.32512406,0.13943823,-0.3899023,1.0551844,1.4313606
-0.2,0.10000000000000003,0.6,-0.5235987755982988,0.0,0,0.15213558,1.9715594,0.45494255,-0.6757767,0.29167366,1.5387447,-2.5430799,-1.185343,1.3520021,0.3330264,0.13558832,-0.353053,1.0977046,1.4869872
-0.2,0.10000000000000003,0.6,-0.5235987755982988,0.0,0,0.11937919,1.97263,0.4649209,-0.66640097,0.2902649,1.5305988,0.18452573,-1.2225528,1.3481556,0.30909008,0.120404944,-0.3789308,1.1009082,1.4027004
-0.2,0.10000000000000003,0.6,-0.5235987755982988,0.0,0,0.14455262,1.9977138,0.4780908,-0.6815233,0.30497202,1.5161924,0.004258018,-1.1947776,1.3550595,0.34165093,0.112958126,-0.35769758,1.083112,1.3367834
-0.2,0.10000000000000003,0.6,-0.5235987755982988,0.0,0,0.15918046,1.9697462,0.47652087,-0.7031844,0.27701214,1.538643,-0.26545992,-1.209778,1.3613387,0.3207996,0.123530194,-0.3685174,1.0905936,1.4840688
-0.2,0.10000000000000003,0.6,-0.5235987755982988,0.0,0,0.14917271,1.9900911,0.47378612,-0.707191,0.30236867,1.541519,-2.1885912,-1.1654078,1.3471334,0.31722146,0.11474404,-0.40214473,1.074053,1.5617999
-0.2,0.10000000000000003,0.6,-0.5235987755982988,0.0,0,0.13081485,1.9854273,0.49057767,-0.6850661,0.2623221,1.5228809,-2.1139145,-1.1715595,1.3520089,0.3243519,0.1134014,-0.37521824,1.0605867,1.3842256
-0.2,0.10000000000000003,0.6,-0.5235987755982988,0.0,0,0.12075429,1.9791579,0.46357113,-0.6658151,0.2785121,1.547484,0.49565122,-1.2172557,1.3542367,0.31964597,0.11305664,-0.3739807,1.0783174,1.5000015
-0.2,0.10000000000000003,0.6,-0.5235987755982988,0.0,0,0.19184254,1.9567446,0.48863754,-0.7267805,0.2738632,1.5368317,-2.4248762,-1.1898258,1.3601092,0.32904276,0.11098577,-0.36591282,1.0928059,1.1791244
-0.2,0.10000000000000003,0.6,-0.5235987755982988,0.0,0,0.19040918,1.966985,0.46765274,-0.748061,0.28583258,1.5455986,-0.21060136,-1.1753712,1.3567109,0.3154719,0.11751262,-0.38827696,1.0920708,1.3615918
-0.2,0.10000000000000003,0.6,-0.5235987755982988,0.0,0,0.13120452,1.9691764,0.5040223,-0.6892836,0.28887668,1.5198187,-0.643332,-1.1876581,1.3567698,0.32964912,0.12129784,-0.39633307,1.0920298,1.2571677
-0.2,0.10000000000000003,0.6,-0.5235987755982988,0.0,0,0.15346351,1.9654745,0.4764501,-0.69732875,0.29072013,1.546674,-0.12543558,-1.1687587,1.3563789,0.32894546,0.120430015,-0.3831543,1.0639491,1.3049384
-0.2,0.10000000000000003,0.6,-0.5235987755982988,0.0,0,0.18436278,1.9724194,0.4759401,-0.7070362,0.27648994,1.5319884,0.25092724,-1.2431391,1.3602517,0.29796323,0.110410094,-0.3683775,1.0895281,1.4932777
-0.2,0.10000000000000003,0.6,-0.5235987755982988,0.0,0,0.13955818,1.982295,0.49365923,-0.6923037,0.28148982,1.4993069,-0.20915385,-1.2112024,1.3521805,0.30711833,0.1028555,-0.36589432,1.0763282,1.4554133
-0.2,0.10000000000000003,0.6,-0.5235987755982988,0.0,0,0.13286434,1.9764949,0.48378292,-0.6768714,0.2891183,1.5269903,0.4057662,-1.2034391,1.3546965,0.34647915,0.11890752,-0.37745363,1.0820696,1.1328729
-0.2,0.10000000000000003,0.6,-0.5235987755982988,0.0,0,0.16362505,1.9661924,0.4953415,-0.70343196,0.28966713,1.5223145,-0.36059448,-1.1899124,1.3519733,0.31669307,0.14157572,-0.38486302,1.0643735,1.3981587
-0.2,0.10000000000000003,0.6,-0.5235987755982988,0.0,0,0.16540109,1.9561195,0.4785943,-0.68690336,0.28634486,1.5309852,-2.5661387,-1.2133287,1.3513321,0.3260268,0.1253214,-0.38410795,1.0856464,1.3159959
-0.2,0.10000000000000003,0.6,-0.5235987755982988,0.0,0,0.16154322,1.9972064,0.47503152,-0.68172914,0.32815835,1.5104183,-0.08802582,-1.1946492,1.3500468,0.32074118,0.13905846,-0.387916,1.0851452,1.2932756
-0.2,0.10000000000000003,0.6,-0.5235987755982988,0.0,0,0.1783735,1.9868686,0.4592418,-0.6807689,0.31713587,1.5348712,-0.2561545,-1.1956046,1.3482605,0.31777105,0.1225316,-0.40240887,1.073988,1.3278799
-0.2,0.10000000000000003,0.6,-0.5235987755982988,0.0,0,0.15208678,1.980774,0.47098395,-0.69586134,0.3208138,1.5222757,-0.106544934,-1.2261579,1.350537,0.32004783,0.12813665,-0.383562,1.0693101,1.0269934
-0.2,0.10000000000000003,0.6,-0.5235987755982988,0.0,0,0.17874083,1.9640416,0.48095495,-0.71439046,0.30432126,1.5271128,-2.1473246,-1.2149258,1.3466039,0.3220314,0.1194349,-0.39047098,1.0927912,1.2620037
-0.2,0.10000000000000003,0.6,-0.5235987755982988,0.0,0,0.19980717,1.959098,0.47090614,-0.7289406,0.2684802,1.5323547,-0.13898201,-1.2091819,1.3494748,0.35131556,0.1333908,-0.37092242,1.0943605,1.290302
-0.2,0.10000000000000003,0.6,-0.5235987755982988,0.0,0,0.18802388,1.9544978,0.46599963,-0.66942084,0.283049,1.5197986,0.12566353,-1.162918,1.3438829,0.32324934,0.11929437,-0.4240814,1.0840995,1.5100266
-0.2,0.10000000000000003,0.6,-0.5235987755982988,0.0,0,0.17198016,1.976036,0.48733085,-0.70534754,0.3105116,1.5177577,-1.5604908,-1.2160461,1.340539,0.32636487,0.12471496,-0.37900174,1.0806484,1.2965375
-0.2,0.10000000000000003,0.6,-0.5235987755982988,0.0,0,0.16584376,1.96603,0.4736317,-0.6390366,0.2743946,1.5162693,-1.1028452,-1.2153467,1.3474569,0.3124209,0.13619487,-0.3895858,1.067547,1.5016931
-0.2,0.10000000000000003,0.6,-0.5235987755982988,0.0,0,0.14720803,1.9937389,0.49066833,-0.6993536,0.27072898,1.5578164,-0.24811372,-1.2206235,1.3608012,0.32669124,0.12738486,-0.35588652,1.0824567,1.2527483
-0.2,0.10000000000000003,0.6,-0.5235987755982988,0.0,0,0.18900245,1.9598305,0.462169,-0.72036433,0.29954174,1.5404153,-0.3564845,-1.1979722,1.35699,0.33576548,0.11714901,-0.3879804,1.0852958,1.185322
-0.2,0.10000000000000003,0.6,-0.5235987755982988,0.0,0,0.1312988,1.9811481,0.4883719,-0.67437416,0.2934971,1.4996458,0.22067106,-1.1879156,1.3437414,0.3233923,0.12755208,-0.37464195,1.0768359,1.426587
-0.2,0.10000000000000003,0.6,-0.5235987755982988,0.0,0,0.19536418,1.95946,0.46991354,-0.73087525,0.29111657,1.5222502,-0.078277715,-1.1710031,1.3475217,0.3312979,0.11359097,-0.38399038,1.0938864,1.1723152
-0.2,0.10000000000000003,0.6,-0.5235987755982988,0.0,0,0.16631062,1.9779075,0.47970304,-0.71798545,0.30218658,1.5344875,-0.16309434,-1.2013164,1.3541352,0.33256406,0.12915175,-0.420366,1.0728174,1.267256
-0.2,0.10000000000000003,0.6,-0.5235987755982988,0.0,0,0.16834198,1.965235,0.4719853,-0.69114333,0.285983,1.5305195,-2.5114834,-1.1835805,1.354065,0.3021366,0.11216695,-0.33889034,1.0640755,1.1287401
-0.2,0.10000000000000003,0.6,-0.5235987755982988,0.0,0,0.19188261,1.9599472,0.4735618,-0.7053832,0.31354898,1.5201535,-0.15564875,-1.1770583,1.3489425,0.3156042,0.10864836,-0.3748287,1.0883269,1.3213464
-0.2,0.10000000000000003,0.6,-0.5235987755982988,0.0,0,0.18180639,1.9736167,0.45512846,-0.711905,0.30546558,1.5216683,-2.969311,-1.18462,1.3523195,0.3090167,0.11764228,-0.37344033,1.0880675,1.3100073
-0.2,0.10000000000000003,0.6,-0.5235987755982988,0.0,0,0.14359306,1.993663,0.4801268,-0.6685777,0.2862683,1.5430313,0.33181274,-1.181871,1.3546315,0.33990744,0.12829347,-0.3961016,1.0743079,1.0706758
-0.2,0.10000000000000003,0.6,-0.5235987755982988,0.0,0,0.17626832,1.9646032,0.46697646,-0.6799488,0.323593,1.5283633,0.07745538,-1.1738886,1.3547366,0.3332408,0.12157156,-0.3997466,1.0719706,1.3313835
-0.2,0.10000000000000003,0.6,-0.5235987755982988,0.0,0,0.1376481,1.9727529,0.50092566,-0.6539527,0.31478384,1.5158263,0.16609968,-1.223623,1.3506283,0.33964598,0.12427492,-0.37374225,1.0802011,1.1095229
-0.2,0.10000000000000003,0.6,-0.5235987755982988,0.0,0,0.17272475,1.966777,0.4739951,-0.71070254,0.27735475,1.539999,-2.3540797,-1.1770166,1.3521549,0.3207591,0.13104458,-0.38790852,1.0949503,1.0100424
-0.2,0.10000000000000003,0.6,-0.5235987755982988,0.0,0,0.1671817,1.9691243,0.4647519,-0.7070617,0.3156287,1.5411038,-0.19108908,-1.1813887,1.3572212,0.2935399,0.12869042,-0.35615894,1.081879,1.3548685
-0.2,0.10000000000000003,0.6,-0.5235987755982988,0.0,0,0.12583409,1.9636871,0.4846575,-0.6594103,0.28015158,1.5263993,-2.5488868,-1.2117864,1.3522838,0.31214547,0.13850024,-0.36767924,1.06978,1.2072269
-0.2,0.10000000000000003,0.6,-0.5235987755982988,0.0,0,0.16379789,1.9807382,0.48098752,-0.6855259,0.2729038,1.5260297,-0.25004596,-1.1909071,1.3372145,0.30727333,0.12595089,-0.3778817,1.0685622,1.3269542
-0.2,0.10000000000000003,0.6,-0.5235987755982988,0.0,0,0.16705771,1.9635179,0.49464163,-0.6944678,0.25477165,1.5345359,0.15669481,-1.1970167,1.3430724,0.33679658,0.12136796,-0.3519712,1.0574836,1.1790042
-0.2,0.10000000000000003,0.6,-0.5235987755982988,0.0,0,0.15293686,1.9739789,0.47048366,-0.686369,0.30745083,1.5285808,-0.17697431,-1.1967982,1.3642082,0.2996342,0.11960637,-0.36463666,1.0876994,1.2568052
-0.2,0.10000000000000003,0.6,-0.5235987755982988,0.0,0,0.18905242,1.9734273,0.46645096,-0.6957444,0.29375923,1.5446106,-2.6461325,-1.183187,1.3493997,0.32407224,0.13509102,-0.3753552,1.0709615,1.5467035
-0.2,0.10000000000000003,0.6,-0.5235987755982988,0.0,0,0.18312909,1.9802123,0.4756984,-0.6738874,0.31486923,1.5280584,-0.01417385,-1.1916816,1.3528745,0.31090298,0.12486341,-0.38545102,1.0998977,1.5914091
-0.2,0.10000000000000003,0.6,-0.5235987755982988,0.0,0,0.21844302,1.9480324,0.4568952,-0.6999581,0.27664885,1.5557606,0.10117023,-1.1773888,1.3528864,0.31439996,0.12588812,-0.35396698,1.0743929,1.0580816
-0.2,0.10000000000000003,0.6,-0.5235987755982988,0.0,0,0.14788832,1.9738847,0.47736302,-0.69144684,0.29095915,1.5129828,-0.21404238,-1.2245551,1.3544003,0.36335835,0.11556124,-0.3912892,1.0756351,1.2709451
