sanky1234/BimanualDexCatch/isaacgymenvs/cem_results/football_pose_-0.2_-0.2_0.6_-0.5235987755982988_-0.34906585039886584_-0.17453292519943286.csv
x,y,z,roll,pitch,yaw,robot1/joint1,robot1/joint2,robot1/joint3,robot1/joint4,robot1/joint5,robot1/joint6,robot1/joint7,robot2/joint1,robot2/joint2,robot2/joint3,robot2/joint4,robot2/joint5,robot2/joint6,robot2/joint7
-0.2,-0.2,0.6,-0.5235987755982988,-0.34906585039886584,-0.17453292519943286,1.7845265,1.4501324,0.21432078,-0.011500358,0.102515966,1.142391,0.700303,-0.43465582,1.3601638,-0.09055878,-0.43123877,0.0024473849,1.3882135,-0.36148706
-0.2,-0.2,0.6,-0.5235987755982988,-0.34906585039886584,-0.17453292519943286,1.7415357,1.4575028,0.21398148,0.007912099,0.11205652,1.1366587,0.64201,-0.44124484,1.356838,-0.08386522,-0.4283774,0.009808607,1.3895011,-0.38793477
-0.2,-0.2,0.6,-0.5235987755982988,-0.34906585039886584,-0.17453292519943286,1.761393,1.4441761,0.21953912,0.0040129693,0.11223476,1.135379,0.6484966,-0.43894634,1.3546481,-0.083518095,-0.42241895,0.008409925,1.3925486,-0.35309458
-0.2,-0.2,0.6,-0.5235987755982988,-0.34906585039886584,-0.17453292519943286,1.7823738,1.4570284,0.21434134,-0.010431504,0.11977527,1.1421622,0.61832863,-0.4362489,1.3540223,-0.09506552,-0.42684945,0.0061704433,1.3849294,-0.38007408
-0.2,-0.2,0.6,-0.5235987755982988,-0.34906585039886584,-0.17453292519943286,1.7641323,1.4540262,0.22376037,0.014341228,0.09841375,1.1430897,0.6857488,-0.43878716,1.3440853,-0.08719019,-0.43022287,0.0048107444,1.3944491,-0.38600683
-0.2,-0.2,0.6,-0.5235987755982988,-0.34906585039886584,-0.17453292519943286,1.7620268,1.4458212,0.20951213,-0.014506539,0.09371659,1.1480181,0.64906085,-0.43304542,1.3572668,-0.08831498,-0.42827377,0.0067616426,1.390826,-0.37782001
-0.2,-0.2,0.6,-0.5235987755982988,-0.34906585039886584,-0.17453292519943286,1.7975315,1.4522517,0.21193624,-0.003735801,0.09690648,1.147537,0.65362126,-0.4400646,1.3554704,-0.09207101,-0.42599592,0.00038708752,1.3869919,-0.38953847
-0.2,-0.2,0.6,-0.5235987755982988,-0.34906585039886584,-0.17453292519943286,1.7733785,1.447668,0.21308783,-0.014144273,0.12169292,1.1406335,0.6484741,-0.43877575,1.3513802,-0.08235589,-0.42890614,0.012482683,1.3909794,-0.39489824
-0.2,-0.2,0.6,-0.5235987755982988,-0.34906585039886584,-0.17453292519943286,1.7250979,1.452602,0.22367933,-0.021014154,0.100873396,1.1405947,0.6788936,-0.4380605,1.358848,-0.08609613,-0.42907453,0.0042727203,1.3953443,-0.38063812
-0.2,-0.2,0.6,-0.5235987755982988,-0.34906585039886584,-0.17453292519943286,1.7459137,1.4465629,0.22524466,-0.008771339,0.13371354,1.1484371,0.6665724,-0.44003052,1.3521781,-0.081989,-0.4268084,0.0019551674,1.3934709,-0.37607145
-0.2,-0.2,0.6,-0.5235987755982988,-0.34906585039886584,-0.17453292519943286,1.7643344,1.4518578,0.20855418,-0.01385813,0.096798554,1.1526483,0.6954524,-0.438446,1.3499681,-0.08099844,-0.42572504,0.00913468,1.390435,-0.3828842
-0.2,-0.2,0.6,-0.5235987755982988,-0.34906585039886584,-0.17453292519943286,1.7764755,1.4575806,0.22235431,0.0025075155,0.11481936,1.150343,0.66351384,-0.43489835,1.3615885,-0.08935496,-0.42897764,0.009318878,1.3927854,-0.3886539
-0.2,-0.2,0.6,-0.5235987755982988,-0.34906585039886584,-0.17453292519943286,1.768527,1.4548385,0.21966131,0.010889142,0.10141079,1.1440982,0.6874826,-0.44284603,1.3567158,-0.07845705,-0.423206,0.015622442,1.394961,-0.35067552
-0.2,-0.2,0.6,-0.5235987755982988,-0.34906585039886584,-0.17453292519943286,1.7544743,1.4533551,0.22539625,-0.0021760948,0.102316804,1.1394001,0.7089317,-0.43358967,1.3519595,-0.0918635,-0.42947543,0.01033176,1.3860328,-0.366882
-0.2,-0.2,0.6,-0.5235987755982988,-0.34906585039886584,-0.17453292519943286,1.7317048,1.4581653,0.21494918,0.0044682003,0.10925277,1.1227347,0.66832024,-0.43658242,1.3530631,-0.085057616,-0.4217375,0.0051352615,1.3886479,-0.36603507
-0.2,-0.2,0.6,-0.5235987755982988,-0.34906585039886584,-0.17453292519943286,1.7532194,1.4607913,0.22147591,-0.008833664,0.11576601,1.1480939,0.6864279,-0.43430626,1.3562905,-0.085882224,-0.43104818,0.0131686935,1.3920605,-0.38106042
-0.2,-0.2,0.6,-0.5235987755982988,-0.34906585039886584,-0.17453292519943286,1.7645175,1.4606062,0.21659198,-0.011054583,0.11064882,1.1476182,0.6704825,-0.436489,1.3538048,-0.086880706,-0.42880052,0.013053975,1.3921165,-0.35834104
-0.2,-0.2,0.6,-0.5235987755982988,-0.34906585039886584,-0.17453292519943286,1.7727093,1.4427396,0.20630892,0.008231275,0.10989185,1.1421573,0.69939864,-0.43808833,1.3404796,-0.08333498,-0.42917743,0.0131854275,1.3964053,-0.38875344
-0.2,-0.2,0.6,-0.5235987755982988,-0.34906585039886584,-0.17453292519943286,1.7630925,1.4548979,0.21324493,-0.012332692,0.1197101,1.1482645,0.66625345,-0.4356986,1.3501666,-0.080256306,-0.42606315,0.0033110473,1.3963273,-0.37341824
-0.2,-0.2,0.6,-0.5235987755982988,-0.34906585039886584,-0.17453292519943286,1.7510719,1.449144,0.20798512,-0.013555071,0.1035534,1.141509,0.6541657,-0.44052574,1.3494133,-0.08901293,-0.42534098,0.0046606786,1.3921448,-0.3729773
-0.2,-0.2,0.6,-0.5235987755982988,-0.34906585039886584,-0.17453292519943286,1.7639896,1.4593204,0.21914393,0.004152766,0.09130913,1.1467688,0.6685308,-0.44040886,1.3503007,-0.08636976,-0.4253408,0.0008353795,1.3922242,-0.38029757
-0.2,-0.2,0.6,-0.5235987755982988,-0.34906585039886584,-0.17453292519943286,1.7744752,1.4466385,0.20143634,0.014884429,0.09371079,1.149121,0.68633056,-0.44669124,1.3476665,-0.078079894,-0.42928845,0.011546254,1.3897376,-0.36579275
-0.2,-0.2,0.6,-0.5235987755982988,-0.34906585039886584,-0.17453292519943286,1.7921623,1.4534754,0.2101951,0.011964361,0.110191345,1.1322222,0.62575376,-0.43612522,1.3527205,-0.08249891,-0.42559588,0.011624409,1.383396,-0.3670112
-0.2,-0.2,0.6,-0.5235987755982988,-0.34906585039886584,-0.17453292519943286,1.7804688,1.4505727,0.21154965,-0.01800197,0.11664297,1.1373091,0.6818765,-0.440225,1.3558241,-0.087535694,-0.42926872,0.00015926172,1.3908274,-0.388316
-0.2,-0.2,0.6,-0.5235987755982988,-0.34906585039886584,-0.17453292519943286,1.7645994,1.4490162,0.21165852,-0.0009568416,0.10911547,1.140337,0.66936666,-0.43719825,1.3532267,-0.08619915,-0.42695728,0.013768693,1.3930097,-0.37670767
-0.2,-0.2,0.6,-0.5235987755982988,-0.34906585039886584,-0.17453292519943286,1.7552929,1.4486849,0.21445827,-0.01537506,0.11054054,1.1287065,0.6684675,-0.44060394,1.358825,-0.09228936,-0.4254677,0.0078949565,1.3899943,-0.3962852
-0.2,-0.2,0.6,-0.5235987755982988,-0.34906585039886584,-0.17453292519943286,1.7756495,1.451278,0.20665146,-0.009284759,0.11735699,1.1271838,0.6738907,-0.4385718,1.3467811,-0.09183822,-0.424702,0.00983615,1.3900006,-0.3654488
-0.2,-0.2,0.6,-0.5235987755982988,-0.34906585039886584,-0.17453292519943286,1.7420113,1.4476585,0.211952,-0.010127587,0.09810279,1.1594102,0.69428027,-0.44087216,1.3487673,-0.08140324,-0.43072668,0.008033223,1.3916068,-0.35900635
-0.2,-0.2,0.6,-0.5235987755982988,-0.34906585039886584,-0.17453292519943286,1.7735088,1.4565055,0.20687866,0.013031624,0.1135148,1.1294904,0.6918605,-0.4364876,1.3464319,-0.08621055,-0.4265027,0.014928432,1.3945854,-0.37216622
-0.2,-0.2,0.6,-0.5235987755982988,-0.34906585039886584,-0.17453292519943286,1.7665116,1.4418589,0.2156685,-0.008440084,0.11619712,1.146567,0.67822784,-0.43622467,1.3510658,-0.08104337,-0.42973986,-0.0027202116,1.3954761,-0.38087624
-0.2,-0.2,0.6,-0.5235987755982988,-0.34906585039886584,-0.17453292519943286,1.75326,1.457202,0.22235967,0.0016652743,0.11282521,1.151319,0.67139024,-0.43497807,1.3555107,-0.08496306,-0.42902926,0.013693414,1.386992,-0.36752364
-0.2,-0.2,0.6,-0.5235987755982988,-0.34906585039886584,-0.17453292519943286,1.7719176,1.4543625,0.22288853,-0.00071223563,0.10759567,1.1380371,0.6415108,-0.43935904,1.3485023,-0.086131886,-0.42450848,0.00031785783,1.3888232,-0.37884563
-0.2,-0.2,0.6,-0.5235987755982988,-0.34906585039886584,-0.17453292519943286,1.7649689,1.4542726,0.22331496,-0.0050706593,0.10175622,1.1468366,0.67360604,-0.43493718,1.3484802,-0.08723847,-0.43012038,0.01045529,1.3914838,-0.3797772
-0.2,-0.2,0.6,-0.5235987755982988,-0.34906585039886584,-0.17453292519943286,1.7358234,1.4556278,0.21927276,-0.004515523,0.10592186,1.1375531,0.6593214,-0.4377919,1.3487763,-0.08652192,-0.42707056,0.008200631,1.3931909,-0.3746536
-0.2,-0.2,0.6,-0.5235987755982988,-0.34906585039886584,-0.17453292519943286,1.7794923,1.4593152,0.22586073,-0.0024231146,0.11919053,1.1276159,0.6874284,-0.43614903,1.3473351,-0.08860396,-0.43050748,0.0041691884,1.3913978,-0.3915584
-0.2,-0.2,0.6,-0.5235987755982988,-0.34906585039886584,-0.17453292519943286,1.7591968,1.4591533,0.22040042,-0.030101134,0.08146898,1.1482404,0.65265155,-0.43455628,1.3496685,-0.08842588,-0.42474213,0.014398435,1.391114,-0.4048703
-0.2,-0.2,0.6,-0.5235987755982988,-0.34906585039886584,-0.17453292519943286,1.7636765,1.4631008,0.21335994,0.00790142,0.105625,1.1465868,0.63859284,-0.4379358,1.3521779,-0.08202306,-0.4289554,0.012522804,1.393054,-0.3778777
-0.2,-0.2,0.6,-0.5235987755982988,-0.34906585039886584,-0.17453292519943286,1.7669712,1.4479496,0.22030586,-0.0089146,0.106699325,1.1398268,0.622099,-0.43830767,1.3540151,-0.07831205,-0.4218635,0.012089558,1.3962045,-0.37562415
-0.2,-0.2,0.6,-0.5235987755982988,-0.34906585039886584,-0.17453292519943286,1.7712406,1.4528648,0.21667501,-0.009511806,0.100226596,1.1338495,0.7060503,-0.43704945,1.3437849,-0.08233901,-0.42545593,0.013449553,1.3942564,-0.39092335
-0.2,-0.2,0.6,-0.5235987755982988,-0.34906585039886584,-0.17453292519943286,1.7766377,1.4482393,0.22982836,-0.014736218,0.11572315,1.135295,0.6546515,-0.4337266,1.35916,-0.09234407,-0.43046936,0.008900707,1.3912525,-0.37400213
-0.2,-0.2,0.6,-0.5235987755982988,-0.34906585039886584,-0.17453292519943286,1.7903334,1.4449813,0.21718548,-0.0064225863,0.115975626,1.1365035,0.6252102,-0.4389554,1.3527067,-0.09249132,-0.42644137,0.01475865,1.3934386,-0.37854502
-0.2,-0.2,0.6,-0.5235987755982988,-0.34906585039886584,-0.17453292519943286,1.7655284,1.4549496,0.21605709,-0.011360638,0.11373825,1.1296729,0.63459677,-0.439507,1.3495404,-0.088192955,-0.42650044,0.0069771437,1.3918653,-0.39330357
-0.2,-0.2,0.6,-0.5235987755982988,-0.34906585039886584,-0.17453292519943286,1.7552534,1.4434435,0.21083352,-0.007862607,0.10599154,1.1368563,0.6594881,-0.4380742,1.349753,-0.08214,-0.42936346,0.0004795975,1.3928243,-0.37651753
-0.2,-0.2,0.6,-0.5235987755982988,-0.34906585039886584,-0.17453292519943286,1.734619,1.4477018,0.21633649,-0.003042272,0.1199387,1.1458312,0.63446414,-0.44092828,1.3520782,-0.09452767,-0.4289993,0.0077384515,1.3951008,-0.3930439
-0.2,-0.2,0.6,-0.5235987755982988,-0.34906585039886584,-0.17453292519943286,1.75234,1.4560356,0.22348124,0.0066192932,0.109938905,1.1493609,0.66555625,-0.4319167,1.3511916,-0.09247148,-0.43000177,0.017328093,1.3917767,-0.3594067
-0.2,-0.2,0.6,-0.5235987755982988,-0.34906585039886584,-0.17453292519943286,1.7773219,1.4580437,0.22234385,-0.0091900015,0.11514392,1.1288382,0.65720564,-0.43901092,1.3472866,-0.08566653,-0.4286987,0.016849965,1.3914782,-0.40807402
-0.2,-0.2,0.6,-0.5235987755982988,-0.34906585039886584,-0.17453292519943286,1.7971021,1.4609784,0.22029969,0.0043214457,0.11345223,1.1468939,0.7194849,-0.43977717,1.3477235,-0.08865149,-0.42863593,0.01226757,1.3911213,-0.40693095
-0.2,-0.2,0.6,-0.5235987755982988,-0.34906585039886584,-0.17453292519943286,1.750168,1.4647299,0.21891524,-0.0051269173,0.1129309,1.1400119,0.7154934,-0.4399588,1.353857,-0.08776031,-0.42822683,0.01564528,1.3935969,-0.38134906
-0.2,-0.2,0.6,-0.5235987755982988,-0.34906585039886584,-0.17453292519943286,1.7817674,1.4587708,0.20867717,-0.009661531,0.0980397,1.1381392,0.656727,-0.4431029,1.3501484,-0.07394522,-0.42650858,0.0036619178,1.3897057,-0.36665088
-0.2,-0.2,0.6,-0.5235987755982988,-0.34906585039886584,-0.17453292519943286,1.7764635,1.454153,0.21431781,0.0022725195,0.093787044,1.1332145,0.641745,-0.43763292,1.3540912,-0.083468184,-0.43088153,0.011121893,1.3919457,-0.3814344
-0.2,-0.2,0.6,-0.5235987755982988,-0.34906585039886584,-0.17453292519943286,1.7525471,1.4570897,0.21388721,-0.0008387225,0.08630092,1.1484538,0.69028866,-0.43785802,1.355176,-0.084652804,-0.42673564,-0.0026485913,1.38697,-0.3792512
-0.2,-0.2,0.6,-0.5235987755982988,-0.34906585039886584,-0.17453292519943286,1.7424625,1.456003,0.21534373,-0.0053113163,0.09177881,1.1445297,0.67788416,-0.4380462,1.3451608,-0.09270263,-0.42430067,0.008869401,1.3900845,-0.3891812
-0.2,-0.2,0.6,-0.5235987755982988,-0.34906585039886584,-0.17453292519943286,1.7986314,1.4531845,0.21638682,-0.007967835,0.10900581,1.1392982,0.6716237,-0.4431577,1.3521875,-0.081988685,-0.42794222,0.014112054,1.3905195,-0.38049915
-0.2,-0.2,0.6,-0.5235987755982988,-0.34906585039886584,-0.17453292519943286,1.77828,1.4434266,0.22881886,0.0069732275,0.114955716,1.1336784,0.6446017,-0.43952915,1.3558421,-0.08734872,-0.42394105,0.004895209,1.3888981,-0.3981903
-0.2,-0.2,0.6,-0.5235987755982988,-0.34906585039886584,-0.17453292519943286,1.780511,1.4524975,0.2137974,-0.019062953,0.10208583,1.130483,0.6879549,-0.43794078,1.3551697,-0.08823036,-0.43027255,0.0077852965,1.3900101,-0.36528018
-0.2,-0.2,0.6,-0.5235987755982988,-0.34906585039886584,-0.17453292519943286,1.7297513,1.4606755,0.22652188,4.2710115e-05,0.096375205,1.1416662,0.6679842,-0.43430454,1.3519268,-0.09036368,-0.42623413,0.01375599,1.386865,-0.35048476
-0.2,-0.2,0.6,-0.5235987755982988,-0.34906585039886584,-0.17453292519943286,1.7507132,1.4548837,0.21538326,-0.007187157,0.12867433,1.1391132,0.6544689,-0.43865812,1.3620086,-0.08541733,-0.42606467,0.0066228495,1.3920784,-0.35757515
-0.2,-0.2,0.6,-0.5235987755982988,-0.34906585039886584,-0.17453292519943286,1.752832,1.4528952,0.22061531,-0.027812216,0.11250923,1.1404599,0.6801412,-0.44051576,1.350509,-0.08578582,-0.4303871,0.015839998,1.390315,-0.37296963
-0.2,-0.2,0.6,-0.5235987755982988,-0.34906585039886584,-0.17453292519943286,1.7632698,1.4562505,0.21398826,0.0037220493,0.10596312,1.1360217,0.675703,-0.43349332,1.3511509,-0.0774055,-0.42943808,0.009858712,1.3956754,-0.39657125
-0.2,-0.2,0.6,-0.5235987755982988,-0.34906585039886584,-0.17453292519943286,1.7949585,1.4437268,0.21836583,-0.007993011,0.11647926,1.1383759,0.65740615,-0.43403685,1.3579503,-0.08554016,-0.43146777,0.003556506,1.391676,-0.33476424
-0.2,-0.2,0.6,-0.5235987755982988,-0.34906585039886584,-0.17453292519943286,1.7987525,1.4509236,0.21824147,-0.015173414,0.10148943,1.1331643,0.67238396,-0.44107503,1.3484552,-0.08537391,-0.4305954,0.016674798,1.3891467,-0.38536116
-0.2,-0.2,0.6,-0.5235987755982988,-0.34906585039886584,-0.17453292519943286,1.7547965,1.4491657,0.21572769,0.00042692912,0.10248808,1.1326759,0.6660763,-0.44034606,1.3533973,-0.09517865,-0.4251085,0.009762825,1.3894092,-0.33205527
-0.2,-0.2,0.6,-0.5235987755982988,-0.34906585039886584,-0.17453292519943286,1.7554551,1.4498242,0.21548691,-0.007874657,0.12586036,1.1426108,0.6608926,-0.4410035,1.3458136,-0.08059861,-0.42145857,0.0060667866,1.3901258,-0.3686198
-0.2,-0.2,0.6,-0.5235987755982988,-0.34906585039886584,-0.17453292519943286,1.7569029,1.4593945,0.21154043,-0.0013645773,0.11519134,1.1346601,0.6447708,-0.43696967,1.3511946,-0.085690364,-0.4290924,0.005582117,1.3900105,-0.36212528
-0.2,-0.2,0.6,-0.5235987755982988,-0.34906585039886584,-0.17453292519943286,1.7732695,1.455828,0.21382682,-0.0007048849,0.10367383,1.1334659,0.7266849,-0.43872175,1.3484383,-0.08021776,-0.42722708,0.0017985262,1.3927491,-0.40336442
-0.2,-0.2,0.6,-0.5235987755982988,-0.34906585039886584,-0.17453292519943286,1.7718213,1.4546758,0.21632469,0.0031587656,0.10171774,1.1335486,0.7017778,-0.43295884,1.3576853,-0.09314818,-0.42761806,0.016858717,1.3904543,-0.37896958
-0.2,-0.2,0.6,-0.5235987755982988,-0.34906585039886584,-0.17453292519943286,1.7562253,1.4575256,0.20375167,0.0023009486,0.11806597,1.1211855,0.68651575,-0.43629336,1.3508433,-0.087194525,-0.42713147,0.005710504,1.3899572,-0.36507988
-0.2,-0.2,0.6,-0.5235987755982988,-0.34906585039886584,-0.17453292519943286,1.7725145,1.4502189,0.20493379,0.008213731,0.11483327,1.1474777,0.67964804,-0.43753615,1.3532455,-0.084235065,-0.42712536,0.011590377,1.3930076,-0.35785234
-0.2,-0.2,0.6,-0.5235987755982988,-0.34906585039886584,-0.17453292519943286,1.7275423,1.4533827,0.21738183,-0.008706555,0.107646644,1.1485752,0.6699459,-0.44019833,1.3504086,-0.08354906,-0.4283486,0.011629455,1.38851,-0.38165066
-0.2,-0.2,0.6,-0.5235987755982988,-0.34906585039886584,-0.17453292519943286,1.7815269,1.4600194,0.22615738,-0.010964665,0.11497649,1.1493038,0.701648,-0.43830004,1.3568308,-0.086411506,-0.42826268,0.002650924,1.3899953,-0.37400675
-0.2,-0.2,0.6,-0.5235987755982988,-0.34906585039886584,-0.17453292519943286,1.7701528,1.448891,0.22330609,8.691518e-05,0.11467219,1.146639,0.65390426,-0.43974856,1.3389363,-0.08262371,-0.4260984,0.0056777596,1.3901426,-0.39830342
-0.2,-0.2,0.6,-0.5235987755982988,-0.34906585039886584,-0.17453292519943286,1.7787644,1.4492949,0.2184317,-0.004887042,0.10316207,1.1452523,0.654335,-0.43614843,1.3488227,-0.091656566,-0.42634395,0.009274409,1.3875747,-0.3821791
-0.2,-0.2,0.6,-0.5235987755982988,-0.34906585039886584,-0.17453292519943286,1.7787744,1.4422209,0.21490079,0.0038266126,0.1167696,1.1365057,0.64566725,-0.43588075,1.3481113,-0.08391007,-0.42812616,0.0040783533,1.3947451,-0.37088302
-0.2,-0.2,0.6,-0.5235987755982988,-0.34906585039886584,-0.17453292519943286,1.7304406,1.4550923,0.22098999,-0.0088245375,0.11724034,1.144271,0.6320317,-0.4380667,1.3521482,-0.08246545,-0.43036002,0.0061949454,1.3907241,-0.3813445
-0.2,-0.2,0.6,-0.5235987755982988,-0.34906585039886584,-0.17453292519943286,1.7552825,1.4353951,0.21449123,-0.014671787,0.11644017,1.1338947,0.69263244,-0.43994522,1.3567542,-0.08369056,-0.4274813,0.011488511,1.3937572,-0.3731448
-0.2,-0.2,0.6,-0.5235987755982988,-0.34906585039886584,-0.17453292519943286,1.7559503,1.4442563,0.20978354,-0.0021805204,0.11883248,1.13958,0.64540535,-0.43590462,1.3520212,-0.09629601,-0.43535042,0.009748117,1.391441,-0.3685317
-0.2,-0.2,0.6,-0.5235987755982988,-0.34906585039886584,-0.17453292519943286,1.7756219,1.4586562,0.21483938,-0.003066307,0.10074442,1.1375254,0.6647999,-0.43444625,1.3499737,-0.08725533,-0.4267138,0.016430786,1.3898587,-0.36085996
-0.2,-0.2,0.6,-0.5235987755982988,-0.34906585039886584,-0.17453292519943286,1.7440869,1.4512302,0.21334723,-0.0051026344,0.119786635,1.1326526,0.69685805,-0.43714562,1.3506638,-0.092097215,-0.42574787,0.008274327,1.3849434,-0.3898108
-0.2,-0.2,0.6,-0.5235987755982988,-0.34906585039886584,-0.17453292519943286,1.7783145,1.4525425,0.2115605,-0.010927264,0.104623556,1.1380144,0.6829115,-0.43716604,1.3505197,-0.082442105,-0.42451358,0.005232253,1.3897872,-0.33048788
-0.2,-0.2,0.6,-0.5235987755982988,-0.34906585039886584,-0.17453292519943286,1.7450613,1.4612168,0.2107752,-0.015761565,0.10337557,1.1377605,0.6857381,-0.43689242,1.3553299,-0.08773255,-0.4271194,0.006154738,1.3884537,-0.37626955
-0.2,-0.2,0.6,-0.5235987755982988,-0.34906585039886584,-0.17453292519943286,1.7607344,1.4522715,0.22015175,0.009499369,0.121403955,1.1304493,0.67663,-0.4372547,1.3512491,-0.09134418,-0.43254006,0.006004083,1.389025,-0.37745664
-0.2,-0.2,0.6,-0.5235987755982988,-0.34906585039886584,-0.17453292519943286,1.7621627,1.4594241,0.21468455,-0.0040657036,0.10370673,1.1354508,0.68104666,-0.43296248,1.338842,-0.08043718,-0.42752942,0.018886464,1.3919126,-0.37739387
-0.2,-0.2,0.6,-0.5235987755982988,-0.34906585039886584,-0.17453292519943286,1.7734826,1.4516764,0.2189159,0.006048426,0.11018044,1.127699,0.66236687,-0.43737212,1.3528217,-0.08243981,-0.42893842,0.0071798475,1.3914082,-0.36215353
-0.2,-0.2,0.6,-0.5235987755982988,-0.34906585039886584,-0.17453292519943286,1.7501754,1.4494151,0.21888201,-0.0049242997,0.11823926,1.1397747,0.65284854,-0.4350832,1.3505886,-0.0824508,-0.42898265,0.015493565,1.3947998,-0.37898877
-0.2,-0.2,0.6,-0.5235987755982988,-0.34906585039886584,-0.17453292519943286,1.7384708,1.4532388,0.20787635,0.0073793507,0.1011228,1.1401953,0.68136203,-0.4407416,1.351181,-0.08422238,-0.4315271,0.015319562,1.3929783,-0.36994448
-0.2,-0.2,0.6,-0.5235987755982988,-0.34906585039886584,-0.17453292519943286,1.7800823,1.4575306,0.22111522,0.0015476273,0.11037171,1.1321435,0.67486036,-0.44190037,1.3491131,-0.08110243,-0.42784515,0.0039000888,1.394222,-0.3813441
-0.2,-0.2,0.6,-0.5235987755982988,-0.34906585039886584,-0.17453292519943286,1.7431412,1.4466254,0.21154223,0.0015593618,0.111133255,1.1370621,0.646243,-0.43430904,1.3470014,-0.08764696,-0.4286568,0.007021284,1.3898101,-0.35333687
-0.2,-0.2,0.6,-0.5235987755982988,-0.34906585039886584,-0.17453292519943286,1.7593517,1.4439086,0.21920748,-0.003349654,0.11559158,1.135616,0.64526284,-0.43576324,1.3546442,-0.0906896,-0.42549077,0.014219489,1.3846643,-0.39916822
-0.2,-0.2,0.6,-0.5235987755982988,-0.34906585039886584,-0.17453292519943286,1.7574588,1.4375445,0.23221894,0.0012289762,0.1157548,1.1383364,0.64836615,-0.4451341,1.3501928,-0.08618213,-0.42632473,0.014542383,1.3873649,-0.37652913
-0.2,-0.2,0.6,-0.5235987755982988,-0.34906585039886584,-0.17453292519943286,1.7961315,1.4597936,0.21247911,0.001191855,0.10203547,1.1271534,0.67806786,-0.43909016,1.3541826,-0.0789114,-0.4281776,0.014106362,1.3925304,-0.3537046
-0.2,-0.2,0.6,-0.5235987755982988,-0.34906585039886584,-0.17453292519943286,1.7263143,1.4548075,0.22006398,0.00020384532,0.10684913,1.1424034,0.65849966,-0.44263142,1.3480746,-0.08459588,-0.42986217,0.01439538,1.393491,-0.3544956
-0.2,-0.2,0.6,-0.5235987755982988,-0.34906585039886584,-0.17453292519943286,1.7883679,1.4596429,0.21406022,-0.0024785649,0.10376776,1.1431415,0.67689717,-0.44059587,1.351534,-0.090055704,-0.4243209,0.015053987,1.3895478,-0.4163194
-0.2,-0.2,0.6,-0.5235987755982988,-0.34906585039886584,-0.17453292519943286,1.7546214,1.4509672,0.21331765,-0.010179436,0.11696789,1.1470649,0.6897043,-0.4410829,1.353187,-0.09150752,-0.42863607,0.012681804,1.3912115,-0.3870316
-0.2,-0.2,0.6,-0.5235987755982988,-0.34906585039886584,-0.17453292519943286,1.7673484,1.4471548,0.20758553,0.0051295552,0.11661307,1.1470315,0.72192556,-0.44111064,1.3530922,-0.08872984,-0.42635635,0.010489292,1.389004,-0.34840408
-0.2,-0.2,0.6,-0.5235987755982988,-0.34906585039886584,-0.17453292519943286,1.756089,1.4565493,0.21695156,-0.006290123,0.09577465,1.1395068,0.66033775,-0.44334474,1.3473645,-0.080095634,-0.42750233,-0.003165828,1.3913561,-0.38038892
-0.2,-0.2,0.6,-0.5235987755982988,-0.34906585039886584,-0.17453292519943286,1.748614,1.4484334,0.21861765,-0.011859541,0.10811666,1.1338842,0.6804662,-0.4426357,1.353023,-0.08598856,-0.4292608,0.005180963,1.3931901,-0.39027926
-0.2,-0.2,0.6,-0.5235987755982988,-0.34906585039886584,-0.17453292519943286,1.7740213,1.4490646,0.21222468,-0.004279065,0.0929832,1.1314633,0.6734529,-0.43719012,1.3494573,-0.086067654,-0.42413992,0.004759286,1.3915207,-0.36731955
-0.2,-0.2,0.6,-0.5235987755982988,-0.34906585039886584,-0.17453292519943286,1.7688723,1.448207,0.21621697,-0.015938228,0.11386966,1.1467011,0.6786291,-0.43666336,1.3441455,-0.07970102,-0.4268957,0.0066382396,1.3945224,-0.3855374
-0.2,-0.2,0.6,-0.5235987755982988,-0.34906585039886584,-0.17453292519943286,1.7844043,1.4564624,0.21632417,-0.00046903433,0.120373674,1.1326048,0.6559233,-0.43849736,1.3457993,-0.09064044,-0.4263617,0.007159897,1.3920974,-0.37164125
-0.2,-0.2,0.6,-0.5235987755982988,-0.34906585039886584,-0.17453292519943286,1.7545637,1.4655181,0.20960645,0.004108434,0.10181683,1.1348422,0.66348505,-0.43654674,1.353809,-0.07970036,-0.42835292,0.004282712,1.3923347,-0.34094468
-0.2,-0.2,0.6,-0.5235987755982988,-0.34906585039886584,-0.17453292519943286,1.7661037,1.4615793,0.22328816,-0.007148452,0.11041376,1.1297069,0.66907996,-0.440558,1.3459716,-0.080636784,-0.42379996,0.008274837,1.3899156,-0.37909886
-0.2,-0.2,0.6,-0.5235987755982988,-0.34906585039886584,-0.17453292519943286,1.7884797,1.4534104,0.21487373,0.011384829,0.08707458,1.1381228,0.6560436,-0.4389745,1.3505192,-0.085873105,-0.4283186,0.01782944,1.3897583,-0.37470436
-0.2,-0.2,0.6,-0.5235987755982988,-0.34906585039886584,-0.17453292519943286,1.7895627,1.4611938,0.22245556,-0.008179581,0.09464668,1.1401424,0.62696433,-0.44199505,1.3493462,-0.08948239,-0.42216247,0.0068594175,1.3901749,-0.33850527
-0.2,-0.2,0.6,-0.5235987755982988,-0.34906585039886584,-0.17453292519943286,1.7676778,1.451647,0.21232732,0.0012310331,0.10864453,1.1434019,0.6514075,-0.4412524,1.348577,-0.08180149,-0.42836994,0.015460861,1.3910469,-0.37797302
-0.2,-0.2,0.6,-0.5235987755982988,-0.34906585039886584,-0.17453292519943286,1.7532445,1.4510949,0.21652791,-0.000103564016,0.103261985,1.1282517,0.6488617,-0.4361362,1.3505627,-0.088505305,-0.4339553,0.0027536382,1.390444,-0.35585102
-0.2,-0.2,0.6,-0.5235987755982988,-0.34906585039886584,-0.17453292519943286,1.77161,1.4576509,0.22373252,-0.01294181,0.10888092,1.13421,0.6551156,-0.4440488,1.3560898,-0.0892716,-0.42523083,0.009738661,1.390396,-0.39028835
-0.2,-0.2,0.6,-0.5235987755982988,-0.34906585039886584,-0.17453292519943286,1.7677214,1.4646757,0.22607104,0.011147739,0.11920279,1.1387618,0.6653829,-0.4370538,1.3513039,-0.08460403,-0.42391163,0.008952878,1.389991,-0.3560735
-0.2,-0.2,0.6,-0.5235987755982988,-0.34906585039886584,-0.17453292519943286,1.789731,1.4483594,0.21825188,-0.0014630912,0.10198756,1.140721,0.6981598,-0.43979743,1.3553388,-0.085755445,-0.4270861,0.0067307726,1.3946621,-0.37041035
-0.2,-0.2,0.6,-0.5235987755982988,-0.34906585039886584,-0.17453292519943286,1.7454468,1.468753,0.22224303,-0.010644545,0.11164205,1.132724,0.6568897,-0.43554464,1.357543,-0.083970584,-0.42911077,0.0017711854,1.3916535,-0.3573459
-0.2,-0.2,0.6,-0.5235987755982988,-0.34906585039886584,-0.17453292519943286,1.7923585,1.4518622,0.21336755,-0.019230245,0.119266264,1.1416147,0.64521676,-0.44116467,1.3497026,-0.08420397,-0.42936525,0.009367686,1.3858281,-0.3460179
-0.2,-0.2,0.6,-0.5235987755982988,-0.34906585039886584,-0.17453292519943286,1.760867,1.4421457,0.22111201,-0.011421049,0.124411315,1.1313342,0.6568572,-0.4397231,1.3528396,-0.07959138,-0.42835426,0.017462315,1.3880982,-0.3714997
-0.2,-0.2,0.6,-0.5235987755982988,-0.34906585039886584,-0.17453292519943286,1.7916111,1.4447173,0.20758843,-0.001553117,0.11894374,1.1509778,0.68548805,-0.43667302,1.3585765,-0.08316813,-0.42477992,0.010235172,1.3932353,-0.40888518
-0.2,-0.2,0.6,-0.5235987755982988,-0.34906585039886584,-0.17453292519943286,1.7884762,1.4622575,0.21688387,-0.0069034616,0.12190528,1.1420275,0.65404534,-0.43393767,1.3488604,-0.0860406,-0.4285589,0.0038463373,1.391577,-0.3503312
-0.2,-0.2,0.6,-0.5235987755982988,-0.34906585039886584,-0.17453292519943286,1.7799916,1.4570433,0.21750882,-0.0052982266,0.12919466,1.1537392,0.66697586,-0.43406,1.3463575,-0.08449806,-0.42785576,0.005650121,1.3876582,-0.3854275
-0.2,-0.2,0.6,-0.5235987755982988,-0.34906585039886584,-0.17453292519943286,1.8153917,1.4465936,0.21998109,0.0027727592,0.106884696,1.1426088,0.6928912,-0.43451193,1.3552655,-0.087142065,-0.42643583,0.006062233,1.3890808,-0.34988233
-0.2,-0.2,0.6,-0.5235987755982988,-0.34906585039886584,-0.17453292519943286,1.7766451,1.4443845,0.21697149,0.008182568,0.121882156,1.1445365,0.7031562,-0.43962994,1.3479426,-0.07780504,-0.42342085,0.01127948,1.4001915,-0.35507816
-0.2,-0.2,0.6,-0.5235987755982988,-0.34906585039886584,-0.17453292519943286,1.7426044,1.4567815,0.22199315,-0.007313205,0.11388838,1.1293228,0.62104225,-0.4398333,1.3554698,-0.08284122,-0.42363527,0.006719477,1.3911469,-0.36318952
-0.2,-0.2,0.6,-0.5235987755982988,-0.34906585039886584,-0.17453292519943286,1.7783246,1.4601902,0.21572226,0.0006911955,0.10635498,1.134663,0.6369302,-0.4385291,1.3499976,-0.09014993,-0.42722833,0.0088288635,1.3882316,-0.36624837
-0.2,-0.2,0.6,-0.5235987755982988,-0.34906585039886584,-0.17453292519943286,1.789524,1.4425884,0.21035767,0.002126415,0.10942763,1.1334451,0.645962,-0.4427427,1.3459675,-0.07737956,-0.4222415,0.015246472,1.3902138,-0.36916217
-0.2,-0.2,0.6,-0.5235987755982988,-0.34906585039886584,-0.17453292519943286,1.8017551,1.4530785,0.21727774,0.008410275,0.11298005,1.1456255,0.67245984,-0.4370798,1.3495181,-0.08545404,-0.4277432,0.010490926,1.388305,-0.36350068
-0.2,-0.2,0.6,-0.5235987755982988,-0.34906585039886584,-0.17453292519943286,1.7590255,1.4439807,0.2108983,0.0024980814,0.11665095,1.1308869,0.63349307,-0.43703634,1.3444908,-0.08477807,-0.42802554,0.018709632,1.3913127,-0.38564476
-0.2,-0.2,0.6,-0.5235987755982988,-0.34906585039886584,-0.17453292519943286,1.7997978,1.4621822,0.21589787,-0.0053304983,0.11745261,1.1420465,0.6613991,-0.4403269,1.3550141,-0.084960625,-0.4322451,0.006551843,1.3926978,-0.36241445
-0.2,-0.2,0.6,-0.5235987755982988,-0.34906585039886584,-0.17453292519943286,1.7707541,1.4424828,0.22356601,-0.0034893902,0.107683204,1.1396974,0.6724698,-0.4428214,1.3498915,-0.083496004,-0.42572132,0.009600856,1.3895034,-0.3971542
-0.2,-0.2,0.6,-0.5235987755982988,-0.34906585039886584,-0.17453292519943286,1.7811906,1.4484603,0.20903195,-0.000103303944,0.09981327,1.1473154,0.6333581,-0.4356583,1.3468283,-0.07969492,-0.42435125,0.005197146,1.390923,-0.3888953
-0.2,-0.2,0.6,-0.5235987755982988,-0.34906585039886584,-0.17453292519943286,1.7854606,1.4525075,0.2175034,-0.008209062,0.12194665,1.132031,0.7012597,-0.442418,1.3531896,-0.081649095,-0.4264017,0.016110504,1.3934652,-0.38189107
-0.2,-0.2,0.6,-0.5235987755982988,-0.34906585039886584,-0.17453292519943286,1.7699964,1.463103,0.21248329,0.007451407,0.11296593,1.1415797,0.6474774,-0.44419777,1.3535473,-0.07785892,-0.43340456,0.007780693,1.3936961,-0.35667282
-0.2,-0.2,0.6,-0.5235987755982988,-0.34906585039886584,-0.17453292519943286,1.7715895,1.4495072,0.21714,-0.004025091,0.09746198,1.1402868,0.6660329,-0.44129074,1.3557332,-0.08778093,-0.42763612,0.002160371,1.3874576,-0.38412786
-0.2,-0.2,0.6,-0.5235987755982988,-0.34906585039886584,-0.17453292519943286,1.7724302,1.4565386,0.21705534,-0.0067400592,0.11298095,1.1238998,0.65826553,-0.43177634,1.3561181,-0.08797237,-0.43139377,0.0019626007,1.3979903,-0.38865474
-0.2,-0.2,0.6,-0.5235987755982988,-0.34906585039886584,-0.17453292519943286,1.7841094,1.4511827,0.20542252,0.003580379,0.115570664,1.1325461,0.66872954,-0.4364586,1.3418548,-0.091938205,-0.4272333,0.016914932,1.3961502,-0.3926252
-0.2,-0.2,0.6,-0.5235987755982988,-0.34906585039886584,-0.17453292519943286,1.7449642,1.4465195,0.19894138,-0.008808456,0.10275798,1.143793,0.6643344,-0.44025272,1.3602445,-0.08292551,-0.42631724,0.0040290207,1.3913553,-0.3805753
-0.2,-0.2,0.6,-0.5235987755982988,-0.34906585039886584,-0.17453292519943286,1.7582402,1.4588189,0.21398443,-0.010239542,0.10336047,1.1450728,0.6480394,-0.43702447,1.3549225,-0.08335694,-0.42796725,0.011019436,1.3898567,-0.3821609
-0.2,-0.2,0.6,-0.5235987755982988,-0.34906585039886584,-0.17453292519943286,1.7581114,1.447434,0.21502918,-0.009795045,0.10875719,1.1391466,0.6351353,-0.44397345,1.3518039,-0.08604045,-0.42921114,0.008851681,1.3917847,-0.36342108
-0.2,-0.2,0.6,-0.5235987755982988,-0.34906585039886584,-0.17453292519943286,1.785349,1.4490367,0.21377172,-0.00578797,0.11743226,1.1287603,0.67654973,-0.4413855,1.3537159,-0.07937921,-0.42657906,0.0077616777,1.3943883,-0.37191245
-0.2,-0.2,0.6,-0.5235987755982988,-0.34906585039886584,-0.17453292519943286,1.770744,1.4520931,0.2171795,0.003067844,0.11313086,1.1304808,0.67712,-0.43944502,1.3534534,-0.08763612,-0.42922094,0.010295726,1.392395,-0.38522285
-0.2,-0.2,0.6,-0.5235987755982988,-0.34906585039886584,-0.17453292519943286,1.7290244,1.4509643,0.21641317,0.00039442847,0.1184805,1.1451466,0.6883072,-0.43121028,1.3476728,-0.08923241,-0.42815596,0.012770214,1.3867195,-0.39093974
-0.2,-0.2,0.6,-0.5235987755982988,-0.34906585039886584,-0.17453292519943286,1.7656561,1.4453398,0.21349783,-0.009306367,0.103830576,1.1556991,0.63410693,-0.43564123,1.3448865,-0.08434611,-0.43006516,0.0068504997,1.3902628,-0.37347504
-0.2,-0.2,0.6,-0.5235987755982988,-0.34906585039886584,-0.17453292519943286,1.7495477,1.444575,0.21745157,0.0020201534,0.10284448,1.1275072,0.64731854,-0.43902344,1.3498874,-0.090358354,-0.42937142,0.01664773,1.3952461,-0.38970128
-0.2,-0.2,0.6,-0.5235987755982988,-0.34906585039886584,-0.17453292519943286,1.7563796,1.4593651,0.20568827,0.0019038728,0.11586145,1.1333164,0.6412397,-0.44294378,1.3437992,-0.084231816,-0.42010173,0.019040337,1.3956532,-0.3936479
-0.2,-0.2,0.6,-0.5235987755982988,-0.34906585039886584,-0.17453292519943286,1.7718563,1.458679,0.21468587,-0.008820656,0.1112816,1.1304582,0.6744614,-0.44324443,1.3559246,-0.083252996,-0.42729107,0.017074894,1.3934883,-0.35945034
-0.2,-0.2,0.6,-0.5235987755982988,-0.34906585039886584,-0.17453292519943286,1.7349405,1.4503084,0.21658772,-0.0060974597,0.09925265,1.1355395,0.66201,-0.43679276,1.3540263,-0.0875888,-0.42263103,0.017747117,1.3883028,-0.38890797
-0.2,-0.2,0.6,-0.5235987755982988,-0.34906585039886584,-0.17453292519943286,1.7492988,1.4615885,0.21582429,-0.008987281,0.13105312,1.1245948,0.67205507,-0.43556705,1.3517098,-0.078049295,-0.4272046,0.0070129614,1.3973743,-0.3666016
-0.2,-0.2,0.6,-0.5235987755982988,-0.34906585039886584,-0.17453292519943286,1.7494398,1.4652805,0.21173036,-0.011230825,0.09494042,1.1377182,0.6983335,-0.43535107,1.3449523,-0.08892528,-0.43420568,0.006075328,1.3916551,-0.35031256
-0.2,-0.2,0.6,-0.5235987755982988,-0.34906585039886584,-0.17453292519943286,1.7799882,1.4570928,0.21131188,-0.023361469,0.107005425,1.1355215,0.65674424,-0.4377821,1.3515325,-0.08563923,-0.4273201,0.007567508,1.393329,-0.34833658
-0.2,-0.2,0.6,-0.5235987755982988,-0.34906585039886584,-0.17453292519943286,1.7602868,1.4660816,0.22379391,0.016254067,0.11275306,1.1420528,0.6701159,-0.43956882,1.3452674,-0.07180313,-0.4248288,0.009938742,1.3903376,-0.36687237
-0.2,-0.2,0.6,-0.5235987755982988,-0.34906585039886584,-0.17453292519943286,1.7718649,1.4348848,0.2197323,-0.0016302605,0.110734805,1.1309452,0.6869445,-0.4369437,1.3469638,-0.09523669,-0.42270562,0.011270036,1.388844,-0.3534487
-0.2,-0.2,0.6,-0.5235987755982988,-0.34906585039886584,-0.17453292519943286,1.7572341,1.4502243,0.21733171,-0.012315783,0.105309315,1.1511291,0.6811457,-0.4387365,1.3608364,-0.08773304,-0.4286757,0.008035023,1.3923218,-0.36083937
-0.2,-0.2,0.6,-0.5235987755982988,-0.34906585039886584,-0.17453292519943286,1.7718924,1.4541352,0.21714261,-0.0076528653,0.097750135,1.161494,0.6397326,-0.4382112,1.3575082,-0.092503786,-0.4230462,0.011231172,1.3900554,-0.39467093
-0.2,-0.2,0.6,-0.5235987755982988,-0.34906585039886584,-0.17453292519943286,1.7600636,1.4619129,0.21252058,-0.0015945093,0.08776478,1.137281,0.69627064,-0.4334431,1.3484595,-0.0882276,-0.43004864,0.0077298624,1.3881248,-0.35387206
-0.2,-0.2,0.6,-0.5235987755982988,-0.34906585039886584,-0.17453292519943286,1.758026,1.4531963,0.21811703,0.007921207,0.109449,1.1368737,0.6460965,-0.4375341,1.3466169,-0.06949919,-0.4238177,0.009607082,1.393618,-0.38943893
-0.2,-0.2,0.6,-0.5235987755982988,-0.34906585039886584,-0.17453292519943286,1.788068,1.4505466,0.21773082,-0.01922928,0.110905275,1.128606,0.6860832,-0.44084272,1.3461999,-0.08175117,-0.4276615,0.007933873,1.3910568,-0.38093385
-0.2,-0.2,0.6,-0.5235987755982988,-0.34906585039886584,-0.17453292519943286,1.7740525,1.4672478,0.21591078,0.0100301495,0.09487374,1.1332067,0.647996,-0.4372245,1.3546876,-0.08472906,-0.42574778,0.004101653,1.3867589,-0.37330872
-0.2,-0.2,0.6,-0.5235987755982988,-0.34906585039886584,-0.17453292519943286,1.793361,1.454345,0.21927698,-0.008831229,0.10237571,1.1459775,0.66597295,-0.43936878,1.3477715,-0.0822516,-0.4262692,-0.00060259434,1.3928298,-0.38742885
-0.2,-0.2,0.6,-0.5235987755982988,-0.34906585039886584,-0.17453292519943286,1.7872835,1.4432749,0.21572693,-0.0031821781,0.116884656,1.1312695,0.69416666,-0.43833482,1.3536512,-0.08731735,-0.42802778,0.00023311321,1.3930386,-0.3776975
-0.2,-0.2,0.6,-0.5235987755982988,-0.34906585039886584,-0.17453292519943286,1.7639096,1.4598895,0.20935565,-0.004479156,0.11310286,1.1470371,0.6763604,-0.4365145,1.3549697,-0.0913976,-0.42740148,0.014841684,1.3917133,-0.34722114
-0.2,-0.2,0.6,-0.5235987755982988,-0.34906585039886584,-0.17453292519943286,1.7477614,1.444781,0.2225378,-0.016874328,0.10375923,1.129282,0.6682604,-0.4370089,1.353545,-0.07605815,-0.42807162,0.011382405,1.391137,-0.36680385
-0.2,-0.2,0.6,-0.5235987755982988,-0.34906585039886584,-0.17453292519943286,1.7734843,1.4712237,0.21000089,0.0026294442,0.103702515,1.1419104,0.6404305,-0.43632036,1.3514105,-0.08421418,-0.42592835,0.0150994565,1.3911399,-0.36403677
-0.2,-0.2,0.6,-0.5235987755982988,-0.34906585039886584,-0.17453292519943286,1.7676286,1.4605169,0.21347274,0.002640119,0.10344793,1.1352751,0.683545,-0.4434676,1.3499067,-0.077986725,-0.42632255,0.013433018,1.3937024,-0.36755607
-0.2,-0.2,0.6,-0.5235987755982988,-0.34906585039886584,-0.17453292519943286,1.7806637,1.4681197,0.21737105,-0.0112810265,0.11458177,1.1534611,0.6536036,-0.43855232,1.349079,-0.08574394,-0.42861545,0.0028866574,1.3877667,-0.38741738
-0.2,-0.2,0.6,-0.5235987755982988,-0.34906585039886584,-0.17453292519943286,1.7509326,1.4492975,0.2125981,0.010524164,0.12036442,1.1551653,0.6587489,-0.44232425,1.3503759,-0.0822527,-0.42582634,0.014797312,1.3923676,-0.37625888
-0.2,-0.2,0.6,-0.5235987755982988,-0.34906585039886584,-0.17453292519943286,1.7760686,1.4576856,0.20598602,-0.011139128,0.11795891,1.1349281,0.6423926,-0.43697077,1.3469398,-0.09291742,-0.42905998,0.014088347,1.3964326,-0.36930785
-0.2,-0.2,0.6,-0.5235987755982988,-0.34906585039886584,-0.17453292519943286,1.7759742,1.4488916,0.21935312,0.018578323,0.10503565,1.1334537,0.6677396,-0.43717214,1.352416,-0.090772375,-0.42496336,0.010138739,1.3916051,-0.35662922
-0.2,-0.2,0.6,-0.5235987755982988,-0.34906585039886584,-0.17453292519943286,1.7893755,1.4568197,0.21793425,-0.0048536663,0.11532946,1.1483669,0.65529716,-0.43815812,1.3474271,-0.08810187,-0.42931584,0.0040993076,1.3890755,-0.38794452
-0.2,-0.2,0.6,-0.5235987755982988,-0.34906585039886584,-0.17453292519943286,1.7536626,1.4564785,0.21835512,0.01131356,0.118855275,1.1534623,0.6417168,-0.4369757,1.3469803,-0.080745555,-0.42795652,0.0022021625,1.3905239,-0.3837895
-0.2,-0.2,0.6,-0.5235987755982988,-0.34906585039886584,-0.17453292519943286,1.7666963,1.4549819,0.21601623,0.009913946,0.11713367,1.1296271,0.6438946,-0.44409862,1.3436849,-0.08053889,-0.42506143,0.013476687,1.3953073,-0.3911792
-0.2,-0.2,0.6,-0.5235987755982988,-0.34906585039886584,-0.17453292519943286,1.7449994,1.4651784,0.21669279,0.016099708,0.0991767,1.1265737,0.65585417,-0.43922982,1.350323,-0.08029284,-0.4255646,0.013498007,1.3903172,-0.38223886
-0.2,-0.2,0.6,-0.5235987755982988,-0.34906585039886584,-0.17453292519943286,1.7823409,1.4488816,0.22001788,0.0020374656,0.124927215,1.1491367,0.6691193,-0.4346675,1.3520514,-0.0855442,-0.4266939,0.014054872,1.3864926,-0.35852024
-0.2,-0.2,0.6,-0.5235987755982988,-0.34906585039886584,-0.17453292519943286,1.7967925,1.4464157,0.20657164,0.004041784,0.104136124,1.138977,0.66125596,-0.43606627,1.3472368,-0.09163511,-0.42809033,0.0045959796,1.3930641,-0.3736347
-0.2,-0.2,0.6,-0.5235987755982988,-0.34906585039886584,-0.17453292519943286,1.7682643,1.4483653,0.20559955,0.0007037481,0.12836927,1.1209381,0.70183706,-0.4357929,1.3520895,-0.084320866,-0.42519882,0.020212159,1.3954171,-0.37118438
-0.2,-0.2,0.6,-0.5235987755982988,-0.34906585039886584,-0.17453292519943286,1.7637296,1.4421368,0.21380785,0.0015924826,0.12297787,1.1473218,0.647835,-0.4414992,1.3463774,-0.07879341,-0.42637756,0.009289543,1.3932077,-0.3824561
-0.2,-0.2,0.6,-0.5235987755982988,-0.34906585039886584,-0.17453292519943286,1.7614405,1.4577501,0.21706778,0.0023067945,0.104383625,1.1407448,0.69249237,-0.43903947,1.3502976,-0.08262947,-0.4282726,0.015651487,1.393061,-0.35952634
-0.2,-0.2,0.6,-0.5235987755982988,-0.34906585039886584,-0.17453292519943286,1.7724837,1.4495637,0.21636887,0.0067253863,0.10532422,1.137316,0.658697,-0.43733233,1.3536448,-0.08899997,-0.42992875,0.008417297,1.3923385,-0.3825927
-0.2,-0.2,0.6,-0.5235987755982988,-0.34906585039886584,-0.17453292519943286,1.7651231,1.4514934,0.22379516,-0.0041682487,0.10131067,1.134964,0.6584205,-0.4386867,1.3452367,-0.0801495,-0.42937142,0.0063170497,1.3938866,-0.38021573
-0.2,-0.2,0.6,-0.5235987755982988,-0.34906585039886584,-0.17453292519943286,1.7682891,1.4445368,0.22089514,-0.0025662978,0.0908974,1.1298097,0.67727214,-0.4332251,1.3459162,-0.091071196,-0.42906675,0.01701342,1.3919686,-0.39821926
-0.2,-0.2,0.6,-0.5235987755982988,-0.34906585039886584,-0.17453292519943286,1.7507291,1.442752,0.22383703,-0.00060937525,0.11829067,1.1402014,0.6495477,-0.44156247,1.349172,-0.08528964,-0.42550433,0.01211372,1.392844,-0.3690771
-0.2,-0.2,0.6,-0.5235987755982988,-0.34906585039886584,-0.17453292519943286,1.76713,1.4541706,0.22090767,0.00816451,0.09816355,1.1343521,0.6829456,-0.44006488,1.352082,-0.08490336,-0.4281712,0.012754322,1.393564,-0.38010263
-0.2,-0.2,0.6,-0.5235987755982988,-0.34906585039886584,-0.17453292519943286,1.7193822,1.4510862,0.21152751,-0.015495062,0.09672239,1.1447412,0.6601961,-0.4374939,1.3591515,-0.088071615,-0.42635593,0.00044545587,1.3922358,-0.3847566
-0.2,-0.2,0.6,-0.5235987755982988,-0.34906585039886584,-0.17453292519943286,1.7786397,1.4532591,0.22284433,-0.00022681606,0.10370916,1.1391358,0.65059364,-0.43931067,1.3438658,-0.08425213,-0.42869645,0.008371824,1.3947134,-0.39132422
-0.2,-0.2,0.6,-0.5235987755982988,-0.34906585039886584,-0.17453292519943286,1.7550812,1.4592328,0.20961328,0.00082430907,0.110819034,1.1442752,0.6586292,-0.43806,1.3569899,-0.079088755,-0.42459628,0.015906004,1.3923174,-0.3555339
-0.2,-0.2,0.6,-0.5235987755982988,-0.34906585039886584,-0.17453292519943286,1.7806933,1.452438,0.2088747,-0.008608338,0.11835345,1.1374938,0.6943757,-0.43907788,1.3474015,-0.08724043,-0.42653772,0.018057337,1.3883132,-0.38408852
-0.2,-0.2,0.6,-0.5235987755982988,-0.34906585039886584,-0.17453292519943286,1.7436004,1.4532944,0.21319656,0.013121599,0.11504138,1.1387058,0.6487747,-0.43964356,1.3473933,-0.07570559,-0.4232798,0.00917017,1.3946201,-0.37445372
-0.2,-0.2,0.6,-0.5235987755982988,-0.34906585039886584,-0.17453292519943286,1.748226,1.4409213,0.2117419,-0.0062375236,0.10559609,1.1335148,0.64063585,-0.43587732,1.3493493,-0.08301287,-0.4288396,0.0042768614,1.3905281,-0.38093382
-0.2,-0.2,0.6,-0.5235987755982988,-0.34906585039886584,-0.17453292519943286,1.735911,1.4422356,0.21378791,-0.0064451452,0.10873688,1.164199,0.67241853,-0.43521413,1.3547935,-0.08638842,-0.4267576,0.006584612,1.3895872,-0.3586169
-0.2,-0.2,0.6,-0.5235987755982988,-0.34906585039886584,-0.17453292519943286,1.7710372,1.4673513,0.21733852,0.00479924,0.102913976,1.1359905,0.68896306,-0.4382324,1.3473511,-0.08612046,-0.4251727,0.009287049,1.3897324,-0.3433887
-0.2,-0.2,0.6,-0.5235987755982988,-0.34906585039886584,-0.17453292519943286,1.7504556,1.4497947,0.21740612,-0.0036065243,0.1067004,1.1434845,0.6535095,-0.43855876,1.3576814,-0.085797034,-0.4274856,0.010665944,1.392303,-0.3534241
-0.2,-0.2,0.6,-0.5235987755982988,-0.34906585039886584,-0.17453292519943286,1.7886003,1.4649695,0.21628875,-0.010770307,0.09817673,1.1381849,0.6514808,-0.43932194,1.3516152,-0.090890355,-0.4282497,0.0071954383,1.3894712,-0.3849867
-0.2,-0.2,0.6,-0.5235987755982988,-0.34906585039886584,-0.17453292519943286,1.7587814,1.467239,0.21346724,-0.018934594,0.11653356,1.1315781,0.7135287,-0.43866816,1.3502102,-0.08104564,-0.42839217,0.00948688,1.3918753,-0.35657784
-0.2,-0.2,0.6,-0.5235987755982988,-0.34906585039886584,-0.17453292519943286,1.7654033,1.4585394,0.21389547,-0.0046417275,0.119449735,1.1303203,0.6797595,-0.43238086,1.3547161,-0.08304895,-0.4293309,0.0046757367,1.3949358,-0.3530295
-0.2,-0.2,0.6,-0.5235987755982988,-0.34906585039886584,-0.17453292519943286,1.7750715,1.4682775,0.23319225,-0.00473648,0.1119795,1.1432579,0.6695071,-0.43751153,1.3554342,-0.081522726,-0.42495632,0.008360468,1.385113,-0.36551636
-0.2,-0.2,0.6,-0.5235987755982988,-0.34906585039886584,-0.17453292519943286,1.7387309,1.4594083,0.2181811,-0.012692512,0.10469151,1.1496971,0.6702927,-0.4337749,1.3509147,-0.08882196,-0.43168285,0.010974406,1.3860117,-0.3711824
-0.2,-0.2,0.6,-0.5235987755982988,-0.34906585039886584,-0.17453292519943286,1.7501488,1.4513648,0.21894106,-0.021549832,0.10389972,1.1442662,0.6057178,-0.43834797,1.3526473,-0.07758839,-0.42503822,0.0071200053,1.3940947,-0.38252056
-0.2,-0.2,0.6,-0.5235987755982988,-0.34906585039886584,-0.17453292519943286,1.7707099,1.457559,0.21657316,0.0012421791,0.11065976,1.1242031,0.66143245,-0.4401543,1.352183,-0.080583416,-0.4283666,0.009201434,1.3946898,-0.40750393
-0.2,-0.2,0.6,-0.5235987755982988,-0.34906585039886584,-0.17453292519943286,1.7759694,1.4519035,0.22604932,-0.0065380223,0.09884219,1.126646,0.6499433,-0.4382954,1.3484986,-0.082815506,-0.42636025,0.012980783,1.3956211,-0.36290926
-0.2,-0.2,0.6,-0.5235987755982988,-0.34906585039886584,-0.17453292519943286,1.8067393,1.4572022,0.21646878,-0.0114962775,0.11570994,1.1470736,0.64579785,-0.43855605,1.3531743,-0.07792998,-0.42584065,0.012823229,1.3927145,-0.3926816
-0.2,-0.2,0.6,-0.5235987755982988,-0.34906585039886584,-0.17453292519943286,1.7858838,1.4481347,0.21128698,-0.0035879626,0.105312064,1.133294,0.6639975,-0.4383893,1.3498181,-0.09039156,-0.4253448,0.013252202,1.3916368,-0.38240394
-0.2,-0.2,0.6,-0.5235987755982988,-0.34906585039886584,-0.17453292519943286,1.7900603,1.4469275,0.21434273,-0.0067288135,0.11486203,1.1367121,0.6803353,-0.4372305,1.3545144,-0.07981071,-0.42707843,0.0017640846,1.3924385,-0.3436612
-0.2,-0.2,0.6,-0.5235987755982988,-0.34906585039886584,-0.17453292519943286,1.7469906,1.4522358,0.21167246,-0.011597746,0.10524925,1.1532043,0.6476812,-0.43872496,1.3451139,-0.08336915,-0.42433107,0.02156938,1.3925188,-0.37248635
-0.2,-0.2,0.6,-0.5235987755982988,-0.34906585039886584,-0.17453292519943286,1.7942362,1.4518036,0.2094889,-0.004822599,0.11157229,1.1335976,0.666694,-0.43699467,1.3516061,-0.09179617,-0.42813882,0.004828683,1.3944837,-0.38887036
-0.2,-0.2,0.6,-0.5235987755982988,-0.34906585039886584,-0.17453292519943286,1.7814302,1.4511782,0.21547945,-0.004684589,0.09973649,1.1360554,0.65264875,-0.43964216,1.350521,-0.08099902,-0.42525044,0.0048638335,1.3923535,-0.37681612
-0.2,-0.2,0.6,-0.5235987755982988,-0.34906585039886584,-0.17453292519943286,1.7704837,1.4509287,0.21348748,-0.006951153,0.114811055,1.1447558,0.6727165,-0.4356475,1.3560473,-0.0869514,-0.4315077,0.005827649,1.3934584,-0.360555
-0.2,-0.2,0.6,-0.5235987755982988,-0.34906585039886584,-0.17453292519943286,1.7522331,1.4634523,0.21576904,-0.0044863396,0.10229392,1.143308,0.6574509,-0.44109568,1.3480581,-0.08759444,-0.42974824,0.0110405795,1.3976028,-0.37080905
-0.2,-0.2,0.6,-0.5235987755982988,-0.34906585039886584,-0.17453292519943286,1.799912,1.4452059,0.22017092,-0.0033027807,0.105748795,1.1436979,0.6858394,-0.43956673,1.3529527,-0.08248527,-0.42619616,0.0071346164,1.3909326,-0.37202853
-0.2,-0.2,0.6,-0.5235987755982988,-0.34906585039886584,-0.17453292519943286,1.7693828,1.4586776,0.22228667,-0.0010541315,0.120575786,1.1360881,0.6374517,-0.43645528,1.350306,-0.082055576,-0.43007776,0.000588353,1.3913218,-0.34936658
-0.2,-0.2,0.6,-0.5235987755982988,-0.34906585039886584,-0.17453292519943286,1.7667506,1.4495237,0.20781022,7.51156e-05,0.111623436,1.1440097,0.66745293,-0.43505773,1.3547733,-0.07607809,-0.42667302,0.008042677,1.3878163,-0.35838693
-0.2,-0.2,0.6,-0.5235987755982988,-0.34906585039886584,-0.17453292519943286,1.7926235,1.454144,0.2143905,0.014730509,0.10747624,1.1308739,0.6863662,-0.4377771,1.3503598,-0.08273816,-0.42539534,0.014065477,1.3936225,-0.3905695
-0.2,-0.2,0.6,-0.5235987755982988,-0.34906585039886584,-0.17453292519943286,1.7884783,1.4511577,0.21518467,0.0023833096,0.10816372,1.1350774,0.7066574,-0.4429402,1.3487521,-0.0794991,-0.4278888,0.015305995,1.3903314,-0.3574735
-0.2,-0.2,0.6,-0.5235987755982988,-0.34906585039886584,-0.17453292519943286,1.7832372,1.4544498,0.21266215,-0.0064804833,0.103522226,1.13843,0.6787995,-0.44242543,1.360289,-0.07803889,-0.4244843,0.004073168,1.3943982,-0.36501
-0.2,-0.2,0.6,-0.5235987755982988,-0.34906585039886584,-0.17453292519943286,1.7908719,1.4614781,0.2213852,0.00047610566,0.11668631,1.1465107,0.6593199,-0.4386265,1.3507115,-0.080162175,-0.42610085,0.007460665,1.3905438,-0.386665
-0.2,-0.2,0.6,-0.5235987755982988,-0.34906585039886584,-0.17453292519943286,1.7530781,1.465845,0.22328559,-0.010819308,0.10259359,1.1328773,0.65934587,-0.44019333,1.357003,-0.08396739,-0.42842644,0.0052348403,1.3917252,-0.37637347
-0.2,-0.2,0.6,-0.5235987755982988,-0.34906585039886584,-0.17453292519943286,1.7496551,1.4551649,0.21353224,0.012195572,0.106307305,1.1500909,0.633233,-0.4375391,1.3568919,-0.08496213,-0.42766514,0.007781351,1.390845,-0.3567366
-0.2,-0.2,0.6,-0.5235987755982988,-0.34906585039886584,-0.17453292519943286,1.786244,1.4426451,0.21920446,-0.008964468,0.109503396,1.1376451,0.6940793,-0.43128684,1.3502914,-0.0857735,-0.4294869,0.020088548,1.3894364,-0.36915827
-0.2,-0.2,0.6,-0.5235987755982988,-0.34906585039886584,-0.17453292519943286,1.7349728,1.4559427,0.23282634,0.0014257296,0.102390416,1.151962,0.5932174,-0.43984312,1.3495768,-0.081993096,-0.42504126,0.015071398,1.3974452,-0.39483127
-0.2,-0.2,0.6,-0.5235987755982988,-0.34906585039886584,-0.17453292519943286,1.7905432,1.4482014,0.22726867,0.003251238,0.10954683,1.1423872,0.71645397,-0.4351364,1.3550993,-0.075442195,-0.43075636,0.013078664,1.3934296,-0.3814829
-0.2,-0.2,0.6,-0.5235987755982988,-0.34906585039886584,-0.17453292519943286,1.7520822,1.4486102,0.22232541,-0.011473665,0.099767014,1.1401399,0.67664045,-0.4361281,1.3567206,-0.08823298,-0.4263024,0.004458518,1.3906008,-0.36782175
-0.2,-0.2,0.6,-0.5235987755982988,-0.34906585039886584,-0.17453292519943286,1.7632159,1.4531125,0.21329384,-0.0059294864,0.10492124,1.1374435,0.6684518,-0.43845254,1.3518101,-0.087011606,-0.42636338,0.006959141,1.3900269,-0.38031292
-0.2,-0.2,0.6,-0.5235987755982988,-0.34906585039886584,-0.17453292519943286,1.7764668,1.4644859,0.20968723,0.006323005,0.108256,1.1384097,0.6837218,-0.44071588,1.3486573,-0.08293842,-0.42463127,0.009131456,1.3882476,-0.3589237
-0.2,-0.2,0.6,-0.5235987755982988,-0.34906585039886584,-0.17453292519943286,1.7363898,1.458556,0.22182283,-0.00798779,0.108201586,1.144838,0.66782326,-0.43414342,1.355264,-0.08836064,-0.4301263,0.007992794,1.3897978,-0.3833214
-0.2,-0.2,0.6,-0.5235987755982988,-0.34906585039886584,-0.17453292519943286,1.7702026,1.4536606,0.2212806,-0.010219506,0.10124578,1.1359745,0.66685146,-0.44226795,1.3554497,-0.08102094,-0.4286027,0.0019804745,1.3939651,-0.3999847
-0.2,-0.2,0.6,-0.5235987755982988,-0.34906585039886584,-0.17453292519943286,1.8029445,1.4458234,0.21155758,-0.013149846,0.099750586,1.136958,0.66364455,-0.43585593,1.3513968,-0.08334471,-0.4239472,0.0135860685,1.3926793,-0.38914105
-0.2,-0.2,0.6,-0.5235987755982988,-0.34906585039886584,-0.17453292519943286,1.7571512,1.4629809,0.21769682,-0.021801462,0.12275018,1.1378478,0.6446513,-0.4370676,1.3495793,-0.087191835,-0.43033996,0.012323007,1.3886198,-0.4141458
-0.2,-0.2,0.6,-0.5235987755982988,-0.34906585039886584,-0.17453292519943286,1.7999712,1.454766,0.22952236,0.00066063605,0.087927565,1.1346267,0.6706761,-0.44209227,1.353469,-0.090997584,-0.4258225,0.016416552,1.3870274,-0.3900192
-0.2,-0.2,0.6,-0.5235987755982988,-0.34906585039886584,-0.17453292519943286,1.766879,1.4549106,0.21352059,0.0063139102,0.0964327,1.1234922,0.6409998,-0.44272652,1.3498126,-0.08408534,-0.42635208,0.0028427595,1.3870099,-0.38641316
-0.2,-0.2,0.6,-0.5235987755982988,-0.34906585039886584,-0.17453292519943286,1.755674,1.456075,0.21584703,-0.0017475109,0.10228741,1.1282023,0.68226665,-0.43589395,1.3553815,-0.08564291,-0.4297059,0.00535746,1.3922123,-0.37544298
-0.2,-0.2,0.6,-0.5235987755982988,-0.34906585039886584,-0.17453292519943286,1.7510277,1.4494781,0.21741664,-0.022794552,0.10105467,1.1456836,0.7044155,-0.43162662,1.3568689,-0.08718047,-0.4250922,0.012366168,1.3877686,-0.38125977
-0.2,-0.2,0.6,-0.5235987755982988,-0.34906585039886584,-0.17453292519943286,1.7299396,1.4567138,0.218174,0.0069549475,0.11554293,1.1385273,0.6450131,-0.4366118,1.3494673,-0.082911715,-0.42498899,0.006270438,1.394538,-0.37614572
-0.2,-0.2,0.6,-0.5235987755982988,-0.34906585039886584,-0.17453292519943286,1.7759707,1.4567369,0.21890503,0.0023902024,0.10106451,1.146028,0.7247387,-0.43826628,1.3467637,-0.08360964,-0.42554647,0.0071039856,1.3930936,-0.3729303
-0.2,-0.2,0.6,-0.5235987755982988,-0.34906585039886584,-0.17453292519943286,1.7203859,1.4418755,0.21392182,-0.007637664,0.0990826,1.1326861,0.65030545,-0.4374408,1.356413,-0.09000805,-0.42600298,0.015577714,1.3923758,-0.35949448
-0.2,-0.2,0.6,-0.5235987755982988,-0.34906585039886584,-0.17453292519943286,1.7800996,1.4547898,0.22359669,-0.018457536,0.11496215,1.1251272,0.68665785,-0.4396389,1.3544618,-0.07633947,-0.42742684,0.01015419,1.3925475,-0.34331378
-0.2,-0.2,0.6,-0.5235987755982988,-0.34906585039886584,-0.17453292519943286,1.7750512,1.4514018,0.2164612,-0.00916648,0.10528316,1.1408644,0.6411964,-0.43917185,1.3514011,-0.08756502,-0.4273364,0.0014290102,1.390298,-0.37887245
-0.2,-0.2,0.6,-0.5235987755982988,-0.34906585039886584,-0.17453292519943286,1.7441882,1.4576297,0.20687808,-0.006917548,0.0901664,1.1419498,0.6497637,-0.43968302,1.3494656,-0.0756018,-0.4260148,0.0038265628,1.389714,-0.358952
-0.2,-0.2,0.6,-0.5235987755982988,-0.34906585039886584,-0.17453292519943286,1.7511331,1.4674706,0.22798383,-0.008333118,0.108745135,1.1439453,0.70444614,-0.43886793,1.3404891,-0.087697566,-0.4313684,0.010286321,1.3884947,-0.37783358
-0.2,-0.2,0.6,-0.5235987755982988,-0.34906585039886584,-0.17453292519943286,1.7636894,1.4547865,0.20935841,0.00656866,0.106449574,1.1425776,0.65559155,-0.4394749,1.35559,-0.0831776,-0.4262141,0.010503117,1.3912344,-0.3861832
-0.2,-0.2,0.6,-0.5235987755982988,-0.34906585039886584,-0.17453292519943286,1.7578421,1.4554431,0.2237527,-0.0058085346,0.09493283,1.1322546,0.6899915,-0.43597785,1.3522103,-0.08854072,-0.4284224,0.012228073,1.3945075,-0.37801948
-0.2,-0.2,0.6,-0.5235987755982988,-0.34906585039886584,-0.17453292519943286,1.7334204,1.4520903,0.2220565,-0.005116498,0.10418517,1.1569728,0.6791996,-0.4376441,1.340678,-0.07836228,-0.42559162,0.0015285949,1.3894607,-0.3685139
-0.2,-0.2,0.6,-0.5235987755982988,-0.34906585039886584,-0.17453292519943286,1.7431391,1.4559872,0.22437297,0.014612948,0.10333921,1.1535479,0.6913703,-0.43718132,1.349502,-0.08389857,-0.42826086,0.009497278,1.3928524,-0.4032458
-0.2,-0.2,0.6,-0.5235987755982988,-0.34906585039886584,-0.17453292519943286,1.7332491,1.4552559,0.22237091,-0.019727,0.10906218,1.1293589,0.6794314,-0.4343888,1.3614694,-0.07483419,-0.425521,0.01058359,1.3949715,-0.3748348
-0.2,-0.2,0.6,-0.5235987755982988,-0.34906585039886584,-0.17453292519943286,1.7635734,1.4648917,0.21936874,-0.026438482,0.10605516,1.138391,0.6898244,-0.4376678,1.3512156,-0.08480861,-0.4277089,0.008706045,1.3981903,-0.3844197
-0.2,-0.2,0.6,-0.5235987755982988,-0.34906585039886584,-0.17453292519943286,1.7533076,1.4597044,0.23007569,-0.0068766344,0.101939216,1.1467967,0.6794529,-0.43525934,1.3555294,-0.090602905,-0.42552006,0.008579767,1.392607,-0.41535142
-0.2,-0.2,0.6,-0.5235987755982988,-0.34906585039886584,-0.17453292519943286,1.7883612,1.454803,0.21835317,0.011204524,0.10745966,1.1384,0.68360895,-0.43770844,1.3439585,-0.07647335,-0.4246286,0.006957646,1.3881104,-0.357216
-0.2,-0.2,0.6,-0.5235987755982988,-0.34906585039886584,-0.17453292519943286,1.7523669,1.4553146,0.21701057,-0.005012019,0.091013454,1.1322514,0.68440396,-0.44119123,1.3512342,-0.0869451,-0.43033472,0.008378944,1.3936076,-0.3593797
-0.2,-0.2,0.6,-0.5235987755982988,-0.34906585039886584,-0.17453292519943286,1.771291,1.4548466,0.21086416,0.0106533235,0.089528106,1.1327775,0.61740077,-0.44086602,1.3534636,-0.09142289,-0.42389724,0.014300016,1.3863815,-0.39567372
-0.2,-0.2,0.6,-0.5235987755982988,-0.34906585039886584,-0.17453292519943286,1.7714432,1.4465665,0.22825983,-0.012347794,0.10832411,1.1414546,0.6680082,-0.429286,1.3506039,-0.09310886,-0.43304136,0.0054419436,1.3956339,-0.3981973
-0.2,-0.2,0.6,-0.5235987755982988,-0.34906585039886584,-0.17453292519943286,1.7470516,1.4477448,0.21121211,0.015054444,0.10440586,1.1530709,0.63084036,-0.43792456,1.3553474,-0.09014687,-0.42968994,0.015381301,1.3839238,-0.37199232
-0.2,-0.2,0.6,-0.5235987755982988,-0.34906585039886584,-0.17453292519943286,1.7740121,1.4562329,0.22106224,0.0028986444,0.102405705,1.1369977,0.6875272,-0.43495035,1.3470308,-0.08587597,-0.431366,-0.004446436,1.3917816,-0.3682887
-0.2,-0.2,0.6,-0.5235987755982988,-0.34906585039886584,-0.17453292519943286,1.7633307,1.4435316,0.21965955,-0.013188244,0.10700432,1.133268,0.66851854,-0.4440154,1.3507088,-0.08711857,-0.4281436,0.013169529,1.3963022,-0.3417046
-0.2,-0.2,0.6,-0.5235987755982988,-0.34906585039886584,-0.17453292519943286,1.7320777,1.4551619,0.21333693,-0.008243107,0.12506585,1.1373731,0.7009245,-0.44020072,1.3470651,-0.08237136,-0.43087605,0.022464706,1.3944888,-0.36416343
-0.2,-0.2,0.6,-0.5235987755982988,-0.34906585039886584,-0.17453292519943286,1.7629383,1.4656246,0.21890627,-0.009630535,0.110241614,1.1438433,0.6316867,-0.43810427,1.3480854,-0.087558955,-0.43092316,0.012536232,1.3907448,-0.3766235
-0.2,-0.2,0.6,-0.5235987755982988,-0.34906585039886584,-0.17453292519943286,1.8026239,1.4475977,0.21456034,0.0015920479,0.1092063,1.1386999,0.6555268,-0.43542635,1.350294,-0.085425034,-0.4247709,0.007932412,1.3928589,-0.368268
-0.2,-0.2,0.6,-0.5235987755982988,-0.34906585039886584,-0.17453292519943286,1.7895567,1.4493365,0.21305929,-0.0068317517,0.12846555,1.1286211,0.6438375,-0.43776944,1.3508071,-0.083827905,-0.4299178,0.007523463,1.3913573,-0.36114144
-0.2,-0.2,0.6,-0.5235987755982988,-0.34906585039886584,-0.17453292519943286,1.7713073,1.4557122,0.21735688,-0.0046654386,0.11078397,1.1357962,0.66888654,-0.43779746,1.3570014,-0.07992509,-0.42510933,0.012664542,1.3914437,-0.37898406
-0.2,-0.2,0.6,-0.5235987755982988,-0.34906585039886584,-0.17453292519943286,1.7290533,1.4528168,0.21801586,0.0015915965,0.10275777,1.1480924,0.6368737,-0.43493757,1.3520932,-0.081182554,-0.42866838,0.004696476,1.3808652,-0.37002438
-0.2,-0.2,0.6,-0.5235987755982988,-0.34906585039886584,-0.17453292519943286,1.7864896,1.4488015,0.216513,-0.0035505265,0.10080467,1.1239402,0.7045797,-0.43341085,1.3516605,-0.082812645,-0.4272819,0.0067550316,1.3922037,-0.37986395
-0.2,-0.2,0.6,-0.5235987755982988,-0.34906585039886584,-0.17453292519943286,1.7581159,1.4480127,0.2247996,0.010234509,0.10959673,1.1239895,0.64981335,-0.4370244,1.3596809,-0.087794386,-0.42472783,0.0061035347,1.3887668,-0.36552107
-0.2,-0.2,0.6,-0.5235987755982988,-0.34906585039886584,-0.17453292519943286,1.7775183,1.4554349,0.2225508,-0.006657193,0.12638897,1.1475235,0.6265125,-0.4369759,1.3575877,-0.09115878,-0.4314055,0.0150020085,1.3946129,-0.39188394
-0.2,-0.2,0.6,-0.5235987755982988,-0.34906585039886584,-0.17453292519943286,1.7980913,1.4691777,0.2200496,-0.0003518512,0.10727177,1.1474262,0.6705245,-0.43624613,1.353652,-0.08554806,-0.42687342,0.0008313832,1.3871758,-0.37873477
-0.2,-0.2,0.6,-0.5235987755982988,-0.34906585039886584,-0.17453292519943286,1.7729658,1.4553341,0.22002456,-0.012430652,0.10671974,1.1529863,0.6666854,-0.43916136,1.3527625,-0.08308506,-0.4270184,0.0064958204,1.3916347,-0.37473816
-0.2,-0.2,0.6,-0.5235987755982988,-0.34906585039886584,-0.17453292519943286,1.7578988,1.4537008,0.20400484,-0.007019314,0.1143617,1.1356709,0.65120745,-0.43812576,1.352977,-0.081231244,-0.42910895,0.015013778,1.3945031,-0.37964827
-0.2,-0.2,0.6,-0.5235987755982988,-0.34906585039886584,-0.17453292519943286,1.798673,1.4421953,0.20667946,0.00864924,0.10699888,1.1289154,0.6787757,-0.43813795,1.3555976,-0.083675966,-0.429372,0.008133189,1.3931124,-0.384571
-0.2,-0.2,0.6,-0.5235987755982988,-0.34906585039886584,-0.17453292519943286,1.7585821,1.4526391,0.21523406,0.006413388,0.09337834,1.1389077,0.652092,-0.43788823,1.3564259,-0.08170452,-0.42822328,0.01339525,1.3928461,-0.37567142
-0.2,-0.2,0.6,-0.5235987755982988,-0.34906585039886584,-0.17453292519943286,1.7629988,1.458446,0.22931276,0.0020049985,0.099388674,1.1216286,0.6447528,-0.43623373,1.353286,-0.08295918,-0.42486534,0.0062236316,1.3922821,-0.386838
-0.2,-0.2,0.6,-0.5235987755982988,-0.34906585039886584,-0.17453292519943286,1.7664815,1.4644175,0.21396847,0.00059332384,0.118525855,1.1392746,0.6776848,-0.43541235,1.3542424,-0.08962201,-0.43083468,0.007424827,1.3944849,-0.3991711
-0.2,-0.2,0.6,-0.5235987755982988,-0.34906585039886584,-0.17453292519943286,1.7637553,1.4493808,0.22159031,0.0022806022,0.09175794,1.1373072,0.6625721,-0.4362472,1.3506362,-0.08759534,-0.42522287,0.0019706273,1.3886828,-0.40034816
-0.2,-0.2,0.6,-0.5235987755982988,-0.34906585039886584,-0.17453292519943286,1.7841879,1.442683,0.22015488,-0.013980627,0.1095664,1.144752,0.67079955,-0.4392552,1.3562481,-0.08534337,-0.42659673,0.010746476,1.391717,-0.37475038
-0.2,-0.2,0.6,-0.5235987755982988,-0.34906585039886584,-0.17453292519943286,1.7835408,1.4562231,0.2018297,0.0016705006,0.10552963,1.1387571,0.6806074,-0.43714625,1.3515551,-0.086113684,-0.4250975,0.010232901,1.3917929,-0.405934
-0.2,-0.2,0.6,-0.5235987755982988,-0.34906585039886584,-0.17453292519943286,1.7777395,1.4593798,0.20980486,-0.010074319,0.09615434,1.1501902,0.63617826,-0.4368173,1.3514568,-0.088624775,-0.42774525,0.013295105,1.3924981,-0.39416382
-0.2,-0.2,0.6,-0.5235987755982988,-0.34906585039886584,-0.17453292519943286,1.7410936,1.4533912,0.22269048,-0.02068015,0.10960913,1.1362791,0.64663297,-0.44150618,1.349671,-0.07547707,-0.42380178,0.0022613155,1.3938315,-0.37985632
-0.2,-0.2,0.6,-0.5235987755982988,-0.34906585039886584,-0.17453292519943286,1.8104526,1.453914,0.21116665,0.024665356,0.11014875,1.1320531,0.67381465,-0.43820778,1.3524619,-0.08110511,-0.42446628,0.00774654,1.3900275,-0.37468275
-0.2,-0.2,0.6,-0.5235987755982988,-0.34906585039886584,-0.17453292519943286,1.7886103,1.458106,0.20394991,-0.006595202,0.11989056,1.1301177,0.6945933,-0.43483213,1.34953,-0.086182676,-0.4260084,0.0068730977,1.3943273,-0.37850484
-0.2,-0.2,0.6,-0.5235987755982988,-0.34906585039886584,-0.17453292519943286,1.765242,1.4502037,0.21402113,-0.004394466,0.10239507,1.1356208,0.6305564,-0.43673357,1.3495293,-0.08666874,-0.43032438,0.0074653644,1.3957648,-0.39015195
-0.2,-0.2,0.6,-0.5235987755982988,-0.34906585039886584,-0.17453292519943286,1.7649015,1.4504051,0.21801507,-0.0011800004,0.11354155,1.1230692,0.6558988,-0.44012108,1.3467264,-0.076432005,-0.43038914,0.0033248423,1.3918786,-0.38182816
-0.2,-0.2,0.6,-0.5235987755982988,-0.34906585039886584,-0.17453292519943286,1.7606362,1.4511292,0.21931002,0.018802825,0.10851852,1.135568,0.6863572,-0.4406519,1.3494011,-0.083911024,-0.4264303,0.01931828,1.3916656,-0.36778075
-0.2,-0.2,0.6,-0.5235987755982988,-0.34906585039886584,-0.17453292519943286,1.7948472,1.4533846,0.21802574,-0.0035954444,0.1064283,1.145155,0.67352706,-0.4399036,1.3547661,-0.08119389,-0.42968875,0.0068582892,1.3959093,-0.38942885
-0.2,-0.2,0.6,-0.5235987755982988,-0.34906585039886584,-0.17453292519943286,1.7588103,1.4505229,0.2053398,-0.012213601,0.11999176,1.1238779,0.7031555,-0.43859306,1.3546748,-0.09036625,-0.42689645,0.008513374,1.3931108,-0.3985195
-0.2,-0.2,0.6,-0.5235987755982988,-0.34906585039886584,-0.17453292519943286,1.7729845,1.4437553,0.22676732,-0.0018336499,0.10591621,1.1550539,0.64317805,-0.4433182,1.3553063,-0.07532387,-0.42678243,0.008384839,1.3930532,-0.37858358
-0.2,-0.2,0.6,-0.5235987755982988,-0.34906585039886584,-0.17453292519943286,1.775384,1.4465858,0.21826567,-0.0009806121,0.11396464,1.1463546,0.65939844,-0.43669486,1.3523573,-0.087714456,-0.42754042,0.0042571626,1.3885576,-0.3759294
-0.2,-0.2,0.6,-0.5235987755982988,-0.34906585039886584,-0.17453292519943286,1.7612748,1.449925,0.21701615,-0.012748402,0.10731899,1.1346042,0.6788116,-0.4372972,1.3496716,-0.08764677,-0.4265943,0.01915972,1.386643,-0.35731673
-0.2,-0.2,0.6,-0.5235987755982988,-0.34906585039886584,-0.17453292519943286,1.7451231,1.4550468,0.21913752,0.0066743568,0.116123684,1.1354356,0.643794,-0.43631214,1.3499547,-0.08097211,-0.41977355,0.005287834,1.3885893,-0.38828546
-0.2,-0.2,0.6,-0.5235987755982988,-0.34906585039886584,-0.17453292519943286,1.7633538,1.4548349,0.21529858,-0.017698275,0.1260556,1.1478215,0.6260639,-0.439,1.350212,-0.085105516,-0.42765874,0.009238946,1.3960145,-0.34107697
-0.2,-0.2,0.6,-0.5235987755982988,-0.34906585039886584,-0.17453292519943286,1.764112,1.460108,0.2136401,-0.0011123059,0.103091374,1.136451,0.6290267,-0.4356977,1.3508873,-0.08368907,-0.42996863,0.007068314,1.3952006,-0.36820465
-0.2,-0.2,0.6,-0.5235987755982988,-0.34906585039886584,-0.17453292519943286,1.7452585,1.4537137,0.20980304,-0.010261327,0.110041834,1.1381577,0.66038924,-0.43701604,1.3502655,-0.08201722,-0.4251423,0.00870458,1.3952711,-0.36958525
-0.2,-0.2,0.6,-0.5235987755982988,-0.34906585039886584,-0.17453292519943286,1.7442881,1.4493724,0.21052592,-0.0021528075,0.10694153,1.1423774,0.65813375,-0.43772763,1.3517821,-0.079909146,-0.42366987,0.0060165823,1.3929136,-0.38233924
-0.2,-0.2,0.6,-0.5235987755982988,-0.34906585039886584,-0.17453292519943286,1.7753811,1.4517219,0.22349207,0.0076864534,0.122485094,1.1354607,0.656851,-0.44373256,1.3494381,-0.079723105,-0.4252084,0.019346265,1.3958083,-0.37126815
-0.2,-0.2,0.6,-0.5235987755982988,-0.34906585039886584,-0.17453292519943286,1.7635456,1.454404,0.21215701,-0.0018512898,0.116797216,1.1436154,0.6611301,-0.4400655,1.3571477,-0.08949268,-0.42421082,0.016529676,1.3905318,-0.39817858
-0.2,-0.2,0.6,-0.5235987755982988,-0.34906585039886584,-0.17453292519943286,1.7820466,1.4399023,0.2238045,-0.0046847365,0.11833261,1.1268351,0.67540985,-0.44080278,1.3464098,-0.08294027,-0.4268938,0.0015276986,1.3920338,-0.351221
-0.2,-0.2,0.6,-0.5235987755982988,-0.34906585039886584,-0.17453292519943286,1.7139542,1.4447614,0.22266452,-0.01623535,0.09498878,1.1386912,0.70558035,-0.43693987,1.3543152,-0.09009197,-0.4259287,0.0201928,1.3896253,-0.38764846
-0.2,-0.2,0.6,-0.5235987755982988,-0.34906585039886584,-0.17453292519943286,1.750314,1.4477574,0.2178187,0.006143531,0.10875523,1.139602,0.6660815,-0.43765905,1.3643333,-0.09389971,-0.4275211,0.016102908,1.3982562,-0.38696578
-0.2,-0.2,0.6,-0.5235987755982988,-0.34906585039886584,-0.17453292519943286,1.779279,1.4516524,0.22349373,0.012613283,0.098807946,1.1504297,0.63615525,-0.44144076,1.3519545,-0.08166537,-0.42423353,0.015482508,1.3972707,-0.35895863
-0.2,-0.2,0.6,-0.5235987755982988,-0.34906585039886584,-0.17453292519943286,1.7756968,1.4615746,0.21494944,-0.01855798,0.10264908,1.1377251,0.6537336,-0.43885586,1.3493257,-0.085847825,-0.42706162,0.005262765,1.3868828,-0.35914683
-0.2,-0.2,0.6,-0.5235987755982988,-0.34906585039886584,-0.17453292519943286,1.7641138,1.4460927,0.22350827,-0.00829403,0.12518726,1.1366311,0.6802476,-0.4376395,1.3536133,-0.08328957,-0.43015277,0.012521386,1.3944999,-0.37074336
-0.2,-0.2,0.6,-0.5235987755982988,-0.34906585039886584,-0.17453292519943286,1.7849321,1.4492551,0.228991,-0.010747756,0.10735926,1.1294606,0.6659232,-0.43958214,1.3531908,-0.08249142,-0.42685223,0.010070561,1.393837,-0.38610604
-0.2,-0.2,0.6,-0.5235987755982988,-0.34906585039886584,-0.17453292519943286,1.7579473,1.4455051,0.22124617,0.0049236785,0.10995951,1.1369443,0.6253952,-0.43640038,1.3559127,-0.08432457,-0.4262382,0.008200453,1.3899599,-0.3724785
-0.2,-0.2,0.6,-0.5235987755982988,-0.34906585039886584,-0.17453292519943286,1.7570206,1.4413427,0.2148273,-0.02334905,0.10732452,1.134697,0.6490895,-0.43124247,1.3531959,-0.09088932,-0.4263846,0.0024276325,1.3909866,-0.3614815
-0.2,-0.2,0.6,-0.5235987755982988,-0.34906585039886584,-0.17453292519943286,1.7745113,1.450346,0.21890709,0.0031200112,0.12529747,1.1346885,0.68053585,-0.43830103,1.3532472,-0.084570944,-0.4281516,0.017525794,1.39314,-0.37638003
-0.2,-0.2,0.6,-0.5235987755982988,-0.34906585039886584,-0.17453292519943286,1.7430962,1.4503586,0.21682894,0.00287273,0.1161529,1.1431745,0.6423514,-0.43523535,1.350304,-0.085025564,-0.42570537,0.0065528937,1.3941373,-0.38227665
-0.2,-0.2,0.6,-0.5235987755982988,-0.34906585039886584,-0.17453292519943286,1.7647926,1.4558799,0.21650246,0.001245944,0.103538096,1.1293408,0.64484483,-0.4367156,1.3528619,-0.08185041,-0.4271793,0.012147154,1.3901685,-0.37599322
-0.2,-0.2,0.6,-0.5235987755982988,-0.34906585039886584,-0.17453292519943286,1.760508,1.4597638,0.21595746,-0.0013660118,0.11591451,1.1318092,0.6508459,-0.43906006,1.3458518,-0.078702204,-0.42724875,0.0143147595,1.3889917,-0.39556047
-0.2,-0.2,0.6,-0.5235987755982988,-0.34906585039886584,-0.17453292519943286,1.7983025,1.4504887,0.21741804,-0.007947633,0.10386877,1.1462575,0.64807576,-0.43794474,1.3460959,-0.080286674,-0.4295363,0.0007431103,1.3904825,-0.37187457
-0.2,-0.2,0.6,-0.5235987755982988,-0.34906585039886584,-0.17453292519943286,1.7591715,1.4456472,0.21786174,-0.006213371,0.11311667,1.1424017,0.67819715,-0.44067264,1.3536812,-0.08596844,-0.4266404,0.012181032,1.3887757,-0.37917274
-0.2,-0.2,0.6,-0.5235987755982988,-0.34906585039886584,-0.17453292519943286,1.756155,1.4613963,0.20988551,-0.016289806,0.10852908,1.1387568,0.71122634,-0.43792447,1.3444586,-0.0819129,-0.42985907,0.013132422,1.3963125,-0.36991277
-0.2,-0.2,0.6,-0.5235987755982988,-0.34906585039886584,-0.17453292519943286,1.7602906,1.4460964,0.22805735,-0.015960583,0.1009643,1.143219,0.69289285,-0.43983707,1.3496207,-0.08962646,-0.42895925,0.015868753,1.3947439,-0.3606615
-0.2,-0.2,0.6,-0.5235987755982988,-0.34906585039886584,-0.17453292519943286,1.7678878,1.4536216,0.21856827,-0.0055061434,0.10035606,1.150464,0.68698406,-0.43489075,1.347057,-0.08188025,-0.42306146,0.0036290619,1.3897371,-0.39303985
-0.2,-0.2,0.6,-0.5235987755982988,-0.34906585039886584,-0.17453292519943286,1.7643391,1.4460956,0.21742918,-0.009967906,0.11501609,1.1303132,0.6565211,-0.4367706,1.3528732,-0.08857538,-0.4274583,0.01218692,1.3946553,-0.40456536
-0.2,-0.2,0.6,-0.5235987755982988,-0.34906585039886584,-0.17453292519943286,1.8072065,1.4517897,0.2243408,0.0100251455,0.11508645,1.1328627,0.6731915,-0.4365577,1.3480244,-0.07508324,-0.42456445,0.012034177,1.3899661,-0.37953135
-0.2,-0.2,0.6,-0.5235987755982988,-0.34906585039886584,-0.17453292519943286,1.7577982,1.4498136,0.2159697,-0.013907099,0.10556154,1.1349725,0.6672153,-0.4416413,1.3559875,-0.07759403,-0.4285876,0.014433792,1.3919663,-0.36938328
-0.2,-0.2,0.6,-0.5235987755982988,-0.34906585039886584,-0.17453292519943286,1.7376745,1.4456768,0.21527414,0.015922349,0.11602072,1.1343236,0.66576225,-0.43257773,1.3476886,-0.07258562,-0.42571837,0.008946294,1.3920339,-0.36777323
-0.2,-0.2,0.6,-0.5235987755982988,-0.34906585039886584,-0.17453292519943286,1.771843,1.4426396,0.21386121,-0.0042770305,0.11215789,1.1411655,0.7138391,-0.43498772,1.3544779,-0.0865573,-0.42604432,0.004479951,1.3879915,-0.37410668
-0.2,-0.2,0.6,-0.5235987755982988,-0.34906585039886584,-0.17453292519943286,1.7501934,1.4555073,0.21812454,-0.0039845,0.11382483,1.1282635,0.6315873,-0.44156143,1.3467432,-0.08014783,-0.42922217,0.009910521,1.3895519,-0.37545606
-0.2,-0.2,0.6,-0.5235987755982988,-0.34906585039886584,-0.17453292519943286,1.7415415,1.4578729,0.20802297,0.00041355254,0.10042206,1.1387641,0.66746837,-0.43748662,1.3572406,-0.09025247,-0.42444077,0.007169107,1.3968997,-0.38439158
-0.2,-0.2,0.6,-0.5235987755982988,-0.34906585039886584,-0.17453292519943286,1.7657958,1.4522569,0.20919286,-0.0072703646,0.102661446,1.1249807,0.689073,-0.43749407,1.3538383,-0.078199916,-0.42509732,0.011541158,1.3955084,-0.3690161
-0.2,-0.2,0.6,-0.5235987755982988,-0.34906585039886584,-0.17453292519943286,1.7575512,1.4493926,0.21922262,-0.002348625,0.11134688,1.1400918,0.69157714,-0.4362714,1.3538909,-0.08828026,-0.43229818,0.005757378,1.3906581,-0.39056844
-0.2,-0.2,0.6,-0.5235987755982988,-0.34906585039886584,-0.17453292519943286,1.7575623,1.4467928,0.2150351,-0.0077731726,0.11720313,1.128644,0.66213644,-0.43766564,1.3503686,-0.08178869,-0.4245922,0.0052436814,1.3895079,-0.38034368
-0.2,-0.2,0.6,-0.5235987755982988,-0.34906585039886584,-0.17453292519943286,1.7645826,1.4599347,0.21609631,0.0016135101,0.101201236,1.1231409,0.67948425,-0.44203162,1.3514774,-0.087505944,-0.42698836,0.0134813925,1.3890564,-0.37676397
-0.2,-0.2,0.6,-0.5235987755982988,-0.34906585039886584,-0.17453292519943286,1.7360702,1.4500657,0.22763304,-0.009596338,0.11247474,1.1303512,0.64941716,-0.43776384,1.3488276,-0.083000734,-0.42832002,0.011063477,1.3925043,-0.3751954
-0.2,-0.2,0.6,-0.5235987755982988,-0.34906585039886584,-0.17453292519943286,1.7880017,1.4476306,0.22152466,0.011655506,0.11709621,1.1368812,0.6228254,-0.43501952,1.3539985,-0.08458461,-0.4258007,0.006115934,1.3894143,-0.386652
-0.2,-0.2,0.6,-0.5235987755982988,-0.34906585039886584,-0.17453292519943286,1.7236737,1.44828,0.2164363,0.0002583712,0.09771056,1.147662,0.66708344,-0.43194357,1.352274,-0.08209544,-0.42607647,0.0007820855,1.3987836,-0.38170645
-0.2,-0.2,0.6,-0.5235987755982988,-0.34906585039886584,-0.17453292519943286,1.7869635,1.4521968,0.2171993,-0.010837046,0.09252229,1.1412255,0.6846771,-0.43365753,1.3513116,-0.08731633,-0.42942125,-0.0016798573,1.3870974,-0.3852826
-0.2,-0.2,0.6,-0.5235987755982988,-0.34906585039886584,-0.17453292519943286,1.7571228,1.4426489,0.20766659,0.0030775943,0.11989004,1.1286478,0.6855199,-0.43873063,1.3516049,-0.083207406,-0.42746392,0.00561474,1.3912079,-0.38633266
-0.2,-0.2,0.6,-0.5235987755982988,-0.34906585039886584,-0.17453292519943286,1.7774655,1.4641844,0.22169016,-0.0040392126,0.10469618,1.1456678,0.64370376,-0.43728966,1.3517221,-0.07559722,-0.42542997,0.021998623,1.3918844,-0.34727052
-0.2,-0.2,0.6,-0.5235987755982988,-0.34906585039886584,-0.17453292519943286,1.7471657,1.4537225,0.22595105,-0.00012710001,0.09364697,1.1456788,0.6391047,-0.43859932,1.3546573,-0.07923746,-0.42910218,0.0018473575,1.3953152,-0.3829855
-0.2,-0.2,0.6,-0.5235987755982988,-0.34906585039886584,-0.17453292519943286,1.75963,1.4444103,0.209543,0.0070406757,0.11159522,1.1451529,0.64409745,-0.43686604,1.3541322,-0.091450386,-0.43015286,0.0075753923,1.3901633,-0.36305746
-0.2,-0.2,0.6,-0.5235987755982988,-0.34906585039886584,-0.17453292519943286,1.771468,1.4483426,0.22254404,0.0009252332,0.0953178,1.1471423,0.64899415,-0.43531412,1.3517911,-0.08548661,-0.42686617,0.023459172,1.3961513,-0.3489828
-0.2,-0.2,0.6,-0.5235987755982988,-0.34906585039886584,-0.17453292519943286,1.7688713,1.4574691,0.21573639,-0.0107444655,0.10809084,1.1347668,0.6480063,-0.43941537,1.3550338,-0.090021305,-0.4293451,0.0020078337,1.3842252,-0.3687513
-0.2,-0.2,0.6,-0.5235987755982988,-0.34906585039886584,-0.17453292519943286,1.7573661,1.4599818,0.21378511,-0.019003209,0.11052657,1.1413589,0.644359,-0.43819144,1.354338,-0.08792077,-0.42878988,0.010552991,1.385362,-0.39762017
-0.2,-0.2,0.6,-0.5235987755982988,-0.34906585039886584,-0.17453292519943286,1.7746273,1.4513154,0.21037929,-0.0032816555,0.10773101,1.1453973,0.66676265,-0.43631378,1.3494731,-0.08726874,-0.42949003,0.00998984,1.3894352,-0.37174207
-0.2,-0.2,0.6,-0.5235987755982988,-0.34906585039886584,-0.17453292519943286,1.7422756,1.4580697,0.21558742,0.007949547,0.11918333,1.1391734,0.68441147,-0.43804663,1.3436244,-0.08475423,-0.42776322,0.008252809,1.3886944,-0.3823983
-0.2,-0.2,0.6,-0.5235987755982988,-0.34906585039886584,-0.17453292519943286,1.7370002,1.4484972,0.22519459,-0.009460452,0.10359411,1.1492188,0.68709576,-0.43395913,1.356598,-0.07639244,-0.42357072,0.012008111,1.39354,-0.36045304
-0.2,-0.2,0.6,-0.5235987755982988,-0.34906585039886584,-0.17453292519943286,1.7559863,1.4503443,0.22314444,-0.0067123035,0.11051701,1.1343561,0.6313474,-0.44406945,1.3485343,-0.08290323,-0.4253234,0.009781404,1.389808,-0.38884783
-0.2,-0.2,0.6,-0.5235987755982988,-0.34906585039886584,-0.17453292519943286,1.7609202,1.4418852,0.22605622,0.0029455514,0.098201774,1.1398957,0.7192501,-0.43622196,1.3487759,-0.086907856,-0.43084735,0.007651767,1.3889908,-0.35972708
-0.2,-0.2,0.6,-0.5235987755982988,-0.34906585039886584,-0.17453292519943286,1.7804513,1.4650984,0.21490131,-0.00878379,0.11251552,1.1302506,0.7011801,-0.4357757,1.3611227,-0.09674971,-0.43451735,0.011276004,1.3932562,-0.36130628
-0.2,-0.2,0.6,-0.5235987755982988,-0.34906585039886584,-0.17453292519943286,1.764591,1.4389825,0.2192416,-0.0025558532,0.08917013,1.1435103,0.70300573,-0.43903834,1.3561137,-0.07916871,-0.43042266,0.0047139935,1.3894712,-0.37304318
-0.2,-0.2,0.6,-0.5235987755982988,-0.34906585039886584,-0.17453292519943286,1.8048615,1.455493,0.21855341,0.007264524,0.101367086,1.1377927,0.6459424,-0.4386112,1.3544656,-0.08197011,-0.42624378,0.011927629,1.3911204,-0.35586166
-0.2,-0.2,0.6,-0.5235987755982988,-0.34906585039886584,-0.17453292519943286,1.7662473,1.4535309,0.22708894,0.0011162717,0.107858025,1.1410832,0.66162604,-0.43840116,1.3454571,-0.084310286,-0.4294877,0.018366266,1.3883984,-0.35631135
-0.2,-0.2,0.6,-0.5235987755982988,-0.34906585039886584,-0.17453292519943286,1.7865552,1.4612142,0.21441104,-0.015800256,0.09585634,1.1492449,0.7183405,-0.4349151,1.3511105,-0.08363633,-0.4297025,0.011981182,1.3907638,-0.38578722
-0.2,-0.2,0.6,-0.5235987755982988,-0.34906585039886584,-0.17453292519943286,1.7350755,1.4559824,0.21283133,0.0057198927,0.10626366,1.1406674,0.6785415,-0.43740517,1.3504833,-0.075354114,-0.42303512,0.021390375,1.3884549,-0.36951438
-0.2,-0.2,0.6,-0.5235987755982988,-0.34906585039886584,-0.17453292519943286,1.752816,1.4623677,0.21647617,-0.024524968,0.107849784,1.1501755,0.7015261,-0.43777487,1.3535228,-0.08472116,-0.42623168,0.010372016,1.3863707,-0.40739384
-0.2,-0.2,0.6,-0.5235987755982988,-0.34906585039886584,-0.17453292519943286,1.7331531,1.4606258,0.21548776,0.003365574,0.08861918,1.1348137,0.68911606,-0.43911806,1.3475322,-0.08566972,-0.42670012,0.006953689,1.3948196,-0.3690737
-0.2,-0.2,0.6,-0.5235987755982988,-0.34906585039886584,-0.17453292519943286,1.7615013,1.4451435,0.22832976,0.011418326,0.10063098,1.1326859,0.68654466,-0.44126382,1.3512095,-0.07938103,-0.4260468,0.0043046437,1.3924739,-0.37816268
-0.2,-0.2,0.6,-0.5235987755982988,-0.34906585039886584,-0.17453292519943286,1.7541907,1.4443713,0.21249172,-0.0039390586,0.1112099,1.1390088,0.69388115,-0.43653798,1.3449122,-0.089798234,-0.4317696,0.014074722,1.3916279,-0.3789558
-0.2,-0.2,0.6,-0.5235987755982988,-0.34906585039886584,-0.17453292519943286,1.7804015,1.4484777,0.21122308,0.011890438,0.10973963,1.1311206,0.678952,-0.43779057,1.3521293,-0.087614976,-0.4256111,0.018022312,1.394688,-0.39390326
-0.2,-0.2,0.6,-0.5235987755982988,-0.34906585039886584,-0.17453292519943286,1.7582296,1.4514441,0.20897186,-0.0032295322,0.112969466,1.1336304,0.70414114,-0.43950087,1.353173,-0.08768522,-0.43226713,0.008763125,1.389713,-0.3663582
-0.2,-0.2,0.6,-0.5235987755982988,-0.34906585039886584,-0.17453292519943286,1.7823875,1.4535773,0.21731146,0.020912794,0.09800379,1.1438563,0.6213243,-0.43812466,1.3547605,-0.08573833,-0.42658827,0.009963613,1.3901651,-0.37191272
-0.2,-0.2,0.6,-0.5235987755982988,-0.34906585039886584,-0.17453292519943286,1.7440397,1.450474,0.22555614,-0.015591023,0.099738054,1.1345588,0.6595267,-0.43961817,1.344218,-0.078251496,-0.42320475,-0.0011940014,1.3933465,-0.3560534
-0.2,-0.2,0.6,-0.5235987755982988,-0.34906585039886584,-0.17453292519943286,1.7694438,1.4586048,0.2256313,-0.0015923259,0.109172545,1.1278269,0.6574193,-0.44036248,1.3466915,-0.07723383,-0.42614618,0.008622288,1.3908877,-0.36063838
-0.2,-0.2,0.6,-0.5235987755982988,-0.34906585039886584,-0.17453292519943286,1.7709919,1.4530854,0.2137461,-0.0029704687,0.1222627,1.1405802,0.6683419,-0.4418115,1.346443,-0.085244134,-0.43015334,0.0054295976,1.3878767,-0.38281465
-0.2,-0.2,0.6,-0.5235987755982988,-0.34906585039886584,-0.17453292519943286,1.7516125,1.4486017,0.21585551,-0.0031617857,0.106590435,1.1403546,0.6780679,-0.43352333,1.3529884,-0.0909234,-0.42936724,0.008685743,1.3899021,-0.365127
-0.2,-0.2,0.6,-0.5235987755982988,-0.34906585039886584,-0.17453292519943286,1.7551583,1.4609529,0.21493505,0.01666072,0.10456773,1.141616,0.6719509,-0.43599668,1.3523366,-0.08757564,-0.4273747,0.012195974,1.391589,-0.36271748
-0.2,-0.2,0.6,-0.5235987755982988,-0.34906585039886584,-0.17453292519943286,1.736096,1.448803,0.20447561,-0.008810209,0.09969299,1.1414198,0.68836063,-0.43913725,1.3513839,-0.07848565,-0.42659533,0.009287453,1.3939902,-0.3927121
-0.2,-0.2,0.6,-0.5235987755982988,-0.34906585039886584,-0.17453292519943286,1.7754829,1.4585793,0.2185681,-0.0046772403,0.108473234,1.1420484,0.6711294,-0.4336926,1.3501681,-0.08231563,-0.4330533,0.014000185,1.3931273,-0.38290048
-0.2,-0.2,0.6,-0.5235987755982988,-0.34906585039886584,-0.17453292519943286,1.7684164,1.4465806,0.2243053,-0.0073721022,0.0963102,1.1363028,0.66838175,-0.43971488,1.3515807,-0.085794695,-0.42877954,0.008692578,1.3902303,-0.37925395
-0.2,-0.2,0.6,-0.5235987755982988,-0.34906585039886584,-0.17453292519943286,1.7754761,1.4402431,0.21560508,-0.0097583635,0.09607244,1.1441907,0.6608885,-0.43939486,1.3513526,-0.08203838,-0.42962968,0.008802787,1.390308,-0.3762174
-0.2,-0.2,0.6,-0.5235987755982988,-0.34906585039886584,-0.17453292519943286,1.7639762,1.4547588,0.22393896,0.0037215136,0.10222497,1.1416395,0.67096746,-0.4404117,1.345917,-0.082649656,-0.43117255,0.011891398,1.3926529,-0.38367948
-0.2,-0.2,0.6,-0.5235987755982988,-0.34906585039886584,-0.17453292519943286,1.7503948,1.4471372,0.21008919,0.005674176,0.11404706,1.1282129,0.6697772,-0.43587235,1.3539199,-0.08779401,-0.42997935,0.011485474,1.3905629,-0.3783048
-0.2,-0.2,0.6,-0.5235987755982988,-0.34906585039886584,-0.17453292519943286,1.7757204,1.4606366,0.2092396,0.0017846056,0.11021394,1.1438375,0.7189477,-0.44159016,1.3552504,-0.08623439,-0.430731,0.01510436,1.3919568,-0.35478768
-0.2,-0.2,0.6,-0.5235987755982988,-0.34906585039886584,-0.17453292519943286,1.7452652,1.4437394,0.21026793,-0.0028244408,0.10446661,1.141148,0.64739794,-0.43593,1.3553004,-0.08725582,-0.43169475,0.012514892,1.3887666,-0.37672
-0.2,-0.2,0.6,-0.5235987755982988,-0.34906585039886584,-0.17453292519943286,1.7688448,1.4640993,0.2169719,-0.012361095,0.10220544,1.141605,0.6215881,-0.43544027,1.3468752,-0.087781265,-0.42517287,0.020407438,1.391271,-0.36198854
-0.2,-0.2,0.6,-0.5235987755982988,-0.34906585039886584,-0.17453292519943286,1.7881389,1.4543911,0.23062885,-0.0006194668,0.09928101,1.1442231,0.6783549,-0.43614933,1.3558013,-0.093582414,-0.42872965,0.0068918318,1.3883536,-0.38189158
-0.2,-0.2,0.6,-0.5235987755982988,-0.34906585039886584,-0.17453292519943286,1.7636508,1.4546369,0.21660186,-0.0012963203,0.12212229,1.1356685,0.64679796,-0.43536097,1.3516406,-0.0882761,-0.42538697,0.01869286,1.3924615,-0.3948376
-0.2,-0.2,0.6,-0.5235987755982988,-0.34906585039886584,-0.17453292519943286,1.7612467,1.4447134,0.21291843,-0.005190812,0.104050994,1.1398127,0.6664661,-0.43678573,1.3500254,-0.089241855,-0.42892197,0.012878817,1.388503,-0.38943377
-0.2,-0.2,0.6,-0.5235987755982988,-0.34906585039886584,-0.17453292519943286,1.766447,1.4519919,0.2086368,0.010407702,0.099752165,1.1420425,0.6363569,-0.43839458,1.348989,-0.09116557,-0.42842597,0.01806855,1.3874404,-0.3544036
-0.2,-0.2,0.6,-0.5235987755982988,-0.34906585039886584,-0.17453292519943286,1.7665213,1.4509884,0.20995165,0.011697858,0.10675412,1.1426456,0.6821999,-0.43643436,1.3473924,-0.084862374,-0.43012765,0.012292323,1.3918602,-0.37201348
-0.2,-0.2,0.6,-0.5235987755982988,-0.34906585039886584,-0.17453292519943286,1.764351,1.4617567,0.20871772,-0.00034710462,0.109312534,1.1409382,0.64265674,-0.44106796,1.3460042,-0.08204228,-0.42633137,0.014012659,1.3879944,-0.38843507
-0.2,-0.2,0.6,-0.5235987755982988,-0.34906585039886584,-0.17453292519943286,1.790573,1.4492204,0.21297745,0.0072198045,0.13119437,1.1355283,0.67343104,-0.43853197,1.353712,-0.08352034,-0.4244883,0.012116364,1.3899652,-0.36983877
-0.2,-0.2,0.6,-0.5235987755982988,-0.34906585039886584,-0.17453292519943286,1.7489356,1.4569898,0.22515182,-0.019923016,0.10693656,1.1403346,0.6581582,-0.435877,1.3553324,-0.081323326,-0.4262715,0.0052384525,1.3952165,-0.34520456
-0.2,-0.2,0.6,-0.5235987755982988,-0.34906585039886584,-0.17453292519943286,1.7790203,1.4506006,0.21930563,0.0005921235,0.104593776,1.1488943,0.6713285,-0.43778512,1.3499013,-0.08266021,-0.42812786,0.0071421405,1.3836297,-0.38736567
-0.2,-0.2,0.6,-0.5235987755982988,-0.34906585039886584,-0.17453292519943286,1.7566354,1.4484382,0.21956706,-0.0041808356,0.108156204,1.1372107,0.6194246,-0.44003794,1.3524064,-0.09026904,-0.42698509,0.012683454,1.3891762,-0.37571532
-0.2,-0.2,0.6,-0.5235987755982988,-0.34906585039886584,-0.17453292519943286,1.7837622,1.453804,0.21520442,-0.007975685,0.123719074,1.1265284,0.65517825,-0.4365303,1.3468262,-0.09364502,-0.4292762,0.013678734,1.3929942,-0.38815516
-0.2,-0.2,0.6,-0.5235987755982988,-0.34906585039886584,-0.17453292519943286,1.787138,1.4559935,0.22216542,-0.009811545,0.10435779,1.1433303,0.67617106,-0.434735,1.3583566,-0.090821065,-0.42648634,0.015227257,1.3866225,-0.38216084
-0.2,-0.2,0.6,-0.5235987755982988,-0.34906585039886584,-0.17453292519943286,1.7805284,1.461406,0.2236536,-0.010480716,0.099587366,1.1439874,0.7610683,-0.43788108,1.3559647,-0.08214572,-0.42549515,0.0068318583,1.3935663,-0.36555052
-0.2,-0.2,0.6,-0.5235987755982988,-0.34906585039886584,-0.17453292519943286,1.7697992,1.4419098,0.2170787,-0.016092295,0.12041541,1.1276186,0.6780855,-0.4401697,1.3504674,-0.07962021,-0.42683285,0.008085362,1.3888116,-0.36841172
-0.2,-0.2,0.6,-0.5235987755982988,-0.34906585039886584,-0.17453292519943286,1.7929546,1.4454489,0.21486601,0.00619192,0.09938018,1.1377467,0.6297317,-0.4440651,1.344418,-0.09060815,-0.42737746,0.010869394,1.3918923,-0.36096838
-0.2,-0.2,0.6,-0.5235987755982988,-0.34906585039886584,-0.17453292519943286,1.7717813,1.462299,0.222441,-0.013056192,0.10791323,1.1428882,0.6440741,-0.4359029,1.3538355,-0.08013307,-0.42884868,0.01430905,1.3884201,-0.38460377
-0.2,-0.2,0.6,-0.5235987755982988,-0.34906585039886584,-0.17453292519943286,1.7927345,1.4542515,0.20657957,-0.006940075,0.12615424,1.1472249,0.6503062,-0.43870005,1.3554201,-0.08792026,-0.4315486,0.016931385,1.3880663,-0.38983896
-0.2,-0.2,0.6,-0.5235987755982988,-0.34906585039886584,-0.17453292519943286,1.7798036,1.446773,0.21811628,-0.01180877,0.10136414,1.1377496,0.6737592,-0.43855473,1.3485076,-0.08883111,-0.4243074,0.004513663,1.3853368,-0.3715601
-0.2,-0.2,0.6,-0.5235987755982988,-0.34906585039886584,-0.17453292519943286,1.7464247,1.4461695,0.22155853,-0.016405031,0.11159311,1.1530766,0.6901395,-0.43918756,1.3523805,-0.09321507,-0.43267372,0.011894363,1.3949602,-0.35291037
-0.2,-0.2,0.6,-0.5235987755982988,-0.34906585039886584,-0.17453292519943286,1.8019491,1.4494263,0.22532548,-0.01336164,0.07322999,1.1400273,0.6983866,-0.43532476,1.3547941,-0.084228665,-0.4243505,0.0039187926,1.3915807,-0.37261683
-0.2,-0.2,0.6,-0.5235987755982988,-0.34906585039886584,-0.17453292519943286,1.7717845,1.4623321,0.20788601,0.003571713,0.079313375,1.1431618,0.6303667,-0.43792966,1.3572339,-0.08365245,-0.42779055,0.020496894,1.3936132,-0.35716727
-0.2,-0.2,0.6,-0.5235987755982988,-0.34906585039886584,-0.17453292519943286,1.8117539,1.4565365,0.21463339,0.003553167,0.11216584,1.1369121,0.69923747,-0.442782,1.3555611,-0.078625135,-0.4304742,0.009514484,1.3925734,-0.3782664
-0.2,-0.2,0.6,-0.5235987755982988,-0.34906585039886584,-0.17453292519943286,1.7851028,1.4551113,0.22055116,0.0052596703,0.109026276,1.1429214,0.66192687,-0.4369059,1.3485276,-0.09361018,-0.42578372,0.010240093,1.3890476,-0.3574523
-0.2,-0.2,0.6,-0.5235987755982988,-0.34906585039886584,-0.17453292519943286,1.7189859,1.4493936,0.20678723,-0.0112542445,0.12237292,1.143259,0.6450959,-0.43747061,1.3586727,-0.09123534,-0.42650566,0.011078644,1.3876901,-0.3832727
-0.2,-0.2,0.6,-0.5235987755982988,-0.34906585039886584,-0.17453292519943286,1.7617718,1.4519843,0.20493983,-0.0071795927,0.11431019,1.1218169,0.6631842,-0.4410123,1.3558868,-0.081521355,-0.42840686,0.008094105,1.3917749,-0.36079043
-0.2,-0.2,0.6,-0.5235987755982988,-0.34906585039886584,-0.17453292519943286,1.7477674,1.4484199,0.23682472,-0.00023296443,0.111918926,1.1471578,0.65788233,-0.43879777,1.3538927,-0.087012686,-0.43203175,0.0063327258,1.3901137,-0.38943124
-0.2,-0.2,0.6,-0.5235987755982988,-0.34906585039886584,-0.17453292519943286,1.7713845,1.4546658,0.21077831,0.0056638164,0.118300945,1.1471388,0.7023399,-0.4390778,1.3535643,-0.08614379,-0.43060708,0.01164811,1.3920856,-0.38537732
-0.2,-0.2,0.6,-0.5235987755982988,-0.34906585039886584,-0.17453292519943286,1.7630336,1.4581033,0.21712983,-0.0073206443,0.120029695,1.129991,0.6217973,-0.4366326,1.354507,-0.08436043,-0.42738652,0.006003571,1.3899891,-0.3953736
-0.2,-0.2,0.6,-0.5235987755982988,-0.34906585039886584,-0.17453292519943286,1.7502029,1.4468691,0.22819735,-0.017485682,0.106023885,1.1450357,0.6508722,-0.4397458,1.3551037,-0.08474615,-0.4242887,0.015516985,1.388192,-0.3758278
-0.2,-0.2,0.6,-0.5235987755982988,-0.34906585039886584,-0.17453292519943286,1.7259026,1.4630908,0.21327715,0.0048381505,0.10771822,1.1536317,0.7142603,-0.44091353,1.3506342,-0.08366193,-0.42449495,-0.008808254,1.3863469,-0.3750058
-0.2,-0.2,0.6,-0.5235987755982988,-0.34906585039886584,-0.17453292519943286,1.7844601,1.4477694,0.22070184,-0.013224561,0.10696293,1.1397583,0.64624804,-0.4357698,1.3552558,-0.0899174,-0.42442182,0.007943876,1.3897508,-0.35839605
-0.2,-0.2,0.6,-0.5235987755982988,-0.34906585039886584,-0.17453292519943286,1.7944853,1.4642876,0.21439947,-0.013197208,0.11784894,1.1437087,0.68867576,-0.43746278,1.3554167,-0.0899036,-0.4276383,0.007900101,1.3930472,-0.37472647
-0.2,-0.2,0.6,-0.5235987755982988,-0.34906585039886584,-0.17453292519943286,1.7688928,1.4555295,0.20888534,0.0011635487,0.10622413,1.1467639,0.66767955,-0.43992826,1.3537248,-0.08363813,-0.426927,0.0074651446,1.3892608,-0.3714165
-0.2,-0.2,0.6,-0.5235987755982988,-0.34906585039886584,-0.17453292519943286,1.7483177,1.4549992,0.21051544,-0.0048611537,0.10030874,1.1486459,0.6584947,-0.44014996,1.3494915,-0.075043865,-0.42238826,0.010203341,1.3937204,-0.37258914
-0.2,-0.2,0.6,-0.5235987755982988,-0.34906585039886584,-0.17453292519943286,1.7741092,1.4505383,0.22104135,0.0040527536,0.10747047,1.1294906,0.65639585,-0.4367658,1.3567699,-0.08802082,-0.43024987,0.008940931,1.390779,-0.3835829
-0.2,-0.2,0.6,-0.5235987755982988,-0.34906585039886584,-0.17453292519943286,1.7835003,1.4461358,0.21475512,-0.011223793,0.12865247,1.1440636,0.680735,-0.43601415,1.3456439,-0.07989509,-0.42980203,0.0120481765,1.3934096,-0.37395924
-0.2,-0.2,0.6,-0.5235987755982988,-0.34906585039886584,-0.17453292519943286,1.7872427,1.456812,0.21363594,-0.004293786,0.091370694,1.1457762,0.6839607,-0.43832412,1.347936,-0.08836624,-0.42782587,0.008974678,1.3889116,-0.39611968
-0.2,-0.2,0.6,-0.5235987755982988,-0.34906585039886584,-0.17453292519943286,1.7526234,1.4564091,0.21337238,-0.014837858,0.119363815,1.1375338,0.6607433,-0.44015685,1.3461733,-0.090976536,-0.42609265,0.010444591,1.3892387,-0.36210367
-0.2,-0.2,0.6,-0.5235987755982988,-0.34906585039886584,-0.17453292519943286,1.7790831,1.4437438,0.22111098,0.0038079093,0.101261675,1.1499972,0.6550594,-0.43893504,1.3562657,-0.08059783,-0.42972,0.01126146,1.391911,-0.36177993
-0.2,-0.2,0.6,-0.5235987755982988,-0.34906585039886584,-0.17453292519943286,1.7839241,1.460394,0.21852913,0.013451442,0.11418994,1.1427356,0.6328649,-0.4365854,1.3483229,-0.08561611,-0.42811152,0.0070394506,1.3899457,-0.3946922
-0.2,-0.2,0.6,-0.5235987755982988,-0.34906585039886584,-0.17453292519943286,1.7898296,1.4523053,0.21910211,-0.0071448693,0.11668841,1.1360856,0.711012,-0.44285637,1.3507466,-0.08177775,-0.428218,0.009149536,1.3940597,-0.36343774
-0.2,-0.2,0.6,-0.5235987755982988,-0.34906585039886584,-0.17453292519943286,1.776915,1.4514453,0.22160184,0.0051958277,0.13509743,1.1190317,0.65698785,-0.43454003,1.3485059,-0.08161804,-0.43099424,0.0064646993,1.3913125,-0.37961036
-0.2,-0.2,0.6,-0.5235987755982988,-0.34906585039886584,-0.17453292519943286,1.7392246,1.4497949,0.21791123,-0.002578893,0.10616048,1.1473994,0.66508913,-0.43802166,1.345833,-0.07756338,-0.43029058,0.005453808,1.3917929,-0.39659908
-0.2,-0.2,0.6,-0.5235987755982988,-0.34906585039886584,-0.17453292519943286,1.7414867,1.4519066,0.21279581,0.0054812473,0.11066996,1.1426358,0.67219627,-0.43641314,1.3551366,-0.08186328,-0.42729846,0.003358821,1.3947142,-0.382666
-0.2,-0.2,0.6,-0.5235987755982988,-0.34906585039886584,-0.17453292519943286,1.775399,1.4645144,0.23268948,-0.01099513,0.100293316,1.1324304,0.6454741,-0.43629757,1.3496684,-0.08347617,-0.42955816,0.0098768985,1.3928354,-0.3992319
-0.2,-0.2,0.6,-0.5235987755982988,-0.34906585039886584,-0.17453292519943286,1.7475852,1.4579824,0.21102956,-0.0023474076,0.1205855,1.1329507,0.6440246,-0.4353,1.3494228,-0.086055316,-0.43032405,0.0073109195,1.3889308,-0.3795235
-0.2,-0.2,0.6,-0.5235987755982988,-0.34906585039886584,-0.17453292519943286,1.7709781,1.4472805,0.20127669,2.4616023e-05,0.11351526,1.1306189,0.65250236,-0.44610193,1.3559906,-0.08402015,-0.42499292,0.012878213,1.3881052,-0.37931666
-0.2,-0.2,0.6,-0.5235987755982988,-0.34906585039886584,-0.17453292519943286,1.739426,1.4585538,0.21765085,-0.0014292698,0.092804275,1.1454661,0.6668231,-0.44128048,1.3567207,-0.085849345,-0.4288931,0.0037689188,1.3900137,-0.38390365
-0.2,-0.2,0.6,-0.5235987755982988,-0.34906585039886584,-0.17453292519943286,1.7772676,1.4645717,0.2199825,-0.018611716,0.09533974,1.1413815,0.69957,-0.43696168,1.3503916,-0.087147675,-0.4247917,0.0051383055,1.3878909,-0.36400467
-0.2,-0.2,0.6,-0.5235987755982988,-0.34906585039886584,-0.17453292519943286,1.7266878,1.4463356,0.21928759,-0.0024365918,0.1128973,1.141621,0.64944,-0.43433228,1.3490388,-0.087262005,-0.42809454,0.011938429,1.3927897,-0.4051833
-0.2,-0.2,0.6,-0.5235987755982988,-0.34906585039886584,-0.17453292519943286,1.7611372,1.4547626,0.21568102,-0.015294028,0.08430628,1.1375382,0.6686278,-0.43984196,1.3520622,-0.08513957,-0.43021554,0.009704738,1.3903068,-0.3829083
-0.2,-0.2,0.6,-0.5235987755982988,-0.34906585039886584,-0.17453292519943286,1.791609,1.4540256,0.21054177,0.0175718,0.11630544,1.135748,0.66573495,-0.4387153,1.352817,-0.08236055,-0.42414108,0.001402996,1.3878385,-0.40023035
-0.2,-0.2,0.6,-0.5235987755982988,-0.34906585039886584,-0.17453292519943286,1.7434564,1.4498233,0.22434452,0.00673285,0.116914906,1.1387477,0.6808446,-0.43805283,1.3530433,-0.07683508,-0.4268638,0.014120685,1.39238,-0.3352777
-0.2,-0.2,0.6,-0.5235987755982988,-0.34906585039886584,-0.17453292519943286,1.7573285,1.4541028,0.21130008,-0.013152781,0.10470539,1.1461327,0.6670619,-0.4331001,1.3472419,-0.08339763,-0.4239275,0.018078316,1.3873292,-0.35789865
-0.2,-0.2,0.6,-0.5235987755982988,-0.34906585039886584,-0.17453292519943286,1.7526311,1.459394,0.21216217,0.006616388,0.09775915,1.1372521,0.6817646,-0.43933022,1.3550682,-0.08243128,-0.42646793,0.010827809,1.3917402,-0.36808744
-0.2,-0.2,0.6,-0.5235987755982988,-0.34906585039886584,-0.17453292519943286,1.7414488,1.458855,0.21458818,0.0012399554,0.123966634,1.1404458,0.6565444,-0.43581346,1.3566118,-0.08502458,-0.4316546,0.0009817731,1.3922842,-0.363986
-0.2,-0.2,0.6,-0.5235987755982988,-0.34906585039886584,-0.17453292519943286,1.7486321,1.4577782,0.21917492,0.0022224104,0.09518957,1.1450306,0.6971699,-0.4349271,1.3535776,-0.083885655,-0.42543355,0.0026002515,1.3916025,-0.38556772
-0.2,-0.2,0.6,-0.5235987755982988,-0.34906585039886584,-0.17453292519943286,1.779863,1.4552084,0.21144815,0.008245197,0.123876184,1.1508555,0.69198734,-0.43778166,1.3477415,-0.082305446,-0.4256529,0.007189807,1.3919972,-0.4033587
-0.2,-0.2,0.6,-0.5235987755982988,-0.34906585039886584,-0.17453292519943286,1.7669297,1.4526737,0.21376611,0.0026079402,0.1123008,1.1474214,0.66377884,-0.4388219,1.3559195,-0.079974666,-0.42616934,0.011661032,1.3919722,-0.3757658
-0.2,-0.2,0.6,-0.5235987755982988,-0.34906585039886584,-0.17453292519943286,1.7461083,1.4436204,0.21926296,-0.007938003,0.11544841,1.1288118,0.66009283,-0.4345625,1.3474437,-0.08275964,-0.42210338,0.0029010274,1.3914442,-0.4047781
-0.2,-0.2,0.6,-0.5235987755982988,-0.34906585039886584,-0.17453292519943286,1.7803942,1.4542787,0.22101928,-0.00897282,0.1149467,1.1431427,0.6523916,-0.43329117,1.3585848,-0.07666376,-0.4276909,0.015287604,1.3923362,-0.35557407
-0.2,-0.2,0.6,-0.5235987755982988,-0.34906585039886584,-0.17453292519943286,1.7658833,1.4614209,0.21790375,-0.009421667,0.1102606,1.1449991,0.6644893,-0.4364669,1.3475204,-0.09163613,-0.42655882,0.00673874,1.3906578,-0.35486683
-0.2,-0.2,0.6,-0.5235987755982988,-0.34906585039886584,-0.17453292519943286,1.7600065,1.446761,0.2136531,-0.008279317,0.11622199,1.1408966,0.67229587,-0.43892562,1.34377,-0.08602428,-0.4299857,0.014311183,1.3917575,-0.33947998
-0.2,-0.2,0.6,-0.5235987755982988,-0.34906585039886584,-0.17453292519943286,1.7456911,1.4589063,0.21673551,0.0043244204,0.11030596,1.1415842,0.67687756,-0.43295118,1.3486524,-0.08412915,-0.43179315,0.011240408,1.3905421,-0.35215133
-0.2,-0.2,0.6,-0.5235987755982988,-0.34906585039886584,-0.17453292519943286,1.759019,1.4624809,0.2216892,-0.0056674806,0.113741584,1.1391317,0.66298485,-0.44038355,1.3497157,-0.09129218,-0.43008718,0.009063322,1.3898054,-0.3536459
-0.2,-0.2,0.6,-0.5235987755982988,-0.34906585039886584,-0.17453292519943286,1.7921509,1.4533727,0.21198572,0.006325199,0.110904045,1.1418139,0.680143,-0.43928722,1.3540413,-0.092644855,-0.42833164,0.006815526,1.3890196,-0.3533821
-0.2,-0.2,0.6,-0.5235987755982988,-0.34906585039886584,-0.17453292519943286,1.7775291,1.4474704,0.20870417,-0.0069185216,0.12086613,1.1438148,0.66690195,-0.44074416,1.3452506,-0.08896641,-0.43112043,0.007107523,1.3921092,-0.34332496
-0.2,-0.2,0.6,-0.5235987755982988,-0.34906585039886584,-0.17453292519943286,1.7842783,1.4633733,0.20401329,0.0066878498,0.11036238,1.140368,0.6551114,-0.43884027,1.3499222,-0.08349846,-0.43101203,0.007890646,1.3932598,-0.3378554
-0.2,-0.2,0.6,-0.5235987755982988,-0.34906585039886584,-0.17453292519943286,1.7545184,1.4608861,0.20411913,-0.010490056,0.10814945,1.1391168,0.6794369,-0.43879855,1.3492048,-0.08538647,-0.42797995,0.0026171848,1.3871815,-0.34294784
-0.2,-0.2,0.6,-0.5235987755982988,-0.34906585039886584,-0.17453292519943286,1.7710187,1.4641273,0.21264847,-0.01254386,0.10645862,1.145252,0.68737787,-0.43614358,1.3491426,-0.086624965,-0.42929804,0.0054522427,1.3856815,-0.40584087
-0.2,-0.2,0.6,-0.5235987755982988,-0.34906585039886584,-0.17453292519943286,1.7373792,1.4552071,0.22134954,0.014123179,0.11347975,1.1366504,0.6924992,-0.43881476,1.3473918,-0.078338355,-0.4235637,0.0053447597,1.3926282,-0.36668357
-0.2,-0.2,0.6,-0.5235987755982988,-0.34906585039886584,-0.17453292519943286,1.7454549,1.4597393,0.21531151,0.0059402734,0.11324805,1.1562858,0.66774166,-0.43377712,1.3450083,-0.08334299,-0.42826062,0.0077498904,1.3931578,-0.3250055
-0.2,-0.2,0.6,-0.5235987755982988,-0.34906585039886584,-0.17453292519943286,1.7417421,1.458511,0.20915852,-0.0057052393,0.10905002,1.1400988,0.64560175,-0.43946895,1.3487408,-0.091877736,-0.42788845,0.016818935,1.389852,-0.32537723
-0.2,-0.2,0.6,-0.5235987755982988,-0.34906585039886584,-0.17453292519943286,1.7982277,1.4467385,0.21866795,-0.015192938,0.10563546,1.1486051,0.67748755,-0.43827948,1.3464166,-0.0887577,-0.42709222,0.00780556,1.3887917,-0.34623355
-0.2,-0.2,0.6,-0.5235987755982988,-0.34906585039886584,-0.17453292519943286,1.7979069,1.442936,0.20774381,0.009562983,0.12142921,1.1297115,0.65864354,-0.43196455,1.3516284,-0.0910713,-0.43246138,0.002041784,1.3898803,-0.40343097
-0.2,-0.2,0.6,-0.5235987755982988,-0.34906585039886584,-0.17453292519943286,1.7813736,1.4388363,0.22176172,-0.014925445,0.11358504,1.1508534,0.67131335,-0.44006312,1.3485047,-0.08387548,-0.43516642,0.016671803,1.3908681,-0.3961771
-0.2,-0.2,0.6,-0.5235987755982988,-0.34906585039886584,-0.17453292519943286,1.7848265,1.4476624,0.21347459,-0.0021283617,0.109591134,1.1429263,0.66455114,-0.438588,1.349155,-0.08355302,-0.4309312,0.015646584,1.3898786,-0.37865144
-0.2,-0.2,0.6,-0.5235987755982988,-0.34906585039886584,-0.17453292519943286,1.7735592,1.4560564,0.2126658,-0.005267629,0.122904085,1.1406207,0.66338193,-0.44066897,1.3512509,-0.087576084,-0.42873594,0.012375629,1.3890089,-0.34333155
-0.2,-0.2,0.6,-0.5235987755982988,-0.34906585039886584,-0.17453292519943286,1.769538,1.4548035,0.21181811,-0.0012751322,0.124719225,1.1370579,0.68620497,-0.44021797,1.345106,-0.08512118,-0.4314729,0.0085258,1.3957314,-0.4263221
