sanky1234/BimanualDexCatch/isaacgymenvs/cem_results/football_pose_-0.1_0.1_0.6_0.0_-0.5235987755982988_0_2025-05-26.csv
x,y,z,roll,pitch,yaw,robot1/joint1,robot1/joint2,robot1/joint3,robot1/joint4,robot1/joint5,robot1/joint6,robot1/joint7,robot2/joint1,robot2/joint2,robot2/joint3,robot2/joint4,robot2/joint5,robot2/joint6,robot2/joint7
-0.1,0.1,0.6,0.0,-0.5235987755982988,0,0.26011962,1.7654094,0.060189106,-0.5525122,0.33416045,1.5418415,0.09618468,-1.2780882,1.4389963,0.3607548,0.22268562,-0.27646366,0.97755986,1.5557705
-0.1,0.1,0.6,0.0,-0.5235987755982988,0,0.28056386,1.7467008,0.0727329,-0.54630274,0.21426564,1.5237778,0.0923753,-1.3640602,1.3908058,0.3365869,0.27569103,-0.25848076,0.9681277,1.2244289
-0.1,0.1,0.6,0.0,-0.5235987755982988,0,0.27512956,1.763174,0.09830158,-0.57309467,0.34284186,1.5393897,0.06251893,-1.2707888,1.3906102,0.37121674,0.270209,-0.31793216,0.9444044,1.5446142
-0.1,0.1,0.6,0.0,-0.5235987755982988,0,0.2560277,1.7601244,0.05743601,-0.53869534,0.29904994,1.540726,0.08165463,-1.3749117,1.4099188,0.35174817,0.24863367,-0.3303859,0.94887173,1.7180067
-0.1,0.1,0.6,0.0,-0.5235987755982988,0,0.25119182,1.7642033,0.07987161,-0.5387467,0.31431377,1.5123137,0.05605987,-1.2912952,1.4280899,0.34140182,0.26621842,-0.34030265,1.0316262,1.3263716
-0.1,0.1,0.6,0.0,-0.5235987755982988,0,0.26244912,1.775171,0.07932359,-0.5550004,0.35015926,1.5336275,0.08805479,-1.3650306,1.4420817,0.33882862,0.2865693,-0.32847017,0.99784493,1.4196994
-0.1,0.1,0.6,0.0,-0.5235987755982988,0,0.26600283,1.7467426,0.10148995,-0.5490856,0.29869694,1.5248278,0.14416836,-1.2376142,1.4103564,0.3613642,0.25660753,-0.33455035,0.96617764,1.3649184
-0.1,0.1,0.6,0.0,-0.5235987755982988,0,0.28334174,1.7540036,0.08188401,-0.538567,0.2884444,1.5413654,0.11119446,-1.3464736,1.4504366,0.37410277,0.19892597,-0.36729074,0.92164314,1.8899375
-0.1,0.1,0.6,0.0,-0.5235987755982988,0,0.2608602,1.7638386,0.09081434,-0.55439574,0.31807432,1.5172945,0.07292937,-1.2293313,1.3946323,0.3358037,0.2561057,-0.2693038,1.0948241,2.0837047
-0.1,0.1,0.6,0.0,-0.5235987755982988,0,0.27149504,1.7626072,0.09535442,-0.5563901,0.28946015,1.5033174,0.09185094,-1.2074693,1.4246615,0.35384,0.3225736,-0.2956457,0.9627305,1.5362251
-0.1,0.1,0.6,0.0,-0.5235987755982988,0,0.26804996,1.7697316,0.080719896,-0.5738363,0.29482362,1.53501,0.10538419,-1.2948772,1.4062194,0.33195052,0.23761259,-0.20963474,0.9912901,1.4813452
-0.1,0.1,0.6,0.0,-0.5235987755982988,0,0.256718,1.7662141,0.07469067,-0.5429173,0.3242494,1.5172015,0.11060413,-1.3419491,1.4247655,0.3441041,0.2463483,-0.293158,0.9013209,1.9243814
-0.1,0.1,0.6,0.0,-0.5235987755982988,0,0.25386673,1.7667574,0.07578681,-0.55652064,0.3008458,1.5168664,0.08494702,-1.3040526,1.412603,0.3394915,0.27761453,-0.36008534,1.0277238,1.653002
-0.1,0.1,0.6,0.0,-0.5235987755982988,0,0.26949653,1.7651795,0.08421741,-0.5630386,0.31548724,1.5263444,0.0992889,-1.2540932,1.4107593,0.35821766,0.2231372,-0.29111406,0.9686535,1.449766
-0.1,0.1,0.6,0.0,-0.5235987755982988,0,0.26099482,1.7620772,0.06895297,-0.5412698,0.32990044,1.511977,0.05360355,-1.2927406,1.4101951,0.35272548,0.2216219,-0.27507758,0.92640066,1.1729354
-0.1,0.1,0.6,0.0,-0.5235987755982988,0,0.2438676,1.7757622,0.11150385,-0.570889,0.3700822,1.5270406,0.080195755,-1.2460989,1.4242127,0.3478992,0.2124356,-0.2778694,0.9436189,1.6987188
-0.1,0.1,0.6,0.0,-0.5235987755982988,0,0.2557284,1.7599485,0.084386826,-0.5504213,0.3065414,1.5164102,0.0624789,-1.3616873,1.4291929,0.36141625,0.25215104,-0.30556405,0.979649,1.6384755
-0.1,0.1,0.6,0.0,-0.5235987755982988,0,0.2768689,1.7597876,0.08945626,-0.55454385,0.3283815,1.5254756,0.10209393,-1.3554381,1.4233459,0.3273313,0.28288266,-0.30267286,0.98559344,1.6850401
-0.1,0.1,0.6,0.0,-0.5235987755982988,0,0.26654124,1.7666727,0.06830417,-0.56848395,0.2978899,1.5390855,0.07055369,-1.4452654,1.4132117,0.37812263,0.2950378,-0.27848962,0.94078684,1.6416917
-0.1,0.1,0.6,0.0,-0.5235987755982988,0,0.27910253,1.7596767,0.06198458,-0.5629886,0.32768926,1.5285308,0.09212011,-1.3314441,1.4202659,0.36485046,0.25453427,-0.27818522,0.96834713,1.5846317
-0.1,0.1,0.6,0.0,-0.5235987755982988,0,0.27251196,1.7557641,0.10897666,-0.5626547,0.29893386,1.5169367,0.12221986,-1.329904,1.4109968,0.34757814,0.23864171,-0.2704874,0.99055797,1.111871
-0.1,0.1,0.6,0.0,-0.5235987755982988,0,0.25566018,1.7686188,0.08568999,-0.5567554,0.27512,1.5080428,0.08843854,-1.2303005,1.4268525,0.373229,0.28731847,-0.3189391,0.9134854,1.4428432
-0.1,0.1,0.6,0.0,-0.5235987755982988,0,0.2627622,1.761723,0.08015288,-0.5563053,0.33690414,1.5158864,0.100915775,-1.3327872,1.4391085,0.38961303,0.23305327,-0.35629404,0.9594678,1.64834
-0.1,0.1,0.6,0.0,-0.5235987755982988,0,0.2545702,1.7700038,0.07641204,-0.54977363,0.27962613,1.5383112,0.13960251,-1.4281135,1.451488,0.37082425,0.2812541,-0.30259442,0.9593293,1.7312409
-0.1,0.1,0.6,0.0,-0.5235987755982988,0,0.27262112,1.7318131,0.10933767,-0.5338581,0.29452658,1.5277333,0.088966265,-1.3599547,1.4093965,0.34622064,0.32432026,-0.31318757,1.0152138,1.1221182
-0.1,0.1,0.6,0.0,-0.5235987755982988,0,0.28556645,1.758056,0.060862165,-0.5550771,0.3192751,1.5314552,0.07544961,-1.3498952,1.4179453,0.3496254,0.24769801,-0.24493918,0.95703644,1.4859881
-0.1,0.1,0.6,0.0,-0.5235987755982988,0,0.26219952,1.7624218,0.09860756,-0.5561984,0.32177567,1.516765,0.0847759,-1.2843727,1.3974783,0.34637544,0.25417787,-0.22921047,0.97118145,1.6153299
-0.1,0.1,0.6,0.0,-0.5235987755982988,0,0.25782707,1.7734122,0.08541879,-0.5305946,0.31161845,1.5215784,0.1626493,-1.1727799,1.4363081,0.35829663,0.24784675,-0.25524107,0.9593057,1.6552417
-0.1,0.1,0.6,0.0,-0.5235987755982988,0,0.26639545,1.7547565,0.11303856,-0.54745674,0.23710962,1.5294335,0.076929145,-1.4011203,1.4311978,0.37003785,0.2739231,-0.30750293,0.9071712,2.0255482
-0.1,0.1,0.6,0.0,-0.5235987755982988,0,0.25936046,1.7794092,0.08806139,-0.5718357,0.30263355,1.5295583,0.07462262,-1.2278178,1.4166752,0.35740736,0.32195005,-0.25964272,0.97287154,1.3703744
-0.1,0.1,0.6,0.0,-0.5235987755982988,0,0.25829712,1.7435657,0.08309239,-0.53436947,0.28832093,1.526344,0.07171979,-1.29678,1.4111346,0.35129502,0.2713223,-0.2381614,0.96033823,1.01461
-0.1,0.1,0.6,0.0,-0.5235987755982988,0,0.27085915,1.7724813,0.08353804,-0.55919933,0.29910544,1.5097878,0.061681196,-1.1836922,1.4013004,0.32765982,0.2846763,-0.2822436,0.9613331,1.290441
-0.1,0.1,0.6,0.0,-0.5235987755982988,0,0.2639431,1.7442662,0.06710944,-0.54090637,0.34720787,1.5246418,0.079126276,-1.4262245,1.3831722,0.3535953,0.28511435,-0.30580252,0.84000266,1.5781703
-0.1,0.1,0.6,0.0,-0.5235987755982988,0,0.26619768,1.7675316,0.09741171,-0.5550912,0.33401018,1.5300409,0.18702891,-1.2555544,1.4011554,0.32552522,0.25405177,-0.34569326,0.9181282,1.6430349
-0.1,0.1,0.6,0.0,-0.5235987755982988,0,0.26940325,1.747055,0.08311791,-0.54579586,0.29328954,1.5162829,0.12061122,-1.2509992,1.40067,0.3641297,0.24662076,-0.30873704,0.96479,1.2949233
-0.1,0.1,0.6,0.0,-0.5235987755982988,0,0.26562372,1.7680706,0.07488116,-0.5607847,0.36482468,1.516339,0.08763444,-1.1978861,1.4236448,0.34976566,0.22931272,-0.30543348,0.9323608,1.1730913
-0.1,0.1,0.6,0.0,-0.5235987755982988,0,0.27120772,1.7563868,0.07085928,-0.55690414,0.35730222,1.5235955,0.09053745,-1.2386742,1.4262868,0.3718872,0.21862243,-0.30136085,0.91535294,1.2908835
-0.1,0.1,0.6,0.0,-0.5235987755982988,0,0.25569627,1.7569149,0.08056121,-0.55955255,0.28797665,1.5306572,0.10404461,-1.341537,1.4218589,0.3719451,0.2570964,-0.28921464,1.0447106,1.3603841
-0.1,0.1,0.6,0.0,-0.5235987755982988,0,0.27245307,1.7635024,0.07588585,-0.55602634,0.36228207,1.5282513,0.104839385,-1.2352592,1.4148088,0.373653,0.2230277,-0.2773893,0.9013611,1.8149834
-0.1,0.1,0.6,0.0,-0.5235987755982988,0,0.2664931,1.7625787,0.056805067,-0.56114244,0.33978456,1.5284816,0.10289723,-1.2343726,1.4333534,0.3414433,0.2302062,-0.32209873,1.0421171,1.5304031
-0.1,0.1,0.6,0.0,-0.5235987755982988,0,0.26694486,1.7636682,0.07316733,-0.5671578,0.40414503,1.5344537,0.07497004,-1.1807797,1.4170088,0.33344445,0.30757248,-0.28640023,0.9280341,1.555551
-0.1,0.1,0.6,0.0,-0.5235987755982988,0,0.25700134,1.7748029,0.08932456,-0.55757344,0.2551232,1.5241532,0.12697545,-1.2850543,1.4020445,0.37970722,0.2908211,-0.20560688,0.95743203,1.4123175
-0.1,0.1,0.6,0.0,-0.5235987755982988,0,0.27051622,1.7512999,0.088980116,-0.533694,0.3125097,1.5254266,0.075090416,-1.4096802,1.4339306,0.35904014,0.2703367,-0.34655565,1.0079886,1.6437166
-0.1,0.1,0.6,0.0,-0.5235987755982988,0,0.25299573,1.7619883,0.088397525,-0.53185254,0.34045383,1.5310334,0.116824664,-1.2607605,1.4067836,0.34686807,0.25690755,-0.3131175,0.9148328,1.1885926
-0.1,0.1,0.6,0.0,-0.5235987755982988,0,0.25273135,1.7697064,0.08287627,-0.55574024,0.34719875,1.5263681,0.06845494,-1.3084557,1.4309026,0.3589439,0.3132678,-0.34538838,1.000703,1.5645742
-0.1,0.1,0.6,0.0,-0.5235987755982988,0,0.25692904,1.756979,0.08310449,-0.5519327,0.3000152,1.526039,0.08228802,-1.3064466,1.4094706,0.36109218,0.24080144,-0.26197812,0.98517036,1.6608976
-0.1,0.1,0.6,0.0,-0.5235987755982988,0,0.23450823,1.763566,0.06727262,-0.53990555,0.31695497,1.5151912,0.076843895,-1.3359461,1.3952488,0.35663873,0.2607584,-0.23557745,0.9282586,2.0737464
-0.1,0.1,0.6,0.0,-0.5235987755982988,0,0.26664346,1.7677115,0.10867915,-0.5366088,0.30519488,1.5222764,0.11901903,-1.329747,1.4407377,0.39522073,0.32377318,-0.29288438,0.9795307,1.3647105
-0.1,0.1,0.6,0.0,-0.5235987755982988,0,0.26585907,1.7639279,0.068374716,-0.5549514,0.35568953,1.5246236,0.08480551,-1.341962,1.4337995,0.37680596,0.24771705,-0.36196738,1.0366434,1.5164002
-0.1,0.1,0.6,0.0,-0.5235987755982988,0,0.26910084,1.768813,0.07945476,-0.5605955,0.28755942,1.5367393,0.05785406,-1.2901708,1.4275714,0.37457183,0.25245553,-0.24537402,0.94169843,1.4374967
-0.1,0.1,0.6,0.0,-0.5235987755982988,0,0.24739957,1.7672817,0.09074965,-0.5392432,0.29143366,1.5339707,0.06283638,-1.305553,1.4116863,0.35318926,0.31062278,-0.30888328,0.97096676,1.5212442
-0.1,0.1,0.6,0.0,-0.5235987755982988,0,0.27732515,1.7646581,0.09788546,-0.5601001,0.2995652,1.511578,0.059751205,-1.3895191,1.4019626,0.34863517,0.28576043,-0.30636618,1.0590845,1.4715906
-0.1,0.1,0.6,0.0,-0.5235987755982988,0,0.24195635,1.7690707,0.07982993,-0.5468746,0.29285905,1.5226203,0.062691055,-1.3561354,1.398629,0.3343117,0.26592758,-0.28228015,0.9975574,1.7874999
-0.1,0.1,0.6,0.0,-0.5235987755982988,0,0.25441638,1.7759044,0.09254533,-0.563262,0.3022723,1.5277233,0.07073187,-1.195049,1.4427195,0.39001924,0.22572736,-0.29850587,0.9364449,1.797138
-0.1,0.1,0.6,0.0,-0.5235987755982988,0,0.28093356,1.7420976,0.09796227,-0.5390727,0.31972986,1.5156641,0.05413325,-1.2626841,1.4579957,0.362954,0.2570405,-0.38738987,0.93389755,1.9177612
-0.1,0.1,0.6,0.0,-0.5235987755982988,0,0.25037318,1.7695775,0.052562777,-0.55933946,0.31486207,1.5188185,0.10059682,-1.3493668,1.4176966,0.3545167,0.21652964,-0.281214,1.012542,1.4336488
-0.1,0.1,0.6,0.0,-0.5235987755982988,0,0.2625326,1.7638123,0.066133976,-0.54191935,0.32600105,1.5210482,0.07400989,-1.2745011,1.4260503,0.38602787,0.23808053,-0.29615355,1.0079436,1.6659583
-0.1,0.1,0.6,0.0,-0.5235987755982988,0,0.27079958,1.7608727,0.057424296,-0.5390788,0.27977887,1.5108441,0.1281881,-1.2855229,1.4424226,0.3690583,0.25432217,-0.2628039,0.9843041,1.8442048
-0.1,0.1,0.6,0.0,-0.5235987755982988,0,0.28518897,1.7473618,0.055799585,-0.55196244,0.2915427,1.5334889,0.08150696,-1.2672707,1.4304949,0.3851071,0.2744945,-0.23255794,0.9668986,2.5931175
-0.1,0.1,0.6,0.0,-0.5235987755982988,0,0.26815632,1.761319,0.08582832,-0.5380033,0.26768914,1.5028136,0.13346714,-1.2407568,1.4383972,0.3903212,0.25665435,-0.264742,0.9298588,2.105425
-0.1,0.1,0.6,0.0,-0.5235987755982988,0,0.2682165,1.7523748,0.109390944,-0.54069567,0.31108394,1.5119377,0.08393437,-1.3155432,1.4330909,0.34753382,0.27764225,-0.3103603,0.95348865,1.538798
-0.1,0.1,0.6,0.0,-0.5235987755982988,0,0.2466537,1.7733841,0.09526082,-0.5557139,0.306935,1.522786,0.0690781,-1.2303047,1.4417453,0.36212543,0.2163294,-0.25386637,0.9382536,1.6793274
-0.1,0.1,0.6,0.0,-0.5235987755982988,0,0.24617884,1.7727985,0.085009314,-0.5637419,0.28662962,1.526705,0.13594116,-1.2820561,1.3918351,0.36549655,0.28568667,-0.3247238,0.95025605,1.7941463
-0.1,0.1,0.6,0.0,-0.5235987755982988,0,0.25992927,1.7700496,0.07598943,-0.5489923,0.33748427,1.5207655,0.086197354,-1.2302403,1.4269878,0.32536656,0.28695223,-0.24562149,1.0613151,1.4604287
-0.1,0.1,0.6,0.0,-0.5235987755982988,0,0.26331612,1.7618558,0.09257065,-0.5547859,0.2844245,1.5107306,0.083302185,-1.2987683,1.4045205,0.36784846,0.28947967,-0.34634715,0.9516108,1.7725886
-0.1,0.1,0.6,0.0,-0.5235987755982988,0,0.27479008,1.7702049,0.07219874,-0.5654331,0.3684568,1.5286777,0.061131604,-1.3578093,1.4308288,0.37971607,0.2510452,-0.36273822,0.9455916,1.6012717
-0.1,0.1,0.6,0.0,-0.5235987755982988,0,0.2622984,1.7697078,0.09696547,-0.5505092,0.2544358,1.5130892,0.05483652,-1.2622831,1.4029456,0.38255474,0.20794006,-0.3297074,0.94785935,1.6281332
-0.1,0.1,0.6,0.0,-0.5235987755982988,0,0.24722306,1.7846159,0.07068885,-0.56036836,0.31790274,1.5317836,0.10039183,-1.2787769,1.401437,0.37691873,0.22310953,-0.3368174,0.94349337,1.6314656
-0.1,0.1,0.6,0.0,-0.5235987755982988,0,0.25184387,1.765969,0.06670198,-0.545071,0.31292486,1.5335573,0.078807004,-1.316505,1.4371341,0.37499243,0.2805923,-0.24667937,1.0116946,1.3568945
-0.1,0.1,0.6,0.0,-0.5235987755982988,0,0.2523711,1.7624348,0.10311283,-0.5504131,0.3382933,1.5281366,0.1371025,-1.2214339,1.4189479,0.3445744,0.28414124,-0.31735525,0.98431504,1.3378946
-0.1,0.1,0.6,0.0,-0.5235987755982988,0,0.24479678,1.7861612,0.10055546,-0.5482117,0.35908812,1.5151486,0.059002176,-1.4138663,1.4164302,0.34682116,0.24388403,-0.22508541,0.9768298,1.3517557
-0.1,0.1,0.6,0.0,-0.5235987755982988,0,0.2701639,1.7607032,0.090424426,-0.5587529,0.34498316,1.5301979,0.0890304,-1.3710334,1.3910878,0.35345313,0.2761367,-0.21214701,0.9474778,1.4171938
-0.1,0.1,0.6,0.0,-0.5235987755982988,0,0.281285,1.7559346,0.09545148,-0.5567328,0.3289848,1.5190834,0.07675223,-1.2854764,1.4033407,0.35185733,0.21806258,-0.2432101,0.92206305,1.2026281
-0.1,0.1,0.6,0.0,-0.5235987755982988,0,0.25737977,1.758067,0.105725765,-0.5531846,0.29828742,1.5125811,0.06294299,-1.3266258,1.4116268,0.35867292,0.22762425,-0.27376506,0.9254605,1.319081
-0.1,0.1,0.6,0.0,-0.5235987755982988,0,0.27265176,1.7649069,0.093717426,-0.5516281,0.2947604,1.5222695,0.08914542,-1.336438,1.426933,0.36388707,0.2344617,-0.29446083,0.95024526,1.1232184
-0.1,0.1,0.6,0.0,-0.5235987755982988,0,0.26602045,1.7605639,0.08625041,-0.55050254,0.3435768,1.520842,0.10610935,-1.3532665,1.4209609,0.36409873,0.27558666,-0.3256604,0.95337456,1.6489294
-0.1,0.1,0.6,0.0,-0.5235987755982988,0,0.26965928,1.7735604,0.08254172,-0.55642015,0.26232734,1.5218109,0.06392743,-1.2122079,1.4253927,0.3748977,0.29216778,-0.3358114,0.9516027,1.4256368
-0.1,0.1,0.6,0.0,-0.5235987755982988,0,0.25408196,1.7851698,0.0786173,-0.55409014,0.35299045,1.5236096,0.12500778,-1.2726301,1.39855,0.34702638,0.23428938,-0.19136663,0.9060829,0.75003546
-0.1,0.1,0.6,0.0,-0.5235987755982988,0,0.28308603,1.7572789,0.08895226,-0.5548115,0.33964375,1.522052,0.075630575,-1.1495304,1.416086,0.34877074,0.22652733,-0.2847623,0.95978487,2.0201063
-0.1,0.1,0.6,0.0,-0.5235987755982988,0,0.26633653,1.7615324,0.06819113,-0.5603019,0.3279462,1.5351752,0.0789805,-1.3347751,1.4409014,0.35537717,0.23577029,-0.261542,0.94497186,1.7208804
-0.1,0.1,0.6,0.0,-0.5235987755982988,0,0.26460677,1.7628088,0.0901957,-0.554667,0.282953,1.5177388,0.08828009,-1.3401091,1.4182122,0.41827473,0.28481326,-0.31242046,1.0350336,2.1112146
-0.1,0.1,0.6,0.0,-0.5235987755982988,0,0.2882738,1.7626308,0.06984854,-0.5699617,0.3026486,1.5262958,0.10939538,-1.2420882,1.3929477,0.37386423,0.25052676,-0.31043628,0.9125873,1.4828609
-0.1,0.1,0.6,0.0,-0.5235987755982988,0,0.25294682,1.7592679,0.09385932,-0.55023783,0.302165,1.5367452,0.14192079,-1.3077863,1.4389532,0.34654284,0.23953724,-0.37775332,0.95578945,1.5571082
-0.1,0.1,0.6,0.0,-0.5235987755982988,0,0.25869793,1.7739373,0.088676825,-0.5715203,0.36301583,1.5194702,0.04203545,-1.2723038,1.4075197,0.3828259,0.2744853,-0.2998244,0.9418467,1.5985177
-0.1,0.1,0.6,0.0,-0.5235987755982988,0,0.26773793,1.767771,0.073696405,-0.5567481,0.30723953,1.525802,0.10876535,-1.217752,1.4433877,0.35792723,0.23996097,-0.29395905,0.95681,2.235201
-0.1,0.1,0.6,0.0,-0.5235987755982988,0,0.25175932,1.7555109,0.099458285,-0.5478136,0.30351016,1.5383724,0.06664799,-1.3552501,1.3993571,0.35727566,0.29004127,-0.31623313,1.0130248,1.6207757
-0.1,0.1,0.6,0.0,-0.5235987755982988,0,0.2586863,1.7649167,0.07405607,-0.5489057,0.2466674,1.5282785,0.047209073,-1.2764468,1.4354801,0.37315154,0.23716624,-0.28808936,0.9810162,2.2912807
-0.1,0.1,0.6,0.0,-0.5235987755982988,0,0.26183748,1.7603811,0.08482852,-0.5548708,0.3018823,1.5348139,0.07246705,-1.2118508,1.417405,0.37626323,0.24777658,-0.2224948,1.0112835,1.6093717
-0.1,0.1,0.6,0.0,-0.5235987755982988,0,0.26622608,1.7705181,0.071073234,-0.55095893,0.32523802,1.5172518,0.086085334,-1.2797242,1.4056311,0.36365986,0.2921541,-0.35013482,1.0138899,1.6980851
-0.1,0.1,0.6,0.0,-0.5235987755982988,0,0.26771352,1.7401438,0.08432033,-0.5629367,0.32055676,1.5281593,0.09915663,-1.2587726,1.4177068,0.311198,0.20024744,-0.2671075,0.94712144,1.5707555
-0.1,0.1,0.6,0.0,-0.5235987755982988,0,0.25638238,1.7633746,0.106962584,-0.56261873,0.36275494,1.5238899,0.07372305,-1.3437767,1.4323376,0.33550724,0.20815113,-0.23043008,0.9339974,1.6118461
-0.1,0.1,0.6,0.0,-0.5235987755982988,0,0.26649466,1.7636707,0.1219682,-0.5351354,0.36065206,1.5167971,0.0616819,-1.3025521,1.40771,0.3630281,0.24113332,-0.3695581,0.9813646,1.8333508
-0.1,0.1,0.6,0.0,-0.5235987755982988,0,0.26989946,1.7804561,0.08657785,-0.5527272,0.31723496,1.5262843,0.10811157,-1.2186017,1.4209317,0.37059638,0.30670765,-0.33864084,1.0008092,1.4067441
-0.1,0.1,0.6,0.0,-0.5235987755982988,0,0.2806123,1.7679001,0.091595784,-0.5566121,0.32799128,1.5036851,0.115068525,-1.2848543,1.4136096,0.36107934,0.21371597,-0.3603395,0.95366186,1.7402077
-0.1,0.1,0.6,0.0,-0.5235987755982988,0,0.26476908,1.74767,0.091066286,-0.5449679,0.33533958,1.5150605,0.09043976,-1.2505263,1.4077166,0.36231756,0.27322274,-0.31183827,0.9499904,1.813919
-0.1,0.1,0.6,0.0,-0.5235987755982988,0,0.2693279,1.7661498,0.07973198,-0.56484765,0.3475186,1.5306365,0.10085295,-1.3061969,1.417062,0.3297871,0.30093643,-0.25129133,0.973495,1.3379723
-0.1,0.1,0.6,0.0,-0.5235987755982988,0,0.24633068,1.7871835,0.07927863,-0.5431785,0.2514976,1.5349513,0.052153,-1.3067936,1.3918568,0.39072567,0.27473205,-0.30571276,0.9068642,1.6711755
-0.1,0.1,0.6,0.0,-0.5235987755982988,0,0.272925,1.7616966,0.077961676,-0.56029403,0.34332585,1.5205828,0.084070235,-1.206568,1.421581,0.35814965,0.23904307,-0.3115632,1.0075517,1.5718086
-0.1,0.1,0.6,0.0,-0.5235987755982988,0,0.2769106,1.7565513,0.10515647,-0.5720609,0.3055839,1.5116644,0.025243275,-1.1941562,1.4289705,0.3936781,0.29353195,-0.3165001,1.0237839,1.481163
-0.1,0.1,0.6,0.0,-0.5235987755982988,0,0.26704735,1.7721153,0.07138767,-0.55953056,0.34653553,1.5309727,0.09526122,-1.2632599,1.4186718,0.37988028,0.23576038,-0.29847685,0.97373605,1.3487835
-0.1,0.1,0.6,0.0,-0.5235987755982988,0,0.2702498,1.7785368,0.06418857,-0.55296475,0.3403043,1.5095984,0.075940736,-1.3454884,1.4151046,0.37028423,0.24674445,-0.29874527,0.9056693,1.3337929
-0.1,0.1,0.6,0.0,-0.5235987755982988,0,0.2709309,1.7642165,0.073319875,-0.55087864,0.337678,1.5316985,0.105377324,-1.2882576,1.3961486,0.3521002,0.2183309,-0.324508,0.9476032,1.8660672
-0.1,0.1,0.6,0.0,-0.5235987755982988,0,0.2845279,1.7572689,0.08607848,-0.5631154,0.3052366,1.523068,0.076622,-1.2407144,1.4422935,0.35647652,0.2657461,-0.25315073,0.96562564,1.5967516
-0.1,0.1,0.6,0.0,-0.5235987755982988,0,0.26559183,1.7709126,0.0798859,-0.5587637,0.3678329,1.5184631,0.04296298,-1.2829281,1.4168895,0.36171028,0.27593663,-0.2433019,0.93730503,1.23946
-0.1,0.1,0.6,0.0,-0.5235987755982988,0,0.27736935,1.7714885,0.07698445,-0.55372083,0.33242548,1.5107057,0.121932454,-1.3941281,1.4202738,0.4103733,0.21340193,-0.3109565,1.021363,1.5345358
-0.1,0.1,0.6,0.0,-0.5235987755982988,0,0.27778614,1.7632552,0.0863656,-0.53940564,0.2862117,1.5113196,0.11043557,-1.1857756,1.3937784,0.3797538,0.24966876,-0.33564302,0.94787085,1.7888092
-0.1,0.1,0.6,0.0,-0.5235987755982988,0,0.2971053,1.7531106,0.057622984,-0.5660609,0.3097005,1.5493978,0.095727645,-1.212051,1.4468446,0.3565379,0.23044206,-0.29171515,0.9901753,1.1847981
-0.1,0.1,0.6,0.0,-0.5235987755982988,0,0.24064574,1.7804589,0.10702455,-0.5509189,0.35357338,1.5330622,0.09409691,-1.306929,1.4086951,0.36983886,0.31156325,-0.3056152,1.0442834,0.88741255
-0.1,0.1,0.6,0.0,-0.5235987755982988,0,0.27802354,1.7397268,0.09538182,-0.55585605,0.2808892,1.5162909,0.1567482,-1.300757,1.412529,0.35060412,0.27107346,-0.33920595,0.9967391,1.6257502
-0.1,0.1,0.6,0.0,-0.5235987755982988,0,0.24828783,1.7684282,0.09351734,-0.54518795,0.27856538,1.5336953,0.062049348,-1.3032753,1.4612598,0.3706732,0.27466327,-0.2967156,0.97809243,1.5100727
-0.1,0.1,0.6,0.0,-0.5235987755982988,0,0.24604927,1.7640853,0.08158006,-0.55523586,0.32593313,1.5310305,0.064379886,-1.4266464,1.4263558,0.40197498,0.25623524,-0.32509935,1.0172129,1.59666
-0.1,0.1,0.6,0.0,-0.5235987755982988,0,0.2660175,1.7647161,0.09482159,-0.56094587,0.34106278,1.5198416,0.047687043,-1.1810954,1.4186302,0.36716124,0.24296893,-0.30066743,0.9546597,1.387089
-0.1,0.1,0.6,0.0,-0.5235987755982988,0,0.25580418,1.7663852,0.055909436,-0.5416718,0.34682003,1.5389665,0.14571941,-1.2476734,1.4186667,0.33680096,0.31268176,-0.31460905,0.92525244,1.2920773
-0.1,0.1,0.6,0.0,-0.5235987755982988,0,0.25737834,1.7741315,0.07728961,-0.5617083,0.3203257,1.5301964,0.06972081,-1.3339498,1.4183176,0.3745624,0.26136577,-0.27886724,0.9287659,1.381703
-0.1,0.1,0.6,0.0,-0.5235987755982988,0,0.2676555,1.7739421,0.11323261,-0.5572049,0.2625874,1.5312485,0.039260674,-1.2542702,1.417208,0.39007658,0.25716305,-0.23517302,1.0073931,1.5696234
-0.1,0.1,0.6,0.0,-0.5235987755982988,0,0.27041525,1.762547,0.087046154,-0.5506567,0.3069472,1.5340086,0.15417549,-1.1823704,1.4377441,0.37861818,0.28934872,-0.36933497,1.0319724,1.209621
-0.1,0.1,0.6,0.0,-0.5235987755982988,0,0.274384,1.7749046,0.079964094,-0.5676864,0.30611536,1.5296415,0.06592026,-1.383989,1.3949883,0.3776257,0.30873793,-0.2898617,0.94404966,1.4703163
-0.1,0.1,0.6,0.0,-0.5235987755982988,0,0.26265302,1.7759098,0.08299258,-0.55794585,0.3042559,1.5256706,0.11972681,-1.4594595,1.4237863,0.37830147,0.2464384,-0.28286076,0.9602901,1.7419358
-0.1,0.1,0.6,0.0,-0.5235987755982988,0,0.27993816,1.7447355,0.10950576,-0.5474596,0.25258273,1.5280238,0.055303592,-1.2360705,1.4108132,0.3639941,0.26447526,-0.3309598,1.0034456,1.0549805
-0.1,0.1,0.6,0.0,-0.5235987755982988,0,0.2651213,1.7673965,0.10370764,-0.55786085,0.3473023,1.5277492,0.088029906,-1.414552,1.4179916,0.35237253,0.22628787,-0.2794935,0.97909313,1.5642549
-0.1,0.1,0.6,0.0,-0.5235987755982988,0,0.24939878,1.7715145,0.065059386,-0.54872864,0.29753354,1.5392772,0.061461706,-1.1819528,1.4482987,0.3256801,0.274396,-0.33077943,0.9344679,1.5620939
-0.1,0.1,0.6,0.0,-0.5235987755982988,0,0.26161996,1.7819794,0.0602774,-0.5607319,0.31834212,1.5241029,0.07917926,-1.2646463,1.4103844,0.39001778,0.24051791,-0.25689983,0.88597286,2.0842462
-0.1,0.1,0.6,0.0,-0.5235987755982988,0,0.2741196,1.7772782,0.09647903,-0.5606598,0.27368194,1.531279,0.09781373,-1.2874107,1.4101982,0.35982096,0.28439826,-0.22278206,0.920026,1.5591613
-0.1,0.1,0.6,0.0,-0.5235987755982988,0,0.28777045,1.7619739,0.096934825,-0.5639626,0.3367866,1.5092189,0.089321785,-1.286882,1.4251258,0.360053,0.24763176,-0.2483917,0.97108763,1.7275643
-0.1,0.1,0.6,0.0,-0.5235987755982988,0,0.24731472,1.772824,0.10450692,-0.5393948,0.31711063,1.536985,0.07472153,-1.2728685,1.4084063,0.347472,0.29917735,-0.28700563,0.99316186,2.1393228
-0.1,0.1,0.6,0.0,-0.5235987755982988,0,0.24767426,1.760296,0.10426467,-0.5390053,0.32971796,1.5213724,0.053808715,-1.3561082,1.4331447,0.36523286,0.30779794,-0.24728452,0.988502,1.9845794
-0.1,0.1,0.6,0.0,-0.5235987755982988,0,0.2663715,1.7618811,0.091693945,-0.5713076,0.34186885,1.5203769,0.06321123,-1.1471907,1.4355509,0.34194347,0.21132457,-0.29777068,1.0260828,1.3586627
-0.1,0.1,0.6,0.0,-0.5235987755982988,0,0.28128576,1.7737533,0.102628216,-0.56609654,0.2917993,1.5159504,0.17347047,-1.3404534,1.4373094,0.36660606,0.2525419,-0.3146743,0.9857015,1.3285184
-0.1,0.1,0.6,0.0,-0.5235987755982988,0,0.2612822,1.7611756,0.085608326,-0.5482957,0.29645327,1.5156327,0.09447366,-1.3254005,1.409891,0.352416,0.24862568,-0.2779557,0.9562032,1.5029308
-0.1,0.1,0.6,0.0,-0.5235987755982988,0,0.25914767,1.7742074,0.07573671,-0.5587182,0.35934907,1.5154308,0.09260858,-1.3767929,1.4177138,0.35687426,0.24880804,-0.27270845,1.0211017,1.7109119
-0.1,0.1,0.6,0.0,-0.5235987755982988,0,0.24871565,1.7578634,0.0825855,-0.5469201,0.31978506,1.5209169,0.16524324,-1.2706447,1.4289128,0.33118194,0.25835806,-0.2991724,0.94353,1.6118801
-0.1,0.1,0.6,0.0,-0.5235987755982988,0,0.27516755,1.7614697,0.10167528,-0.558039,0.32502896,1.521651,0.093212724,-1.2810491,1.4189985,0.3523417,0.27047578,-0.29735154,0.9896036,1.4811559
-0.1,0.1,0.6,0.0,-0.5235987755982988,0,0.24811628,1.7826115,0.09126051,-0.56232727,0.2641877,1.522809,0.059090033,-1.3122002,1.4459182,0.34276974,0.22691405,-0.2882275,0.9433913,1.4690343
-0.1,0.1,0.6,0.0,-0.5235987755982988,0,0.28072023,1.7647682,0.070162065,-0.56287473,0.31104624,1.5267131,0.058743913,-1.2950542,1.3975575,0.3700838,0.29270926,-0.2600246,0.92954606,1.7895056
-0.1,0.1,0.6,0.0,-0.5235987755982988,0,0.2832275,1.7686297,0.057555735,-0.5594874,0.33038625,1.5269053,0.08223477,-1.2760922,1.4345404,0.37870264,0.31705892,-0.28401735,0.9642323,1.8426291
-0.1,0.1,0.6,0.0,-0.5235987755982988,0,0.25786203,1.7750427,0.0789678,-0.56125724,0.2741414,1.5287791,0.057461165,-1.2772,1.4088324,0.35860306,0.30716535,-0.30546507,1.0379819,1.6709899
-0.1,0.1,0.6,0.0,-0.5235987755982988,0,0.25969946,1.7801235,0.11369935,-0.57985276,0.3383153,1.5387032,0.085866645,-1.2453212,1.4298891,0.33999658,0.2711633,-0.31474325,0.97049904,1.3609575
-0.1,0.1,0.6,0.0,-0.5235987755982988,0,0.2769433,1.751467,0.09709631,-0.55383044,0.3128241,1.5225714,0.058990296,-1.2347778,1.4244015,0.39087787,0.25241703,-0.37419653,0.9984929,1.5182679
-0.1,0.1,0.6,0.0,-0.5235987755982988,0,0.26648343,1.7676042,0.05681182,-0.540266,0.26843393,1.532652,0.03252092,-1.3171744,1.4043859,0.36449614,0.27225485,-0.21846215,0.9390194,1.2601731
-0.1,0.1,0.6,0.0,-0.5235987755982988,0,0.2711749,1.7694974,0.07908259,-0.55887836,0.30279976,1.5264729,0.088525206,-1.2511268,1.4538383,0.39330965,0.28902316,-0.34863588,0.95284694,1.5727608
-0.1,0.1,0.6,0.0,-0.5235987755982988,0,0.294435,1.759959,0.07910532,-0.56287,0.29984978,1.5234404,0.05475613,-1.1715888,1.4273798,0.33466303,0.2454632,-0.30342215,1.03388,1.4798335
-0.1,0.1,0.6,0.0,-0.5235987755982988,0,0.26398024,1.7648622,0.11277791,-0.5568786,0.28064558,1.5148432,0.088155314,-1.3773984,1.4201279,0.3607242,0.21235214,-0.3140424,0.89443576,1.5813155
-0.1,0.1,0.6,0.0,-0.5235987755982988,0,0.24961714,1.7712018,0.104863875,-0.5454874,0.3244648,1.529972,0.03028265,-1.3366622,1.3964474,0.33473855,0.24281888,-0.29506713,0.8984956,1.816145
-0.1,0.1,0.6,0.0,-0.5235987755982988,0,0.26084965,1.7553746,0.08992763,-0.5369499,0.27239087,1.5291101,0.09358459,-1.3063856,1.4245003,0.34488612,0.27532625,-0.26929078,0.9517961,1.9897066
-0.1,0.1,0.6,0.0,-0.5235987755982988,0,0.26299787,1.7636904,0.06372216,-0.5423898,0.30206665,1.5256673,0.053936377,-1.302978,1.400879,0.35427472,0.25239605,-0.24084063,0.97066635,1.2563106
-0.1,0.1,0.6,0.0,-0.5235987755982988,0,0.2696939,1.7718569,0.07713484,-0.5466563,0.29346073,1.5148852,0.12455362,-1.2587725,1.4117614,0.38072413,0.27750573,-0.3044053,0.92139107,1.4267564
-0.1,0.1,0.6,0.0,-0.5235987755982988,0,0.28822336,1.752788,0.09684639,-0.5489171,0.34693918,1.5050801,0.10857987,-1.2867362,1.4395046,0.37943348,0.17503063,-0.35269192,0.96147597,1.2732204
-0.1,0.1,0.6,0.0,-0.5235987755982988,0,0.270317,1.7714007,0.053198777,-0.55218637,0.28778774,1.5255057,0.08410827,-1.376055,1.4185505,0.3419391,0.2823124,-0.27312776,1.0433769,1.4326205
-0.1,0.1,0.6,0.0,-0.5235987755982988,0,0.28082526,1.7851021,0.09640324,-0.5923598,0.33061302,1.5325973,0.020655677,-1.2541597,1.3869157,0.35408178,0.19619627,-0.32989267,0.94150716,1.835057
-0.1,0.1,0.6,0.0,-0.5235987755982988,0,0.2737388,1.7608211,0.101644486,-0.57193035,0.3232987,1.5192041,0.09284146,-1.2830086,1.3997287,0.37970006,0.2441349,-0.29149672,0.9668071,1.4653752
-0.1,0.1,0.6,0.0,-0.5235987755982988,0,0.23899995,1.766193,0.1045678,-0.5472388,0.26859638,1.5305815,0.119773455,-1.2076033,1.4401526,0.33454737,0.2759064,-0.31032804,0.99860895,1.418417
-0.1,0.1,0.6,0.0,-0.5235987755982988,0,0.26608098,1.7893715,0.07426438,-0.548002,0.28464296,1.5195469,0.10135804,-1.3591852,1.4351989,0.34777123,0.27591133,-0.24036343,0.9348054,1.8519435
-0.1,0.1,0.6,0.0,-0.5235987755982988,0,0.28065872,1.7658662,0.10218854,-0.56732947,0.30197448,1.5159851,0.14445175,-1.2886832,1.4169116,0.3391706,0.31787348,-0.2827078,0.9520676,1.5752314
-0.1,0.1,0.6,0.0,-0.5235987755982988,0,0.25891793,1.7747775,0.07540315,-0.5543812,0.29779902,1.5306605,0.07647282,-1.3083694,1.3997575,0.3105215,0.29834023,-0.23295945,0.9825995,1.4343437
-0.1,0.1,0.6,0.0,-0.5235987755982988,0,0.25137702,1.758494,0.08087631,-0.55822504,0.29489484,1.536258,0.10310722,-1.3354623,1.4247787,0.3586235,0.29289868,-0.2815773,0.9540015,1.766876
-0.1,0.1,0.6,0.0,-0.5235987755982988,0,0.26535997,1.7759104,0.09560541,-0.5688388,0.32032013,1.5310763,0.049311716,-1.3844955,1.439265,0.37184724,0.23714438,-0.28009838,0.95865446,1.8018227
-0.1,0.1,0.6,0.0,-0.5235987755982988,0,0.24995464,1.7638775,0.11509101,-0.557858,0.27662045,1.5237329,0.06972613,-1.3420317,1.4079369,0.35862526,0.29861727,-0.22686401,1.0156028,1.36323
-0.1,0.1,0.6,0.0,-0.5235987755982988,0,0.26125014,1.7509311,0.09655774,-0.54293084,0.3161058,1.5071999,0.096528135,-1.246413,1.4284849,0.33004302,0.22059962,-0.21618706,0.9283463,1.4266694
-0.1,0.1,0.6,0.0,-0.5235987755982988,0,0.25141522,1.773107,0.074454784,-0.5376118,0.33802143,1.521739,0.091063805,-1.2871847,1.3915188,0.37398764,0.24647763,-0.27285406,1.0218354,1.4015822
-0.1,0.1,0.6,0.0,-0.5235987755982988,0,0.2670829,1.7671809,0.102696694,-0.5625484,0.3021867,1.5264895,0.08857935,-1.1993538,1.4211046,0.36586982,0.29408163,-0.23199989,0.99618477,1.6908737
-0.1,0.1,0.6,0.0,-0.5235987755982988,0,0.26835442,1.7425734,0.10617119,-0.5502566,0.31488916,1.5216167,0.1463204,-1.2870685,1.4121786,0.35688803,0.2832195,-0.37763938,0.9484966,1.5892378
-0.1,0.1,0.6,0.0,-0.5235987755982988,0,0.27007693,1.7728748,0.08197845,-0.5457306,0.32007173,1.514131,0.08238097,-1.330258,1.4483368,0.34161475,0.22356871,-0.26452634,1.0017649,1.3908087
-0.1,0.1,0.6,0.0,-0.5235987755982988,0,0.28689206,1.7667618,0.09108651,-0.5684074,0.32902974,1.512815,0.03891015,-1.3013598,1.4193861,0.3583825,0.2270891,-0.30769482,0.972177,1.4095194
-0.1,0.1,0.6,0.0,-0.5235987755982988,0,0.26068443,1.7737001,0.09817479,-0.54553264,0.31521297,1.5110956,0.03645919,-1.2710074,1.4142871,0.35154065,0.21644068,-0.32406667,1.0103803,1.5342848
-0.1,0.1,0.6,0.0,-0.5235987755982988,0,0.24646954,1.7803229,0.07205815,-0.55068237,0.288775,1.5272086,0.095425844,-1.3440845,1.4071082,0.3620936,0.2797903,-0.18370643,1.0072798,1.6180294
-0.1,0.1,0.6,0.0,-0.5235987755982988,0,0.2704636,1.7616066,0.0963833,-0.54785305,0.33388576,1.5101565,0.10466113,-1.2011013,1.4015012,0.362306,0.3376226,-0.29535574,0.950087,1.4871008
-0.1,0.1,0.6,0.0,-0.5235987755982988,0,0.2542458,1.7960958,0.06501312,-0.550166,0.2751485,1.5273229,0.085692346,-1.2477025,1.4226837,0.34514374,0.22768727,-0.24757104,0.950128,1.5149026
-0.1,0.1,0.6,0.0,-0.5235987755982988,0,0.26981995,1.7662328,0.08833913,-0.54798955,0.35830352,1.5282887,0.073094964,-1.3307165,1.42311,0.35389644,0.24964684,-0.33156866,1.0249611,1.7303631
-0.1,0.1,0.6,0.0,-0.5235987755982988,0,0.28856733,1.7452404,0.08775248,-0.5672918,0.30234867,1.5313385,0.07915973,-1.286509,1.4163988,0.38109356,0.23792154,-0.31545097,1.0063305,1.9847257
-0.1,0.1,0.6,0.0,-0.5235987755982988,0,0.2606461,1.7613623,0.11500571,-0.56404567,0.29909742,1.5335106,0.08476081,-1.2703372,1.4291257,0.3245624,0.24113262,-0.27510273,0.9368039,1.4541092
-0.1,0.1,0.6,0.0,-0.5235987755982988,0,0.25680053,1.7567216,0.08712801,-0.54956245,0.33609167,1.5303203,0.11991293,-1.1995801,1.3858187,0.35654405,0.23732856,-0.35764706,0.96540165,1.0964658
-0.1,0.1,0.6,0.0,-0.5235987755982988,0,0.27265367,1.7733989,0.052830696,-0.55123943,0.3463806,1.5140879,0.08551229,-1.1757555,1.4191188,0.36049706,0.30122495,-0.28389305,0.999046,1.5658649
-0.1,0.1,0.6,0.0,-0.5235987755982988,0,0.27302647,1.7682654,0.07019777,-0.5589557,0.32312384,1.5318451,0.100523874,-1.2852949,1.4305654,0.3436531,0.23003417,-0.24232699,0.87314296,1.5840532
-0.1,0.1,0.6,0.0,-0.5235987755982988,0,0.245078,1.7769966,0.08915949,-0.5362576,0.31755063,1.5132474,0.10751555,-1.2420335,1.4221774,0.32842323,0.2498223,-0.29359338,0.9898374,1.437603
-0.1,0.1,0.6,0.0,-0.5235987755982988,0,0.28460923,1.7565701,0.075889446,-0.55833703,0.30624482,1.5237598,0.08835813,-1.3518491,1.4439768,0.37041572,0.18237022,-0.2585,0.9154588,1.205443
-0.1,0.1,0.6,0.0,-0.5235987755982988,0,0.27271432,1.7665269,0.084622525,-0.55562603,0.2864066,1.5375198,0.10366496,-1.3086958,1.4512777,0.34676427,0.27134895,-0.26637468,0.95171386,1.6606334
-0.1,0.1,0.6,0.0,-0.5235987755982988,0,0.28363368,1.771548,0.06493713,-0.5614055,0.2752706,1.5358968,0.08208066,-1.3050194,1.428743,0.36344913,0.2026742,-0.3285964,0.89584595,1.6957171
-0.1,0.1,0.6,0.0,-0.5235987755982988,0,0.27989063,1.7728087,0.10177587,-0.56830126,0.2910779,1.5233504,0.1092702,-1.2673762,1.406139,0.36654538,0.18436703,-0.3221457,1.0488147,1.8999469
-0.1,0.1,0.6,0.0,-0.5235987755982988,0,0.26885554,1.7691362,0.09065518,-0.5535562,0.29365396,1.5215702,0.12657073,-1.3020539,1.4302114,0.34821564,0.25584954,-0.31201735,0.9721127,1.7283434
-0.1,0.1,0.6,0.0,-0.5235987755982988,0,0.27176872,1.7736995,0.081330456,-0.55068535,0.3360967,1.5295961,0.03525342,-1.1866794,1.403923,0.3595442,0.26454365,-0.31674054,1.0060425,0.99734515
-0.1,0.1,0.6,0.0,-0.5235987755982988,0,0.28007424,1.7423649,0.08314964,-0.5451846,0.2950089,1.5222826,0.055165164,-1.2202396,1.3911269,0.3394985,0.24452785,-0.29139772,0.9252729,2.0971458
-0.1,0.1,0.6,0.0,-0.5235987755982988,0,0.25622886,1.7777349,0.06694293,-0.5512565,0.3386655,1.5255275,0.07660491,-1.222281,1.4391937,0.35075197,0.28857133,-0.30715525,0.95684296,1.2860217
-0.1,0.1,0.6,0.0,-0.5235987755982988,0,0.27954274,1.762899,0.06800615,-0.5545544,0.30443487,1.5195613,0.07172519,-1.3253483,1.4088576,0.3515768,0.22817068,-0.23577297,0.9662194,1.9830006
-0.1,0.1,0.6,0.0,-0.5235987755982988,0,0.27367294,1.7728791,0.08316409,-0.5535118,0.29211393,1.5172318,0.039812967,-1.2539396,1.4074724,0.3587066,0.28702188,-0.32212827,0.9588654,1.4181643
-0.1,0.1,0.6,0.0,-0.5235987755982988,0,0.2792518,1.7771316,0.076385394,-0.5666181,0.30338913,1.5298167,0.12603024,-1.2492106,1.4116837,0.3609354,0.3241107,-0.29164684,1.0409623,1.4646482
-0.1,0.1,0.6,0.0,-0.5235987755982988,0,0.26729178,1.7720405,0.09557917,-0.56478053,0.33504578,1.5164459,0.05613265,-1.1850553,1.4147588,0.3642459,0.29657236,-0.29641563,0.9195218,1.1534814
-0.1,0.1,0.6,0.0,-0.5235987755982988,0,0.25461087,1.7699802,0.0983585,-0.55266964,0.29028767,1.5201247,0.09188716,-1.3025432,1.4381076,0.38512287,0.27350143,-0.26246738,0.9680096,1.5207609
-0.1,0.1,0.6,0.0,-0.5235987755982988,0,0.27095434,1.7680125,0.06233681,-0.5468644,0.315325,1.5137187,0.09571499,-1.2092769,1.4050398,0.3699453,0.278054,-0.3162601,0.9614288,1.3502369
-0.1,0.1,0.6,0.0,-0.5235987755982988,0,0.30278674,1.751236,0.07683189,-0.56670886,0.3239853,1.5306183,0.09291564,-1.2904892,1.4328048,0.35815805,0.2820761,-0.297391,0.9781654,1.069526
-0.1,0.1,0.6,0.0,-0.5235987755982988,0,0.25987023,1.7716125,0.08549149,-0.55730057,0.25376576,1.5317235,0.091252744,-1.2941566,1.4095067,0.34688067,0.23572288,-0.30185962,0.92131525,1.4727683
-0.1,0.1,0.6,0.0,-0.5235987755982988,0,0.25973186,1.7510406,0.07548199,-0.546262,0.31792974,1.5318003,0.094657615,-1.3116579,1.440378,0.3518914,0.22427745,-0.28346333,1.0629764,1.6335721
-0.1,0.1,0.6,0.0,-0.5235987755982988,0,0.25355962,1.7798144,0.06407658,-0.5434144,0.27354264,1.5290715,0.111928985,-1.2896174,1.4248575,0.36922804,0.3294928,-0.30350325,0.99651235,1.29813
-0.1,0.1,0.6,0.0,-0.5235987755982988,0,0.26403692,1.7660677,0.109422274,-0.5605532,0.2962042,1.52625,0.0811326,-1.2685304,1.4253764,0.32601088,0.22577108,-0.23940979,0.95073444,1.4013793
-0.1,0.1,0.6,0.0,-0.5235987755982988,0,0.27133098,1.767292,0.058090683,-0.5520958,0.2932041,1.5176632,0.08105392,-1.2677482,1.427725,0.35982397,0.26514137,-0.32837254,0.9783884,1.7101114
-0.1,0.1,0.6,0.0,-0.5235987755982988,0,0.25666302,1.7726109,0.094805926,-0.5334526,0.2948367,1.5175892,0.08066843,-1.325848,1.4057271,0.35084325,0.27655622,-0.2879569,0.8708581,1.8278949
-0.1,0.1,0.6,0.0,-0.5235987755982988,0,0.23908246,1.784334,0.07782091,-0.54175276,0.31236407,1.5240158,0.11220647,-1.3987948,1.4067479,0.3799994,0.19774039,-0.2346297,0.96896106,1.5685471
-0.1,0.1,0.6,0.0,-0.5235987755982988,0,0.27991262,1.7693938,0.080591805,-0.55229056,0.3161124,1.52284,0.092842735,-1.3212503,1.3975232,0.36473095,0.20782907,-0.31177074,0.96280736,1.6617017
-0.1,0.1,0.6,0.0,-0.5235987755982988,0,0.254505,1.8078474,0.09565784,-0.54852957,0.29222202,1.5321802,0.0819558,-1.2310376,1.4242717,0.39137092,0.23871449,-0.30018845,1.0040832,1.3821439
-0.1,0.1,0.6,0.0,-0.5235987755982988,0,0.26569763,1.7584053,0.08530189,-0.5332938,0.26770344,1.5341196,0.069905855,-1.1990999,1.4203289,0.33015049,0.29715803,-0.3191016,0.9700618,1.4740423
-0.1,0.1,0.6,0.0,-0.5235987755982988,0,0.25355506,1.775614,0.07942755,-0.54039717,0.26487902,1.5115966,0.059649296,-1.2742586,1.41647,0.3421673,0.23786421,-0.29113296,0.9613484,1.2986515
-0.1,0.1,0.6,0.0,-0.5235987755982988,0,0.25488532,1.774463,0.105270915,-0.56221855,0.2516557,1.5149564,0.046518605,-1.2467693,1.4199563,0.3556281,0.2537004,-0.36870545,0.8747977,1.5933768
-0.1,0.1,0.6,0.0,-0.5235987755982988,0,0.2532964,1.7725638,0.094094284,-0.55470115,0.30217636,1.5197932,0.10434912,-1.3420255,1.4141611,0.34797606,0.23538773,-0.23876351,0.9748501,1.7915348
-0.1,0.1,0.6,0.0,-0.5235987755982988,0,0.27303272,1.7602797,0.07312528,-0.5431194,0.291048,1.5103648,0.07105313,-1.3305123,1.4317222,0.35524666,0.2285487,-0.22387917,1.0255355,1.6211556
-0.1,0.1,0.6,0.0,-0.5235987755982988,0,0.25891775,1.7848974,0.10936052,-0.544075,0.2845089,1.5272083,0.13463622,-1.2713221,1.4183406,0.37072524,0.25563273,-0.3370522,0.9900106,1.8638185
-0.1,0.1,0.6,0.0,-0.5235987755982988,0,0.24518651,1.7554724,0.085627005,-0.540666,0.2916195,1.5392249,0.020669805,-1.2936361,1.4149331,0.37774554,0.23403987,-0.27127916,0.90223587,1.9499956
-0.1,0.1,0.6,0.0,-0.5235987755982988,0,0.24441637,1.7571974,0.09093429,-0.5240635,0.33190545,1.5086273,0.08121661,-1.3040833,1.3661451,0.334804,0.27468067,-0.24157813,0.96591604,1.8067733
-0.1,0.1,0.6,0.0,-0.5235987755982988,0,0.27931872,1.7436343,0.0903887,-0.5555578,0.34681404,1.5259787,0.10159861,-1.2845057,1.4046206,0.33869544,0.26327917,-0.32825452,1.0266874,1.304755
-0.1,0.1,0.6,0.0,-0.5235987755982988,0,0.25683302,1.7714944,0.107961506,-0.5345701,0.30987737,1.5208741,0.08063418,-1.2930632,1.4225861,0.3249464,0.21616834,-0.31429693,1.0469568,1.5472144
-0.1,0.1,0.6,0.0,-0.5235987755982988,0,0.27557063,1.7618166,0.06218846,-0.5502416,0.33825535,1.5340309,0.1394487,-1.2590352,1.418245,0.3518656,0.23304428,-0.33387697,0.9295645,1.5733433
-0.1,0.1,0.6,0.0,-0.5235987755982988,0,0.27336058,1.7722205,0.1120978,-0.5559322,0.26415455,1.5294261,0.09089085,-1.3399024,1.4154067,0.38859376,0.25165397,-0.28073466,0.9172406,0.91868603
-0.1,0.1,0.6,0.0,-0.5235987755982988,0,0.28038806,1.7856237,0.1002791,-0.5587044,0.3069137,1.5110593,0.07520481,-1.2787151,1.4197494,0.36637107,0.25518507,-0.3099112,1.0737817,2.0683427
-0.1,0.1,0.6,0.0,-0.5235987755982988,0,0.27030453,1.7777877,0.08851019,-0.5497073,0.331297,1.5225378,0.067236006,-1.1856036,1.4564495,0.35760063,0.2737375,-0.2826436,0.8754698,2.2606473
-0.1,0.1,0.6,0.0,-0.5235987755982988,0,0.267437,1.753767,0.11163348,-0.53642404,0.32210863,1.5230936,0.07795357,-1.3452816,1.4234327,0.3195003,0.2454687,-0.2766684,1.0096735,1.3048091
-0.1,0.1,0.6,0.0,-0.5235987755982988,0,0.26294443,1.7686024,0.10474009,-0.5622779,0.2819555,1.5245664,0.06529164,-1.2187622,1.4139106,0.36681935,0.28511733,-0.29761928,0.9329138,1.0709525
-0.1,0.1,0.6,0.0,-0.5235987755982988,0,0.25060374,1.7688574,0.1039744,-0.5462418,0.33935776,1.529058,0.068859614,-1.2673086,1.4324863,0.36227682,0.22920677,-0.3450964,0.93553954,1.7181407
-0.1,0.1,0.6,0.0,-0.5235987755982988,0,0.26400107,1.766343,0.13407008,-0.54228103,0.34636426,1.5129111,0.11762081,-1.2146147,1.416945,0.33573923,0.25656042,-0.3047295,0.96434003,1.2042263
-0.1,0.1,0.6,0.0,-0.5235987755982988,0,0.24323277,1.7740244,0.08154003,-0.5459765,0.3176912,1.5382975,0.060887635,-1.2849269,1.4483366,0.34220907,0.20146689,-0.28788683,0.94009906,1.6781412
-0.1,0.1,0.6,0.0,-0.5235987755982988,0,0.27901918,1.7614198,0.088424414,-0.55226713,0.32197854,1.5079814,0.11079344,-1.2961746,1.4016691,0.33198306,0.2907662,-0.28094047,0.9242373,1.5694232
-0.1,0.1,0.6,0.0,-0.5235987755982988,0,0.27244893,1.7799059,0.07979856,-0.577422,0.26381174,1.5192909,0.060470447,-1.2071037,1.4281392,0.3624345,0.25624475,-0.33366746,1.0042716,1.8250079
-0.1,0.1,0.6,0.0,-0.5235987755982988,0,0.25931776,1.7586012,0.105884194,-0.5462724,0.34805635,1.5371977,0.05694287,-1.2186973,1.4016544,0.36160892,0.25045347,-0.38279644,0.98752666,1.5262438
-0.1,0.1,0.6,0.0,-0.5235987755982988,0,0.26484022,1.7604246,0.096489936,-0.5415777,0.33946627,1.5105613,0.10236025,-1.2584691,1.4350761,0.36965066,0.28352427,-0.2876049,0.91889095,2.2366323
-0.1,0.1,0.6,0.0,-0.5235987755982988,0,0.27219945,1.7621541,0.094861604,-0.5390216,0.26495007,1.5159516,0.08753344,-1.3403347,1.432333,0.3942295,0.22585103,-0.26509997,0.97628474,1.642318
-0.1,0.1,0.6,0.0,-0.5235987755982988,0,0.28014356,1.7895292,0.07240932,-0.5529434,0.29892266,1.5173024,0.1488075,-1.2973319,1.4333624,0.35789427,0.27938285,-0.23574512,0.9666095,1.5027425
-0.1,0.1,0.6,0.0,-0.5235987755982988,0,0.28667447,1.7672412,0.06468554,-0.559506,0.31418803,1.5309727,0.064736806,-1.3019177,1.4312911,0.32850295,0.24386175,-0.25108683,0.92911536,1.5157448
-0.1,0.1,0.6,0.0,-0.5235987755982988,0,0.27025738,1.7655592,0.08722764,-0.5453997,0.32235497,1.512128,0.09424923,-1.2369876,1.4175311,0.3341177,0.24573186,-0.29599407,0.89222497,1.9305371
-0.1,0.1,0.6,0.0,-0.5235987755982988,0,0.28087816,1.7582221,0.0867024,-0.5559131,0.31940195,1.5151947,0.101945974,-1.2500341,1.4392805,0.36979482,0.2023865,-0.2892373,0.9692777,1.7139055
-0.1,0.1,0.6,0.0,-0.5235987755982988,0,0.26561543,1.7818419,0.07277375,-0.5402414,0.32590818,1.5190969,0.09600885,-1.3914027,1.4118513,0.37465358,0.23652089,-0.33602056,0.9486157,1.6199653
-0.1,0.1,0.6,0.0,-0.5235987755982988,0,0.26259834,1.7786908,0.114959486,-0.5637185,0.33964726,1.516826,0.08084827,-1.2269701,1.412573,0.34748226,0.25675458,-0.32614538,0.91411775,1.7566035
-0.1,0.1,0.6,0.0,-0.5235987755982988,0,0.26776963,1.7702645,0.08177787,-0.5493398,0.3266731,1.5267332,0.096906856,-1.2607476,1.4123211,0.35473958,0.2680993,-0.327644,0.9304558,1.4521302
-0.1,0.1,0.6,0.0,-0.5235987755982988,0,0.26001886,1.7760488,0.07365159,-0.5452374,0.294137,1.5364654,0.09778925,-1.3550038,1.4011084,0.3585575,0.24208653,-0.2671452,0.971182,1.9235961
-0.1,0.1,0.6,0.0,-0.5235987755982988,0,0.24486887,1.7535646,0.09678937,-0.5384099,0.3035481,1.5254339,0.097492665,-1.2915065,1.3968076,0.31971505,0.26645878,-0.23210974,0.9552534,1.5412188
-0.1,0.1,0.6,0.0,-0.5235987755982988,0,0.26867157,1.7545567,0.11666947,-0.5504349,0.3238296,1.5300934,0.103637934,-1.2576128,1.4133303,0.34562477,0.22990245,-0.31242654,0.9702282,1.8394203
-0.1,0.1,0.6,0.0,-0.5235987755982988,0,0.2864033,1.7573686,0.07875077,-0.53913414,0.30853096,1.5155754,0.097288385,-1.2621047,1.4059343,0.30803457,0.29549497,-0.27364942,0.9686746,1.6393684
-0.1,0.1,0.6,0.0,-0.5235987755982988,0,0.2750375,1.7856268,0.07857147,-0.53912914,0.32833833,1.5347966,0.11478906,-1.2764657,1.4260436,0.4021128,0.28787112,-0.339613,0.9884634,2.1903148
-0.1,0.1,0.6,0.0,-0.5235987755982988,0,0.26670387,1.7934315,0.08037264,-0.56313705,0.35247034,1.5337948,0.057340723,-1.2328339,1.4273388,0.35554555,0.2646888,-0.25058424,0.9122518,1.8410122
-0.1,0.1,0.6,0.0,-0.5235987755982988,0,0.27715853,1.7595881,0.09144386,-0.5449451,0.3055419,1.5195119,0.0471895,-1.2636746,1.4269742,0.3670317,0.24722624,-0.34480882,0.95828444,1.8334812
-0.1,0.1,0.6,0.0,-0.5235987755982988,0,0.2633139,1.7806168,0.0883085,-0.56336284,0.2947424,1.528584,0.07074668,-1.1394986,1.429846,0.36274692,0.21698856,-0.28665823,1.0293345,1.2983006
-0.1,0.1,0.6,0.0,-0.5235987755982988,0,0.2527295,1.7711934,0.10649678,-0.54112816,0.29543012,1.5234245,0.08189541,-1.1913507,1.4302219,0.34638178,0.27803484,-0.33341113,0.9699735,1.7069302
-0.1,0.1,0.6,0.0,-0.5235987755982988,0,0.28260452,1.756002,0.0947367,-0.5508028,0.31078926,1.5239675,0.09298752,-1.2734609,1.4129395,0.34897316,0.2869443,-0.3656314,0.9940105,1.6378303
-0.1,0.1,0.6,0.0,-0.5235987755982988,0,0.28184485,1.7713748,0.07364262,-0.5582897,0.27379552,1.5291865,0.07558362,-1.2810735,1.4042952,0.3748474,0.3024661,-0.2942341,0.9520698,2.060315
-0.1,0.1,0.6,0.0,-0.5235987755982988,0,0.2783348,1.7637925,0.069668785,-0.5452776,0.31940246,1.5400301,0.050353732,-1.2512294,1.4102516,0.36201724,0.24207495,-0.29436997,1.0113174,2.1148674
-0.1,0.1,0.6,0.0,-0.5235987755982988,0,0.28033215,1.7705914,0.0782915,-0.5606659,0.35945717,1.5211122,0.06376237,-1.2415783,1.3925227,0.3572702,0.23151533,-0.33117035,0.9592468,1.7364405
-0.1,0.1,0.6,0.0,-0.5235987755982988,0,0.25219348,1.7815864,0.115420505,-0.545913,0.29002002,1.5279174,0.11660329,-1.3605986,1.4065759,0.35595825,0.2073171,-0.26925942,0.9460652,1.8873504
-0.1,0.1,0.6,0.0,-0.5235987755982988,0,0.2812646,1.7911463,0.08657939,-0.5669521,0.3171322,1.5287905,0.11128982,-1.2616895,1.4093653,0.36305484,0.17481384,-0.2853855,0.92040026,1.4612702
-0.1,0.1,0.6,0.0,-0.5235987755982988,0,0.27047706,1.7773762,0.106353655,-0.5493187,0.29138413,1.532805,0.14041233,-1.3110192,1.4109794,0.35087058,0.3056787,-0.288836,0.9797677,1.7284979
-0.1,0.1,0.6,0.0,-0.5235987755982988,0,0.3101116,1.7738926,0.0645102,-0.5433012,0.32179117,1.5155241,0.016711034,-1.2616587,1.4329393,0.44662884,0.26717696,-0.3854626,0.9811959,1.1850009
-0.1,0.1,0.6,0.0,-0.5235987755982988,0,0.25578177,1.7650521,0.08459897,-0.518899,0.30179557,1.5129117,0.112531945,-1.3632063,1.4531888,0.37077615,0.26468107,-0.26835135,0.9945741,1.2924092
-0.1,0.1,0.6,0.0,-0.5235987755982988,0,0.26074752,1.7923335,0.09645213,-0.555791,0.30931267,1.5411537,0.06540729,-1.2788358,1.4416002,0.3700891,0.22027723,-0.31314373,0.95790625,1.5189439
-0.1,0.1,0.6,0.0,-0.5235987755982988,0,0.2627328,1.7885442,0.09346452,-0.5427197,0.30912018,1.525235,0.102208555,-1.279589,1.4252193,0.3988752,0.25018418,-0.3587625,0.9410844,1.6938186
-0.1,0.1,0.6,0.0,-0.5235987755982988,0,0.26154625,1.776426,0.09103119,-0.5377432,0.29830813,1.5419481,0.067829795,-1.3323134,1.4436758,0.37087205,0.2368482,-0.30223817,0.9395829,1.8186284
-0.1,0.1,0.6,0.0,-0.5235987755982988,0,0.291529,1.7902367,0.073907964,-0.54826325,0.25988302,1.5135511,0.09690026,-1.3928882,1.4464554,0.41198778,0.29563078,-0.36097908,1.0329043,1.6380495
-0.1,0.1,0.6,0.0,-0.5235987755982988,0,0.29554713,1.7802006,0.08560173,-0.5533848,0.29294693,1.5420568,0.15076399,-1.2170471,1.3850262,0.33898956,0.29218283,-0.29779115,0.94656396,1.7204586
-0.1,0.1,0.6,0.0,-0.5235987755982988,0,0.25561324,1.780256,0.09425301,-0.5463001,0.31435618,1.5230271,0.091862656,-1.3001267,1.4055121,0.3530705,0.29326347,-0.31949422,0.9652184,1.7893827
-0.1,0.1,0.6,0.0,-0.5235987755982988,0,0.26535037,1.7602307,0.103187814,-0.552758,0.30393696,1.5498959,0.0840554,-1.0886803,1.4199915,0.3535257,0.24308434,-0.34009123,0.9196653,1.653724
-0.1,0.1,0.6,0.0,-0.5235987755982988,0,0.24843644,1.77706,0.07609427,-0.5524309,0.33865184,1.5256659,0.082532234,-1.3196236,1.4256284,0.3849041,0.2680908,-0.28865036,0.9520915,1.2000067
-0.1,0.1,0.6,0.0,-0.5235987755982988,0,0.27645904,1.7749903,0.10199131,-0.57864076,0.30779874,1.534731,0.09995105,-1.3103261,1.4179336,0.36475605,0.27001303,-0.33274373,0.9472854,1.7815455
