sanky1234/BimanualDexCatch/isaacgymenvs/cem_results/football_pose_-0.1_0.0_1.4999999999999998_0.5235987755982988_-0.5235987755982988_0_2025-05-26.csv
x,y,z,roll,pitch,yaw,robot1/joint1,robot1/joint2,robot1/joint3,robot1/joint4,robot1/joint5,robot1/joint6,robot1/joint7,robot2/joint1,robot2/joint2,robot2/joint3,robot2/joint4,robot2/joint5,robot2/joint6,robot2/joint7
-0.1,0.0,1.4999999999999998,0.5235987755982988,-0.5235987755982988,0,-1.1591417,-1.4007583,1.1269953,-0.04332034,-0.074494176,1.0692377,-0.33117762,-1.850807,1.7935969,0.399781,0.029351644,0.13384165,0.8680999,0.832163
-0.1,0.0,1.4999999999999998,0.5235987755982988,-0.5235987755982988,0,-1.1582781,-1.4042953,1.1675024,-0.055585563,0.042991627,1.0920732,-0.30192626,-1.8507905,1.7938582,0.39494473,0.008596579,0.16283377,0.8800263,1.0260364
-0.1,0.0,1.4999999999999998,0.5235987755982988,-0.5235987755982988,0,-1.1569034,-1.4016707,1.0646133,-0.11990605,0.09847848,1.0096364,-1.0590959,-1.8508288,1.7928952,0.3916442,0.026866285,0.24596071,0.934374,1.1652527
-0.1,0.0,1.4999999999999998,0.5235987755982988,-0.5235987755982988,0,-1.1573766,-1.4034746,1.1937777,-0.07507745,0.19128284,1.1421528,-0.6428465,-1.8520991,1.7939658,0.3935708,0.033134777,0.23662345,0.9243321,1.3498063
-0.1,0.0,1.4999999999999998,0.5235987755982988,-0.5235987755982988,0,-1.1564811,-1.4016123,1.183697,-0.004448263,0.014143288,0.97629434,0.5919215,-1.8508652,1.7932742,0.39509314,0.021838555,0.18178637,0.9091204,0.93540615
-0.1,0.0,1.4999999999999998,0.5235987755982988,-0.5235987755982988,0,-1.155985,-1.4038563,1.2300422,-0.04531676,0.22571287,1.1303014,0.39481187,-1.8518823,1.7941701,0.3943732,0.004310258,0.25198054,0.8753982,1.0532765
-0.1,0.0,1.4999999999999998,0.5235987755982988,-0.5235987755982988,0,-1.1573832,-1.4009737,1.2649792,-0.0064477045,-0.036775764,1.0612385,-0.029367352,-1.8500836,1.7940385,0.40231234,0.019900024,0.21749258,0.8948864,1.0738151
-0.1,0.0,1.4999999999999998,0.5235987755982988,-0.5235987755982988,0,-1.155941,-1.4020911,1.1565394,-0.1311807,0.10846463,1.1050243,-0.22433,-1.8520511,1.7939713,0.38748345,0.024560843,0.16922227,0.8809691,1.4832089
-0.1,0.0,1.4999999999999998,0.5235987755982988,-0.5235987755982988,0,-1.1572591,-1.4025135,1.0916693,-0.025971,0.010543947,1.0669264,1.3570961,-1.8504075,1.7935175,0.40020216,0.025132762,0.19807956,0.87838644,1.3474377
-0.1,0.0,1.4999999999999998,0.5235987755982988,-0.5235987755982988,0,-1.15969,-1.4001627,1.07947,-0.09818797,0.18265985,1.1386585,-1.3201929,-1.8501261,1.7933675,0.39004377,0.02792483,0.20409665,0.91480273,1.1833705
-0.1,0.0,1.4999999999999998,0.5235987755982988,-0.5235987755982988,0,-1.1572531,-1.4017107,1.1288682,-0.068048835,0.12566794,1.0166044,-0.4983708,-1.8534399,1.7941892,0.39190266,0.022409776,0.21848045,0.91620946,1.3930694
-0.1,0.0,1.4999999999999998,0.5235987755982988,-0.5235987755982988,0,-1.1602359,-1.404646,1.2538302,0.0094797425,0.19110423,1.1430569,-0.5289515,-1.851939,1.7936691,0.39885584,0.023822024,0.35318205,0.89008623,1.0621506
-0.1,0.0,1.4999999999999998,0.5235987755982988,-0.5235987755982988,0,-1.1580342,-1.4043689,1.2251242,0.09630207,-0.03457807,0.9989554,-0.66224986,-1.8494406,1.7937238,0.4010839,0.042357486,0.11982053,0.93068683,0.96865714
-0.1,0.0,1.4999999999999998,0.5235987755982988,-0.5235987755982988,0,-1.1575086,-1.4012848,1.15507,-0.10682603,0.2418174,1.0824034,0.015052673,-1.8523791,1.7950542,0.3934218,0.008850161,0.25200433,0.9050891,0.83422184
-0.1,0.0,1.4999999999999998,0.5235987755982988,-0.5235987755982988,0,-1.1613218,-1.4033908,1.1977143,0.023352982,0.0010032444,1.1754794,0.69112045,-1.8516936,1.793963,0.3980442,0.0071308683,0.25629398,0.92123055,0.85235745
-0.1,0.0,1.4999999999999998,0.5235987755982988,-0.5235987755982988,0,-1.157435,-1.3999643,1.181954,-0.021811731,0.017311104,1.0721663,-1.0103652,-1.8523861,1.7941586,0.39344645,0.00821545,0.28614536,0.9044064,1.2572742
-0.1,0.0,1.4999999999999998,0.5235987755982988,-0.5235987755982988,0,-1.1591117,-1.4034363,1.2557902,0.006687135,0.14706683,1.0413756,-1.2533301,-1.8519565,1.7929959,0.38659176,0.020520097,0.11445398,0.93929756,0.9447165
-0.1,0.0,1.4999999999999998,0.5235987755982988,-0.5235987755982988,0,-1.1566918,-1.3998437,1.1094564,-0.0077030365,0.09125302,1.078446,0.53900933,-1.8503598,1.793996,0.3961431,0.023775965,0.0818561,0.90559924,1.0237943
-0.1,0.0,1.4999999999999998,0.5235987755982988,-0.5235987755982988,0,-1.1576508,-1.4038706,1.2396264,-0.069225706,0.17930922,1.0649595,-0.043032423,-1.8530139,1.7936225,0.39935997,0.030277759,0.31231242,0.93195266,1.4289266
-0.1,0.0,1.4999999999999998,0.5235987755982988,-0.5235987755982988,0,-1.1587695,-1.40431,1.099366,0.0060328855,0.34554684,1.0515429,0.46326846,-1.8519682,1.7939645,0.39237338,0.018655477,0.22847892,0.9019635,1.1606703
-0.1,0.0,1.4999999999999998,0.5235987755982988,-0.5235987755982988,0,-1.1562308,-1.4027196,1.293417,-0.10288855,0.10300345,1.1136961,-0.5830069,-1.8513132,1.7946523,0.39396456,0.020030716,0.2597872,0.92242384,1.2733744
-0.1,0.0,1.4999999999999998,0.5235987755982988,-0.5235987755982988,0,-1.1583811,-1.3998153,1.0446167,0.024985434,0.14383985,1.1351726,-0.64049757,-1.8539283,1.792928,0.38755673,0.004998985,0.012960017,0.9036476,1.1013852
-0.1,0.0,1.4999999999999998,0.5235987755982988,-0.5235987755982988,0,-1.156416,-1.4020878,1.2283396,-0.097066686,0.25354367,1.0418013,0.7351852,-1.8525645,1.7942306,0.39745006,0.025199043,0.24484283,0.9059083,1.0276351
-0.1,0.0,1.4999999999999998,0.5235987755982988,-0.5235987755982988,0,-1.1554512,-1.4006562,1.1474305,-0.13051876,0.21306272,1.0654545,-1.6954473,-1.8492646,1.7946655,0.38979036,0.0074500423,0.14065106,0.9001534,1.3145511
-0.1,0.0,1.4999999999999998,0.5235987755982988,-0.5235987755982988,0,-1.156392,-1.4012519,1.1691616,0.05672653,0.11292524,1.1206615,0.36635977,-1.8500379,1.7929891,0.40123433,0.017494276,0.15951876,0.9124328,1.128232
-0.1,0.0,1.4999999999999998,0.5235987755982988,-0.5235987755982988,0,-1.1580737,-1.407359,1.054572,0.042435758,0.08466751,1.0650364,-1.2955987,-1.849388,1.7927818,0.39340818,0.021726808,0.1921904,0.89466316,1.421581
-0.1,0.0,1.4999999999999998,0.5235987755982988,-0.5235987755982988,0,-1.1618794,-1.4037278,1.1266936,-0.011365001,0.14275941,1.0739295,-2.569932,-1.8494017,1.7931159,0.3943373,0.013936289,0.13691851,0.9022165,1.0167469
-0.1,0.0,1.4999999999999998,0.5235987755982988,-0.5235987755982988,0,-1.1583774,-1.4030055,1.0990924,-0.037231125,0.23250236,1.0357136,-0.9221578,-1.8527567,1.7938249,0.4012291,0.028825074,0.17434321,0.904979,1.0546346
-0.1,0.0,1.4999999999999998,0.5235987755982988,-0.5235987755982988,0,-1.1574507,-1.4021426,1.0890912,0.0450813,0.04820829,1.1021777,-0.8332747,-1.8504044,1.7933577,0.4039114,0.0074456525,0.18868773,0.9023368,0.6904965
-0.1,0.0,1.4999999999999998,0.5235987755982988,-0.5235987755982988,0,-1.1574335,-1.4010975,1.303744,-0.0036472278,-0.08211298,1.0508102,-0.22528413,-1.8512756,1.793138,0.39423716,0.012150331,0.22008975,0.8998079,0.9228296
-0.1,0.0,1.4999999999999998,0.5235987755982988,-0.5235987755982988,0,-1.1571985,-1.4026259,1.2703604,0.0030254158,0.14988779,1.1021094,0.16967942,-1.8509767,1.7946367,0.39519083,0.012944377,0.15520386,0.90199465,1.4952152
-0.1,0.0,1.4999999999999998,0.5235987755982988,-0.5235987755982988,0,-1.1577675,-1.4026768,1.2190114,-0.022455616,0.088368535,1.0136644,0.23432983,-1.8497621,1.7938098,0.3967415,0.020794652,0.18135175,0.9108273,1.0129864
-0.1,0.0,1.4999999999999998,0.5235987755982988,-0.5235987755982988,0,-1.1568145,-1.4047835,1.1522868,-0.07088433,0.08954611,1.1110138,-0.8351288,-1.8506762,1.7931302,0.3972313,0.035336167,0.15143594,0.8934327,1.0439705
-0.1,0.0,1.4999999999999998,0.5235987755982988,-0.5235987755982988,0,-1.1580969,-1.4027116,1.1251943,-0.01935176,0.17809905,1.0804195,-0.6377373,-1.8509163,1.7949531,0.39736047,0.012631128,0.017373687,0.9030037,0.8641041
-0.1,0.0,1.4999999999999998,0.5235987755982988,-0.5235987755982988,0,-1.1591443,-1.4021195,1.207894,-0.091899335,0.23074852,1.0231779,-0.08579867,-1.850268,1.7938288,0.40185577,0.020946315,0.2618296,0.9114996,0.99095577
-0.1,0.0,1.4999999999999998,0.5235987755982988,-0.5235987755982988,0,-1.1577458,-1.4013718,1.1418027,-0.045744903,0.16709912,0.9930938,-0.28886446,-1.8532084,1.7935472,0.39667892,-0.002619915,0.25583667,0.88931704,1.4268919
-0.1,0.0,1.4999999999999998,0.5235987755982988,-0.5235987755982988,0,-1.1585522,-1.3998953,1.2465578,-0.010600801,0.11168293,1.1452115,0.050424624,-1.8536905,1.7936354,0.39259848,0.0009189807,0.28691033,0.93490654,1.1194738
-0.1,0.0,1.4999999999999998,0.5235987755982988,-0.5235987755982988,0,-1.1564695,-1.4035289,1.0872113,-0.035072505,0.2437432,1.1060344,-1.4094627,-1.8510427,1.7931339,0.38883695,0.016331725,0.12938803,0.8781486,1.2235882
-0.1,0.0,1.4999999999999998,0.5235987755982988,-0.5235987755982988,0,-1.1587983,-1.4012967,1.1559261,-0.09037518,0.13714133,1.0736235,0.09418267,-1.8539085,1.7934997,0.39344525,0.0065012947,0.14360088,0.9409637,0.79076004
-0.1,0.0,1.4999999999999998,0.5235987755982988,-0.5235987755982988,0,-1.1575373,-1.4037244,1.1240293,0.06316064,0.10629749,1.1426524,0.39981356,-1.8520912,1.7936032,0.40073207,0.036854595,0.26444304,0.916854,1.0125595
-0.1,0.0,1.4999999999999998,0.5235987755982988,-0.5235987755982988,0,-1.1584315,-1.4015951,1.1143855,-0.05470377,0.13511173,0.98976,-0.77300197,-1.8526268,1.7942747,0.40262666,0.0027534936,0.15920122,0.91242033,1.1577642
-0.1,0.0,1.4999999999999998,0.5235987755982988,-0.5235987755982988,0,-1.1568961,-1.4025805,1.1234995,0.010946745,0.1149678,1.0909196,-1.8195788,-1.8504435,1.7945913,0.3984346,0.022395642,0.2696698,0.90246713,1.0398666
-0.1,0.0,1.4999999999999998,0.5235987755982988,-0.5235987755982988,0,-1.1579036,-1.4014455,1.1432743,-0.10939366,0.08606212,1.0930929,-1.1135818,-1.8529806,1.7933967,0.39577156,0.027405368,0.35143936,0.9353728,1.2401651
-0.1,0.0,1.4999999999999998,0.5235987755982988,-0.5235987755982988,0,-1.1536548,-1.4010707,1.2833388,0.022873942,0.21192002,1.0864744,-1.591992,-1.8535331,1.7942672,0.38997543,0.015635623,0.08876472,0.8874671,1.0412067
-0.1,0.0,1.4999999999999998,0.5235987755982988,-0.5235987755982988,0,-1.1556482,-1.4032766,1.2727487,-0.027718483,0.08276317,1.1967891,-1.1335931,-1.8512405,1.7938684,0.39933145,0.02609681,0.24194919,0.92871517,1.3433225
-0.1,0.0,1.4999999999999998,0.5235987755982988,-0.5235987755982988,0,-1.1610552,-1.4038733,1.1877544,0.04996145,-0.018076831,1.0268203,-0.44053346,-1.8526033,1.7935925,0.3979074,0.02585553,0.21340652,0.9115867,0.88019615
-0.1,0.0,1.4999999999999998,0.5235987755982988,-0.5235987755982988,0,-1.1589812,-1.4030963,1.089069,-0.0060353475,0.00891868,1.0760869,-0.035426587,-1.8522797,1.7937078,0.39699158,0.045342203,0.15444314,0.90606743,0.9677285
-0.1,0.0,1.4999999999999998,0.5235987755982988,-0.5235987755982988,0,-1.1583642,-1.4021025,1.0783776,-0.07397922,-0.04843902,1.0414742,-1.4054915,-1.8495314,1.7930301,0.39142436,0.010213082,0.22968009,0.87644076,1.2763674
-0.1,0.0,1.4999999999999998,0.5235987755982988,-0.5235987755982988,0,-1.1560748,-1.4030137,1.197381,0.02453452,0.11040128,1.0680747,-1.2993255,-1.850059,1.7943113,0.39853445,0.02052851,0.1597568,0.9332868,1.3498112
-0.1,0.0,1.4999999999999998,0.5235987755982988,-0.5235987755982988,0,-1.1584641,-1.4021345,1.2196525,-0.07759409,0.11874748,1.097354,-1.9434563,-1.8514671,1.7936989,0.39968562,0.02843108,0.0997729,0.9150837,0.78915673
-0.1,0.0,1.4999999999999998,0.5235987755982988,-0.5235987755982988,0,-1.1614614,-1.4080366,1.1760573,-0.052612115,0.09788916,1.1064243,-1.0625097,-1.8503816,1.7945746,0.4019592,0.0012489535,0.16279617,0.91963625,1.2739875
-0.1,0.0,1.4999999999999998,0.5235987755982988,-0.5235987755982988,0,-1.1560639,-1.4038367,1.0772597,0.021095987,0.018477807,1.0748928,-0.8372133,-1.8505288,1.7933292,0.39212558,0.01245642,0.19819732,0.93772364,1.2970594
-0.1,0.0,1.4999999999999998,0.5235987755982988,-0.5235987755982988,0,-1.1561753,-1.4033188,1.1797653,-0.14773427,0.03252183,1.0817654,-1.0531499,-1.8511355,1.7932434,0.39699903,0.032150272,0.20571814,0.88757193,0.88829935
-0.1,0.0,1.4999999999999998,0.5235987755982988,-0.5235987755982988,0,-1.1568604,-1.4017564,1.268685,0.10321105,-0.011197707,1.1316993,-0.3213825,-1.85296,1.7936777,0.3900145,0.03878884,0.21989349,0.9345574,1.169388
-0.1,0.0,1.4999999999999998,0.5235987755982988,-0.5235987755982988,0,-1.1575966,-1.4012395,1.112459,-0.049490437,0.07194207,1.0217668,-0.490283,-1.8527474,1.7939882,0.38938576,0.022087932,0.06670762,0.9032894,0.9790868
-0.1,0.0,1.4999999999999998,0.5235987755982988,-0.5235987755982988,0,-1.159491,-1.4018713,1.1175907,-0.048907258,0.12666695,1.1804131,-0.55219924,-1.8513104,1.7939018,0.3971834,0.039339606,0.18579045,0.89039344,1.0302957
-0.1,0.0,1.4999999999999998,0.5235987755982988,-0.5235987755982988,0,-1.1551961,-1.4027236,1.16856,-0.1581676,0.051614627,1.0933746,0.067978695,-1.8516357,1.7929748,0.394572,0.017004963,0.2670973,0.923933,1.2642297
-0.1,0.0,1.4999999999999998,0.5235987755982988,-0.5235987755982988,0,-1.156212,-1.4024004,1.076407,-0.11211855,0.17070034,0.9895987,0.75808847,-1.8527775,1.7941927,0.39421976,0.010615666,0.19261993,0.92945427,1.4593682
-0.1,0.0,1.4999999999999998,0.5235987755982988,-0.5235987755982988,0,-1.1579267,-1.400283,1.1733745,-0.09409903,0.18217109,1.0351863,-0.5118126,-1.8521188,1.793561,0.38701093,0.017903516,0.15691142,0.91522783,1.1723865
-0.1,0.0,1.4999999999999998,0.5235987755982988,-0.5235987755982988,0,-1.1589504,-1.4011632,1.1779175,0.046556264,0.023369897,1.008684,-0.9528418,-1.8515531,1.7936957,0.38735577,0.03930974,0.09391936,0.9355187,1.0129999
-0.1,0.0,1.4999999999999998,0.5235987755982988,-0.5235987755982988,0,-1.1582104,-1.4059002,1.1392438,-0.10628954,0.041808203,1.1811455,-1.5055641,-1.8521919,1.7943126,0.39232025,0.015775805,0.17520092,0.9074421,1.1443083
-0.1,0.0,1.4999999999999998,0.5235987755982988,-0.5235987755982988,0,-1.1584234,-1.4035144,1.1689122,-0.040644355,0.17980784,1.0753498,0.01507818,-1.850701,1.7938294,0.38790232,0.009864663,0.20068038,0.9021272,1.311405
-0.1,0.0,1.4999999999999998,0.5235987755982988,-0.5235987755982988,0,-1.15709,-1.400452,1.084076,0.014005753,0.105234385,1.0798134,-1.0228863,-1.8517926,1.7943296,0.39272073,0.028997077,0.22640616,0.91554874,0.7943045
-0.1,0.0,1.4999999999999998,0.5235987755982988,-0.5235987755982988,0,-1.1569191,-1.402797,1.1893722,-0.054232914,-0.047945846,1.1405332,-0.006892685,-1.8524553,1.7929236,0.3856926,0.019643476,0.1352648,0.9068369,1.0746197
-0.1,0.0,1.4999999999999998,0.5235987755982988,-0.5235987755982988,0,-1.1574103,-1.4056294,1.1709824,-0.15933126,0.13076948,1.0903156,-0.82725865,-1.8530527,1.7928281,0.39805865,0.027689567,0.25931978,0.9758709,0.9282777
-0.1,0.0,1.4999999999999998,0.5235987755982988,-0.5235987755982988,0,-1.1575476,-1.4048176,1.1138103,0.049763218,0.072189145,1.0292691,-1.029656,-1.8525823,1.794056,0.39459538,0.01001044,0.18336698,0.88966894,0.9249104
-0.1,0.0,1.4999999999999998,0.5235987755982988,-0.5235987755982988,0,-1.1592728,-1.4007658,1.1976602,-0.014644912,0.03598521,1.0352479,0.59824497,-1.8513219,1.7939594,0.39231423,0.010021466,0.18450549,0.8711593,0.5037254
-0.1,0.0,1.4999999999999998,0.5235987755982988,-0.5235987755982988,0,-1.1553676,-1.4038978,1.1316148,-0.031095818,0.13844788,1.128054,0.13892768,-1.8541051,1.7938848,0.39356267,0.03156668,0.22931056,0.917644,0.5554218
-0.1,0.0,1.4999999999999998,0.5235987755982988,-0.5235987755982988,0,-1.1604594,-1.4037887,1.2021168,-0.07206312,0.10117352,1.0779915,0.62159413,-1.8501999,1.7938272,0.39330894,0.015975174,0.23534265,0.86690277,1.2065799
-0.1,0.0,1.4999999999999998,0.5235987755982988,-0.5235987755982988,0,-1.1553776,-1.4014845,1.0642807,-0.10103635,0.14747672,1.1335424,-1.1123598,-1.8527901,1.7933431,0.39293766,0.023183636,0.22718896,0.9008776,0.83235484
-0.1,0.0,1.4999999999999998,0.5235987755982988,-0.5235987755982988,0,-1.1585602,-1.4020174,1.1038573,-0.0796669,0.13595936,1.1070138,-0.022910893,-1.8523663,1.7929094,0.4048682,0.02942524,0.25257814,0.93047696,0.74366635
-0.1,0.0,1.4999999999999998,0.5235987755982988,-0.5235987755982988,0,-1.1573446,-1.3993925,1.1683005,0.02795428,-0.021921914,1.0878744,0.47706866,-1.8497307,1.7935976,0.39257255,0.018999472,0.14588785,0.87411904,1.2685925
-0.1,0.0,1.4999999999999998,0.5235987755982988,-0.5235987755982988,0,-1.1575809,-1.4001132,1.1467516,-0.03489648,0.09350563,1.1099393,0.10453688,-1.8508152,1.7929316,0.39295247,0.019664954,0.106920235,0.92052937,0.8673064
-0.1,0.0,1.4999999999999998,0.5235987755982988,-0.5235987755982988,0,-1.1593759,-1.4047489,1.1320946,0.01422217,0.0888543,1.0993861,-1.280815,-1.8510687,1.7931758,0.39394003,0.013386309,0.12023647,0.89240575,0.93314356
-0.1,0.0,1.4999999999999998,0.5235987755982988,-0.5235987755982988,0,-1.1569583,-1.4029347,1.1950105,-0.11704919,-0.013017526,1.0227314,-0.9193214,-1.8524206,1.7928696,0.39014494,0.035390496,0.19862194,0.916427,1.2218921
-0.1,0.0,1.4999999999999998,0.5235987755982988,-0.5235987755982988,0,-1.1574479,-1.4007736,1.2129846,-0.052622,0.26998708,1.0778854,-0.05560562,-1.8518054,1.7945232,0.39530325,0.0074689765,0.21681143,0.90938467,1.3674406
-0.1,0.0,1.4999999999999998,0.5235987755982988,-0.5235987755982988,0,-1.1568614,-1.404869,1.2228994,0.15272178,0.047405828,1.0188149,0.06548579,-1.8516798,1.793029,0.3966015,0.03158977,0.20642932,0.9286338,0.91303253
-0.1,0.0,1.4999999999999998,0.5235987755982988,-0.5235987755982988,0,-1.1575929,-1.4024103,1.2028081,-0.022681387,0.20553143,1.1079072,-0.4906762,-1.8511385,1.7933586,0.39684463,0.006799773,0.2512516,0.96178484,1.3704567
-0.1,0.0,1.4999999999999998,0.5235987755982988,-0.5235987755982988,0,-1.1588393,-1.4033711,1.066295,0.03390621,0.08251677,1.0622827,-0.8258168,-1.8505327,1.7944553,0.39209202,0.029295333,0.2627915,0.9036622,0.89039665
-0.1,0.0,1.4999999999999998,0.5235987755982988,-0.5235987755982988,0,-1.1594104,-1.4007555,1.1384184,-0.056370288,0.08829393,0.9686054,0.42085227,-1.8512477,1.7941676,0.39253217,0.028245594,0.38565734,0.9171276,1.1536943
-0.1,0.0,1.4999999999999998,0.5235987755982988,-0.5235987755982988,0,-1.1603557,-1.4023722,1.1528027,0.062094893,0.0022893155,1.086208,-0.9649113,-1.852295,1.7932334,0.39839843,0.026088469,0.32877707,0.91489923,0.81259876
-0.1,0.0,1.4999999999999998,0.5235987755982988,-0.5235987755982988,0,-1.1596079,-1.4016802,1.1737913,0.103135444,0.15447958,0.9939067,-0.5993651,-1.8519893,1.7932856,0.39145023,0.015564366,0.06824945,0.91392,0.9693446
-0.1,0.0,1.4999999999999998,0.5235987755982988,-0.5235987755982988,0,-1.1588124,-1.4015048,1.097848,-0.18369506,0.18708467,0.96166956,0.98026156,-1.8507707,1.7938604,0.39553878,0.012026093,0.22913432,0.9323379,1.138783
-0.1,0.0,1.4999999999999998,0.5235987755982988,-0.5235987755982988,0,-1.1584871,-1.400682,1.1234279,0.0057178433,0.25420815,1.0033675,-0.74431634,-1.8504089,1.7940592,0.3940163,0.0041009746,0.22329882,0.91822124,1.2666336
-0.1,0.0,1.4999999999999998,0.5235987755982988,-0.5235987755982988,0,-1.1597698,-1.4027134,1.1434208,0.0030246011,0.13570158,1.1509185,0.89639664,-1.8507733,1.792934,0.39554596,0.02280662,0.085534245,0.9470593,0.84402573
-0.1,0.0,1.4999999999999998,0.5235987755982988,-0.5235987755982988,0,-1.1568918,-1.4066347,1.1429249,0.031009028,0.052037235,1.0614331,-1.2730911,-1.8529768,1.7945548,0.39501676,0.03136935,0.35282046,0.9001493,1.0566543
-0.1,0.0,1.4999999999999998,0.5235987755982988,-0.5235987755982988,0,-1.1569004,-1.4014194,1.20816,-0.11453559,0.18094023,1.0659024,-0.23839734,-1.8520149,1.7942282,0.39305606,0.01100246,0.28990716,0.91628957,1.2299199
-0.1,0.0,1.4999999999999998,0.5235987755982988,-0.5235987755982988,0,-1.1585124,-1.4010805,1.0992925,0.043197926,0.09424058,1.064375,0.44862452,-1.8498384,1.7944701,0.39316204,0.02455515,0.09117042,0.91061866,1.2765818
-0.1,0.0,1.4999999999999998,0.5235987755982988,-0.5235987755982988,0,-1.16194,-1.4050201,1.1313787,-0.17079452,0.12679744,1.15798,-0.88146293,-1.8511263,1.7930028,0.39333755,0.020197457,0.12433736,0.9260508,0.9621611
-0.1,0.0,1.4999999999999998,0.5235987755982988,-0.5235987755982988,0,-1.1567011,-1.4006009,1.0864213,-0.11661756,0.13645205,1.0981562,-1.0999973,-1.8510019,1.7941271,0.3941012,0.012233921,0.25398344,0.88899577,0.7391248
-0.1,0.0,1.4999999999999998,0.5235987755982988,-0.5235987755982988,0,-1.1574646,-1.3972244,1.1791246,0.00340945,0.26225373,1.1246138,-0.84019506,-1.8531097,1.7945634,0.39993185,0.039432142,0.029623346,0.9209306,0.8886333
-0.1,0.0,1.4999999999999998,0.5235987755982988,-0.5235987755982988,0,-1.1557779,-1.4025755,1.135551,-0.05185325,0.03152146,1.0862591,-0.66734785,-1.8504661,1.793715,0.39375857,0.026616123,0.25495392,0.90608233,0.9753799
-0.1,0.0,1.4999999999999998,0.5235987755982988,-0.5235987755982988,0,-1.1580436,-1.4026704,1.1492584,-0.056246612,0.110565364,1.1477932,-1.0451779,-1.8506484,1.7930223,0.3951752,0.035410874,0.2854929,0.929031,1.0102001
-0.1,0.0,1.4999999999999998,0.5235987755982988,-0.5235987755982988,0,-1.1604378,-1.3968797,1.1397501,-0.052130625,0.1733746,1.1123526,0.3254702,-1.8483968,1.7935976,0.39145008,0.014457407,0.22615692,0.89126766,0.8838116
-0.1,0.0,1.4999999999999998,0.5235987755982988,-0.5235987755982988,0,-1.1597117,-1.403244,1.20311,-0.03614129,0.23283122,1.0500486,-1.4083703,-1.8485502,1.7937897,0.39651933,0.015405135,0.21628979,0.93055576,1.0669369
-0.1,0.0,1.4999999999999998,0.5235987755982988,-0.5235987755982988,0,-1.1577805,-1.4019328,1.0873432,-0.06384967,0.22986828,1.0774362,-0.30247948,-1.851726,1.7937204,0.3909328,-0.00069246395,0.17945078,0.9002771,0.89145327
-0.1,0.0,1.4999999999999998,0.5235987755982988,-0.5235987755982988,0,-1.160164,-1.4050947,1.1537592,0.04483167,0.21920049,1.0374036,-0.88620275,-1.8494207,1.792854,0.40299523,0.0070745433,0.14583728,0.9043876,0.9415448
-0.1,0.0,1.4999999999999998,0.5235987755982988,-0.5235987755982988,0,-1.1613523,-1.4012674,1.1198937,-0.14196108,0.20525892,1.0845451,-0.7093813,-1.8498464,1.7938535,0.39243022,0.02255396,0.1367382,0.9023954,1.1082402
-0.1,0.0,1.4999999999999998,0.5235987755982988,-0.5235987755982988,0,-1.159894,-1.4019555,1.2670621,0.0139876725,0.0036071264,1.1055849,-1.5286444,-1.8506552,1.7941188,0.39830512,0.034243446,0.41570923,0.9054223,1.1944476
-0.1,0.0,1.4999999999999998,0.5235987755982988,-0.5235987755982988,0,-1.158917,-1.4003147,1.1342504,0.037931696,0.07736217,1.0310512,-0.09626268,-1.8491567,1.7944148,0.3906865,0.028294055,0.2343315,0.92122084,1.0959883
-0.1,0.0,1.4999999999999998,0.5235987755982988,-0.5235987755982988,0,-1.1580029,-1.4005629,1.1472528,-0.033794116,0.15609089,1.0366054,-1.4667022,-1.849576,1.7944626,0.3949316,0.0155165605,0.18190333,0.9013936,1.2194976
-0.1,0.0,1.4999999999999998,0.5235987755982988,-0.5235987755982988,0,-1.1589425,-1.4013678,1.0348468,-0.13733295,0.3096182,1.0412357,0.47298875,-1.8508484,1.7927909,0.39565876,0.020700436,0.2282133,0.8776485,1.056099
-0.1,0.0,1.4999999999999998,0.5235987755982988,-0.5235987755982988,0,-1.1593736,-1.404035,1.1840509,-0.05587335,0.23720343,1.1932242,-0.43758056,-1.8507074,1.7941065,0.3959823,0.02497781,0.14463876,0.912255,1.3310695
-0.1,0.0,1.4999999999999998,0.5235987755982988,-0.5235987755982988,0,-1.1594647,-1.4034323,1.1591467,-0.10547965,-0.011648511,1.0556772,-0.43486446,-1.851319,1.7943991,0.3931942,0.017465312,0.1837264,0.93197113,1.3614513
-0.1,0.0,1.4999999999999998,0.5235987755982988,-0.5235987755982988,0,-1.1590773,-1.3992797,1.1116314,-0.089027636,0.010762654,1.1620249,-1.20129,-1.8499799,1.7941588,0.39596924,0.008940828,0.15876669,0.8995971,0.9740422
-0.1,0.0,1.4999999999999998,0.5235987755982988,-0.5235987755982988,0,-1.1595906,-1.4022701,1.1318656,0.024067476,0.17491433,1.0430242,-1.3108275,-1.8510107,1.7938002,0.3969107,0.016436096,0.17398651,0.9079207,1.2102554
-0.1,0.0,1.4999999999999998,0.5235987755982988,-0.5235987755982988,0,-1.1598631,-1.4000326,1.2133057,-0.14001586,0.038306993,1.0583714,-0.49866286,-1.8516749,1.7938279,0.390221,0.008269054,0.11975387,0.92108387,1.1650912
-0.1,0.0,1.4999999999999998,0.5235987755982988,-0.5235987755982988,0,-1.158911,-1.4007701,1.1597475,-0.054392315,0.061325595,1.0484858,-0.98599803,-1.8501278,1.7936866,0.3931064,0.027230125,0.17901309,0.89911085,1.1896033
-0.1,0.0,1.4999999999999998,0.5235987755982988,-0.5235987755982988,0,-1.1580484,-1.4056169,1.1586262,-0.08150007,0.37020245,1.0382091,-0.11949963,-1.8495938,1.7932969,0.40071604,0.027644983,0.3211119,0.9018412,1.340483
-0.1,0.0,1.4999999999999998,0.5235987755982988,-0.5235987755982988,0,-1.160153,-1.4023703,1.060353,-0.05269676,-0.07590686,1.1986468,0.47045985,-1.8500513,1.7935438,0.39323524,0.020747261,0.21018423,0.90318185,1.175935
-0.1,0.0,1.4999999999999998,0.5235987755982988,-0.5235987755982988,0,-1.1572716,-1.3991588,1.2393569,-0.08530302,0.15187384,1.1148399,-0.6793358,-1.8498793,1.7930834,0.39666405,0.035538625,0.27702117,0.92214954,0.87034327
-0.1,0.0,1.4999999999999998,0.5235987755982988,-0.5235987755982988,0,-1.1592312,-1.402281,1.1302874,0.08738253,0.028275436,1.0905018,-0.12899843,-1.8524712,1.7946794,0.3932199,0.032494284,0.18784307,0.8880698,1.0948137
-0.1,0.0,1.4999999999999998,0.5235987755982988,-0.5235987755982988,0,-1.1565208,-1.3993943,1.2491585,-0.03162173,-0.01870442,1.0360943,-1.2989097,-1.8528318,1.7950194,0.39236736,0.026420632,0.1849008,0.9024891,0.9828693
-0.1,0.0,1.4999999999999998,0.5235987755982988,-0.5235987755982988,0,-1.1587698,-1.398858,1.2001587,-0.16550516,0.09805596,1.0823486,-0.5277647,-1.8527039,1.793546,0.39914867,0.020084878,0.107987724,0.9431868,1.061451
-0.1,0.0,1.4999999999999998,0.5235987755982988,-0.5235987755982988,0,-1.1577402,-1.4029009,1.1865888,0.01793103,0.047093607,0.95259076,-0.99320817,-1.8508745,1.7936676,0.40376452,0.017348252,0.34248844,0.9147092,0.80717057
-0.1,0.0,1.4999999999999998,0.5235987755982988,-0.5235987755982988,0,-1.1594667,-1.4018282,1.2081656,0.055597287,0.20100321,1.1119325,-1.0712142,-1.850345,1.7939878,0.39098984,0.01282912,-0.0143148545,0.9079477,1.5701072
-0.1,0.0,1.4999999999999998,0.5235987755982988,-0.5235987755982988,0,-1.1594248,-1.4010594,1.1467068,0.02025184,0.02529914,1.1479086,0.6785311,-1.8496135,1.7945597,0.40018862,0.037210066,0.2035649,0.9229257,1.2056619
-0.1,0.0,1.4999999999999998,0.5235987755982988,-0.5235987755982988,0,-1.1600261,-1.4025954,1.083616,-0.049205765,0.14388873,1.0691345,-0.20458312,-1.8510514,1.794178,0.39536762,0.021148635,0.13322362,0.9220083,1.1251929
-0.1,0.0,1.4999999999999998,0.5235987755982988,-0.5235987755982988,0,-1.1573217,-1.399022,1.2019974,-0.034539454,0.11777852,1.135971,0.024485216,-1.8486873,1.7944535,0.3949903,0.02017267,0.096483104,0.89525026,1.2269759
-0.1,0.0,1.4999999999999998,0.5235987755982988,-0.5235987755982988,0,-1.1573349,-1.4010477,1.1310227,0.026803402,0.1841254,1.1073977,0.70272833,-1.8522769,1.7948712,0.39762774,0.028714351,0.1279365,0.92493653,0.9888896
-0.1,0.0,1.4999999999999998,0.5235987755982988,-0.5235987755982988,0,-1.1585681,-1.4023178,1.2758853,-0.11403588,0.16652729,1.1399205,0.5216535,-1.8513564,1.7921752,0.39055476,0.03117135,0.20538472,0.90570366,0.95752484
-0.1,0.0,1.4999999999999998,0.5235987755982988,-0.5235987755982988,0,-1.1615367,-1.4028422,1.2907866,-0.024616336,0.112590246,0.96893543,-0.81381744,-1.8526722,1.7940053,0.3944972,0.014345489,0.13696142,0.93483394,1.1766986
-0.1,0.0,1.4999999999999998,0.5235987755982988,-0.5235987755982988,0,-1.158149,-1.3985825,1.1364502,-0.10251619,0.22039299,1.0642093,-0.58480024,-1.8498524,1.7937342,0.39510074,0.022813333,0.19337499,0.90581435,1.0564777
-0.1,0.0,1.4999999999999998,0.5235987755982988,-0.5235987755982988,0,-1.1584754,-1.4014413,1.1337677,-0.13646197,0.073505715,1.0515989,0.06814434,-1.8517379,1.7938638,0.39507988,0.022872653,0.12560013,0.90581125,1.2235832
-0.1,0.0,1.4999999999999998,0.5235987755982988,-0.5235987755982988,0,-1.1600215,-1.4022516,1.2757796,-0.08495182,-0.13972242,1.0385846,-0.20957316,-1.8512788,1.7935787,0.39509696,0.044735204,0.27399692,0.92214406,0.6188849
-0.1,0.0,1.4999999999999998,0.5235987755982988,-0.5235987755982988,0,-1.1587178,-1.4003162,1.1679248,0.10234624,0.15956149,1.1602956,-1.0449214,-1.8507332,1.793025,0.3924648,0.02760021,0.058291256,0.9040473,1.1859319
-0.1,0.0,1.4999999999999998,0.5235987755982988,-0.5235987755982988,0,-1.1581911,-1.4011959,1.0945059,-0.06385347,0.009227165,1.0738965,-1.2488232,-1.8495119,1.7933632,0.3965687,0.024125995,0.16622774,0.90074635,1.4455818
-0.1,0.0,1.4999999999999998,0.5235987755982988,-0.5235987755982988,0,-1.1594028,-1.405153,1.159777,-0.07890164,0.07596126,0.98037773,-0.8641382,-1.8502909,1.7945387,0.39405313,0.019009033,0.18534616,0.89283556,1.574423
-0.1,0.0,1.4999999999999998,0.5235987755982988,-0.5235987755982988,0,-1.1573932,-1.4030794,1.0857925,-0.010023026,0.060291346,1.0780259,-1.2342082,-1.8508841,1.7938963,0.39771858,0.022071054,0.23661536,0.93593043,1.2382144
-0.1,0.0,1.4999999999999998,0.5235987755982988,-0.5235987755982988,0,-1.1573778,-1.402205,1.1416312,-0.024656486,0.08139735,1.091279,-0.3051622,-1.8494703,1.7931534,0.39392856,0.02151629,0.19615598,0.90358704,1.3358222
-0.1,0.0,1.4999999999999998,0.5235987755982988,-0.5235987755982988,0,-1.1581719,-1.4054126,1.1087871,-0.07283244,0.10241287,1.0835285,0.20542905,-1.8494511,1.7940824,0.39669877,0.030698322,0.060296766,0.8615082,1.298637
-0.1,0.0,1.4999999999999998,0.5235987755982988,-0.5235987755982988,0,-1.1592692,-1.4051824,1.0944835,-0.06900469,0.06278615,1.0605644,-0.43703985,-1.8515931,1.7933804,0.3938203,0.016094869,0.07240165,0.90705484,1.1548822
-0.1,0.0,1.4999999999999998,0.5235987755982988,-0.5235987755982988,0,-1.159861,-1.4014457,1.1763217,-0.014742923,-0.02325203,1.0720873,-0.027624935,-1.8529727,1.794065,0.39273798,0.017801618,0.21108027,0.91080886,1.0439522
-0.1,0.0,1.4999999999999998,0.5235987755982988,-0.5235987755982988,0,-1.1598611,-1.4023042,1.1973453,-0.10749949,-0.20795363,1.0686412,0.5646765,-1.851957,1.7937038,0.3965501,0.015957134,0.14177603,0.9005106,1.363708
-0.1,0.0,1.4999999999999998,0.5235987755982988,-0.5235987755982988,0,-1.1577168,-1.3990663,1.1431519,0.0013565407,0.34109357,1.0532936,0.49338126,-1.8510463,1.7935708,0.39000875,0.030844176,0.17210694,0.9237993,0.9804632
-0.1,0.0,1.4999999999999998,0.5235987755982988,-0.5235987755982988,0,-1.1605216,-1.4039624,1.180338,-0.1384868,0.20406173,1.1970559,0.48178244,-1.8509694,1.7936586,0.39165252,0.04501814,0.27385077,0.9206222,1.2200258
-0.1,0.0,1.4999999999999998,0.5235987755982988,-0.5235987755982988,0,-1.1579115,-1.4027804,1.2469286,-0.054932803,0.08164767,1.0439188,-0.028163549,-1.8507956,1.79403,0.39345208,0.020620279,0.097185224,0.88896435,1.4788703
-0.1,0.0,1.4999999999999998,0.5235987755982988,-0.5235987755982988,0,-1.1587703,-1.4005665,1.1968011,-0.16035274,0.12812062,1.0707804,-0.6300169,-1.8526642,1.7931457,0.38784003,0.026063878,0.28983787,0.9113867,1.1706469
-0.1,0.0,1.4999999999999998,0.5235987755982988,-0.5235987755982988,0,-1.1590747,-1.4013933,1.1539035,-0.06875097,0.17940488,1.1012796,-0.31475753,-1.8504637,1.7939498,0.39614654,0.02262321,0.19556203,0.8871,0.9902017
-0.1,0.0,1.4999999999999998,0.5235987755982988,-0.5235987755982988,0,-1.1567448,-1.4011896,1.2052704,-0.14586139,0.09861759,1.0258805,-0.5020642,-1.8497474,1.794504,0.39192352,0.016282689,0.28421327,0.91871214,1.5866543
-0.1,0.0,1.4999999999999998,0.5235987755982988,-0.5235987755982988,0,-1.1569371,-1.4029491,1.1812563,0.075792834,0.011337512,1.1590105,0.047132395,-1.8503013,1.793555,0.39125207,0.017937355,0.1980015,0.9092414,1.2689195
-0.1,0.0,1.4999999999999998,0.5235987755982988,-0.5235987755982988,0,-1.1580497,-1.400954,1.2159679,0.042422954,0.25972515,1.0036447,-0.16301249,-1.8524673,1.7937739,0.3931219,0.031555224,0.07997591,0.91484654,1.0552638
-0.1,0.0,1.4999999999999998,0.5235987755982988,-0.5235987755982988,0,-1.1591141,-1.4001749,1.1066673,0.0080253715,0.059563182,1.0726222,0.044020575,-1.849636,1.7932955,0.38935983,0.007398854,0.21234164,0.88982815,1.1092277
-0.1,0.0,1.4999999999999998,0.5235987755982988,-0.5235987755982988,0,-1.1576818,-1.3992665,1.1434163,0.011083975,0.11083239,1.103585,-0.24418682,-1.8523613,1.7940862,0.3961696,0.040801007,0.18476132,0.8814229,0.98349977
-0.1,0.0,1.4999999999999998,0.5235987755982988,-0.5235987755982988,0,-1.1573673,-1.4016615,1.2339616,-0.0013897166,0.12778053,1.0961287,-2.0703697,-1.8515296,1.7937405,0.39206702,0.036602262,0.14992137,0.90480673,1.2350941
-0.1,0.0,1.4999999999999998,0.5235987755982988,-0.5235987755982988,0,-1.1588931,-1.4007888,1.0997062,-0.121607415,0.32083023,1.0821339,-0.75629705,-1.8528894,1.79374,0.39272493,0.014247022,0.2718354,0.8941386,0.9800412
-0.1,0.0,1.4999999999999998,0.5235987755982988,-0.5235987755982988,0,-1.1570817,-1.4022937,1.2232726,0.0134648,0.25175592,1.1315472,-0.3564392,-1.8518025,1.7936444,0.38945413,0.0344548,0.2900345,0.9088307,1.0533688
-0.1,0.0,1.4999999999999998,0.5235987755982988,-0.5235987755982988,0,-1.1603105,-1.4002761,1.1562436,-0.019861884,0.15389605,1.0597587,-0.13065697,-1.8507818,1.7939402,0.3928753,0.015467804,0.19449401,0.9072028,1.2846708
-0.1,0.0,1.4999999999999998,0.5235987755982988,-0.5235987755982988,0,-1.1557344,-1.4026774,1.1413994,0.06703409,0.19784419,1.0163838,0.2363764,-1.8512115,1.7934859,0.39402315,0.013109892,0.20599923,0.9080198,1.6233798
-0.1,0.0,1.4999999999999998,0.5235987755982988,-0.5235987755982988,0,-1.1573718,-1.4011451,1.1409209,0.06944317,0.0977142,1.1130344,-1.4838866,-1.8521758,1.7929587,0.3987624,0.02506123,0.15142535,0.9078561,1.1070927
-0.1,0.0,1.4999999999999998,0.5235987755982988,-0.5235987755982988,0,-1.1573489,-1.4048011,1.1104157,-0.056302372,0.30374825,1.0881697,-0.69255716,-1.8528903,1.7927401,0.39816317,0.043012887,0.0980834,0.886938,1.2794944
-0.1,0.0,1.4999999999999998,0.5235987755982988,-0.5235987755982988,0,-1.1582898,-1.4021055,1.2400676,-0.092073046,0.04183364,1.0776272,0.014070445,-1.8501972,1.7940619,0.39811882,0.0321051,0.28859186,0.9046216,1.219855
-0.1,0.0,1.4999999999999998,0.5235987755982988,-0.5235987755982988,0,-1.1566317,-1.4017056,1.0896652,-0.14467806,-0.028517816,1.09489,0.08908937,-1.8529348,1.7929406,0.39915276,0.009013095,0.097076416,0.88986176,1.4136736
-0.1,0.0,1.4999999999999998,0.5235987755982988,-0.5235987755982988,0,-1.1561458,-1.4020618,1.1943234,-0.05804949,0.15065767,1.0879173,-0.80612206,-1.8510273,1.7933481,0.3955308,0.027963212,0.3865672,0.91303045,1.1820396
-0.1,0.0,1.4999999999999998,0.5235987755982988,-0.5235987755982988,0,-1.1563252,-1.4001334,1.2392545,-0.027884308,0.09226667,1.1642206,-1.8558549,-1.851577,1.7931881,0.39505136,0.019268183,0.1194923,0.928783,1.4067796
-0.1,0.0,1.4999999999999998,0.5235987755982988,-0.5235987755982988,0,-1.1561071,-1.4033418,1.1539853,-0.056132287,0.021053623,1.1409961,-1.1513628,-1.8504163,1.7941478,0.39048168,0.017309735,0.17686081,0.91119736,1.4362583
-0.1,0.0,1.4999999999999998,0.5235987755982988,-0.5235987755982988,0,-1.1569706,-1.4001136,1.057271,-0.094378054,0.16275409,1.1461407,0.9923439,-1.8515872,1.7934195,0.39584225,0.011763483,0.10746762,0.8965807,0.8689552
-0.1,0.0,1.4999999999999998,0.5235987755982988,-0.5235987755982988,0,-1.155698,-1.4025518,1.1339291,-0.06408974,0.18071213,1.0568537,0.49305013,-1.8503708,1.7934483,0.394759,0.030007388,0.1222466,0.9014359,1.2854538
-0.1,0.0,1.4999999999999998,0.5235987755982988,-0.5235987755982988,0,-1.1556863,-1.4024297,1.0684819,-0.06995351,0.24079141,1.1210856,-0.9579881,-1.8526173,1.793294,0.38936022,0.027332073,0.22133493,0.90275127,1.2134778
-0.1,0.0,1.4999999999999998,0.5235987755982988,-0.5235987755982988,0,-1.1565619,-1.402155,1.1110551,-0.028532777,-0.04673913,1.120872,-0.3450632,-1.8520819,1.7939191,0.39998838,0.034736197,0.20009702,0.932441,0.76274234
-0.1,0.0,1.4999999999999998,0.5235987755982988,-0.5235987755982988,0,-1.1586092,-1.401903,1.130085,-0.07795371,0.16841076,1.1188084,-1.4112178,-1.8524331,1.7938758,0.3924507,0.0071793613,0.2658993,0.8991693,0.471012
-0.1,0.0,1.4999999999999998,0.5235987755982988,-0.5235987755982988,0,-1.1576047,-1.4044648,1.2167511,-0.034324013,0.24171622,1.0562146,-0.53913033,-1.8519418,1.7943425,0.39441177,0.027535073,0.21985361,0.92398506,0.988979
-0.1,0.0,1.4999999999999998,0.5235987755982988,-0.5235987755982988,0,-1.1553882,-1.4040837,1.1877589,-0.18219201,0.16379967,1.1794,0.60807997,-1.8519045,1.7935543,0.39864922,0.03542008,0.21942066,0.9391368,0.9002537
-0.1,0.0,1.4999999999999998,0.5235987755982988,-0.5235987755982988,0,-1.1583319,-1.4035925,1.1372323,0.013272875,0.015327454,1.1061494,-0.036821913,-1.8514645,1.7945347,0.39762005,0.013711408,0.22661188,0.94440114,1.162071
-0.1,0.0,1.4999999999999998,0.5235987755982988,-0.5235987755982988,0,-1.1596597,-1.4017822,1.1915141,-0.014790577,0.13686968,1.0547047,-1.0665345,-1.8531613,1.7947627,0.39861745,0.018458799,0.20794693,0.91904444,1.209317
-0.1,0.0,1.4999999999999998,0.5235987755982988,-0.5235987755982988,0,-1.1577443,-1.4004929,1.1522337,-0.019141352,0.17617844,1.0401676,-1.1297952,-1.8515412,1.7940977,0.3971404,0.019285066,0.08135998,0.94097435,1.1972799
-0.1,0.0,1.4999999999999998,0.5235987755982988,-0.5235987755982988,0,-1.158024,-1.4012176,1.1985497,0.03518788,0.16435024,1.1267436,-0.30413356,-1.8523029,1.7939345,0.39817238,0.027998285,0.33080274,0.88561445,1.1553116
-0.1,0.0,1.4999999999999998,0.5235987755982988,-0.5235987755982988,0,-1.1550137,-1.4006373,1.2008489,-0.0069248294,0.027654743,1.0921656,-0.92641157,-1.8492779,1.7935425,0.39098242,0.010562966,0.16949572,0.9307149,1.1055694
-0.1,0.0,1.4999999999999998,0.5235987755982988,-0.5235987755982988,0,-1.1573801,-1.4027894,1.1516527,0.026879633,0.20333095,1.0364457,-0.08869754,-1.850227,1.7930093,0.39239845,0.016897788,0.12315238,0.93035334,1.1784921
-0.1,0.0,1.4999999999999998,0.5235987755982988,-0.5235987755982988,0,-1.1609024,-1.3993752,1.2387701,-0.023540271,0.23002863,0.99455094,-0.74151653,-1.8518579,1.7931194,0.39695546,0.018508742,0.20973228,0.9008876,1.1303011
-0.1,0.0,1.4999999999999998,0.5235987755982988,-0.5235987755982988,0,-1.1580092,-1.4028106,1.1236297,-0.030054819,0.17838994,0.98645866,-0.5963584,-1.8525703,1.7940464,0.3972827,0.013217719,0.25271547,0.88992554,0.93802184
-0.1,0.0,1.4999999999999998,0.5235987755982988,-0.5235987755982988,0,-1.1589018,-1.4050035,1.1794248,-0.09295073,0.21773043,1.1133379,0.28437796,-1.850099,1.7935396,0.40263027,0.012082598,0.18262571,0.89583087,1.0351999
-0.1,0.0,1.4999999999999998,0.5235987755982988,-0.5235987755982988,0,-1.1593506,-1.4054415,1.1780498,-0.0222478,-0.008522747,1.1383832,-1.1252667,-1.8526365,1.7925781,0.39722842,0.018778682,0.24749833,0.929277,1.0110552
-0.1,0.0,1.4999999999999998,0.5235987755982988,-0.5235987755982988,0,-1.1567919,-1.401452,1.136353,-0.025073204,0.014400656,1.1147572,-2.7573125,-1.8491374,1.7938415,0.39625773,0.02032347,0.06898929,0.89150923,0.82204956
-0.1,0.0,1.4999999999999998,0.5235987755982988,-0.5235987755982988,0,-1.1569328,-1.4014918,1.1975523,-0.06923286,-0.103531174,1.0253016,-0.7949731,-1.8493568,1.7937881,0.39719322,0.021761853,0.09322593,0.91114706,1.1058127
-0.1,0.0,1.4999999999999998,0.5235987755982988,-0.5235987755982988,0,-1.1567701,-1.4061453,1.2338419,-0.025672678,0.23327775,1.1126268,-0.19883622,-1.85115,1.7936548,0.3967655,0.023059936,0.11951387,0.917511,1.2590204
-0.1,0.0,1.4999999999999998,0.5235987755982988,-0.5235987755982988,0,-1.1568617,-1.4003434,1.1461042,-0.030324316,0.00028391046,1.1490685,-0.047531124,-1.8511474,1.7939255,0.39752662,0.03298035,0.14614739,0.9091075,1.2355369
-0.1,0.0,1.4999999999999998,0.5235987755982988,-0.5235987755982988,0,-1.156528,-1.4021987,1.0651666,-0.11761484,0.13406356,1.1367898,0.032511335,-1.8508964,1.7940668,0.39885595,0.01941309,0.16378663,0.8874373,1.4945272
-0.1,0.0,1.4999999999999998,0.5235987755982988,-0.5235987755982988,0,-1.157405,-1.4024446,1.0337733,0.008372443,0.20497222,1.10226,-0.48367938,-1.8511564,1.7937274,0.387954,0.012768201,0.12971461,0.92386156,0.84923893
-0.1,0.0,1.4999999999999998,0.5235987755982988,-0.5235987755982988,0,-1.1559625,-1.4020416,1.1924118,-0.011315135,0.15876055,1.2108877,-0.3502003,-1.8520069,1.7933766,0.39082485,0.02059037,0.1223469,0.9259475,1.1130977
-0.1,0.0,1.4999999999999998,0.5235987755982988,-0.5235987755982988,0,-1.158854,-1.4048591,1.2390693,0.013560822,0.13261084,1.1378067,-0.62639344,-1.8510025,1.7935212,0.392269,0.026629552,0.2063547,0.9043683,0.8380974
-0.1,0.0,1.4999999999999998,0.5235987755982988,-0.5235987755982988,0,-1.1589453,-1.4046986,1.1275556,-0.079671755,0.030212775,1.0899148,-0.17536668,-1.8506781,1.7931589,0.39238703,0.015890796,0.20812614,0.8905218,1.1776415
-0.1,0.0,1.4999999999999998,0.5235987755982988,-0.5235987755982988,0,-1.1573858,-1.4031168,1.1160837,-0.056985572,0.23147087,1.1028119,-1.1404557,-1.851816,1.7937893,0.39241338,0.03763041,0.27454805,0.89494985,1.0253267
-0.1,0.0,1.4999999999999998,0.5235987755982988,-0.5235987755982988,0,-1.1567754,-1.401462,1.1733186,-0.041197445,0.012261119,1.040012,-0.22060877,-1.8510277,1.7949836,0.3956257,0.035805117,0.2034686,0.8964857,0.88052815
-0.1,0.0,1.4999999999999998,0.5235987755982988,-0.5235987755982988,0,-1.1577961,-1.3991231,1.1738955,0.0036126066,0.10155365,1.1020015,-1.1232175,-1.8513982,1.7940153,0.40344822,0.022079526,0.12518814,0.91402745,1.1127125
-0.1,0.0,1.4999999999999998,0.5235987755982988,-0.5235987755982988,0,-1.1555277,-1.4008086,1.1736435,-0.087647706,0.050268263,1.2228112,-0.12533543,-1.8503577,1.794136,0.39293483,0.022457752,0.07208768,0.9031027,0.7839232
-0.1,0.0,1.4999999999999998,0.5235987755982988,-0.5235987755982988,0,-1.1588749,-1.3997469,1.1621846,-0.12739404,0.18475091,1.1120791,-0.847656,-1.8529686,1.7949177,0.3919751,0.030965343,0.13289687,0.9441134,1.0718342
-0.1,0.0,1.4999999999999998,0.5235987755982988,-0.5235987755982988,0,-1.1594946,-1.4046075,1.1697451,0.09187577,0.2633994,0.97646767,0.32512084,-1.8509367,1.7941002,0.3967485,0.010913621,0.2942508,0.90658444,1.3112447
-0.1,0.0,1.4999999999999998,0.5235987755982988,-0.5235987755982988,0,-1.156278,-1.4039073,1.1559882,-0.0042003854,0.22663738,1.078026,-1.2118534,-1.8523134,1.7944643,0.39990708,0.026996573,0.06812085,0.909449,0.9389353
-0.1,0.0,1.4999999999999998,0.5235987755982988,-0.5235987755982988,0,-1.157387,-1.4000322,1.2132585,-0.013171324,0.055072695,0.9624143,0.09046732,-1.8512175,1.7933221,0.39196447,0.012619445,0.2325449,0.8982173,1.0830659
-0.1,0.0,1.4999999999999998,0.5235987755982988,-0.5235987755982988,0,-1.155548,-1.4022579,1.201856,-0.16887133,0.12491442,1.1116912,-0.2966708,-1.8520662,1.7931097,0.39486173,0.024131645,0.122412734,0.9020981,0.9853719
-0.1,0.0,1.4999999999999998,0.5235987755982988,-0.5235987755982988,0,-1.1591538,-1.4032989,1.1219951,0.03628662,0.12903821,1.0176264,-1.4050677,-1.8514668,1.7928858,0.38806397,0.0025373315,0.066798046,0.8751406,0.9194258
-0.1,0.0,1.4999999999999998,0.5235987755982988,-0.5235987755982988,0,-1.1582551,-1.399195,1.1557176,-0.029125646,0.068014644,1.1627102,0.37340993,-1.8520417,1.7943017,0.3978567,0.031338453,0.15400317,0.89920545,0.8135041
-0.1,0.0,1.4999999999999998,0.5235987755982988,-0.5235987755982988,0,-1.159944,-1.4041636,1.1668589,0.03144467,0.022730825,0.98411524,0.31191328,-1.8522087,1.7928829,0.39320752,0.023578294,0.36411706,0.9062936,1.1694975
-0.1,0.0,1.4999999999999998,0.5235987755982988,-0.5235987755982988,0,-1.1559556,-1.4032888,1.1855189,-0.047735024,0.057324395,1.067785,-0.35951403,-1.8505352,1.7943026,0.3954096,0.011190687,0.07579592,0.8931765,1.0279493
-0.1,0.0,1.4999999999999998,0.5235987755982988,-0.5235987755982988,0,-1.158752,-1.3994749,1.0680459,-0.051400427,0.033428587,1.0143391,-0.05923809,-1.853289,1.794148,0.39383677,0.037170287,0.01618566,0.8996666,0.98718816
-0.1,0.0,1.4999999999999998,0.5235987755982988,-0.5235987755982988,0,-1.1578587,-1.4017004,1.1916238,-0.09720947,0.22728622,1.1069788,-1.0698634,-1.852866,1.7929662,0.38850468,0.015173087,0.28756842,0.87710524,1.0347203
-0.1,0.0,1.4999999999999998,0.5235987755982988,-0.5235987755982988,0,-1.1582121,-1.4035454,1.2859837,-0.021773914,0.13732955,1.1001377,0.08844425,-1.8526888,1.7926141,0.3982053,0.036065925,0.23646851,0.9305257,1.0070846
-0.1,0.0,1.4999999999999998,0.5235987755982988,-0.5235987755982988,0,-1.1592815,-1.4029268,1.0722744,-0.09389437,0.15220341,1.0360272,-0.31607,-1.8509032,1.7928356,0.3950231,0.024710055,0.2881865,0.8752747,1.2006944
-0.1,0.0,1.4999999999999998,0.5235987755982988,-0.5235987755982988,0,-1.1567268,-1.4056661,1.2148464,-0.061347645,0.18827143,1.0995678,-0.64089525,-1.8508168,1.7939442,0.40025866,0.028052203,0.16248992,0.91979134,0.74890465
-0.1,0.0,1.4999999999999998,0.5235987755982988,-0.5235987755982988,0,-1.1573545,-1.4047874,1.1936407,-0.21339467,0.16891879,1.1187395,-1.1620232,-1.851154,1.7925494,0.39596906,0.030473355,0.07906908,0.9422378,1.3506223
-0.1,0.0,1.4999999999999998,0.5235987755982988,-0.5235987755982988,0,-1.1591859,-1.4040885,1.1637987,0.0052935663,-0.01965086,1.1468333,-0.28112197,-1.8521477,1.7927542,0.39617753,0.03333166,0.24585944,0.9029735,1.3282062
-0.1,0.0,1.4999999999999998,0.5235987755982988,-0.5235987755982988,0,-1.1561632,-1.4041207,1.1679132,-0.02840529,0.19111146,1.1574388,0.092908025,-1.8525721,1.7937076,0.40044048,0.032852203,0.1030357,0.9100349,0.9205206
-0.1,0.0,1.4999999999999998,0.5235987755982988,-0.5235987755982988,0,-1.1586487,-1.398613,1.2314093,-0.07796915,0.25764966,1.1402475,0.2710876,-1.8533529,1.7933791,0.39233458,0.030330457,0.22920655,0.89622533,1.3034497
-0.1,0.0,1.4999999999999998,0.5235987755982988,-0.5235987755982988,0,-1.1588421,-1.4037869,1.2255461,-0.07507538,0.10188213,1.0903316,-0.88162607,-1.8497387,1.7935075,0.38617444,0.01900659,0.1946915,0.901814,1.0669469
-0.1,0.0,1.4999999999999998,0.5235987755982988,-0.5235987755982988,0,-1.1570773,-1.4053295,1.2336942,-0.011247341,0.14722286,1.0987896,0.1270463,-1.8510448,1.7938498,0.40055805,0.022715304,0.07281681,0.9060066,1.0680472
-0.1,0.0,1.4999999999999998,0.5235987755982988,-0.5235987755982988,0,-1.157215,-1.4015998,1.1798606,-0.04257711,0.2904593,1.0584259,-0.8424082,-1.854115,1.794825,0.40200838,0.012636481,0.12674662,0.95330405,1.0922673
-0.1,0.0,1.4999999999999998,0.5235987755982988,-0.5235987755982988,0,-1.1588014,-1.4037266,1.1178482,-0.053269606,0.2069374,1.0729091,-0.18144177,-1.8514788,1.7940457,0.39774895,0.030184947,0.20451628,0.8994721,1.0636692
-0.1,0.0,1.4999999999999998,0.5235987755982988,-0.5235987755982988,0,-1.1566168,-1.4043379,1.1490719,-0.025415856,0.09617574,1.2179568,0.021874137,-1.8511615,1.7930365,0.3953294,0.0027069743,0.19747438,0.89647305,1.2436128
-0.1,0.0,1.4999999999999998,0.5235987755982988,-0.5235987755982988,0,-1.1567726,-1.4035252,1.1616856,-0.008296674,0.22029836,1.1210251,-0.95331085,-1.8524373,1.7942675,0.39344534,0.03590899,0.14723168,0.90249294,1.1639358
-0.1,0.0,1.4999999999999998,0.5235987755982988,-0.5235987755982988,0,-1.1579229,-1.4016962,1.1864104,-0.072645925,0.16631012,1.0528395,-0.14911608,-1.8537563,1.7938068,0.39093253,0.034480434,0.10755407,0.90757674,1.2215316
-0.1,0.0,1.4999999999999998,0.5235987755982988,-0.5235987755982988,0,-1.1589446,-1.4025981,1.0701586,-0.04412773,0.07226164,1.0965242,0.1014035,-1.8496225,1.7930796,0.3859223,0.016243983,0.16058859,0.87641704,1.231299
-0.1,0.0,1.4999999999999998,0.5235987755982988,-0.5235987755982988,0,-1.1585641,-1.4056811,1.113764,-0.19382863,-0.073339105,1.1115632,-0.2072563,-1.8519142,1.7945142,0.38953796,0.01595288,0.11450501,0.9163195,1.3699049
-0.1,0.0,1.4999999999999998,0.5235987755982988,-0.5235987755982988,0,-1.1567625,-1.40185,1.2278504,-0.0942969,0.033410333,1.074832,-0.52487683,-1.8511343,1.7930574,0.39109492,0.01098717,0.23890258,0.90383184,1.2106795
-0.1,0.0,1.4999999999999998,0.5235987755982988,-0.5235987755982988,0,-1.1564049,-1.402203,1.0398113,-0.06223396,0.17925727,1.1264578,0.13877794,-1.851938,1.7930408,0.3885452,0.004229928,0.1583862,0.9303872,1.041983
-0.1,0.0,1.4999999999999998,0.5235987755982988,-0.5235987755982988,0,-1.1594957,-1.4036857,1.1593604,-0.007636691,0.083927795,1.0643481,-0.2520064,-1.8517945,1.7939473,0.39117262,0.021923058,0.05474125,0.90502214,1.011706
-0.1,0.0,1.4999999999999998,0.5235987755982988,-0.5235987755982988,0,-1.1597036,-1.4015611,1.0322213,-0.08945667,0.27757996,1.0979882,-1.7868056,-1.849064,1.7939068,0.4003914,0.024793966,0.33246574,0.9333266,1.443577
-0.1,0.0,1.4999999999999998,0.5235987755982988,-0.5235987755982988,0,-1.1578051,-1.39927,1.0935845,-0.26708496,0.1766051,1.056791,0.24525061,-1.8493167,1.7933667,0.39257032,0.004348511,0.27733025,0.91954535,0.8312122
-0.1,0.0,1.4999999999999998,0.5235987755982988,-0.5235987755982988,0,-1.1607411,-1.4005418,1.1864347,-0.021139214,0.30362016,1.1242408,0.42821196,-1.8492242,1.7940565,0.39949408,0.014184939,0.25381035,0.95530814,1.110017
-0.1,0.0,1.4999999999999998,0.5235987755982988,-0.5235987755982988,0,-1.1598111,-1.4051973,1.115584,-0.008931484,-0.06989357,1.0864338,-0.8888442,-1.8510841,1.7944862,0.39571127,0.038640074,0.42434058,0.9454204,1.5079577
-0.1,0.0,1.4999999999999998,0.5235987755982988,-0.5235987755982988,0,-1.1564218,-1.4013945,1.0581481,-0.019378029,0.047967352,0.9726313,0.7850793,-1.8477545,1.7935451,0.39197692,-0.011516511,0.22293633,0.87806046,0.9379041
-0.1,0.0,1.4999999999999998,0.5235987755982988,-0.5235987755982988,0,-1.1600024,-1.4037077,1.1141032,0.08872328,0.0329279,1.1585013,-0.3164469,-1.849792,1.7929629,0.3959782,0.02070606,0.1846115,0.8955278,1.022296
-0.1,0.0,1.4999999999999998,0.5235987755982988,-0.5235987755982988,0,-1.1604644,-1.4011486,1.0602158,-0.02240666,0.109140426,1.2154866,-2.0626254,-1.8508228,1.7932513,0.3929476,0.046814326,0.2127062,0.9183275,1.1097339
-0.1,0.0,1.4999999999999998,0.5235987755982988,-0.5235987755982988,0,-1.1606517,-1.4004725,1.1751349,-0.019291405,0.17267883,1.0534142,-1.0851686,-1.853071,1.7943147,0.39574882,0.02583901,0.1437438,0.9390451,1.2808717
-0.1,0.0,1.4999999999999998,0.5235987755982988,-0.5235987755982988,0,-1.1594273,-1.40239,1.1195701,0.014644903,0.16800512,1.1050687,0.45991665,-1.8523395,1.7935262,0.39901805,0.017426485,0.18694876,0.93975115,1.1712661
-0.1,0.0,1.4999999999999998,0.5235987755982988,-0.5235987755982988,0,-1.1583127,-1.3995537,1.086735,-0.049986456,0.010784412,1.112238,0.7088656,-1.8509368,1.7943853,0.39817458,0.019668432,0.26510566,0.87848526,1.1251677
-0.1,0.0,1.4999999999999998,0.5235987755982988,-0.5235987755982988,0,-1.1571711,-1.4042144,1.177701,0.07981191,0.08827203,1.1046702,0.33449137,-1.850487,1.7924495,0.3937938,0.047010787,0.22428271,0.9119872,1.1107965
-0.1,0.0,1.4999999999999998,0.5235987755982988,-0.5235987755982988,0,-1.1590645,-1.4005053,1.0682188,-0.050377022,0.04378904,1.0335377,-0.62044543,-1.8534483,1.792731,0.39472088,0.0113498615,0.3552493,0.9076768,1.3332949
-0.1,0.0,1.4999999999999998,0.5235987755982988,-0.5235987755982988,0,-1.1573974,-1.399965,1.1443093,0.09290412,0.10012203,1.1190192,0.15257598,-1.8524957,1.7938545,0.39690968,0.02024362,0.27997923,0.9008532,0.9800519
-0.1,0.0,1.4999999999999998,0.5235987755982988,-0.5235987755982988,0,-1.1590079,-1.4033849,1.2196333,0.03136872,0.13531443,1.0426527,-0.3545216,-1.849765,1.7941643,0.39470837,0.029009378,0.24759784,0.90774983,0.86094457
-0.1,0.0,1.4999999999999998,0.5235987755982988,-0.5235987755982988,0,-1.1590832,-1.4042083,1.1570051,-0.09758796,0.07861984,1.119444,-0.8737455,-1.852346,1.7927773,0.39213407,0.01285159,0.08389928,0.94189656,1.0660095
-0.1,0.0,1.4999999999999998,0.5235987755982988,-0.5235987755982988,0,-1.1589407,-1.4043801,1.1420404,0.06645152,0.062078975,1.1457722,0.40631184,-1.8509454,1.7929256,0.4010046,0.030737713,0.2488421,0.9173903,0.9249932
-0.1,0.0,1.4999999999999998,0.5235987755982988,-0.5235987755982988,0,-1.1576469,-1.4024774,1.1504672,-0.037031263,0.30445114,1.0561882,-0.17140244,-1.8503768,1.7937316,0.39293134,0.029465267,0.15552565,0.9378507,1.1116565
-0.1,0.0,1.4999999999999998,0.5235987755982988,-0.5235987755982988,0,-1.1577809,-1.4047949,1.0558515,-0.044853825,0.29603633,1.0190842,-0.86671835,-1.851179,1.7939779,0.39437026,0.02929791,0.08712076,0.88429284,0.9344147
-0.1,0.0,1.4999999999999998,0.5235987755982988,-0.5235987755982988,0,-1.1575269,-1.4009072,1.1986578,0.0012825897,0.21454147,1.0324342,0.1292355,-1.8511204,1.7930614,0.39454222,0.022679532,0.2375138,0.87363213,1.061406
-0.1,0.0,1.4999999999999998,0.5235987755982988,-0.5235987755982988,0,-1.1599236,-1.403936,1.1810509,0.0046061897,-0.021308804,1.0638642,-0.68747485,-1.8512427,1.7936213,0.40032104,0.030924411,0.22953466,0.8952017,0.9639254
-0.1,0.0,1.4999999999999998,0.5235987755982988,-0.5235987755982988,0,-1.1563964,-1.4001546,1.1509806,-0.0121348305,0.13759318,1.0192477,-1.1900606,-1.8513588,1.7926835,0.3960409,0.02866448,0.101574756,0.91155404,1.2795546
-0.1,0.0,1.4999999999999998,0.5235987755982988,-0.5235987755982988,0,-1.1569343,-1.40256,1.1496783,-0.070910424,0.09226948,1.0586706,0.2697169,-1.850227,1.7932485,0.39340052,0.024398064,0.23863338,0.92194265,0.9557485
-0.1,0.0,1.4999999999999998,0.5235987755982988,-0.5235987755982988,0,-1.1563213,-1.404434,1.2806756,-0.0016542502,0.12078227,1.1096256,0.53987277,-1.8522787,1.7936397,0.3900332,0.033386998,0.08714332,0.8889586,0.99803394
-0.1,0.0,1.4999999999999998,0.5235987755982988,-0.5235987755982988,0,-1.1597499,-1.4012239,1.1871598,0.10375115,0.037397433,1.1312419,0.15255746,-1.8509325,1.7935882,0.3887998,0.03361196,0.11872624,0.899312,1.3924025
-0.1,0.0,1.4999999999999998,0.5235987755982988,-0.5235987755982988,0,-1.1589566,-1.4032462,1.1453737,-0.0006353734,0.1450667,1.0759037,-0.3708393,-1.8524855,1.7940592,0.39174607,0.034893174,0.21929802,0.90685576,1.2234322
-0.1,0.0,1.4999999999999998,0.5235987755982988,-0.5235987755982988,0,-1.1585572,-1.4048946,1.1279775,-0.089553975,0.027537415,1.0109185,-0.54445094,-1.8515154,1.7928822,0.4013387,0.018500816,0.14750545,0.90788084,1.1490012
-0.1,0.0,1.4999999999999998,0.5235987755982988,-0.5235987755982988,0,-1.1570772,-1.4008816,1.0807943,-0.056461092,0.19939871,1.014524,-1.4689233,-1.8523369,1.7939457,0.39679265,0.019983154,0.14492238,0.90471655,0.8200762
-0.1,0.0,1.4999999999999998,0.5235987755982988,-0.5235987755982988,0,-1.1581329,-1.4040878,1.2081308,-0.063192695,0.12938626,1.0068933,-1.2842213,-1.8501773,1.7928678,0.39018035,0.021101367,0.0026400243,0.9156998,1.0529672
-0.1,0.0,1.4999999999999998,0.5235987755982988,-0.5235987755982988,0,-1.1588421,-1.4010413,1.2638977,-0.033160456,0.26135838,1.19876,-0.16591841,-1.8504819,1.7942268,0.39699405,0.0021570716,0.23499322,0.8893641,1.0395089
-0.1,0.0,1.4999999999999998,0.5235987755982988,-0.5235987755982988,0,-1.1580364,-1.402016,1.1758575,-0.08147822,0.14577183,1.0710814,-1.0653586,-1.8518322,1.7947277,0.39733237,0.010849377,0.25493068,0.8684726,1.1120288
-0.1,0.0,1.4999999999999998,0.5235987755982988,-0.5235987755982988,0,-1.1593965,-1.4011198,1.1085756,-0.04230154,0.0429535,1.1456916,-0.9083592,-1.8525734,1.7940887,0.38352177,0.025785524,0.13825464,0.9076628,1.0159014
-0.1,0.0,1.4999999999999998,0.5235987755982988,-0.5235987755982988,0,-1.1593943,-1.4042726,1.159206,0.038615003,0.121642,1.0798827,-0.40348327,-1.8530928,1.7943628,0.39916888,0.026410723,0.2006039,0.92391014,0.9614486
-0.1,0.0,1.4999999999999998,0.5235987755982988,-0.5235987755982988,0,-1.1577127,-1.4022137,1.1789877,-0.04980082,0.33971515,1.0662811,-0.5882298,-1.8524939,1.7946433,0.39230245,0.021240972,0.1082577,0.9107738,0.79367584
-0.1,0.0,1.4999999999999998,0.5235987755982988,-0.5235987755982988,0,-1.1556203,-1.4011604,1.226015,-0.10915073,0.0511894,1.157866,-0.25101274,-1.8505529,1.7942556,0.3961081,0.019300021,0.098988846,0.916098,1.202818
-0.1,0.0,1.4999999999999998,0.5235987755982988,-0.5235987755982988,0,-1.154798,-1.3997061,1.2080674,0.0034353072,0.17376277,1.1245878,-0.06880289,-1.8546774,1.7942262,0.39072073,0.0144909,0.13183953,0.8714433,0.86517054
-0.1,0.0,1.4999999999999998,0.5235987755982988,-0.5235987755982988,0,-1.1597006,-1.4002723,1.0785373,-0.05291315,0.05842406,1.0375985,-0.34085375,-1.8532208,1.7935734,0.39086616,0.016317777,0.2596868,0.8799389,1.1647159
-0.1,0.0,1.4999999999999998,0.5235987755982988,-0.5235987755982988,0,-1.1569576,-1.40262,1.2040701,-0.04356449,0.08833299,1.0963882,-0.60358065,-1.8513308,1.7934816,0.40013316,0.043138497,0.19968927,0.91628826,1.2254624
-0.1,0.0,1.4999999999999998,0.5235987755982988,-0.5235987755982988,0,-1.1581348,-1.4040883,1.1864882,0.012733909,0.18626872,1.1932058,-0.085631445,-1.85021,1.7938821,0.3966313,0.033524435,0.15096691,0.9055848,0.70537615
-0.1,0.0,1.4999999999999998,0.5235987755982988,-0.5235987755982988,0,-1.1572727,-1.4049473,1.1074922,-0.02255898,0.2188473,1.0675393,-1.3081807,-1.8529618,1.7940981,0.40365326,0.029770838,0.16645594,0.8292429,1.0542221
-0.1,0.0,1.4999999999999998,0.5235987755982988,-0.5235987755982988,0,-1.1592966,-1.402288,1.2690283,-0.023551036,0.08576709,1.0657072,-1.3292993,-1.8497406,1.7937974,0.39453572,0.016691338,0.16942966,0.918682,1.0351225
