sanky1234/BimanualDexCatch/isaacgymenvs/cem_results/football_pose_-0.2_-0.2_0.6_-0.5235987755982988_0.523598775598299_-0.5235987755982988.csv
x,y,z,roll,pitch,yaw,robot1/joint1,robot1/joint2,robot1/joint3,robot1/joint4,robot1/joint5,robot1/joint6,robot1/joint7,robot2/joint1,robot2/joint2,robot2/joint3,robot2/joint4,robot2/joint5,robot2/joint6,robot2/joint7
-0.2,-0.2,0.6,-0.5235987755982988,0.523598775598299,-0.5235987755982988,1.2676764,1.594005,0.38925883,0.15313596,0.32123625,0.5262807,0.31196514,-0.3738898,1.5457335,-0.26059166,-0.79868305,-0.09849234,1.2189631,1.2529267
-0.2,-0.2,0.6,-0.5235987755982988,0.523598775598299,-0.5235987755982988,1.2459729,1.5914692,0.35742074,0.14707693,0.2932893,0.52046883,0.28000656,-0.3630508,1.5487332,-0.25255856,-0.7638794,-0.1199032,1.1952852,1.0493991
-0.2,-0.2,0.6,-0.5235987755982988,0.523598775598299,-0.5235987755982988,1.2405987,1.58381,0.3742463,0.15383956,0.31905422,0.51392174,0.3166685,-0.3558011,1.5430948,-0.2670106,-0.79792637,-0.11852415,1.214112,1.1829429
-0.2,-0.2,0.6,-0.5235987755982988,0.523598775598299,-0.5235987755982988,1.2319525,1.5963848,0.38853335,0.15308063,0.32331952,0.51012623,0.2748749,-0.3766537,1.5458071,-0.26408744,-0.80766433,-0.10044078,1.2156433,1.0990655
-0.2,-0.2,0.6,-0.5235987755982988,0.523598775598299,-0.5235987755982988,1.2253771,1.5805495,0.37615404,0.15657105,0.3019811,0.49648196,0.30196851,-0.34211612,1.5477351,-0.25264746,-0.7400439,-0.13340369,1.1984886,1.2125517
-0.2,-0.2,0.6,-0.5235987755982988,0.523598775598299,-0.5235987755982988,1.2726347,1.5903285,0.37328643,0.1779399,0.35545266,0.51639104,0.29082355,-0.3535463,1.5482248,-0.26009586,-0.7725934,-0.152534,1.2165985,1.1527157
-0.2,-0.2,0.6,-0.5235987755982988,0.523598775598299,-0.5235987755982988,1.2285469,1.5921577,0.37685603,0.16535997,0.32799336,0.51886564,0.33013803,-0.38062388,1.5450151,-0.26251653,-0.79289347,-0.13396914,1.2157377,1.0779363
-0.2,-0.2,0.6,-0.5235987755982988,0.523598775598299,-0.5235987755982988,1.2365612,1.5943602,0.39092597,0.16942284,0.29372004,0.50967556,0.30150226,-0.38034478,1.5428891,-0.24540448,-0.78408134,-0.113027476,1.2077588,1.1734163
-0.2,-0.2,0.6,-0.5235987755982988,0.523598775598299,-0.5235987755982988,1.26143,1.5870775,0.37135118,0.14633214,0.30266064,0.5192218,0.29986888,-0.3747985,1.5529897,-0.25858194,-0.80210763,-0.13775857,1.203532,1.1862671
-0.2,-0.2,0.6,-0.5235987755982988,0.523598775598299,-0.5235987755982988,1.2666215,1.5899789,0.3676008,0.1568323,0.29759544,0.5211111,0.31708664,-0.35676077,1.5443984,-0.26533344,-0.80650735,-0.14563173,1.2163528,1.0647355
-0.2,-0.2,0.6,-0.5235987755982988,0.523598775598299,-0.5235987755982988,1.2785163,1.5865914,0.36522856,0.16778964,0.32981932,0.51806015,0.31269154,-0.38519123,1.5427847,-0.24803106,-0.8051303,-0.14934108,1.2112309,1.1399717
-0.2,-0.2,0.6,-0.5235987755982988,0.523598775598299,-0.5235987755982988,1.2436194,1.5873764,0.38751927,0.16975904,0.3103528,0.5196408,0.33560878,-0.35794505,1.5398461,-0.2628529,-0.7805211,-0.123005606,1.20155,1.1424922
-0.2,-0.2,0.6,-0.5235987755982988,0.523598775598299,-0.5235987755982988,1.2354449,1.581126,0.37293622,0.15833496,0.29099187,0.50051636,0.31650504,-0.36993954,1.5388825,-0.2534951,-0.7938307,-0.12717381,1.214568,1.1201937
-0.2,-0.2,0.6,-0.5235987755982988,0.523598775598299,-0.5235987755982988,1.2524711,1.5924443,0.40077472,0.16762914,0.30965173,0.49916175,0.30620015,-0.3701363,1.5461528,-0.2756175,-0.7732164,-0.14305662,1.2035009,1.2863141
-0.2,-0.2,0.6,-0.5235987755982988,0.523598775598299,-0.5235987755982988,1.2273847,1.594906,0.36532483,0.1699744,0.34085608,0.5298853,0.25459707,-0.36807653,1.5375552,-0.25703877,-0.7989585,-0.12915713,1.2122763,1.0742998
-0.2,-0.2,0.6,-0.5235987755982988,0.523598775598299,-0.5235987755982988,1.2363623,1.578392,0.3853391,0.17061256,0.29757747,0.5139428,0.29683527,-0.36708647,1.5440106,-0.2621796,-0.789323,-0.1663926,1.2043684,1.0511543
-0.2,-0.2,0.6,-0.5235987755982988,0.523598775598299,-0.5235987755982988,1.2608118,1.5887221,0.38103765,0.16064204,0.32463387,0.5146938,0.27803838,-0.3636118,1.5385891,-0.24896461,-0.7759116,-0.1505598,1.2194494,1.1889024
-0.2,-0.2,0.6,-0.5235987755982988,0.523598775598299,-0.5235987755982988,1.2623756,1.5888429,0.3789708,0.15369147,0.29788995,0.510082,0.29123786,-0.36405247,1.5433111,-0.26639324,-0.7916182,-0.11612891,1.2218705,1.0207728
-0.2,-0.2,0.6,-0.5235987755982988,0.523598775598299,-0.5235987755982988,1.2306664,1.5828646,0.35443127,0.16306384,0.32088554,0.50969815,0.2707551,-0.36848477,1.539664,-0.25976652,-0.79175067,-0.15541124,1.2009251,0.9563796
-0.2,-0.2,0.6,-0.5235987755982988,0.523598775598299,-0.5235987755982988,1.2616452,1.5877413,0.36705077,0.16775034,0.29513726,0.54486996,0.2970215,-0.36446536,1.544838,-0.24453479,-0.77075726,-0.14930984,1.205526,1.0673617
-0.2,-0.2,0.6,-0.5235987755982988,0.523598775598299,-0.5235987755982988,1.244824,1.5961,0.37839323,0.1787853,0.30988172,0.5461335,0.3012021,-0.36520696,1.5504502,-0.2645212,-0.77949846,-0.11434344,1.224754,1.1135818
-0.2,-0.2,0.6,-0.5235987755982988,0.523598775598299,-0.5235987755982988,1.2359023,1.5723122,0.36129746,0.1929562,0.31347698,0.5318854,0.3067904,-0.3583864,1.5491081,-0.27847555,-0.76512665,-0.15055716,1.2181864,1.1820049
-0.2,-0.2,0.6,-0.5235987755982988,0.523598775598299,-0.5235987755982988,1.252795,1.5883684,0.37661052,0.16461991,0.30663985,0.52272934,0.30232093,-0.3745519,1.5484347,-0.25846902,-0.78543544,-0.11766548,1.2235242,0.9893924
-0.2,-0.2,0.6,-0.5235987755982988,0.523598775598299,-0.5235987755982988,1.2306696,1.5813257,0.377578,0.16198942,0.3156888,0.5278032,0.3070774,-0.3732567,1.5511189,-0.2574488,-0.76665145,-0.11735814,1.2078874,1.165621
-0.2,-0.2,0.6,-0.5235987755982988,0.523598775598299,-0.5235987755982988,1.2351567,1.5858387,0.37582144,0.15522164,0.31989545,0.5211165,0.2625106,-0.33819568,1.539365,-0.26256767,-0.76853836,-0.123492286,1.2262315,1.0272257
-0.2,-0.2,0.6,-0.5235987755982988,0.523598775598299,-0.5235987755982988,1.2220644,1.5861825,0.36895156,0.18026517,0.3327633,0.51110333,0.28460014,-0.36470294,1.53934,-0.26597586,-0.781572,-0.12695538,1.219949,1.235912
-0.2,-0.2,0.6,-0.5235987755982988,0.523598775598299,-0.5235987755982988,1.2473595,1.5784097,0.38094023,0.16642371,0.3287896,0.5148404,0.30987918,-0.38262463,1.5331787,-0.26052314,-0.8107634,-0.099788114,1.2070026,1.2018173
-0.2,-0.2,0.6,-0.5235987755982988,0.523598775598299,-0.5235987755982988,1.2529703,1.5880196,0.38988048,0.15863973,0.28040546,0.5226973,0.29760152,-0.3796849,1.5448241,-0.26812786,-0.76511985,-0.13995098,1.2038451,1.0289049
-0.2,-0.2,0.6,-0.5235987755982988,0.523598775598299,-0.5235987755982988,1.2633845,1.5674778,0.37640312,0.15281922,0.3217404,0.5306518,0.33014104,-0.37174457,1.542334,-0.26727098,-0.77612036,-0.16669959,1.2073303,1.1462514
-0.2,-0.2,0.6,-0.5235987755982988,0.523598775598299,-0.5235987755982988,1.2490553,1.5985779,0.37310803,0.16722782,0.29399428,0.51552284,0.29936627,-0.3625294,1.5414497,-0.27016577,-0.7672944,-0.13251698,1.2165068,0.8934619
-0.2,-0.2,0.6,-0.5235987755982988,0.523598775598299,-0.5235987755982988,1.2637395,1.6039892,0.38101014,0.14997347,0.3139877,0.5426431,0.2723085,-0.36167386,1.5396898,-0.26570582,-0.7923796,-0.1210259,1.2013032,1.1456143
-0.2,-0.2,0.6,-0.5235987755982988,0.523598775598299,-0.5235987755982988,1.2390941,1.5817035,0.37207058,0.17621306,0.34166634,0.5161067,0.2779347,-0.3813797,1.5367123,-0.25472978,-0.7837158,-0.13100334,1.2143142,1.1627535
-0.2,-0.2,0.6,-0.5235987755982988,0.523598775598299,-0.5235987755982988,1.2569621,1.5951494,0.3652887,0.16457418,0.30791593,0.514975,0.26647663,-0.3870191,1.5418143,-0.2598924,-0.7988016,-0.13458967,1.2260003,0.99639994
-0.2,-0.2,0.6,-0.5235987755982988,0.523598775598299,-0.5235987755982988,1.2289444,1.6001174,0.38281083,0.17174071,0.31564668,0.5281039,0.3216008,-0.37187696,1.5388705,-0.27756825,-0.7950817,-0.109001935,1.2124927,1.144592
-0.2,-0.2,0.6,-0.5235987755982988,0.523598775598299,-0.5235987755982988,1.2589853,1.5818267,0.38331997,0.16971163,0.3084725,0.51122594,0.31583917,-0.3585251,1.5380275,-0.25096318,-0.782721,-0.14759931,1.2130059,1.1269435
-0.2,-0.2,0.6,-0.5235987755982988,0.523598775598299,-0.5235987755982988,1.2203273,1.5946381,0.37671146,0.17732504,0.34067026,0.5175889,0.32320675,-0.3914332,1.5331618,-0.26015916,-0.7842737,-0.12618239,1.2013822,1.0053461
-0.2,-0.2,0.6,-0.5235987755982988,0.523598775598299,-0.5235987755982988,1.2638801,1.5810287,0.36534154,0.17995755,0.3185881,0.5221233,0.30626604,-0.38752317,1.540063,-0.2523929,-0.7812816,-0.16612706,1.2112108,1.1143045
-0.2,-0.2,0.6,-0.5235987755982988,0.523598775598299,-0.5235987755982988,1.2410582,1.5781348,0.3801609,0.170803,0.29574344,0.5486583,0.27770683,-0.36294952,1.5375657,-0.25340322,-0.7729873,-0.16645026,1.1905228,1.1354781
-0.2,-0.2,0.6,-0.5235987755982988,0.523598775598299,-0.5235987755982988,1.2291911,1.5773182,0.36769634,0.16499268,0.32496142,0.50975144,0.24413334,-0.356674,1.5480416,-0.2623987,-0.79800534,-0.10506956,1.2149254,1.2229975
-0.2,-0.2,0.6,-0.5235987755982988,0.523598775598299,-0.5235987755982988,1.2461221,1.5836236,0.3714084,0.15777232,0.33286166,0.5123637,0.35409576,-0.3775213,1.5331656,-0.25959003,-0.80283594,-0.17063633,1.1988267,1.0740062
-0.2,-0.2,0.6,-0.5235987755982988,0.523598775598299,-0.5235987755982988,1.2298623,1.5812925,0.36335227,0.14993697,0.32012668,0.52006084,0.31415534,-0.36149833,1.537213,-0.25599554,-0.77627504,-0.13518082,1.2215855,1.2299523
-0.2,-0.2,0.6,-0.5235987755982988,0.523598775598299,-0.5235987755982988,1.3018593,1.5911762,0.36641437,0.17045633,0.3028063,0.5054291,0.30729985,-0.37919912,1.5434926,-0.27139726,-0.77274454,-0.16588047,1.2034436,0.9124237
-0.2,-0.2,0.6,-0.5235987755982988,0.523598775598299,-0.5235987755982988,1.2656145,1.6006215,0.38981918,0.16226411,0.3293477,0.5141962,0.33706567,-0.36951372,1.5434937,-0.2656875,-0.77207553,-0.12527868,1.2292793,0.9585649
-0.2,-0.2,0.6,-0.5235987755982988,0.523598775598299,-0.5235987755982988,1.2324576,1.58641,0.38971502,0.16588444,0.32852465,0.5455036,0.28328073,-0.35923854,1.5416408,-0.26236305,-0.7844795,-0.103293866,1.2202171,1.2479119
-0.2,-0.2,0.6,-0.5235987755982988,0.523598775598299,-0.5235987755982988,1.249916,1.5917859,0.38235775,0.16163751,0.3383512,0.53393865,0.27166528,-0.362855,1.5384426,-0.24061863,-0.78343165,-0.117013745,1.2241595,1.0418214
-0.2,-0.2,0.6,-0.5235987755982988,0.523598775598299,-0.5235987755982988,1.2496287,1.5806206,0.36032152,0.1487115,0.2902855,0.5246246,0.30432755,-0.3487227,1.5440817,-0.25125173,-0.7930923,-0.13067323,1.2047946,1.090192
-0.2,-0.2,0.6,-0.5235987755982988,0.523598775598299,-0.5235987755982988,1.2514526,1.5884918,0.3934598,0.17568249,0.28249228,0.5268007,0.28516328,-0.3644445,1.544679,-0.25958955,-0.7875444,-0.15545216,1.2009401,1.2175518
-0.2,-0.2,0.6,-0.5235987755982988,0.523598775598299,-0.5235987755982988,1.2676052,1.5769812,0.36529136,0.17294961,0.3305297,0.53122467,0.3026054,-0.37120348,1.5437758,-0.24946408,-0.77227175,-0.15525499,1.2069951,1.022897
-0.2,-0.2,0.6,-0.5235987755982988,0.523598775598299,-0.5235987755982988,1.2544959,1.5891012,0.3740355,0.16373065,0.29344505,0.52382135,0.28585923,-0.35631484,1.5374818,-0.26258698,-0.7863394,-0.12452863,1.2204361,1.2438011
-0.2,-0.2,0.6,-0.5235987755982988,0.523598775598299,-0.5235987755982988,1.2498729,1.58649,0.37449387,0.1642061,0.3020274,0.53323305,0.2577491,-0.36771566,1.5409099,-0.2822412,-0.77652115,-0.16569313,1.2100259,0.9929427
-0.2,-0.2,0.6,-0.5235987755982988,0.523598775598299,-0.5235987755982988,1.2257757,1.5670553,0.37188217,0.15288335,0.28576297,0.49122575,0.30386564,-0.36465263,1.5487324,-0.25021613,-0.7898125,-0.14314967,1.2009461,0.9559463
-0.2,-0.2,0.6,-0.5235987755982988,0.523598775598299,-0.5235987755982988,1.2389898,1.5771742,0.35934377,0.15934116,0.31602082,0.5260065,0.35428354,-0.3497263,1.5441284,-0.2587827,-0.7920543,-0.09273462,1.2062552,1.212036
-0.2,-0.2,0.6,-0.5235987755982988,0.523598775598299,-0.5235987755982988,1.2583051,1.5847347,0.3727963,0.17035265,0.30238935,0.5232298,0.33999607,-0.36891764,1.5489128,-0.2438438,-0.742435,-0.13174188,1.2129663,1.1514404
-0.2,-0.2,0.6,-0.5235987755982988,0.523598775598299,-0.5235987755982988,1.2332532,1.6019877,0.3660449,0.17337555,0.3049667,0.51326793,0.26700398,-0.36298478,1.5407737,-0.2602939,-0.79984057,-0.13625646,1.1963336,1.0570236
-0.2,-0.2,0.6,-0.5235987755982988,0.523598775598299,-0.5235987755982988,1.2433407,1.5782251,0.38006335,0.17601277,0.33553553,0.50827986,0.31644094,-0.36788535,1.54069,-0.2649732,-0.7727542,-0.1486431,1.2123505,1.110287
-0.2,-0.2,0.6,-0.5235987755982988,0.523598775598299,-0.5235987755982988,1.248825,1.5903811,0.39478305,0.15690431,0.29196072,0.5209489,0.30724317,-0.3638709,1.5448414,-0.2596234,-0.80396026,-0.13880916,1.2114418,0.99836355
-0.2,-0.2,0.6,-0.5235987755982988,0.523598775598299,-0.5235987755982988,1.2337606,1.5827298,0.385648,0.16223107,0.3219156,0.5230429,0.27879432,-0.3607414,1.541314,-0.2665321,-0.8138696,-0.113934346,1.2119807,1.109025
-0.2,-0.2,0.6,-0.5235987755982988,0.523598775598299,-0.5235987755982988,1.2696304,1.5775824,0.37230387,0.15909995,0.29084134,0.514626,0.28483677,-0.37480846,1.5351886,-0.26890513,-0.80984974,-0.15091819,1.2207083,1.099475
-0.2,-0.2,0.6,-0.5235987755982988,0.523598775598299,-0.5235987755982988,1.2519093,1.5883491,0.36271083,0.15762292,0.308214,0.5234774,0.31500107,-0.36785638,1.5425209,-0.24191277,-0.79999274,-0.11802017,1.2203878,1.011038
-0.2,-0.2,0.6,-0.5235987755982988,0.523598775598299,-0.5235987755982988,1.2623308,1.5826948,0.37930888,0.1658075,0.32841462,0.5238709,0.31943235,-0.34029442,1.5422072,-0.25748494,-0.7597936,-0.16410206,1.2184696,0.93676496
-0.2,-0.2,0.6,-0.5235987755982988,0.523598775598299,-0.5235987755982988,1.2296553,1.5839816,0.3765441,0.16825064,0.31728727,0.5187611,0.30798,-0.3907373,1.5385041,-0.2526153,-0.8012032,-0.17101574,1.2099726,1.1293703
-0.2,-0.2,0.6,-0.5235987755982988,0.523598775598299,-0.5235987755982988,1.2586274,1.5836836,0.3886505,0.16011615,0.32107383,0.48980322,0.29967424,-0.37636912,1.5467596,-0.2695841,-0.78549635,-0.13243257,1.2119298,1.0462606
-0.2,-0.2,0.6,-0.5235987755982988,0.523598775598299,-0.5235987755982988,1.2552767,1.5775882,0.37485465,0.16201642,0.33807173,0.5264734,0.3383271,-0.3653495,1.5351946,-0.25877792,-0.78578305,-0.15597562,1.2107211,1.2422779
-0.2,-0.2,0.6,-0.5235987755982988,0.523598775598299,-0.5235987755982988,1.2611287,1.6071491,0.38873836,0.15094453,0.32687554,0.5125765,0.3248229,-0.35762212,1.5411355,-0.27284232,-0.77295893,-0.121783875,1.2113196,1.0796237
-0.2,-0.2,0.6,-0.5235987755982988,0.523598775598299,-0.5235987755982988,1.224385,1.5969509,0.37070653,0.15988371,0.28881472,0.5111342,0.32862073,-0.35993484,1.537648,-0.2366966,-0.7727908,-0.087175645,1.2079542,0.9772386
-0.2,-0.2,0.6,-0.5235987755982988,0.523598775598299,-0.5235987755982988,1.2410613,1.6015924,0.36808586,0.17292994,0.29727477,0.52523875,0.28577462,-0.38538358,1.541201,-0.26737046,-0.80293626,-0.14703435,1.2043561,1.0652394
-0.2,-0.2,0.6,-0.5235987755982988,0.523598775598299,-0.5235987755982988,1.2334852,1.5948225,0.38528872,0.15543495,0.33888316,0.54466754,0.31743798,-0.36964405,1.5434644,-0.27261502,-0.7887371,-0.12207454,1.2240336,1.124737
-0.2,-0.2,0.6,-0.5235987755982988,0.523598775598299,-0.5235987755982988,1.251518,1.5879414,0.36698556,0.1483488,0.3306322,0.50964224,0.26732987,-0.35484505,1.5333623,-0.25463536,-0.8100047,-0.14531988,1.2193878,1.0032347
-0.2,-0.2,0.6,-0.5235987755982988,0.523598775598299,-0.5235987755982988,1.2614111,1.5912508,0.36547223,0.14349887,0.32430738,0.51349324,0.26484048,-0.3667177,1.5434661,-0.26034346,-0.8063372,-0.1325024,1.2104127,1.0506406
-0.2,-0.2,0.6,-0.5235987755982988,0.523598775598299,-0.5235987755982988,1.2371476,1.5959215,0.36735627,0.14287676,0.32988197,0.5254389,0.26500836,-0.37503636,1.5380495,-0.26585197,-0.7771765,-0.11648255,1.1998194,1.0616142
-0.2,-0.2,0.6,-0.5235987755982988,0.523598775598299,-0.5235987755982988,1.2385085,1.5856632,0.37404585,0.17722374,0.3282608,0.48807105,0.3123574,-0.38470337,1.5443872,-0.2603679,-0.81035894,-0.16986178,1.2176465,1.0796913
-0.2,-0.2,0.6,-0.5235987755982988,0.523598775598299,-0.5235987755982988,1.2273126,1.5742815,0.3814238,0.16242357,0.32784247,0.53129166,0.30144504,-0.37445095,1.5452192,-0.27906856,-0.79234296,-0.11052142,1.1870357,1.0326942
-0.2,-0.2,0.6,-0.5235987755982988,0.523598775598299,-0.5235987755982988,1.2562435,1.5789146,0.37991023,0.16622785,0.29661897,0.5250102,0.2666655,-0.38221768,1.5492986,-0.24193357,-0.78834534,-0.15676345,1.2142315,1.0751926
-0.2,-0.2,0.6,-0.5235987755982988,0.523598775598299,-0.5235987755982988,1.2273185,1.6036958,0.37917018,0.15913482,0.33661744,0.5065426,0.3074145,-0.3656428,1.5504085,-0.25665766,-0.80290395,-0.10227357,1.201902,1.191032
-0.2,-0.2,0.6,-0.5235987755982988,0.523598775598299,-0.5235987755982988,1.253563,1.5782844,0.37946332,0.16920763,0.32327873,0.51487094,0.2714509,-0.36186922,1.5430087,-0.26781452,-0.79663795,-0.13085,1.2045557,1.184959
-0.2,-0.2,0.6,-0.5235987755982988,0.523598775598299,-0.5235987755982988,1.1997596,1.585941,0.35930037,0.16098365,0.2722353,0.4975333,0.3340081,-0.38055998,1.5342411,-0.25018477,-0.78909874,-0.12135993,1.2032596,1.0334191
-0.2,-0.2,0.6,-0.5235987755982988,0.523598775598299,-0.5235987755982988,1.2685825,1.5850241,0.3732168,0.15941305,0.3091458,0.5151611,0.297475,-0.36764258,1.5438912,-0.25426513,-0.77854806,-0.15279622,1.2058282,0.9307242
-0.2,-0.2,0.6,-0.5235987755982988,0.523598775598299,-0.5235987755982988,1.2409581,1.588952,0.37080947,0.17741714,0.28223425,0.521062,0.2643093,-0.3510328,1.5309612,-0.27272114,-0.79858077,-0.11850392,1.2120268,1.2087187
-0.2,-0.2,0.6,-0.5235987755982988,0.523598775598299,-0.5235987755982988,1.268538,1.5911206,0.3855858,0.16003366,0.29745615,0.5120316,0.30271298,-0.3825649,1.539303,-0.26504534,-0.80854535,-0.14040202,1.2072756,1.1773571
-0.2,-0.2,0.6,-0.5235987755982988,0.523598775598299,-0.5235987755982988,1.2309934,1.5890833,0.3717994,0.1480625,0.28287658,0.5392097,0.32641345,-0.35673437,1.5419298,-0.25013825,-0.796506,-0.1240085,1.2045305,1.0771593
-0.2,-0.2,0.6,-0.5235987755982988,0.523598775598299,-0.5235987755982988,1.248879,1.5864297,0.37717897,0.16560327,0.29622507,0.52649033,0.2786709,-0.34791833,1.5407522,-0.2690009,-0.7915793,-0.13658443,1.2109029,1.1382577
-0.2,-0.2,0.6,-0.5235987755982988,0.523598775598299,-0.5235987755982988,1.2459304,1.5881245,0.37117213,0.15523395,0.31564295,0.5186149,0.2948586,-0.37231624,1.5396061,-0.24991384,-0.7860435,-0.14938961,1.2234154,1.1747525
-0.2,-0.2,0.6,-0.5235987755982988,0.523598775598299,-0.5235987755982988,1.2404561,1.5929412,0.37938693,0.15658948,0.29595688,0.52963823,0.26367402,-0.35863033,1.5402082,-0.23797755,-0.78080535,-0.15055226,1.2193738,1.2765883
-0.2,-0.2,0.6,-0.5235987755982988,0.523598775598299,-0.5235987755982988,1.2269224,1.5824991,0.391897,0.1604489,0.34425813,0.5186206,0.29207683,-0.36821124,1.5427588,-0.2621124,-0.77713734,-0.14487258,1.2131523,1.0911884
-0.2,-0.2,0.6,-0.5235987755982988,0.523598775598299,-0.5235987755982988,1.2212663,1.5930748,0.3786972,0.16872306,0.32031018,0.5273771,0.30400652,-0.36356756,1.5444292,-0.2634404,-0.7598073,-0.11844166,1.2140352,0.9711137
-0.2,-0.2,0.6,-0.5235987755982988,0.523598775598299,-0.5235987755982988,1.2596908,1.5834962,0.37081173,0.1543594,0.30481634,0.52075,0.3111971,-0.34634787,1.5519294,-0.2558261,-0.81622595,-0.14941435,1.2140073,1.160832
-0.2,-0.2,0.6,-0.5235987755982988,0.523598775598299,-0.5235987755982988,1.2258234,1.5877954,0.3885472,0.169098,0.31669113,0.52798223,0.2649391,-0.37243587,1.5441015,-0.25210732,-0.7956795,-0.14371262,1.2259208,0.9747021
-0.2,-0.2,0.6,-0.5235987755982988,0.523598775598299,-0.5235987755982988,1.2460684,1.5790416,0.38069424,0.19241963,0.30909157,0.51115406,0.3152444,-0.3624346,1.5467314,-0.2640031,-0.7761571,-0.13913697,1.2152736,1.094292
-0.2,-0.2,0.6,-0.5235987755982988,0.523598775598299,-0.5235987755982988,1.2463078,1.5933603,0.3838845,0.16003117,0.31172705,0.53559655,0.30784658,-0.396194,1.5282859,-0.2676037,-0.80583334,-0.13763474,1.212569,1.0128009
-0.2,-0.2,0.6,-0.5235987755982988,0.523598775598299,-0.5235987755982988,1.2401556,1.5883421,0.37323004,0.16787107,0.31824237,0.5126294,0.36124167,-0.3692451,1.5450257,-0.25882378,-0.7975892,-0.1394729,1.2086662,1.0530843
-0.2,-0.2,0.6,-0.5235987755982988,0.523598775598299,-0.5235987755982988,1.24488,1.5868859,0.37618273,0.16107544,0.30530325,0.5336419,0.29296306,-0.3757923,1.5321016,-0.2357853,-0.8038201,-0.11855106,1.2280667,0.88461274
-0.2,-0.2,0.6,-0.5235987755982988,0.523598775598299,-0.5235987755982988,1.2434018,1.583633,0.37891573,0.18661512,0.29601753,0.51021665,0.3383006,-0.37313467,1.5447129,-0.27030376,-0.7703152,-0.182336,1.2133713,1.1146649
-0.2,-0.2,0.6,-0.5235987755982988,0.523598775598299,-0.5235987755982988,1.2463022,1.5770186,0.37977484,0.16177224,0.3253385,0.5315594,0.3171885,-0.35289854,1.543186,-0.24823637,-0.7897486,-0.1032332,1.2178578,1.1696495
-0.2,-0.2,0.6,-0.5235987755982988,0.523598775598299,-0.5235987755982988,1.2698723,1.584472,0.38028434,0.14205566,0.29279214,0.54369164,0.32286716,-0.36641583,1.5310072,-0.25531444,-0.80356216,-0.13350834,1.2001195,1.1040652
-0.2,-0.2,0.6,-0.5235987755982988,0.523598775598299,-0.5235987755982988,1.2372972,1.5801669,0.38710123,0.15539947,0.3380479,0.5195933,0.26642305,-0.37263826,1.5365559,-0.25496134,-0.7917471,-0.13401242,1.2023629,1.0613776
-0.2,-0.2,0.6,-0.5235987755982988,0.523598775598299,-0.5235987755982988,1.2427331,1.5920453,0.3811807,0.16281559,0.3270705,0.53890705,0.27977353,-0.37087741,1.5447538,-0.25711575,-0.79692173,-0.17536904,1.2133904,1.1600877
-0.2,-0.2,0.6,-0.5235987755982988,0.523598775598299,-0.5235987755982988,1.2637867,1.587378,0.36158317,0.17252071,0.3177718,0.5060443,0.29565087,-0.37049934,1.5438508,-0.2558401,-0.7972044,-0.11928999,1.2157909,1.1146796
-0.2,-0.2,0.6,-0.5235987755982988,0.523598775598299,-0.5235987755982988,1.2640872,1.5862058,0.3669492,0.16123277,0.32589304,0.53693444,0.27687195,-0.38070807,1.5536557,-0.25572985,-0.7959126,-0.081553414,1.2184682,1.0075479
-0.2,-0.2,0.6,-0.5235987755982988,0.523598775598299,-0.5235987755982988,1.236907,1.590805,0.38221517,0.18693201,0.3001757,0.51334196,0.32180616,-0.37553594,1.5419288,-0.24362157,-0.78798395,-0.09490976,1.2319722,1.2635868
-0.2,-0.2,0.6,-0.5235987755982988,0.523598775598299,-0.5235987755982988,1.2477348,1.5783798,0.3887583,0.1650508,0.31419432,0.5058055,0.2727939,-0.35952255,1.546451,-0.25940335,-0.7977846,-0.1590928,1.2249119,1.345154
-0.2,-0.2,0.6,-0.5235987755982988,0.523598775598299,-0.5235987755982988,1.2266183,1.5826544,0.3792889,0.14905259,0.30482942,0.5219379,0.28175125,-0.3704826,1.5399355,-0.26349902,-0.8007756,-0.15532205,1.225854,1.2962971
-0.2,-0.2,0.6,-0.5235987755982988,0.523598775598299,-0.5235987755982988,1.2267007,1.5844615,0.36097983,0.18126558,0.3121268,0.4989688,0.3016381,-0.3768023,1.5429113,-0.2566494,-0.78117174,-0.11212618,1.2102218,1.2081255
-0.2,-0.2,0.6,-0.5235987755982988,0.523598775598299,-0.5235987755982988,1.2713735,1.589444,0.3777861,0.1681075,0.27622008,0.5335195,0.32670045,-0.36643222,1.5488063,-0.27649897,-0.78057754,-0.17649353,1.2060522,1.0488868
-0.2,-0.2,0.6,-0.5235987755982988,0.523598775598299,-0.5235987755982988,1.2341096,1.573608,0.38575408,0.15154658,0.31946248,0.5094916,0.24971351,-0.372678,1.5481025,-0.25868323,-0.77239555,-0.11684285,1.1581038,1.129829
-0.2,-0.2,0.6,-0.5235987755982988,0.523598775598299,-0.5235987755982988,1.2315067,1.5883145,0.38851172,0.16401067,0.2758344,0.50672287,0.3102308,-0.35872552,1.5399902,-0.24645253,-0.81082374,-0.1530885,1.2182076,1.0114766
-0.2,-0.2,0.6,-0.5235987755982988,0.523598775598299,-0.5235987755982988,1.2320557,1.5943817,0.38359222,0.14751461,0.33414888,0.5063361,0.2827887,-0.38129,1.5382512,-0.26204133,-0.7640467,-0.1307577,1.1976233,1.1761746
-0.2,-0.2,0.6,-0.5235987755982988,0.523598775598299,-0.5235987755982988,1.249948,1.5718614,0.36991042,0.16052504,0.2654777,0.5130561,0.29740736,-0.36249402,1.5466406,-0.26282302,-0.78575265,-0.10626925,1.2096016,1.2702316
-0.2,-0.2,0.6,-0.5235987755982988,0.523598775598299,-0.5235987755982988,1.2509665,1.5995423,0.37250933,0.1615746,0.32465607,0.52701986,0.2866883,-0.36072797,1.5461448,-0.2581235,-0.79063994,-0.13314193,1.2141514,1.1725863
-0.2,-0.2,0.6,-0.5235987755982988,0.523598775598299,-0.5235987755982988,1.2411059,1.5782955,0.3753713,0.16218773,0.31064516,0.4818316,0.30283448,-0.37693435,1.5392725,-0.24827804,-0.7770919,-0.16951524,1.2099428,1.2189417
-0.2,-0.2,0.6,-0.5235987755982988,0.523598775598299,-0.5235987755982988,1.221277,1.5862906,0.37755358,0.15060346,0.2966559,0.5119365,0.31628406,-0.37170187,1.5410216,-0.2597008,-0.8175506,-0.087791055,1.2114938,1.0450795
-0.2,-0.2,0.6,-0.5235987755982988,0.523598775598299,-0.5235987755982988,1.2414075,1.5856757,0.38188514,0.16009878,0.3046574,0.5034062,0.30376962,-0.3625456,1.549379,-0.24615936,-0.79405916,-0.17428918,1.2142456,1.2293961
-0.2,-0.2,0.6,-0.5235987755982988,0.523598775598299,-0.5235987755982988,1.2310004,1.5881293,0.37048668,0.16585228,0.3244218,0.51076394,0.3001264,-0.36246994,1.5392333,-0.25512248,-0.81473213,-0.12596753,1.2119883,1.165845
-0.2,-0.2,0.6,-0.5235987755982988,0.523598775598299,-0.5235987755982988,1.2441622,1.5946001,0.37293878,0.17978044,0.31403655,0.5230169,0.26839054,-0.36725324,1.5401022,-0.25558284,-0.8033502,-0.15877825,1.2174348,1.2512748
-0.2,-0.2,0.6,-0.5235987755982988,0.523598775598299,-0.5235987755982988,1.2382812,1.5777159,0.37324807,0.17252928,0.31275302,0.52277577,0.3021713,-0.3581101,1.5422492,-0.26080292,-0.79500824,-0.12698393,1.2138302,1.1303512
-0.2,-0.2,0.6,-0.5235987755982988,0.523598775598299,-0.5235987755982988,1.2431521,1.5908579,0.3674029,0.14735393,0.32235697,0.5082996,0.30226222,-0.3709384,1.5424889,-0.24920258,-0.82058954,-0.15497619,1.2078468,0.98666465
-0.2,-0.2,0.6,-0.5235987755982988,0.523598775598299,-0.5235987755982988,1.2235143,1.5771652,0.38456044,0.17451057,0.32145515,0.5268958,0.2769072,-0.35536504,1.5300109,-0.2661377,-0.7695843,-0.17596091,1.2061168,1.0539659
-0.2,-0.2,0.6,-0.5235987755982988,0.523598775598299,-0.5235987755982988,1.2519661,1.5831636,0.37182668,0.17218101,0.28798312,0.5488457,0.29831067,-0.3740897,1.541767,-0.23879912,-0.7954618,-0.13405223,1.2215743,1.1782389
-0.2,-0.2,0.6,-0.5235987755982988,0.523598775598299,-0.5235987755982988,1.2366173,1.5907522,0.3804056,0.16442555,0.34403756,0.5318721,0.27094507,-0.3723589,1.5458183,-0.26033753,-0.79812646,-0.13982405,1.2383488,1.2098123
-0.2,-0.2,0.6,-0.5235987755982988,0.523598775598299,-0.5235987755982988,1.2458855,1.5919367,0.39704975,0.14176138,0.34442946,0.5092744,0.2970154,-0.37319756,1.5484118,-0.25332785,-0.7999263,-0.14078373,1.2085499,1.1607879
-0.2,-0.2,0.6,-0.5235987755982988,0.523598775598299,-0.5235987755982988,1.2569366,1.5956026,0.35952508,0.16495807,0.33453566,0.51822406,0.28009662,-0.36665112,1.5345551,-0.24651311,-0.79681957,-0.11763302,1.2180058,1.1689535
-0.2,-0.2,0.6,-0.5235987755982988,0.523598775598299,-0.5235987755982988,1.2616711,1.5840874,0.38198236,0.15226263,0.26863635,0.5210533,0.3010715,-0.3682624,1.5517476,-0.2661187,-0.7797866,-0.13757397,1.2032986,1.1442773
-0.2,-0.2,0.6,-0.5235987755982988,0.523598775598299,-0.5235987755982988,1.2437495,1.589766,0.3563811,0.15696548,0.32850716,0.5239862,0.2905272,-0.36778262,1.5489935,-0.25532854,-0.7769603,-0.08606338,1.2062055,1.1550792
-0.2,-0.2,0.6,-0.5235987755982988,0.523598775598299,-0.5235987755982988,1.2539564,1.5713832,0.39173275,0.1762695,0.30286494,0.52966523,0.28348383,-0.3570265,1.5348979,-0.2623113,-0.76233864,-0.1308887,1.2143177,1.0021502
-0.2,-0.2,0.6,-0.5235987755982988,0.523598775598299,-0.5235987755982988,1.2366259,1.5963917,0.35470447,0.17612465,0.31111938,0.52104396,0.26624238,-0.3726825,1.5375017,-0.25454617,-0.7968221,-0.12583664,1.2234102,1.034927
-0.2,-0.2,0.6,-0.5235987755982988,0.523598775598299,-0.5235987755982988,1.2433804,1.5942564,0.36342445,0.1726705,0.2844099,0.5165315,0.2928022,-0.37519902,1.5352907,-0.26447532,-0.774408,-0.14644617,1.2099973,1.0250943
-0.2,-0.2,0.6,-0.5235987755982988,0.523598775598299,-0.5235987755982988,1.2271072,1.5779719,0.35562897,0.16654067,0.30178422,0.51783323,0.31082097,-0.36362496,1.5414683,-0.26425916,-0.8009731,-0.134724,1.2031573,1.0121771
-0.2,-0.2,0.6,-0.5235987755982988,0.523598775598299,-0.5235987755982988,1.2553754,1.5916874,0.37534344,0.135856,0.35047776,0.51457703,0.31545517,-0.37174556,1.5447736,-0.2464018,-0.7763086,-0.15602992,1.2127802,0.8251646
-0.2,-0.2,0.6,-0.5235987755982988,0.523598775598299,-0.5235987755982988,1.2417635,1.5766547,0.38399643,0.15949522,0.30758083,0.5278716,0.2756243,-0.36959347,1.5439162,-0.2559974,-0.79345506,-0.14074968,1.2158884,1.0577989
-0.2,-0.2,0.6,-0.5235987755982988,0.523598775598299,-0.5235987755982988,1.232894,1.5756627,0.3740684,0.18324068,0.33359617,0.5154186,0.26156744,-0.37091509,1.5383959,-0.24810082,-0.8042825,-0.15951373,1.2146808,1.1651691
-0.2,-0.2,0.6,-0.5235987755982988,0.523598775598299,-0.5235987755982988,1.2533586,1.5721112,0.36983114,0.17297159,0.30117935,0.52418244,0.27132592,-0.38119793,1.5342183,-0.27213365,-0.78663373,-0.14566971,1.2046008,1.1646353
-0.2,-0.2,0.6,-0.5235987755982988,0.523598775598299,-0.5235987755982988,1.2444379,1.5923166,0.37617716,0.1536219,0.32986268,0.51418823,0.2999518,-0.35161728,1.5449579,-0.2689701,-0.7623371,-0.12501398,1.1983793,1.1554328
-0.2,-0.2,0.6,-0.5235987755982988,0.523598775598299,-0.5235987755982988,1.239956,1.5889465,0.3772307,0.16679673,0.29094064,0.52771044,0.28102854,-0.37168258,1.5293674,-0.26414147,-0.79500026,-0.11509235,1.2108592,0.98119783
-0.2,-0.2,0.6,-0.5235987755982988,0.523598775598299,-0.5235987755982988,1.2581065,1.58114,0.38259822,0.16462658,0.28436288,0.5290715,0.2776566,-0.37808514,1.5419742,-0.26066417,-0.7995985,-0.1387394,1.2047952,1.0983061
-0.2,-0.2,0.6,-0.5235987755982988,0.523598775598299,-0.5235987755982988,1.2528493,1.5757004,0.38757184,0.16953968,0.2913784,0.5195461,0.25649372,-0.35009718,1.5451692,-0.2615195,-0.7741797,-0.13668345,1.2189023,1.1844379
-0.2,-0.2,0.6,-0.5235987755982988,0.523598775598299,-0.5235987755982988,1.2467321,1.5865755,0.3621903,0.16225113,0.30351153,0.5446233,0.31900513,-0.3585876,1.5376678,-0.26799965,-0.789513,-0.09591241,1.2072352,0.9737411
-0.2,-0.2,0.6,-0.5235987755982988,0.523598775598299,-0.5235987755982988,1.22394,1.5963577,0.37640494,0.13997485,0.2951234,0.5208826,0.28889737,-0.35325128,1.5447675,-0.26115677,-0.7804051,-0.10770748,1.2047296,1.1678923
-0.2,-0.2,0.6,-0.5235987755982988,0.523598775598299,-0.5235987755982988,1.2473392,1.5975664,0.37676787,0.17187983,0.33345363,0.5236808,0.2860697,-0.36652097,1.5352385,-0.25738782,-0.78083843,-0.15329245,1.2134664,1.1464003
-0.2,-0.2,0.6,-0.5235987755982988,0.523598775598299,-0.5235987755982988,1.2433634,1.5787864,0.36226827,0.16111894,0.29479223,0.5310617,0.3113582,-0.3573304,1.5351423,-0.25046965,-0.7532231,-0.13255961,1.2154108,1.2081723
-0.2,-0.2,0.6,-0.5235987755982988,0.523598775598299,-0.5235987755982988,1.2378906,1.595749,0.36358964,0.14864823,0.3341003,0.53981984,0.33047864,-0.36496705,1.545385,-0.25788578,-0.7929041,-0.11887748,1.2325776,1.1264161
-0.2,-0.2,0.6,-0.5235987755982988,0.523598775598299,-0.5235987755982988,1.2574496,1.5822685,0.38507056,0.1701798,0.31271172,0.52122426,0.2669422,-0.37234646,1.5463996,-0.24856296,-0.80828524,-0.16908911,1.2272271,1.1853782
-0.2,-0.2,0.6,-0.5235987755982988,0.523598775598299,-0.5235987755982988,1.2753614,1.5794891,0.35565233,0.17829767,0.2778683,0.52974725,0.3073824,-0.36050785,1.5478783,-0.26761016,-0.7850142,-0.18313135,1.2156336,1.1163598
-0.2,-0.2,0.6,-0.5235987755982988,0.523598775598299,-0.5235987755982988,1.2471092,1.5812695,0.3635907,0.1587478,0.3380224,0.53468215,0.30217466,-0.33839345,1.5437951,-0.2638396,-0.7707914,-0.12345249,1.205614,1.1909001
-0.2,-0.2,0.6,-0.5235987755982988,0.523598775598299,-0.5235987755982988,1.2552801,1.5994966,0.37964168,0.18163384,0.29589823,0.49982226,0.2784966,-0.37347844,1.5423249,-0.26877344,-0.7793121,-0.12792116,1.2070037,0.9703036
-0.2,-0.2,0.6,-0.5235987755982988,0.523598775598299,-0.5235987755982988,1.2255355,1.581149,0.36379892,0.15202512,0.3060864,0.5378423,0.30156094,-0.36122173,1.5449849,-0.2702002,-0.81381404,-0.11727812,1.2102058,1.0257101
-0.2,-0.2,0.6,-0.5235987755982988,0.523598775598299,-0.5235987755982988,1.2446314,1.5918272,0.38585916,0.13601539,0.32876888,0.5373041,0.24464197,-0.3567308,1.5447223,-0.26558563,-0.80074,-0.093378276,1.2178725,0.88871115
-0.2,-0.2,0.6,-0.5235987755982988,0.523598775598299,-0.5235987755982988,1.2468941,1.5739685,0.37609905,0.17681755,0.32784286,0.52806604,0.28713098,-0.37478748,1.5403948,-0.25758132,-0.7818049,-0.16430414,1.2161392,1.1896924
-0.2,-0.2,0.6,-0.5235987755982988,0.523598775598299,-0.5235987755982988,1.2495544,1.5870966,0.37673056,0.17303212,0.27823192,0.49327075,0.27593723,-0.35998875,1.5391244,-0.2642099,-0.7925739,-0.13344997,1.2179246,1.0747448
-0.2,-0.2,0.6,-0.5235987755982988,0.523598775598299,-0.5235987755982988,1.2568969,1.580272,0.38438812,0.17571989,0.27788314,0.52666473,0.28853598,-0.36821377,1.5437505,-0.27450815,-0.7974254,-0.13405141,1.2107024,1.2123178
-0.2,-0.2,0.6,-0.5235987755982988,0.523598775598299,-0.5235987755982988,1.224623,1.5816482,0.36585823,0.16461435,0.30188486,0.5176249,0.28354204,-0.37097922,1.5319855,-0.25867426,-0.7821207,-0.15510887,1.2069206,1.2008715
-0.2,-0.2,0.6,-0.5235987755982988,0.523598775598299,-0.5235987755982988,1.2354927,1.5982587,0.3929287,0.1725668,0.30343586,0.5279158,0.2997997,-0.36720836,1.5378445,-0.26769972,-0.7793017,-0.11506104,1.2220984,0.99771965
-0.2,-0.2,0.6,-0.5235987755982988,0.523598775598299,-0.5235987755982988,1.2401946,1.5817701,0.39744118,0.15135814,0.29378816,0.49918205,0.24348143,-0.36922237,1.5449879,-0.26341197,-0.7963403,-0.14829823,1.2032768,1.0241656
-0.2,-0.2,0.6,-0.5235987755982988,0.523598775598299,-0.5235987755982988,1.2465758,1.5892652,0.3782198,0.17463048,0.29269257,0.5195142,0.2860012,-0.37426057,1.5425588,-0.25702372,-0.77120304,-0.12515073,1.2197834,1.1236129
-0.2,-0.2,0.6,-0.5235987755982988,0.523598775598299,-0.5235987755982988,1.2470664,1.5964012,0.370384,0.17163567,0.3133613,0.51834327,0.2828615,-0.35876387,1.5383418,-0.26724565,-0.7968537,-0.15812467,1.218049,1.1768473
-0.2,-0.2,0.6,-0.5235987755982988,0.523598775598299,-0.5235987755982988,1.2660506,1.5865881,0.37806168,0.16467626,0.31476057,0.5281957,0.2975871,-0.36541432,1.5411702,-0.26259685,-0.8024313,-0.12717997,1.2287625,1.0053946
-0.2,-0.2,0.6,-0.5235987755982988,0.523598775598299,-0.5235987755982988,1.2605802,1.5784782,0.3702448,0.1675055,0.30025584,0.51993245,0.3341365,-0.37408674,1.5439236,-0.2468478,-0.79601115,-0.15186292,1.207522,1.1599224
-0.2,-0.2,0.6,-0.5235987755982988,0.523598775598299,-0.5235987755982988,1.2473197,1.5847522,0.35889155,0.1558888,0.32444078,0.5220877,0.32109505,-0.37226304,1.5407869,-0.2534324,-0.79258615,-0.13779378,1.2194124,1.06228
-0.2,-0.2,0.6,-0.5235987755982988,0.523598775598299,-0.5235987755982988,1.2468745,1.5823803,0.3591201,0.16433337,0.32057583,0.53683436,0.26183894,-0.37219724,1.5376899,-0.26608378,-0.768492,-0.15349476,1.2108253,1.0353206
-0.2,-0.2,0.6,-0.5235987755982988,0.523598775598299,-0.5235987755982988,1.2526478,1.5731667,0.37058014,0.16761816,0.32645932,0.5350672,0.2648792,-0.35805988,1.5402406,-0.28272748,-0.7879139,-0.13490151,1.2076929,1.1105417
-0.2,-0.2,0.6,-0.5235987755982988,0.523598775598299,-0.5235987755982988,1.2491914,1.577882,0.383891,0.15655486,0.28146756,0.49635357,0.2662512,-0.34935,1.5364087,-0.25627708,-0.76800436,-0.11273229,1.2152534,1.1138686
-0.2,-0.2,0.6,-0.5235987755982988,0.523598775598299,-0.5235987755982988,1.2328331,1.5813192,0.37907964,0.15712704,0.31317374,0.52673215,0.31250373,-0.35200116,1.5416359,-0.26583856,-0.7996837,-0.14638399,1.2035221,1.2153691
-0.2,-0.2,0.6,-0.5235987755982988,0.523598775598299,-0.5235987755982988,1.2435853,1.5753841,0.37096867,0.1529643,0.3044469,0.5038705,0.3272783,-0.3860604,1.5492901,-0.25430197,-0.7681044,-0.14312336,1.2204151,1.2951708
-0.2,-0.2,0.6,-0.5235987755982988,0.523598775598299,-0.5235987755982988,1.2416618,1.5884863,0.3873926,0.17409027,0.35661513,0.52297264,0.30734062,-0.38523152,1.5391593,-0.26935995,-0.7845402,-0.15963918,1.214212,1.1308067
-0.2,-0.2,0.6,-0.5235987755982988,0.523598775598299,-0.5235987755982988,1.2422496,1.5855937,0.3703562,0.17669949,0.35373044,0.52708113,0.2938793,-0.36579517,1.5427707,-0.26894432,-0.78026336,-0.12264152,1.2080094,1.1815891
-0.2,-0.2,0.6,-0.5235987755982988,0.523598775598299,-0.5235987755982988,1.248793,1.5747471,0.3805545,0.14819759,0.30582127,0.53431684,0.3191393,-0.3661014,1.5420259,-0.2559465,-0.79654384,-0.133631,1.213813,1.0532779
-0.2,-0.2,0.6,-0.5235987755982988,0.523598775598299,-0.5235987755982988,1.2520084,1.5792478,0.37097752,0.1506351,0.32214934,0.52313364,0.31581202,-0.38585314,1.5515996,-0.24092649,-0.77760243,-0.15462121,1.2150416,1.0585109
-0.2,-0.2,0.6,-0.5235987755982988,0.523598775598299,-0.5235987755982988,1.2362137,1.5817319,0.38846713,0.16389926,0.34618667,0.52719784,0.31086618,-0.3840937,1.5441909,-0.2565738,-0.7765386,-0.11976335,1.2090508,1.0762432
-0.2,-0.2,0.6,-0.5235987755982988,0.523598775598299,-0.5235987755982988,1.2628006,1.581822,0.37017757,0.15059374,0.2963482,0.5424341,0.28119826,-0.36611995,1.5447078,-0.25599852,-0.8001202,-0.13078764,1.2010401,1.3261664
-0.2,-0.2,0.6,-0.5235987755982988,0.523598775598299,-0.5235987755982988,1.2626187,1.5822477,0.36512852,0.17619342,0.33028272,0.5237762,0.31059137,-0.3671113,1.5449204,-0.25744998,-0.80101246,-0.13751768,1.2250451,1.0652442
-0.2,-0.2,0.6,-0.5235987755982988,0.523598775598299,-0.5235987755982988,1.23406,1.5966787,0.37592414,0.17274046,0.30281407,0.52211845,0.32399312,-0.35042477,1.5404105,-0.2541249,-0.7813334,-0.1330958,1.210862,1.0967886
-0.2,-0.2,0.6,-0.5235987755982988,0.523598775598299,-0.5235987755982988,1.2543043,1.5799011,0.36028448,0.15682216,0.29094282,0.5198137,0.31546426,-0.36461672,1.5424087,-0.2675393,-0.80793154,-0.18889172,1.2044502,1.0387607
-0.2,-0.2,0.6,-0.5235987755982988,0.523598775598299,-0.5235987755982988,1.263666,1.5842854,0.37161472,0.17085908,0.32093683,0.53234386,0.2684332,-0.38185698,1.5398475,-0.25237933,-0.7848604,-0.16618997,1.2221999,1.3142171
-0.2,-0.2,0.6,-0.5235987755982988,0.523598775598299,-0.5235987755982988,1.2587185,1.5877153,0.36614642,0.17198314,0.29005107,0.52498865,0.29241282,-0.3702758,1.5348786,-0.26686132,-0.80952924,-0.13847229,1.2137302,1.1476307
-0.2,-0.2,0.6,-0.5235987755982988,0.523598775598299,-0.5235987755982988,1.2484144,1.5969552,0.38719577,0.15513982,0.31352374,0.5210178,0.28767553,-0.35078683,1.5376186,-0.25899115,-0.7985841,-0.16395313,1.2218957,1.2716327
-0.2,-0.2,0.6,-0.5235987755982988,0.523598775598299,-0.5235987755982988,1.2475199,1.591212,0.3767782,0.16295864,0.37919715,0.5353259,0.29735407,-0.38664326,1.534065,-0.26419318,-0.7548732,-0.1155688,1.2073071,1.2249515
-0.2,-0.2,0.6,-0.5235987755982988,0.523598775598299,-0.5235987755982988,1.2631383,1.5885459,0.38427716,0.15653673,0.35232878,0.5065424,0.2574164,-0.3770466,1.5329769,-0.2743944,-0.8009642,-0.078019165,1.2074273,1.0633951
-0.2,-0.2,0.6,-0.5235987755982988,0.523598775598299,-0.5235987755982988,1.2563449,1.5911205,0.3696168,0.1563085,0.31474867,0.5020246,0.31596348,-0.37266594,1.5474293,-0.25195226,-0.7988195,-0.15768628,1.2097254,0.9947371
-0.2,-0.2,0.6,-0.5235987755982988,0.523598775598299,-0.5235987755982988,1.2589109,1.5901588,0.3597995,0.18025799,0.31539324,0.51484054,0.2720559,-0.36268964,1.5462729,-0.25660065,-0.7469335,-0.12995115,1.2092347,1.1481093
-0.2,-0.2,0.6,-0.5235987755982988,0.523598775598299,-0.5235987755982988,1.2603396,1.5871694,0.36791316,0.17367798,0.3283672,0.50395876,0.3015262,-0.36455107,1.5405809,-0.26404893,-0.75589234,-0.14699097,1.2144952,1.0038148
-0.2,-0.2,0.6,-0.5235987755982988,0.523598775598299,-0.5235987755982988,1.261502,1.5845549,0.35919747,0.17755808,0.3000913,0.5284706,0.29273316,-0.36683488,1.5448805,-0.2545468,-0.77666295,-0.11879527,1.2094026,1.1969061
-0.2,-0.2,0.6,-0.5235987755982988,0.523598775598299,-0.5235987755982988,1.2530702,1.5724399,0.35767436,0.17193778,0.29913625,0.5139542,0.30628014,-0.36312857,1.5446624,-0.25030142,-0.765871,-0.12947,1.2177073,1.1919718
-0.2,-0.2,0.6,-0.5235987755982988,0.523598775598299,-0.5235987755982988,1.2686021,1.5925891,0.3901742,0.1702326,0.2997007,0.5127735,0.29420677,-0.3737008,1.5381408,-0.25954083,-0.793549,-0.11508289,1.2225782,1.0749124
-0.2,-0.2,0.6,-0.5235987755982988,0.523598775598299,-0.5235987755982988,1.2362243,1.5841107,0.3807387,0.16174334,0.2873818,0.5323585,0.34465674,-0.36370698,1.5424261,-0.26210147,-0.7704404,-0.16977109,1.2109208,1.1934842
-0.2,-0.2,0.6,-0.5235987755982988,0.523598775598299,-0.5235987755982988,1.2382253,1.5797671,0.37014467,0.15773109,0.33178756,0.5296755,0.2802795,-0.36245456,1.5367233,-0.2515539,-0.7961891,-0.17247388,1.2186288,1.0164106
-0.2,-0.2,0.6,-0.5235987755982988,0.523598775598299,-0.5235987755982988,1.2419893,1.57868,0.3574196,0.15817955,0.29537463,0.5067603,0.26663506,-0.3431518,1.5526446,-0.27115232,-0.7980563,-0.10267187,1.205785,1.2384568
-0.2,-0.2,0.6,-0.5235987755982988,0.523598775598299,-0.5235987755982988,1.2495615,1.5838883,0.36984375,0.15912077,0.33813748,0.52180606,0.27120957,-0.36469233,1.5403737,-0.25288805,-0.7918107,-0.07588083,1.2119845,1.1614593
-0.2,-0.2,0.6,-0.5235987755982988,0.523598775598299,-0.5235987755982988,1.2530581,1.5874339,0.37699708,0.15453364,0.35485843,0.5238629,0.29801124,-0.38265365,1.5460596,-0.26883885,-0.79923415,-0.11553832,1.2178073,1.0989555
-0.2,-0.2,0.6,-0.5235987755982988,0.523598775598299,-0.5235987755982988,1.2335954,1.5848513,0.36440495,0.15297878,0.2842886,0.4992934,0.25633752,-0.3562976,1.5425824,-0.26721138,-0.7744963,-0.15009542,1.2093089,1.0867653
-0.2,-0.2,0.6,-0.5235987755982988,0.523598775598299,-0.5235987755982988,1.2546829,1.5797592,0.3783394,0.15717188,0.30751336,0.51721776,0.2995135,-0.36110702,1.541623,-0.268091,-0.8046509,-0.13367905,1.2190975,1.0570214
-0.2,-0.2,0.6,-0.5235987755982988,0.523598775598299,-0.5235987755982988,1.2409873,1.582674,0.38137865,0.15581033,0.30732012,0.50702393,0.29004648,-0.35641128,1.5441257,-0.26032174,-0.8132344,-0.12041734,1.2155919,0.9736457
-0.2,-0.2,0.6,-0.5235987755982988,0.523598775598299,-0.5235987755982988,1.2455777,1.5685962,0.38737527,0.14702146,0.31822276,0.5149912,0.2813898,-0.36465463,1.5479411,-0.25904384,-0.7679895,-0.1311991,1.2016711,1.216198
-0.2,-0.2,0.6,-0.5235987755982988,0.523598775598299,-0.5235987755982988,1.2428035,1.5888127,0.37858677,0.15217587,0.3025075,0.5113643,0.3223673,-0.35285312,1.5447932,-0.26097855,-0.7734825,-0.113754325,1.2098585,1.2097915
-0.2,-0.2,0.6,-0.5235987755982988,0.523598775598299,-0.5235987755982988,1.2474301,1.5926176,0.3687379,0.17046061,0.31546563,0.5426659,0.27677673,-0.3640215,1.5404501,-0.2645642,-0.7923983,-0.13525324,1.2083569,1.1182747
-0.2,-0.2,0.6,-0.5235987755982988,0.523598775598299,-0.5235987755982988,1.237719,1.5805255,0.36453962,0.16332148,0.32577425,0.50834334,0.29741096,-0.37195015,1.5497731,-0.2588339,-0.8066445,-0.13105482,1.2158256,0.8986453
-0.2,-0.2,0.6,-0.5235987755982988,0.523598775598299,-0.5235987755982988,1.2729003,1.5884107,0.38484517,0.16246377,0.29298756,0.5054907,0.2901909,-0.37161455,1.5410216,-0.25362852,-0.7743747,-0.121252984,1.2106415,1.2372576
-0.2,-0.2,0.6,-0.5235987755982988,0.523598775598299,-0.5235987755982988,1.2489263,1.5863153,0.38041568,0.13116875,0.29188368,0.50464857,0.3056649,-0.34012002,1.5459703,-0.26540786,-0.78464013,-0.11834248,1.2128944,1.4457815
-0.2,-0.2,0.6,-0.5235987755982988,0.523598775598299,-0.5235987755982988,1.2428881,1.5873584,0.38195395,0.16542275,0.2824925,0.5038839,0.28115165,-0.358639,1.5366781,-0.25738803,-0.7868188,-0.14058863,1.203361,1.1617072
-0.2,-0.2,0.6,-0.5235987755982988,0.523598775598299,-0.5235987755982988,1.260202,1.5792478,0.39127028,0.14552473,0.294384,0.50929123,0.29173717,-0.37091568,1.5434132,-0.26034713,-0.7887845,-0.1299466,1.2282224,1.0607154
-0.2,-0.2,0.6,-0.5235987755982988,0.523598775598299,-0.5235987755982988,1.2575998,1.5728128,0.37376106,0.15749857,0.32925636,0.51594085,0.23629081,-0.35858423,1.5441104,-0.24122262,-0.80461884,-0.13693081,1.2162621,1.2066135
-0.2,-0.2,0.6,-0.5235987755982988,0.523598775598299,-0.5235987755982988,1.255422,1.5767512,0.38270134,0.15064588,0.31791398,0.5340934,0.32948273,-0.37071967,1.5492802,-0.26113343,-0.7676638,-0.101125166,1.2245892,1.0432165
-0.2,-0.2,0.6,-0.5235987755982988,0.523598775598299,-0.5235987755982988,1.2530155,1.586494,0.3806785,0.1445352,0.3346401,0.5224688,0.2623135,-0.37632638,1.5340906,-0.26355892,-0.79883677,-0.13393286,1.2045535,1.0782909
-0.2,-0.2,0.6,-0.5235987755982988,0.523598775598299,-0.5235987755982988,1.2370406,1.5962588,0.37567648,0.14560193,0.30827492,0.53639686,0.31099045,-0.3676975,1.5488727,-0.25599253,-0.8042334,-0.1494569,1.2101086,1.135622
-0.2,-0.2,0.6,-0.5235987755982988,0.523598775598299,-0.5235987755982988,1.2115041,1.5753573,0.3764681,0.16976824,0.32208306,0.50977653,0.27374062,-0.3610637,1.5456871,-0.25654438,-0.7741496,-0.108981654,1.2187135,1.2035333
-0.2,-0.2,0.6,-0.5235987755982988,0.523598775598299,-0.5235987755982988,1.2366306,1.591739,0.3742236,0.1519292,0.31843048,0.51707023,0.30862582,-0.3655391,1.5383344,-0.26264217,-0.80324066,-0.1174736,1.1995724,1.1098832
-0.2,-0.2,0.6,-0.5235987755982988,0.523598775598299,-0.5235987755982988,1.2417887,1.6010778,0.36435914,0.15701029,0.31040457,0.5351924,0.31501552,-0.36079755,1.5449213,-0.2602086,-0.79356396,-0.14885531,1.1987122,1.2134323
-0.2,-0.2,0.6,-0.5235987755982988,0.523598775598299,-0.5235987755982988,1.2432425,1.5892787,0.34709534,0.16362633,0.35317928,0.5086969,0.27893537,-0.37001625,1.5465181,-0.25302392,-0.8146645,-0.15184422,1.2162286,1.0493354
-0.2,-0.2,0.6,-0.5235987755982988,0.523598775598299,-0.5235987755982988,1.2330599,1.57433,0.36999598,0.17060457,0.27683488,0.5268914,0.31157628,-0.3579435,1.544372,-0.2591289,-0.8092486,-0.16070855,1.2154506,1.0835837
-0.2,-0.2,0.6,-0.5235987755982988,0.523598775598299,-0.5235987755982988,1.2595452,1.5753192,0.36435238,0.15909183,0.2964515,0.53284836,0.29176012,-0.37270695,1.5351572,-0.262855,-0.7623561,-0.113950685,1.1974392,1.0446558
-0.2,-0.2,0.6,-0.5235987755982988,0.523598775598299,-0.5235987755982988,1.2441869,1.5917144,0.35648498,0.16086954,0.3195638,0.529431,0.31235504,-0.37872928,1.5411123,-0.2626943,-0.78902173,-0.1783263,1.2015082,0.9348142
-0.2,-0.2,0.6,-0.5235987755982988,0.523598775598299,-0.5235987755982988,1.2548356,1.593379,0.37307373,0.1472539,0.3316865,0.51221085,0.26839757,-0.3655256,1.5415896,-0.25964686,-0.8006574,-0.10510837,1.1995006,1.117592
-0.2,-0.2,0.6,-0.5235987755982988,0.523598775598299,-0.5235987755982988,1.2517188,1.5999634,0.37641707,0.16559103,0.28818047,0.50488555,0.32904762,-0.38079673,1.5485611,-0.24344158,-0.7863783,-0.11621183,1.2064464,1.0607417
-0.2,-0.2,0.6,-0.5235987755982988,0.523598775598299,-0.5235987755982988,1.2385399,1.5863581,0.37679595,0.17278281,0.3182367,0.50608754,0.29529706,-0.36497584,1.544561,-0.25498626,-0.7936137,-0.111811996,1.2205219,1.0843765
-0.2,-0.2,0.6,-0.5235987755982988,0.523598775598299,-0.5235987755982988,1.259453,1.5823063,0.3792167,0.16472736,0.31791717,0.49154997,0.2908922,-0.35993773,1.5449531,-0.2657912,-0.78461194,-0.0942076,1.2166113,0.91883373
-0.2,-0.2,0.6,-0.5235987755982988,0.523598775598299,-0.5235987755982988,1.2521511,1.5908774,0.3545974,0.17978238,0.32367018,0.5237021,0.29048127,-0.36787802,1.5465705,-0.25358975,-0.77241015,-0.09893169,1.1970642,0.95644957
-0.2,-0.2,0.6,-0.5235987755982988,0.523598775598299,-0.5235987755982988,1.2807677,1.6059453,0.37143156,0.16480628,0.28593594,0.5065889,0.31548262,-0.34654078,1.5402472,-0.25452673,-0.78243685,-0.14515032,1.2048892,1.1635985
-0.2,-0.2,0.6,-0.5235987755982988,0.523598775598299,-0.5235987755982988,1.2441915,1.5846438,0.37984398,0.17387731,0.3209969,0.52091163,0.27433312,-0.35475725,1.5369793,-0.26207152,-0.7850864,-0.13393392,1.2195473,1.0396943
-0.2,-0.2,0.6,-0.5235987755982988,0.523598775598299,-0.5235987755982988,1.2195053,1.5915563,0.3793199,0.16168699,0.29817262,0.5121796,0.33337238,-0.37312344,1.5426922,-0.2536607,-0.8075915,-0.15194781,1.2262714,1.1871982
-0.2,-0.2,0.6,-0.5235987755982988,0.523598775598299,-0.5235987755982988,1.2269751,1.5867779,0.34890163,0.14494672,0.31018254,0.5431121,0.30968365,-0.37234885,1.5496236,-0.27295566,-0.8299146,-0.14054675,1.2114252,1.1345499
-0.2,-0.2,0.6,-0.5235987755982988,0.523598775598299,-0.5235987755982988,1.2567079,1.5948232,0.3697243,0.15292387,0.30167636,0.5432037,0.29683858,-0.36964872,1.5424314,-0.27873218,-0.7612504,-0.14552712,1.1887554,1.118142
-0.2,-0.2,0.6,-0.5235987755982988,0.523598775598299,-0.5235987755982988,1.2115469,1.583849,0.37026364,0.15710527,0.28219002,0.52220225,0.2822559,-0.34405172,1.5384499,-0.25472245,-0.79143196,-0.06291486,1.2180384,1.1889398
-0.2,-0.2,0.6,-0.5235987755982988,0.523598775598299,-0.5235987755982988,1.2551928,1.5862124,0.35786384,0.14543699,0.31425768,0.5055297,0.30900192,-0.36312118,1.5412837,-0.25109386,-0.7690958,-0.11847288,1.2090178,0.9768432
-0.2,-0.2,0.6,-0.5235987755982988,0.523598775598299,-0.5235987755982988,1.2437183,1.5860493,0.37912068,0.173675,0.3236347,0.508241,0.26748136,-0.36836806,1.5418708,-0.27010724,-0.7711514,-0.15302965,1.2019817,1.0918237
-0.2,-0.2,0.6,-0.5235987755982988,0.523598775598299,-0.5235987755982988,1.243872,1.58182,0.37238997,0.16172032,0.32812586,0.52712923,0.33184135,-0.38442004,1.5398618,-0.2535219,-0.76207393,-0.11353175,1.2124939,1.0612693
-0.2,-0.2,0.6,-0.5235987755982988,0.523598775598299,-0.5235987755982988,1.2418796,1.5881983,0.386678,0.16741113,0.29242364,0.5162015,0.2685349,-0.36931604,1.539633,-0.25103828,-0.8053431,-0.15942465,1.2252265,0.9398487
-0.2,-0.2,0.6,-0.5235987755982988,0.523598775598299,-0.5235987755982988,1.25811,1.5869116,0.37697265,0.16070823,0.34380853,0.49817267,0.31455556,-0.3760499,1.5454775,-0.2713431,-0.797195,-0.10819509,1.2090485,1.0854341
-0.2,-0.2,0.6,-0.5235987755982988,0.523598775598299,-0.5235987755982988,1.2499186,1.5802916,0.35858253,0.20233496,0.29780513,0.51570004,0.30338547,-0.37228057,1.54777,-0.261888,-0.7817441,-0.1820401,1.2271068,1.1194886
-0.2,-0.2,0.6,-0.5235987755982988,0.523598775598299,-0.5235987755982988,1.2492895,1.5883118,0.36835405,0.16708794,0.27485815,0.51633704,0.3232808,-0.3681198,1.5472327,-0.26399797,-0.79266006,-0.14207792,1.1956124,1.1568657
-0.2,-0.2,0.6,-0.5235987755982988,0.523598775598299,-0.5235987755982988,1.2405791,1.5795587,0.37055683,0.16937575,0.2721028,0.50720483,0.2990247,-0.36090454,1.5505745,-0.26230308,-0.7676785,-0.14317681,1.2008752,1.3860168
-0.2,-0.2,0.6,-0.5235987755982988,0.523598775598299,-0.5235987755982988,1.2623023,1.5760227,0.39129663,0.16408439,0.2926692,0.49649647,0.26972553,-0.35926402,1.5536363,-0.2740951,-0.7627494,-0.14253208,1.2297257,1.125548
-0.2,-0.2,0.6,-0.5235987755982988,0.523598775598299,-0.5235987755982988,1.2825109,1.5881097,0.36979324,0.16469222,0.2999701,0.5354589,0.27223122,-0.36203468,1.5418999,-0.2661036,-0.7876368,-0.12770231,1.2112942,1.1122731
-0.2,-0.2,0.6,-0.5235987755982988,0.523598775598299,-0.5235987755982988,1.255805,1.5831118,0.38598317,0.138194,0.33869594,0.51697564,0.34982765,-0.3669138,1.5421247,-0.26559085,-0.7906105,-0.107421614,1.2166826,1.1243615
-0.2,-0.2,0.6,-0.5235987755982988,0.523598775598299,-0.5235987755982988,1.2432498,1.5706422,0.3685888,0.14963146,0.33816338,0.52529913,0.3033712,-0.36495146,1.5486617,-0.2606998,-0.79112446,-0.12136377,1.202897,1.042536
-0.2,-0.2,0.6,-0.5235987755982988,0.523598775598299,-0.5235987755982988,1.2657026,1.5871019,0.3682557,0.17576623,0.28985327,0.5155196,0.2818893,-0.35723615,1.5458119,-0.25477132,-0.79142004,-0.12640819,1.2228467,1.0136577
-0.2,-0.2,0.6,-0.5235987755982988,0.523598775598299,-0.5235987755982988,1.2339413,1.5941136,0.369163,0.16062064,0.34662208,0.5396056,0.27250898,-0.3777567,1.5418016,-0.2552773,-0.79646814,-0.15546964,1.2137387,1.1102675
-0.2,-0.2,0.6,-0.5235987755982988,0.523598775598299,-0.5235987755982988,1.2581419,1.5860813,0.36321685,0.16342509,0.34563562,0.51919,0.3024198,-0.35332045,1.5432901,-0.26880908,-0.80137396,-0.14330305,1.2182995,1.1336696
-0.2,-0.2,0.6,-0.5235987755982988,0.523598775598299,-0.5235987755982988,1.2498825,1.578157,0.36434373,0.1848644,0.30865,0.5117286,0.31044465,-0.35557103,1.5462708,-0.26744506,-0.7738919,-0.16235562,1.2147075,1.0269388
-0.2,-0.2,0.6,-0.5235987755982988,0.523598775598299,-0.5235987755982988,1.2691056,1.5862141,0.37906444,0.15199634,0.31846228,0.51768184,0.25612864,-0.35684225,1.5479052,-0.24478611,-0.7908911,-0.13165393,1.2134638,1.0768183
-0.2,-0.2,0.6,-0.5235987755982988,0.523598775598299,-0.5235987755982988,1.2332826,1.5863695,0.38329798,0.17686331,0.30663574,0.51545125,0.2798902,-0.38789868,1.5408723,-0.2522553,-0.7731911,-0.19266617,1.211465,1.0949107
-0.2,-0.2,0.6,-0.5235987755982988,0.523598775598299,-0.5235987755982988,1.2394804,1.5849959,0.38534302,0.15935126,0.33839265,0.5125145,0.26319423,-0.37855166,1.5406016,-0.26783812,-0.79305506,-0.13368618,1.1979496,1.1131883
-0.2,-0.2,0.6,-0.5235987755982988,0.523598775598299,-0.5235987755982988,1.2626362,1.581577,0.36871263,0.16470265,0.30067825,0.5173781,0.33853367,-0.35629356,1.5460987,-0.26801807,-0.78694844,-0.15949364,1.2089895,1.2594064
-0.2,-0.2,0.6,-0.5235987755982988,0.523598775598299,-0.5235987755982988,1.2263141,1.5778621,0.37332454,0.16135861,0.28687343,0.5118134,0.33576274,-0.3687582,1.5464112,-0.24589115,-0.79413205,-0.12111415,1.2007823,1.0468012
-0.2,-0.2,0.6,-0.5235987755982988,0.523598775598299,-0.5235987755982988,1.2286594,1.5784698,0.3736218,0.15661436,0.29666957,0.50363183,0.26735455,-0.36533773,1.5519594,-0.25045028,-0.8060541,-0.13838187,1.1941763,1.347244
-0.2,-0.2,0.6,-0.5235987755982988,0.523598775598299,-0.5235987755982988,1.2663882,1.5932052,0.3606296,0.17683934,0.2992434,0.51042587,0.2877956,-0.37336558,1.5431288,-0.26747325,-0.7727169,-0.14955182,1.2102876,1.1726596
-0.2,-0.2,0.6,-0.5235987755982988,0.523598775598299,-0.5235987755982988,1.2308193,1.591374,0.38259315,0.16153087,0.3406418,0.5206548,0.31869078,-0.37950838,1.5336205,-0.25728804,-0.7768031,-0.13393702,1.209766,1.1182257
-0.2,-0.2,0.6,-0.5235987755982988,0.523598775598299,-0.5235987755982988,1.2499454,1.5818406,0.37902024,0.17015707,0.30600038,0.5172066,0.27709728,-0.3763671,1.5369341,-0.25506756,-0.79827726,-0.13387798,1.2105384,1.2761171
-0.2,-0.2,0.6,-0.5235987755982988,0.523598775598299,-0.5235987755982988,1.2461914,1.5932237,0.37732387,0.1576133,0.29492253,0.5205689,0.30147803,-0.36398765,1.5319302,-0.26744625,-0.7874743,-0.13348778,1.2117321,0.8625332
-0.2,-0.2,0.6,-0.5235987755982988,0.523598775598299,-0.5235987755982988,1.2485076,1.5880542,0.3718671,0.1807921,0.33436584,0.5218212,0.29134184,-0.38261327,1.5358845,-0.25676793,-0.7576815,-0.16587292,1.2017584,1.0663642
-0.2,-0.2,0.6,-0.5235987755982988,0.523598775598299,-0.5235987755982988,1.2641988,1.5997158,0.38098902,0.13905215,0.3335357,0.5211174,0.28016907,-0.3770941,1.538822,-0.2681489,-0.79951644,-0.13533308,1.2213175,1.0791256
-0.2,-0.2,0.6,-0.5235987755982988,0.523598775598299,-0.5235987755982988,1.2573575,1.5740987,0.3866529,0.16593961,0.28344166,0.5271655,0.2927044,-0.3745745,1.5387934,-0.25860062,-0.7767306,-0.1546936,1.2019261,1.3821641
-0.2,-0.2,0.6,-0.5235987755982988,0.523598775598299,-0.5235987755982988,1.2364064,1.6018597,0.3775699,0.16509765,0.29116264,0.52625567,0.3287384,-0.3692303,1.5381471,-0.24715926,-0.77406883,-0.11716546,1.2197351,1.2094771
-0.2,-0.2,0.6,-0.5235987755982988,0.523598775598299,-0.5235987755982988,1.241434,1.5979306,0.377212,0.15380472,0.32652664,0.53836834,0.33659503,-0.37705368,1.5460618,-0.2641865,-0.79142123,-0.16090032,1.2209675,1.2032348
-0.2,-0.2,0.6,-0.5235987755982988,0.523598775598299,-0.5235987755982988,1.2521567,1.5903198,0.36639333,0.16198272,0.31169498,0.4972642,0.25239414,-0.39006335,1.5531135,-0.24657601,-0.8149133,-0.15480524,1.2163895,1.0870477
-0.2,-0.2,0.6,-0.5235987755982988,0.523598775598299,-0.5235987755982988,1.2419101,1.5818195,0.3703742,0.16859384,0.3097987,0.5113634,0.33492854,-0.36806023,1.5382929,-0.2580009,-0.7987804,-0.1367347,1.2190696,1.1261052
-0.2,-0.2,0.6,-0.5235987755982988,0.523598775598299,-0.5235987755982988,1.2547607,1.5823677,0.3632801,0.17721526,0.3111229,0.48513502,0.2719944,-0.36434156,1.5461665,-0.26307765,-0.78180164,-0.14695525,1.2119051,1.0354787
-0.2,-0.2,0.6,-0.5235987755982988,0.523598775598299,-0.5235987755982988,1.2580789,1.5815241,0.35483256,0.17962526,0.26770252,0.5196236,0.3188169,-0.36488032,1.5373943,-0.26351058,-0.78381056,-0.12491313,1.2076002,1.2298652
-0.2,-0.2,0.6,-0.5235987755982988,0.523598775598299,-0.5235987755982988,1.265718,1.5920545,0.37867972,0.16962948,0.3210519,0.5250621,0.23491016,-0.35982165,1.5407608,-0.27190474,-0.78957456,-0.14092863,1.2288818,1.1407694
-0.2,-0.2,0.6,-0.5235987755982988,0.523598775598299,-0.5235987755982988,1.2517049,1.5892104,0.3761271,0.15423352,0.30529776,0.51394194,0.2639846,-0.37143847,1.5383059,-0.24981514,-0.77735525,-0.13469586,1.2165043,1.0325699
-0.2,-0.2,0.6,-0.5235987755982988,0.523598775598299,-0.5235987755982988,1.2427948,1.5853682,0.37824234,0.17516106,0.2993454,0.5074893,0.29928,-0.37592462,1.5370615,-0.26019964,-0.7728908,-0.12964566,1.1922331,1.1261367
-0.2,-0.2,0.6,-0.5235987755982988,0.523598775598299,-0.5235987755982988,1.2580438,1.5776457,0.3617476,0.16165368,0.33381855,0.5060172,0.2359138,-0.360616,1.5395877,-0.26372376,-0.7866722,-0.13215768,1.2002401,1.0803766
-0.2,-0.2,0.6,-0.5235987755982988,0.523598775598299,-0.5235987755982988,1.270861,1.5903033,0.35511494,0.1562818,0.29158515,0.49884155,0.31483734,-0.36258718,1.5385786,-0.24921097,-0.7871016,-0.16867308,1.2091573,1.153378
-0.2,-0.2,0.6,-0.5235987755982988,0.523598775598299,-0.5235987755982988,1.2361782,1.5880508,0.36414194,0.14782788,0.31083727,0.5231168,0.2939493,-0.3591339,1.5407336,-0.25421837,-0.81332064,-0.15501559,1.1956422,1.206562
-0.2,-0.2,0.6,-0.5235987755982988,0.523598775598299,-0.5235987755982988,1.2588434,1.5822374,0.3761151,0.15067376,0.29416746,0.5179637,0.29332912,-0.37740427,1.542182,-0.2661358,-0.7856853,-0.15949808,1.2253232,1.1336267
-0.2,-0.2,0.6,-0.5235987755982988,0.523598775598299,-0.5235987755982988,1.2624215,1.5744132,0.37342563,0.1587341,0.29361978,0.5244875,0.26712143,-0.3835157,1.5325475,-0.271858,-0.78976095,-0.10532089,1.1981226,0.94197553
-0.2,-0.2,0.6,-0.5235987755982988,0.523598775598299,-0.5235987755982988,1.2263575,1.5829841,0.3857645,0.17192936,0.25526246,0.5180242,0.30139393,-0.36919695,1.5316663,-0.2623813,-0.7934146,-0.12824833,1.2021672,1.1229235
-0.2,-0.2,0.6,-0.5235987755982988,0.523598775598299,-0.5235987755982988,1.2321582,1.5827047,0.37698263,0.151947,0.3413175,0.5096656,0.26321343,-0.3755756,1.5377872,-0.26754117,-0.8154634,-0.14743476,1.1948789,1.1875834
-0.2,-0.2,0.6,-0.5235987755982988,0.523598775598299,-0.5235987755982988,1.2617276,1.5782163,0.38507923,0.16230926,0.303672,0.5223401,0.2976853,-0.38505226,1.5432045,-0.2617883,-0.78890496,-0.12827995,1.2158513,0.94957817
-0.2,-0.2,0.6,-0.5235987755982988,0.523598775598299,-0.5235987755982988,1.2425162,1.5906552,0.35919222,0.18339519,0.3167744,0.49856326,0.268868,-0.36459473,1.5357158,-0.25142285,-0.7776637,-0.1172314,1.2072517,0.9190632
-0.2,-0.2,0.6,-0.5235987755982988,0.523598775598299,-0.5235987755982988,1.2325449,1.5806875,0.3784353,0.1675069,0.34458476,0.51187605,0.32361695,-0.39291093,1.5420197,-0.25186795,-0.7948153,-0.16900672,1.2152715,1.0918207
-0.2,-0.2,0.6,-0.5235987755982988,0.523598775598299,-0.5235987755982988,1.2564604,1.5856231,0.37561712,0.1601935,0.29498214,0.51758474,0.27536663,-0.35267726,1.5476416,-0.26399773,-0.7666748,-0.120363966,1.2251577,1.2302402
-0.2,-0.2,0.6,-0.5235987755982988,0.523598775598299,-0.5235987755982988,1.2445316,1.5858777,0.3855217,0.14936225,0.32273716,0.5406186,0.27022883,-0.37827173,1.546009,-0.2527055,-0.79380643,-0.10268992,1.207065,1.126459
-0.2,-0.2,0.6,-0.5235987755982988,0.523598775598299,-0.5235987755982988,1.2356783,1.5878798,0.36307222,0.18624584,0.2898416,0.5174965,0.2720497,-0.3640221,1.5333152,-0.27203187,-0.7860126,-0.09220197,1.198577,1.038036
-0.2,-0.2,0.6,-0.5235987755982988,0.523598775598299,-0.5235987755982988,1.2579255,1.5725478,0.36702654,0.17948341,0.31182027,0.5096018,0.32359838,-0.36150616,1.5403961,-0.26185364,-0.7885811,-0.14616066,1.2223874,1.3191627
-0.2,-0.2,0.6,-0.5235987755982988,0.523598775598299,-0.5235987755982988,1.2679641,1.5890596,0.3715637,0.1494227,0.34013528,0.5112097,0.24971752,-0.37729055,1.5360116,-0.26247752,-0.78893894,-0.10660581,1.2013987,1.212686
-0.2,-0.2,0.6,-0.5235987755982988,0.523598775598299,-0.5235987755982988,1.234804,1.5810589,0.37287715,0.17992426,0.30408394,0.50997496,0.295302,-0.37258616,1.5379986,-0.26117945,-0.7888814,-0.13602349,1.2109329,1.035701
-0.2,-0.2,0.6,-0.5235987755982988,0.523598775598299,-0.5235987755982988,1.2314867,1.5887209,0.36901408,0.16614407,0.30619508,0.4881163,0.2939172,-0.36036032,1.5408537,-0.26324916,-0.8120947,-0.09162854,1.2067192,1.2040944
-0.2,-0.2,0.6,-0.5235987755982988,0.523598775598299,-0.5235987755982988,1.2492429,1.5714102,0.35826313,0.15490094,0.31853983,0.53164184,0.28086323,-0.36686084,1.536172,-0.26768002,-0.8066201,-0.11622494,1.2011073,1.0769222
-0.2,-0.2,0.6,-0.5235987755982988,0.523598775598299,-0.5235987755982988,1.214003,1.5937471,0.36328766,0.18230562,0.33461145,0.51822233,0.32986158,-0.37870845,1.545084,-0.2675939,-0.77919376,-0.12440705,1.1991956,1.0888247
-0.2,-0.2,0.6,-0.5235987755982988,0.523598775598299,-0.5235987755982988,1.257292,1.5791973,0.37133643,0.17526266,0.30782703,0.53324,0.29542154,-0.36403167,1.5450441,-0.25773725,-0.7750446,-0.14679006,1.2164246,1.1406575
-0.2,-0.2,0.6,-0.5235987755982988,0.523598775598299,-0.5235987755982988,1.263531,1.5762284,0.36537784,0.18331309,0.30147585,0.5218891,0.29280213,-0.36124763,1.5434645,-0.2658671,-0.7911225,-0.16059916,1.2137698,0.9582909
-0.2,-0.2,0.6,-0.5235987755982988,0.523598775598299,-0.5235987755982988,1.242775,1.5887011,0.36922786,0.16291979,0.29328102,0.52539283,0.33136132,-0.3766766,1.5405641,-0.27702004,-0.77952206,-0.16359276,1.2119122,1.2735124
-0.2,-0.2,0.6,-0.5235987755982988,0.523598775598299,-0.5235987755982988,1.2670418,1.5965643,0.36855665,0.17512123,0.25757936,0.5178712,0.29455277,-0.38390324,1.5396478,-0.27156118,-0.7912904,-0.13712929,1.2078804,1.205959
-0.2,-0.2,0.6,-0.5235987755982988,0.523598775598299,-0.5235987755982988,1.2145755,1.5893964,0.3827247,0.15065056,0.31932515,0.5353071,0.33091396,-0.34839162,1.5364403,-0.26849002,-0.7906376,-0.091261774,1.2231787,1.1905698
-0.2,-0.2,0.6,-0.5235987755982988,0.523598775598299,-0.5235987755982988,1.2390333,1.5857754,0.3740514,0.17607756,0.28466234,0.50985104,0.29203713,-0.37977672,1.5458567,-0.2625042,-0.7722791,-0.10935581,1.2171423,1.1225454
-0.2,-0.2,0.6,-0.5235987755982988,0.523598775598299,-0.5235987755982988,1.2435461,1.5833896,0.38570273,0.1337641,0.31431052,0.50984854,0.2976079,-0.36916798,1.5394726,-0.25885347,-0.7762668,-0.15386526,1.2082385,0.8005383
-0.2,-0.2,0.6,-0.5235987755982988,0.523598775598299,-0.5235987755982988,1.2677414,1.579229,0.363614,0.14652453,0.32971865,0.5257756,0.27373332,-0.37895194,1.548403,-0.2659226,-0.81771743,-0.1272303,1.2146391,1.0832359
-0.2,-0.2,0.6,-0.5235987755982988,0.523598775598299,-0.5235987755982988,1.2543392,1.585579,0.37944248,0.17614195,0.3062847,0.5110207,0.2763421,-0.36657238,1.5373224,-0.26076135,-0.79102117,-0.14791247,1.2064236,1.104498
-0.2,-0.2,0.6,-0.5235987755982988,0.523598775598299,-0.5235987755982988,1.2434163,1.5705007,0.37201574,0.15094653,0.31053165,0.5203056,0.3008031,-0.3646827,1.544514,-0.25834697,-0.804348,-0.14577504,1.1995848,1.1691022
-0.2,-0.2,0.6,-0.5235987755982988,0.523598775598299,-0.5235987755982988,1.2475215,1.5868446,0.3736774,0.14732957,0.33783215,0.5009907,0.29048848,-0.3675955,1.547365,-0.2583992,-0.77281415,-0.124812566,1.1987195,0.9271159
-0.2,-0.2,0.6,-0.5235987755982988,0.523598775598299,-0.5235987755982988,1.2691975,1.5949064,0.36445683,0.17163557,0.32211456,0.5387921,0.27913794,-0.3785385,1.5471652,-0.25869,-0.78069,-0.14049187,1.217045,1.1381373
-0.2,-0.2,0.6,-0.5235987755982988,0.523598775598299,-0.5235987755982988,1.2701515,1.5870032,0.3734595,0.17686541,0.30913088,0.5025395,0.3041729,-0.36933747,1.5371168,-0.26881808,-0.7756205,-0.1516696,1.218629,0.9374142
-0.2,-0.2,0.6,-0.5235987755982988,0.523598775598299,-0.5235987755982988,1.2458332,1.5771041,0.3697656,0.17573106,0.3053385,0.5301599,0.28631717,-0.37431404,1.5445211,-0.27180308,-0.79041624,-0.14109555,1.2120906,1.0879382
-0.2,-0.2,0.6,-0.5235987755982988,0.523598775598299,-0.5235987755982988,1.2501479,1.5761783,0.36401722,0.16204076,0.33504632,0.50338817,0.2903247,-0.36546555,1.5409379,-0.26912716,-0.7932921,-0.1160352,1.2103416,1.1188203
-0.2,-0.2,0.6,-0.5235987755982988,0.523598775598299,-0.5235987755982988,1.2446538,1.5788879,0.39098713,0.16061606,0.3007031,0.51446575,0.3046177,-0.37013102,1.5473307,-0.2692208,-0.7871353,-0.08741516,1.2021612,1.3207328
-0.2,-0.2,0.6,-0.5235987755982988,0.523598775598299,-0.5235987755982988,1.2554955,1.586527,0.37725198,0.17840259,0.28438687,0.53721607,0.28071472,-0.3784399,1.5439247,-0.25659093,-0.7734838,-0.12156748,1.2110977,1.3448591
-0.2,-0.2,0.6,-0.5235987755982988,0.523598775598299,-0.5235987755982988,1.2225974,1.5875604,0.36065772,0.15760194,0.33732033,0.52806383,0.29609168,-0.33524284,1.5420992,-0.26469958,-0.7935749,-0.12910618,1.2109557,1.1567538
-0.2,-0.2,0.6,-0.5235987755982988,0.523598775598299,-0.5235987755982988,1.2591423,1.5785192,0.3736107,0.1506829,0.33354285,0.49316245,0.28618604,-0.37694344,1.5409725,-0.25763157,-0.77741987,-0.10910721,1.2180266,1.1415228
-0.2,-0.2,0.6,-0.5235987755982988,0.523598775598299,-0.5235987755982988,1.2465913,1.5775352,0.37766635,0.16303122,0.29235682,0.51958686,0.26863518,-0.3736683,1.5423731,-0.25651735,-0.78391194,-0.16392665,1.2033662,0.9579949
-0.2,-0.2,0.6,-0.5235987755982988,0.523598775598299,-0.5235987755982988,1.248246,1.5774221,0.38497376,0.15862808,0.3241864,0.5097708,0.30049092,-0.3773551,1.5389692,-0.26744446,-0.7747223,-0.16078846,1.2115178,1.1803591
-0.2,-0.2,0.6,-0.5235987755982988,0.523598775598299,-0.5235987755982988,1.2006246,1.5782167,0.37381974,0.15407638,0.33195683,0.5181847,0.27906102,-0.3485456,1.5474553,-0.26220676,-0.79330504,-0.120039895,1.221423,1.1582508
-0.2,-0.2,0.6,-0.5235987755982988,0.523598775598299,-0.5235987755982988,1.2401545,1.5867109,0.3586532,0.15918373,0.31792948,0.499661,0.3122948,-0.37405235,1.5315522,-0.2533913,-0.7718795,-0.12172405,1.2188154,1.0066539
-0.2,-0.2,0.6,-0.5235987755982988,0.523598775598299,-0.5235987755982988,1.2572712,1.5835944,0.38319528,0.16018498,0.3234874,0.50590885,0.26352718,-0.37065676,1.5293614,-0.259011,-0.7984937,-0.16651066,1.2050463,1.1843761
-0.2,-0.2,0.6,-0.5235987755982988,0.523598775598299,-0.5235987755982988,1.2553408,1.5833716,0.3790845,0.15761721,0.31929147,0.5410992,0.30692777,-0.36854437,1.5407243,-0.2406227,-0.7826607,-0.118697844,1.2270329,1.2518594
-0.2,-0.2,0.6,-0.5235987755982988,0.523598775598299,-0.5235987755982988,1.2508472,1.6013277,0.39088747,0.14176497,0.32078877,0.52175367,0.3081274,-0.359841,1.5427985,-0.26829675,-0.7825311,-0.1576734,1.2174225,1.137683
-0.2,-0.2,0.6,-0.5235987755982988,0.523598775598299,-0.5235987755982988,1.2544281,1.587371,0.3760249,0.14906947,0.3129504,0.5149137,0.30005175,-0.3730803,1.5324557,-0.25604364,-0.80308443,-0.123479754,1.2074703,1.065217
-0.2,-0.2,0.6,-0.5235987755982988,0.523598775598299,-0.5235987755982988,1.2650964,1.577419,0.38090855,0.16721429,0.28525957,0.52461606,0.31222478,-0.3762604,1.5463994,-0.261772,-0.7882266,-0.1391459,1.2180021,1.2016937
-0.2,-0.2,0.6,-0.5235987755982988,0.523598775598299,-0.5235987755982988,1.2436056,1.578929,0.37264526,0.15604025,0.301922,0.5121995,0.32133192,-0.35495296,1.5461035,-0.26138166,-0.7742537,-0.08573614,1.2137953,1.0657876
-0.2,-0.2,0.6,-0.5235987755982988,0.523598775598299,-0.5235987755982988,1.2485908,1.5874646,0.370727,0.15485954,0.35657203,0.53903544,0.2862428,-0.3645796,1.5460573,-0.26445913,-0.79325813,-0.117537,1.2164314,1.2016034
-0.2,-0.2,0.6,-0.5235987755982988,0.523598775598299,-0.5235987755982988,1.2607105,1.5920923,0.36884463,0.16365182,0.33999932,0.5340168,0.28013676,-0.38497463,1.5462009,-0.2557715,-0.8012426,-0.111558914,1.2169706,1.197614
-0.2,-0.2,0.6,-0.5235987755982988,0.523598775598299,-0.5235987755982988,1.2444603,1.5910424,0.39530516,0.17168996,0.27455968,0.5321149,0.30883983,-0.3834778,1.5312957,-0.25265715,-0.7710514,-0.17697838,1.2024008,1.2913232
-0.2,-0.2,0.6,-0.5235987755982988,0.523598775598299,-0.5235987755982988,1.241929,1.5787866,0.3626887,0.14921051,0.31450492,0.5270511,0.330879,-0.35135868,1.5466065,-0.26406935,-0.7660537,-0.15292373,1.2178876,1.0250503
-0.2,-0.2,0.6,-0.5235987755982988,0.523598775598299,-0.5235987755982988,1.246158,1.578074,0.400603,0.1559787,0.30723858,0.51152056,0.2751395,-0.35938922,1.5439023,-0.26198784,-0.7893664,-0.14269869,1.2077496,0.96098554
-0.2,-0.2,0.6,-0.5235987755982988,0.523598775598299,-0.5235987755982988,1.2317696,1.5903044,0.37563387,0.1547074,0.28982258,0.5187739,0.3326849,-0.36310533,1.5486023,-0.26728335,-0.7812693,-0.12045562,1.215695,1.1483859
-0.2,-0.2,0.6,-0.5235987755982988,0.523598775598299,-0.5235987755982988,1.25253,1.5910661,0.3767549,0.1682686,0.34479573,0.516193,0.3041071,-0.36543423,1.544253,-0.25706416,-0.77083904,-0.13282605,1.2190042,1.0649117
-0.2,-0.2,0.6,-0.5235987755982988,0.523598775598299,-0.5235987755982988,1.2455779,1.5922246,0.36933312,0.16101798,0.28499356,0.5097404,0.2593177,-0.3635681,1.5292512,-0.25353518,-0.7909621,-0.119705155,1.2038081,1.0598111
-0.2,-0.2,0.6,-0.5235987755982988,0.523598775598299,-0.5235987755982988,1.2566111,1.5894443,0.3716403,0.1550287,0.3441465,0.5225895,0.31406438,-0.3708556,1.5338521,-0.2610432,-0.78035724,-0.1280539,1.2017862,1.0934448
-0.2,-0.2,0.6,-0.5235987755982988,0.523598775598299,-0.5235987755982988,1.2270042,1.5877552,0.37463042,0.15140377,0.31654933,0.53648293,0.31221402,-0.36616215,1.5398377,-0.24898653,-0.7951746,-0.12578829,1.2222741,1.0668097
-0.2,-0.2,0.6,-0.5235987755982988,0.523598775598299,-0.5235987755982988,1.254009,1.58834,0.38037792,0.1546333,0.3128877,0.5189142,0.2960639,-0.39250734,1.5357758,-0.2579897,-0.79514486,-0.12786144,1.2054603,1.0394462
-0.2,-0.2,0.6,-0.5235987755982988,0.523598775598299,-0.5235987755982988,1.2313192,1.5780417,0.3820054,0.16293596,0.33263734,0.51536936,0.2994228,-0.36201093,1.5526563,-0.24877334,-0.7760529,-0.057367474,1.2173384,1.2820649
-0.2,-0.2,0.6,-0.5235987755982988,0.523598775598299,-0.5235987755982988,1.2264934,1.5804926,0.38532004,0.1625199,0.30088776,0.5137678,0.3049157,-0.36132774,1.5399276,-0.25672862,-0.7763009,-0.11657334,1.2058482,1.0307044
-0.2,-0.2,0.6,-0.5235987755982988,0.523598775598299,-0.5235987755982988,1.2577146,1.5845149,0.36967757,0.14318825,0.3375948,0.52737236,0.28072092,-0.35319367,1.5469828,-0.24611518,-0.7756748,-0.13832226,1.1978468,1.195962
-0.2,-0.2,0.6,-0.5235987755982988,0.523598775598299,-0.5235987755982988,1.2520151,1.5862758,0.3748016,0.15970485,0.29181588,0.5165421,0.26170936,-0.37033996,1.5442076,-0.24574852,-0.78979987,-0.15702626,1.2059184,1.0576117
-0.2,-0.2,0.6,-0.5235987755982988,0.523598775598299,-0.5235987755982988,1.2547338,1.588261,0.39379168,0.15418571,0.33686516,0.5345861,0.26634654,-0.3814115,1.5370296,-0.27517307,-0.770193,-0.14462735,1.2220254,1.0802284
-0.2,-0.2,0.6,-0.5235987755982988,0.523598775598299,-0.5235987755982988,1.2596921,1.5903221,0.3602043,0.17211507,0.30001506,0.5221374,0.28838202,-0.35074544,1.5400481,-0.25480986,-0.7805664,-0.14489695,1.2301264,1.0668945
-0.2,-0.2,0.6,-0.5235987755982988,0.523598775598299,-0.5235987755982988,1.2498292,1.581453,0.36677784,0.16574742,0.3443906,0.5085631,0.33640352,-0.3784644,1.5394284,-0.24782538,-0.7726021,-0.089604616,1.212612,1.0729192
-0.2,-0.2,0.6,-0.5235987755982988,0.523598775598299,-0.5235987755982988,1.2794075,1.5896139,0.379047,0.14887695,0.29145905,0.5042486,0.26785958,-0.3550173,1.5419507,-0.25702783,-0.79446,-0.11453677,1.2115179,1.1239153
-0.2,-0.2,0.6,-0.5235987755982988,0.523598775598299,-0.5235987755982988,1.2328687,1.5884659,0.35309824,0.19411097,0.27833784,0.50012875,0.27001172,-0.35098746,1.552,-0.26083693,-0.7500634,-0.114585295,1.2137114,0.96986854
-0.2,-0.2,0.6,-0.5235987755982988,0.523598775598299,-0.5235987755982988,1.2460133,1.5733867,0.37252632,0.16545522,0.29508433,0.5238546,0.28889877,-0.36447448,1.5406502,-0.25193644,-0.78866607,-0.16134913,1.2190518,1.2018832
-0.2,-0.2,0.6,-0.5235987755982988,0.523598775598299,-0.5235987755982988,1.2504004,1.5770754,0.37971807,0.16939774,0.2895164,0.4906403,0.31217724,-0.36555067,1.537963,-0.25688365,-0.79711586,-0.121263355,1.1961064,1.2561772
-0.2,-0.2,0.6,-0.5235987755982988,0.523598775598299,-0.5235987755982988,1.2425268,1.5875534,0.3560583,0.17646024,0.3124601,0.52496296,0.26113325,-0.36971626,1.5425006,-0.26005393,-0.79632163,-0.1250507,1.2133985,1.1521643
-0.2,-0.2,0.6,-0.5235987755982988,0.523598775598299,-0.5235987755982988,1.2637618,1.5863277,0.3592114,0.14628623,0.2758206,0.5137105,0.27678844,-0.36841336,1.5408101,-0.25397673,-0.77618414,-0.10730651,1.219326,1.0774701
-0.2,-0.2,0.6,-0.5235987755982988,0.523598775598299,-0.5235987755982988,1.2418936,1.578661,0.3703063,0.16035707,0.3210429,0.4931817,0.28109035,-0.35830116,1.5473598,-0.25078264,-0.78807545,-0.11342512,1.2167579,1.2059855
-0.2,-0.2,0.6,-0.5235987755982988,0.523598775598299,-0.5235987755982988,1.2445173,1.5826167,0.36302334,0.14252818,0.3091509,0.51785845,0.36096245,-0.36617723,1.5456349,-0.2514064,-0.79479086,-0.13598588,1.2053324,1.0133779
-0.2,-0.2,0.6,-0.5235987755982988,0.523598775598299,-0.5235987755982988,1.2405838,1.5898306,0.36884585,0.15679638,0.30041778,0.5341814,0.3436697,-0.36089203,1.5456419,-0.249926,-0.7836551,-0.13387334,1.2134839,1.0285952
-0.2,-0.2,0.6,-0.5235987755982988,0.523598775598299,-0.5235987755982988,1.2421188,1.5848693,0.3788511,0.1760067,0.30452177,0.5113389,0.28610936,-0.35693294,1.5395025,-0.25068617,-0.7868742,-0.16166551,1.2313937,0.98510665
-0.2,-0.2,0.6,-0.5235987755982988,0.523598775598299,-0.5235987755982988,1.2586688,1.5904317,0.37170595,0.16972125,0.3069423,0.5198758,0.29330826,-0.37282157,1.5374781,-0.26955643,-0.7804061,-0.14950772,1.2108216,1.0218546
-0.2,-0.2,0.6,-0.5235987755982988,0.523598775598299,-0.5235987755982988,1.2429252,1.5815898,0.36716893,0.15037663,0.29915717,0.52085686,0.32250687,-0.37003016,1.5434682,-0.2487007,-0.80538607,-0.124869265,1.212214,1.0258996
-0.2,-0.2,0.6,-0.5235987755982988,0.523598775598299,-0.5235987755982988,1.2230936,1.5971175,0.37820923,0.15216582,0.3167928,0.5048798,0.27659774,-0.36582306,1.5452616,-0.2605916,-0.8003964,-0.08220913,1.2114736,1.336001
-0.2,-0.2,0.6,-0.5235987755982988,0.523598775598299,-0.5235987755982988,1.2451724,1.5915779,0.37010303,0.16315408,0.31925038,0.4981289,0.33231813,-0.37890184,1.5486306,-0.25072703,-0.7997325,-0.14488803,1.2094164,1.053806
-0.2,-0.2,0.6,-0.5235987755982988,0.523598775598299,-0.5235987755982988,1.2423234,1.5977467,0.37399754,0.16966467,0.34393853,0.52278346,0.27059993,-0.37195536,1.5424415,-0.26832366,-0.75972134,-0.094133966,1.2093906,1.197266
-0.2,-0.2,0.6,-0.5235987755982988,0.523598775598299,-0.5235987755982988,1.2413898,1.5657058,0.39107323,0.1732193,0.30879933,0.5041158,0.31018788,-0.37607205,1.5513421,-0.26461804,-0.78515047,-0.1644861,1.2125889,1.1317912
-0.2,-0.2,0.6,-0.5235987755982988,0.523598775598299,-0.5235987755982988,1.2631805,1.5904429,0.37251645,0.15629958,0.28797805,0.49934328,0.30898255,-0.35922647,1.5410954,-0.25902224,-0.7971656,-0.138641,1.2036245,1.0547295
-0.2,-0.2,0.6,-0.5235987755982988,0.523598775598299,-0.5235987755982988,1.2121282,1.5778507,0.37222657,0.17390837,0.2623208,0.51844746,0.24762538,-0.36735603,1.5449928,-0.2564691,-0.76466197,-0.13736206,1.2088782,1.0898737
-0.2,-0.2,0.6,-0.5235987755982988,0.523598775598299,-0.5235987755982988,1.2473937,1.5642642,0.3666737,0.16624881,0.3067065,0.51157904,0.30454978,-0.38742498,1.5360821,-0.26922294,-0.78554106,-0.086629055,1.2092764,1.0337895
-0.2,-0.2,0.6,-0.5235987755982988,0.523598775598299,-0.5235987755982988,1.2536446,1.5919755,0.3856877,0.14827351,0.29260162,0.48873845,0.31160936,-0.34933686,1.5479681,-0.2512217,-0.7825574,-0.14292999,1.2153769,1.2232827
-0.2,-0.2,0.6,-0.5235987755982988,0.523598775598299,-0.5235987755982988,1.262094,1.5830362,0.3839117,0.14058928,0.3097622,0.50096864,0.25875032,-0.37353972,1.5418108,-0.25554132,-0.77779436,-0.16979213,1.2074755,0.98093283
-0.2,-0.2,0.6,-0.5235987755982988,0.523598775598299,-0.5235987755982988,1.2285005,1.5974934,0.39649484,0.14019628,0.2901896,0.53517574,0.30876446,-0.3692187,1.547384,-0.25699234,-0.7912288,-0.12857991,1.2171917,1.220739
-0.2,-0.2,0.6,-0.5235987755982988,0.523598775598299,-0.5235987755982988,1.2568334,1.5817989,0.36254737,0.14690302,0.33108738,0.5298697,0.27109906,-0.37299255,1.542264,-0.27108696,-0.79592115,-0.13946141,1.2014511,0.95168316
-0.2,-0.2,0.6,-0.5235987755982988,0.523598775598299,-0.5235987755982988,1.2580453,1.5953318,0.38191098,0.15961327,0.29048732,0.53523,0.28432918,-0.38265315,1.5367033,-0.2552415,-0.7714885,-0.16292365,1.2006835,1.0739783
-0.2,-0.2,0.6,-0.5235987755982988,0.523598775598299,-0.5235987755982988,1.2369134,1.5826932,0.36071652,0.16917074,0.32074642,0.52026254,0.3336115,-0.3851124,1.5437052,-0.28075084,-0.79271096,-0.17396188,1.2252336,1.0642598
-0.2,-0.2,0.6,-0.5235987755982988,0.523598775598299,-0.5235987755982988,1.244763,1.5849637,0.36793882,0.15771095,0.30536923,0.5448057,0.33235544,-0.36247057,1.5419579,-0.27440855,-0.7694896,-0.076599136,1.1928807,1.1210382
-0.2,-0.2,0.6,-0.5235987755982988,0.523598775598299,-0.5235987755982988,1.2240692,1.5828727,0.37584183,0.15492502,0.28127664,0.5267953,0.32049483,-0.37739885,1.5379161,-0.25682336,-0.80786014,-0.12812203,1.2040906,1.299664
-0.2,-0.2,0.6,-0.5235987755982988,0.523598775598299,-0.5235987755982988,1.2605455,1.5825344,0.3557562,0.15404195,0.27690682,0.51533735,0.26727638,-0.3750973,1.5465742,-0.26381344,-0.81077266,-0.15459776,1.2123092,1.0821514
-0.2,-0.2,0.6,-0.5235987755982988,0.523598775598299,-0.5235987755982988,1.253108,1.5869327,0.38860568,0.16292346,0.27899796,0.51594365,0.2735896,-0.375216,1.5378481,-0.2694778,-0.78232956,-0.120842166,1.2072407,1.0495293
-0.2,-0.2,0.6,-0.5235987755982988,0.523598775598299,-0.5235987755982988,1.2517061,1.5841248,0.36806825,0.15004921,0.30705014,0.52306825,0.23550488,-0.3517668,1.5406986,-0.24530995,-0.79223937,-0.12612554,1.2102499,1.2071695
-0.2,-0.2,0.6,-0.5235987755982988,0.523598775598299,-0.5235987755982988,1.2774256,1.5831794,0.36225817,0.16490576,0.34816375,0.55080914,0.3022536,-0.36217102,1.5388775,-0.26564077,-0.7837595,-0.1769538,1.2212974,1.0233761
-0.2,-0.2,0.6,-0.5235987755982988,0.523598775598299,-0.5235987755982988,1.2439144,1.5825757,0.37157694,0.1592557,0.32387352,0.5274492,0.2626837,-0.36102605,1.5334498,-0.26228887,-0.77551943,-0.106229916,1.2222711,1.1475017
-0.2,-0.2,0.6,-0.5235987755982988,0.523598775598299,-0.5235987755982988,1.2520053,1.5857521,0.3626689,0.17225243,0.2910109,0.50413156,0.2819247,-0.38657433,1.5318599,-0.25912714,-0.7960446,-0.15005478,1.1985772,1.1021093
-0.2,-0.2,0.6,-0.5235987755982988,0.523598775598299,-0.5235987755982988,1.2565647,1.6045842,0.35173717,0.14955074,0.30622277,0.5028736,0.2713017,-0.35714898,1.542776,-0.2553473,-0.7699489,-0.18329425,1.2064767,1.2915576
-0.2,-0.2,0.6,-0.5235987755982988,0.523598775598299,-0.5235987755982988,1.2415273,1.575126,0.38065982,0.16953127,0.3001675,0.5148642,0.30846423,-0.3820468,1.55,-0.23743156,-0.78858536,-0.1785522,1.2148416,1.088753
-0.2,-0.2,0.6,-0.5235987755982988,0.523598775598299,-0.5235987755982988,1.2686119,1.5915008,0.3781943,0.17532292,0.26876035,0.53433055,0.29810223,-0.37880397,1.5380825,-0.26617908,-0.7932417,-0.14318326,1.2191712,1.1749064
-0.2,-0.2,0.6,-0.5235987755982988,0.523598775598299,-0.5235987755982988,1.2149808,1.5846753,0.37641388,0.167944,0.31513157,0.5185846,0.24130675,-0.37372056,1.543925,-0.26928154,-0.78854346,-0.1672299,1.2167643,1.1928957
-0.2,-0.2,0.6,-0.5235987755982988,0.523598775598299,-0.5235987755982988,1.2380725,1.5967603,0.39013237,0.15332595,0.31716147,0.5136259,0.31699437,-0.36036563,1.543124,-0.26096845,-0.7711123,-0.10890189,1.2094197,0.993415
-0.2,-0.2,0.6,-0.5235987755982988,0.523598775598299,-0.5235987755982988,1.2709397,1.5867025,0.38005543,0.15168694,0.31321934,0.5196471,0.2659044,-0.36266914,1.542837,-0.2562259,-0.80046356,-0.128578,1.2137302,1.1081176
-0.2,-0.2,0.6,-0.5235987755982988,0.523598775598299,-0.5235987755982988,1.2493235,1.5932926,0.3666711,0.14679769,0.34397146,0.53800774,0.32621965,-0.37007928,1.5490217,-0.25741783,-0.7748446,-0.1380002,1.2194036,1.1566398
-0.2,-0.2,0.6,-0.5235987755982988,0.523598775598299,-0.5235987755982988,1.2329539,1.5677264,0.35449374,0.17339693,0.3148404,0.50998706,0.3018804,-0.35635456,1.5379423,-0.26470196,-0.8004803,-0.14106673,1.208583,1.2234057
-0.2,-0.2,0.6,-0.5235987755982988,0.523598775598299,-0.5235987755982988,1.2533149,1.5734627,0.39761597,0.17353858,0.30120608,0.5261345,0.2757347,-0.36668065,1.5408683,-0.26564533,-0.7708019,-0.16874163,1.2099833,1.2239645
-0.2,-0.2,0.6,-0.5235987755982988,0.523598775598299,-0.5235987755982988,1.2695143,1.58531,0.3765494,0.16058332,0.30150288,0.51473075,0.2639519,-0.34615237,1.5431427,-0.27258405,-0.7831415,-0.13749437,1.2127163,0.9999583
-0.2,-0.2,0.6,-0.5235987755982988,0.523598775598299,-0.5235987755982988,1.2406783,1.5843937,0.37467304,0.1635504,0.30458787,0.49038565,0.31691396,-0.3604545,1.5455158,-0.2634902,-0.8013604,-0.12996908,1.2062182,1.0782316
-0.2,-0.2,0.6,-0.5235987755982988,0.523598775598299,-0.5235987755982988,1.2308216,1.5777048,0.37571433,0.16669084,0.32886976,0.53088385,0.30293727,-0.35857278,1.5389864,-0.27065098,-0.7715607,-0.15428159,1.2144846,1.1489004
-0.2,-0.2,0.6,-0.5235987755982988,0.523598775598299,-0.5235987755982988,1.2579623,1.5921414,0.35273817,0.17748119,0.3367411,0.5239417,0.2598952,-0.37892625,1.5431046,-0.26710773,-0.7971908,-0.14318864,1.2107127,1.0529968
-0.2,-0.2,0.6,-0.5235987755982988,0.523598775598299,-0.5235987755982988,1.2479807,1.5999166,0.35657495,0.14748237,0.29816806,0.5092486,0.32525676,-0.3605226,1.5392027,-0.2251293,-0.76588917,-0.11617021,1.2173598,1.0813524
-0.2,-0.2,0.6,-0.5235987755982988,0.523598775598299,-0.5235987755982988,1.2359599,1.5747814,0.38677508,0.13661012,0.32860062,0.5083756,0.27089,-0.37303352,1.5382333,-0.2775807,-0.807303,-0.12138932,1.2241839,1.0732334
-0.2,-0.2,0.6,-0.5235987755982988,0.523598775598299,-0.5235987755982988,1.2388601,1.593253,0.38648775,0.14686905,0.29466215,0.5086043,0.33754924,-0.37359062,1.5337332,-0.2550977,-0.784176,-0.14415056,1.2107667,1.0229707
-0.2,-0.2,0.6,-0.5235987755982988,0.523598775598299,-0.5235987755982988,1.2196645,1.5812256,0.36963955,0.15292956,0.3243054,0.51899844,0.33266437,-0.36675927,1.5429059,-0.25030792,-0.77887475,-0.14991042,1.2006326,1.0425307
-0.2,-0.2,0.6,-0.5235987755982988,0.523598775598299,-0.5235987755982988,1.2468466,1.5848781,0.37057114,0.14917153,0.31206954,0.49756396,0.2579136,-0.32381225,1.5379727,-0.25677022,-0.7769944,-0.12002383,1.2122551,1.1636277
-0.2,-0.2,0.6,-0.5235987755982988,0.523598775598299,-0.5235987755982988,1.2578387,1.5933173,0.35769975,0.17692947,0.2808039,0.53851247,0.27704525,-0.3781128,1.5345353,-0.26067638,-0.79082453,-0.14613277,1.2146856,0.9761198
-0.2,-0.2,0.6,-0.5235987755982988,0.523598775598299,-0.5235987755982988,1.2278335,1.588067,0.38500902,0.15205821,0.27891645,0.51974994,0.29105228,-0.3565825,1.5448431,-0.2493806,-0.78028226,-0.17781982,1.2271954,1.1990149
-0.2,-0.2,0.6,-0.5235987755982988,0.523598775598299,-0.5235987755982988,1.2567681,1.5750072,0.3672501,0.15759788,0.3049545,0.53052527,0.2924492,-0.37031755,1.5458611,-0.26426354,-0.7829999,-0.12693484,1.2033458,0.97393465
-0.2,-0.2,0.6,-0.5235987755982988,0.523598775598299,-0.5235987755982988,1.2471892,1.5814955,0.3757585,0.16063918,0.2974604,0.53253,0.2972776,-0.35437497,1.5444125,-0.2765974,-0.7875906,-0.13832533,1.208268,1.1023128
-0.2,-0.2,0.6,-0.5235987755982988,0.523598775598299,-0.5235987755982988,1.2280694,1.5952619,0.393053,0.16359623,0.31618947,0.5221514,0.2645535,-0.37455773,1.5403355,-0.26042435,-0.7858271,-0.14464463,1.2126377,1.260824
-0.2,-0.2,0.6,-0.5235987755982988,0.523598775598299,-0.5235987755982988,1.2415292,1.5865394,0.39832518,0.15500128,0.30093774,0.5063395,0.27740544,-0.3525281,1.535938,-0.26544362,-0.8033247,-0.17721058,1.2164145,1.1991235
-0.2,-0.2,0.6,-0.5235987755982988,0.523598775598299,-0.5235987755982988,1.2114054,1.5857176,0.40778226,0.15910542,0.306694,0.50603855,0.26505443,-0.3794867,1.5390269,-0.24254861,-0.789191,-0.14393559,1.2005109,1.1903965
-0.2,-0.2,0.6,-0.5235987755982988,0.523598775598299,-0.5235987755982988,1.2326615,1.5893216,0.3878868,0.16959727,0.2996734,0.5099708,0.32256988,-0.38759202,1.5392756,-0.24800807,-0.7707993,-0.13846642,1.2173636,1.055693
-0.2,-0.2,0.6,-0.5235987755982988,0.523598775598299,-0.5235987755982988,1.2463455,1.5841105,0.3906406,0.17283554,0.31865373,0.49809405,0.26567733,-0.37168336,1.5433296,-0.26713428,-0.7672926,-0.13829072,1.200236,1.0431904
-0.2,-0.2,0.6,-0.5235987755982988,0.523598775598299,-0.5235987755982988,1.2471153,1.5884532,0.3649287,0.1569441,0.29865804,0.53485286,0.3106776,-0.36708295,1.5382096,-0.26472697,-0.7805702,-0.14979503,1.2118324,1.172693
-0.2,-0.2,0.6,-0.5235987755982988,0.523598775598299,-0.5235987755982988,1.2652181,1.579767,0.37241352,0.14572024,0.2986775,0.5276481,0.28940454,-0.36274877,1.5436323,-0.25962374,-0.78480154,-0.13220263,1.2153199,0.9435011
-0.2,-0.2,0.6,-0.5235987755982988,0.523598775598299,-0.5235987755982988,1.2660875,1.584766,0.3543154,0.14629489,0.31883138,0.50828964,0.30151823,-0.35737848,1.5414648,-0.25184366,-0.79784536,-0.1476632,1.2055178,1.1580007
-0.2,-0.2,0.6,-0.5235987755982988,0.523598775598299,-0.5235987755982988,1.2729906,1.591953,0.36349747,0.16530487,0.3248761,0.508869,0.27868396,-0.36637083,1.5356323,-0.26420024,-0.7941787,-0.17992571,1.2126673,1.1830634
-0.2,-0.2,0.6,-0.5235987755982988,0.523598775598299,-0.5235987755982988,1.2470132,1.5834267,0.34682363,0.15528709,0.32231343,0.52199113,0.35218447,-0.36948523,1.5423083,-0.26109695,-0.7827341,-0.096820004,1.1953596,1.1002349
-0.2,-0.2,0.6,-0.5235987755982988,0.523598775598299,-0.5235987755982988,1.2453588,1.5782828,0.37918708,0.15289585,0.30884036,0.5202487,0.31605852,-0.36561278,1.5453188,-0.26001668,-0.7871659,-0.13045417,1.2056526,1.0829041
-0.2,-0.2,0.6,-0.5235987755982988,0.523598775598299,-0.5235987755982988,1.2138789,1.5772086,0.36805412,0.16090557,0.29103625,0.5208864,0.28680247,-0.3475133,1.5405757,-0.24878526,-0.76841146,-0.15294676,1.2065338,1.1556369
-0.2,-0.2,0.6,-0.5235987755982988,0.523598775598299,-0.5235987755982988,1.2285401,1.5855432,0.37795302,0.15389474,0.298696,0.5405156,0.30363885,-0.35839173,1.5414097,-0.27242875,-0.7775353,-0.14854044,1.2131859,1.2922972
-0.2,-0.2,0.6,-0.5235987755982988,0.523598775598299,-0.5235987755982988,1.2634553,1.5865254,0.36168194,0.1647038,0.32493713,0.5093569,0.282798,-0.3682489,1.542123,-0.25348508,-0.7979531,-0.11997602,1.2129999,1.0242534
-0.2,-0.2,0.6,-0.5235987755982988,0.523598775598299,-0.5235987755982988,1.2642328,1.5751319,0.36869213,0.16196112,0.3168569,0.5077441,0.31143987,-0.36946717,1.546033,-0.25384837,-0.7783155,-0.100345924,1.1982807,1.1114314
-0.2,-0.2,0.6,-0.5235987755982988,0.523598775598299,-0.5235987755982988,1.2491207,1.5904769,0.3817635,0.15293217,0.30652484,0.5190549,0.2832069,-0.35883975,1.5411019,-0.2726856,-0.78733116,-0.16173396,1.2141535,1.0200967
-0.2,-0.2,0.6,-0.5235987755982988,0.523598775598299,-0.5235987755982988,1.2240957,1.5965497,0.3800482,0.15233558,0.31063858,0.4775401,0.2921338,-0.36195844,1.5344297,-0.26446298,-0.800841,-0.08451689,1.2099168,1.3078029
-0.2,-0.2,0.6,-0.5235987755982988,0.523598775598299,-0.5235987755982988,1.2376436,1.591492,0.3782621,0.17011012,0.340022,0.5299901,0.28436053,-0.35811114,1.5323303,-0.27099693,-0.77489746,-0.19232768,1.2068948,1.0579408
-0.2,-0.2,0.6,-0.5235987755982988,0.523598775598299,-0.5235987755982988,1.210568,1.5881835,0.37979066,0.1636432,0.31146875,0.5285917,0.30891082,-0.3696478,1.5425565,-0.26275888,-0.7893093,-0.09361043,1.2070928,1.147675
-0.2,-0.2,0.6,-0.5235987755982988,0.523598775598299,-0.5235987755982988,1.2213898,1.5816354,0.36601412,0.17107955,0.34021908,0.5209218,0.32073683,-0.3720082,1.5493861,-0.24068522,-0.7774613,-0.14445937,1.2227632,1.0489858
-0.2,-0.2,0.6,-0.5235987755982988,0.523598775598299,-0.5235987755982988,1.2499056,1.5810318,0.36090186,0.15507552,0.3286464,0.5147318,0.30203974,-0.36968812,1.5242759,-0.2759661,-0.79652387,-0.13719831,1.2234544,1.0999666
-0.2,-0.2,0.6,-0.5235987755982988,0.523598775598299,-0.5235987755982988,1.2350072,1.5867984,0.362437,0.16295214,0.31516647,0.5135085,0.27106267,-0.36493936,1.5363432,-0.2667873,-0.7710994,-0.09832346,1.2035435,1.1559538
-0.2,-0.2,0.6,-0.5235987755982988,0.523598775598299,-0.5235987755982988,1.2431736,1.5920368,0.3701329,0.16554177,0.34383875,0.5127449,0.25842658,-0.3813923,1.5320629,-0.2652397,-0.7918146,-0.18317384,1.2078395,0.9697843
-0.2,-0.2,0.6,-0.5235987755982988,0.523598775598299,-0.5235987755982988,1.2657728,1.5939178,0.36303663,0.1478231,0.31849015,0.51729995,0.2573235,-0.35775054,1.5389879,-0.24872497,-0.794648,-0.08951914,1.2216657,0.980694
-0.2,-0.2,0.6,-0.5235987755982988,0.523598775598299,-0.5235987755982988,1.2753059,1.5892885,0.3701962,0.16041,0.31169963,0.50709015,0.27665377,-0.37177873,1.5384579,-0.26086935,-0.7937153,-0.14762819,1.207491,1.2034589
-0.2,-0.2,0.6,-0.5235987755982988,0.523598775598299,-0.5235987755982988,1.2394569,1.5880184,0.36575326,0.17262319,0.280542,0.50002056,0.30460188,-0.3541773,1.5512567,-0.27448857,-0.81311506,-0.15401816,1.213475,1.1041217
-0.2,-0.2,0.6,-0.5235987755982988,0.523598775598299,-0.5235987755982988,1.2456846,1.5927721,0.3795313,0.16490564,0.29320446,0.5147743,0.28654203,-0.37297925,1.5382612,-0.25338444,-0.7822321,-0.14273253,1.2162368,1.0673873
-0.2,-0.2,0.6,-0.5235987755982988,0.523598775598299,-0.5235987755982988,1.2474118,1.5924506,0.3764153,0.17018597,0.28354773,0.5046726,0.27511045,-0.37253165,1.5463823,-0.2849439,-0.7757067,-0.13506459,1.2032466,0.98661697
-0.2,-0.2,0.6,-0.5235987755982988,0.523598775598299,-0.5235987755982988,1.2458234,1.589759,0.3566253,0.15858024,0.32086137,0.49779716,0.2784009,-0.34159356,1.5376437,-0.25274175,-0.7868128,-0.11667832,1.2209182,1.1368396
-0.2,-0.2,0.6,-0.5235987755982988,0.523598775598299,-0.5235987755982988,1.2182904,1.5935366,0.36759102,0.17628103,0.25829953,0.5081748,0.30572897,-0.35054967,1.5365384,-0.25179785,-0.7792432,-0.13471672,1.2149181,1.0158815
-0.2,-0.2,0.6,-0.5235987755982988,0.523598775598299,-0.5235987755982988,1.2420789,1.5820336,0.36481747,0.16860159,0.3071795,0.5135294,0.25951403,-0.36980906,1.545797,-0.25672936,-0.8012219,-0.15649182,1.2106847,1.0175718
-0.2,-0.2,0.6,-0.5235987755982988,0.523598775598299,-0.5235987755982988,1.2456368,1.5840957,0.3772099,0.15704405,0.29833946,0.5014793,0.2981613,-0.3622929,1.5414202,-0.2525041,-0.8165033,-0.14670677,1.2320842,1.0842142
-0.2,-0.2,0.6,-0.5235987755982988,0.523598775598299,-0.5235987755982988,1.2254192,1.5868933,0.39343932,0.15370342,0.2959372,0.525443,0.3454119,-0.3634838,1.5447489,-0.2594597,-0.776851,-0.1250573,1.2147523,1.0437669
-0.2,-0.2,0.6,-0.5235987755982988,0.523598775598299,-0.5235987755982988,1.2554781,1.5830021,0.36182943,0.1637877,0.3329245,0.49693757,0.3148228,-0.3615059,1.5392873,-0.25670445,-0.7858405,-0.14221506,1.2130982,1.1453698
-0.2,-0.2,0.6,-0.5235987755982988,0.523598775598299,-0.5235987755982988,1.2642863,1.5810099,0.37398762,0.14479859,0.3140123,0.52606374,0.29131445,-0.37419745,1.5478327,-0.2599276,-0.8115585,-0.15098654,1.2071284,1.1636091
-0.2,-0.2,0.6,-0.5235987755982988,0.523598775598299,-0.5235987755982988,1.2621733,1.5934763,0.38326848,0.16553083,0.31973538,0.48883277,0.25379798,-0.34857816,1.5373973,-0.2558299,-0.77310324,-0.15296707,1.213812,1.1255486
-0.2,-0.2,0.6,-0.5235987755982988,0.523598775598299,-0.5235987755982988,1.2690121,1.5840123,0.36670187,0.15414514,0.32393754,0.52004874,0.3471357,-0.3778984,1.5393641,-0.2685058,-0.7918224,-0.15168661,1.2189528,1.0169363
-0.2,-0.2,0.6,-0.5235987755982988,0.523598775598299,-0.5235987755982988,1.2443757,1.5942357,0.3669904,0.1622146,0.30412915,0.492124,0.27854225,-0.3596748,1.5398742,-0.25799653,-0.78825957,-0.11791226,1.2130792,1.0533603
-0.2,-0.2,0.6,-0.5235987755982988,0.523598775598299,-0.5235987755982988,1.2554966,1.5925593,0.38379025,0.16771732,0.3398381,0.496762,0.26703894,-0.36238268,1.5399683,-0.25405332,-0.7645958,-0.10296395,1.2127414,1.1446489
-0.2,-0.2,0.6,-0.5235987755982988,0.523598775598299,-0.5235987755982988,1.2564963,1.587088,0.40326157,0.1528513,0.32622123,0.5113457,0.2486131,-0.3643008,1.5366768,-0.25574175,-0.79494405,-0.13697344,1.214538,1.1947643
-0.2,-0.2,0.6,-0.5235987755982988,0.523598775598299,-0.5235987755982988,1.2508167,1.5933305,0.35971677,0.17154711,0.3182689,0.50426346,0.29145196,-0.36641866,1.5393472,-0.2495385,-0.7873001,-0.15278289,1.2180585,1.1494875
-0.2,-0.2,0.6,-0.5235987755982988,0.523598775598299,-0.5235987755982988,1.2283226,1.5882207,0.39133987,0.159032,0.33133274,0.49784318,0.30949727,-0.37743306,1.5438961,-0.25703928,-0.7960823,-0.18718266,1.2199143,0.97459716
-0.2,-0.2,0.6,-0.5235987755982988,0.523598775598299,-0.5235987755982988,1.2534213,1.5859032,0.37089467,0.16995904,0.3032377,0.5117668,0.2825415,-0.34500143,1.5402114,-0.26316345,-0.7887298,-0.13943006,1.2131631,1.0971209
-0.2,-0.2,0.6,-0.5235987755982988,0.523598775598299,-0.5235987755982988,1.250883,1.5870962,0.36177754,0.17292076,0.2692783,0.4986243,0.2878695,-0.37216735,1.5358366,-0.2612184,-0.75654155,-0.119924664,1.2002256,1.1406984
-0.2,-0.2,0.6,-0.5235987755982988,0.523598775598299,-0.5235987755982988,1.2331927,1.592105,0.37418994,0.16322978,0.328392,0.517551,0.31483042,-0.36716002,1.5394725,-0.26679915,-0.7650714,-0.13419536,1.1971455,1.1391656
-0.2,-0.2,0.6,-0.5235987755982988,0.523598775598299,-0.5235987755982988,1.2298205,1.5952364,0.36676648,0.16071641,0.32742423,0.53018034,0.30641958,-0.38880846,1.5366,-0.26142418,-0.79239124,-0.1416433,1.2034726,1.207983
-0.2,-0.2,0.6,-0.5235987755982988,0.523598775598299,-0.5235987755982988,1.2575805,1.5788499,0.37762782,0.1687723,0.30874446,0.5176307,0.28478667,-0.36889905,1.5360191,-0.28046894,-0.8006245,-0.16130325,1.2151273,1.2214152
-0.2,-0.2,0.6,-0.5235987755982988,0.523598775598299,-0.5235987755982988,1.2471161,1.5887145,0.37314704,0.16438599,0.2981942,0.49337277,0.3139735,-0.36186197,1.5430892,-0.25348964,-0.77979076,-0.1434764,1.2128164,1.0814567
-0.2,-0.2,0.6,-0.5235987755982988,0.523598775598299,-0.5235987755982988,1.2239939,1.5908103,0.3758657,0.18095787,0.2953138,0.5042657,0.2851791,-0.36977205,1.5415304,-0.27702817,-0.7716306,-0.114219695,1.223664,1.2233562
-0.2,-0.2,0.6,-0.5235987755982988,0.523598775598299,-0.5235987755982988,1.2670043,1.5807627,0.39297184,0.17605977,0.2850311,0.5142939,0.3210211,-0.3802064,1.5330261,-0.27301994,-0.7758062,-0.16661514,1.218467,1.0924644
-0.2,-0.2,0.6,-0.5235987755982988,0.523598775598299,-0.5235987755982988,1.2454964,1.5900244,0.40065908,0.15719429,0.30277365,0.50425303,0.27687886,-0.3722186,1.5460218,-0.27793923,-0.78599185,-0.15163046,1.2112362,0.9809662
-0.2,-0.2,0.6,-0.5235987755982988,0.523598775598299,-0.5235987755982988,1.2395211,1.5869539,0.3731172,0.14393967,0.31419668,0.54546577,0.3245723,-0.38200176,1.5456737,-0.2604381,-0.7933507,-0.11592582,1.21835,0.9593717
-0.2,-0.2,0.6,-0.5235987755982988,0.523598775598299,-0.5235987755982988,1.2687105,1.5878261,0.3528527,0.17490464,0.29644948,0.5075028,0.26992914,-0.35349995,1.5332887,-0.2681631,-0.7640003,-0.123254895,1.2082075,1.0710123
-0.2,-0.2,0.6,-0.5235987755982988,0.523598775598299,-0.5235987755982988,1.255994,1.5934881,0.38051656,0.15827718,0.34990114,0.51560223,0.3119357,-0.36465988,1.5359141,-0.2658864,-0.7774939,-0.1456577,1.219544,1.175609
-0.2,-0.2,0.6,-0.5235987755982988,0.523598775598299,-0.5235987755982988,1.2424892,1.5970223,0.36258653,0.1663208,0.2898761,0.53803366,0.20724006,-0.37199903,1.5401229,-0.2528723,-0.7933165,-0.150584,1.1971159,1.2300524
-0.2,-0.2,0.6,-0.5235987755982988,0.523598775598299,-0.5235987755982988,1.2598561,1.5900066,0.37781155,0.15915178,0.31193316,0.52584386,0.3168771,-0.3724066,1.5394919,-0.25406075,-0.7675234,-0.14086905,1.2105492,1.0528331
-0.2,-0.2,0.6,-0.5235987755982988,0.523598775598299,-0.5235987755982988,1.2495849,1.5991985,0.37045005,0.14730631,0.30721954,0.51163435,0.28593487,-0.33467183,1.5418328,-0.27405423,-0.7742929,-0.10620584,1.2108057,1.2499923
-0.2,-0.2,0.6,-0.5235987755982988,0.523598775598299,-0.5235987755982988,1.2381454,1.5875936,0.34924844,0.17646196,0.29421487,0.5411223,0.3109084,-0.3626108,1.5393324,-0.26963633,-0.7750761,-0.1251807,1.2134511,0.9975145
-0.2,-0.2,0.6,-0.5235987755982988,0.523598775598299,-0.5235987755982988,1.2447017,1.5895573,0.36573434,0.16032593,0.31557858,0.5132492,0.318762,-0.36619616,1.5383539,-0.25913525,-0.7689169,-0.13825916,1.2233015,1.0057958
-0.2,-0.2,0.6,-0.5235987755982988,0.523598775598299,-0.5235987755982988,1.2228447,1.5681378,0.3779996,0.19025032,0.3007648,0.5023345,0.27920958,-0.37832648,1.5405109,-0.25090387,-0.7860065,-0.17010596,1.2022262,1.132951
-0.2,-0.2,0.6,-0.5235987755982988,0.523598775598299,-0.5235987755982988,1.2592704,1.5747807,0.36881733,0.16904877,0.32798544,0.5099645,0.30561244,-0.3700549,1.5434272,-0.25596517,-0.7774376,-0.15724151,1.2031496,1.207138
-0.2,-0.2,0.6,-0.5235987755982988,0.523598775598299,-0.5235987755982988,1.2485713,1.5872117,0.36570188,0.14410536,0.29380906,0.5116187,0.30091214,-0.36688843,1.5438036,-0.26366448,-0.81027657,-0.13813892,1.2042065,1.0731574
-0.2,-0.2,0.6,-0.5235987755982988,0.523598775598299,-0.5235987755982988,1.2421627,1.5966047,0.37725672,0.1514542,0.32683387,0.5188602,0.2769767,-0.36924368,1.5477177,-0.25503835,-0.80132496,-0.122628614,1.2165496,1.1773556
-0.2,-0.2,0.6,-0.5235987755982988,0.523598775598299,-0.5235987755982988,1.2568249,1.5782231,0.36969042,0.17104411,0.3168774,0.50481254,0.28256977,-0.37211648,1.5497475,-0.25934625,-0.7974325,-0.12239171,1.2091701,1.106405
-0.2,-0.2,0.6,-0.5235987755982988,0.523598775598299,-0.5235987755982988,1.2565753,1.5777495,0.37184784,0.16562685,0.31019667,0.5249869,0.29280573,-0.395101,1.5497406,-0.25409645,-0.7793448,-0.087171964,1.2169646,1.231128
-0.2,-0.2,0.6,-0.5235987755982988,0.523598775598299,-0.5235987755982988,1.262826,1.5922413,0.3918049,0.16199991,0.28336638,0.5101375,0.29963678,-0.36415392,1.5365133,-0.27388045,-0.79466474,-0.13957128,1.2238458,1.1485023
-0.2,-0.2,0.6,-0.5235987755982988,0.523598775598299,-0.5235987755982988,1.2634416,1.5782094,0.37221813,0.17217186,0.26404294,0.5182411,0.28347266,-0.3646794,1.5441128,-0.26891297,-0.78847986,-0.14483126,1.2176759,1.0281376
-0.2,-0.2,0.6,-0.5235987755982988,0.523598775598299,-0.5235987755982988,1.2517306,1.577585,0.3760733,0.18057565,0.30826983,0.50717956,0.29924,-0.3788251,1.5379908,-0.24900441,-0.78506917,-0.13988632,1.2139482,1.2547872
-0.2,-0.2,0.6,-0.5235987755982988,0.523598775598299,-0.5235987755982988,1.2687236,1.5808098,0.3680771,0.17804638,0.32175744,0.492215,0.27801567,-0.3698165,1.5354042,-0.25569984,-0.77907395,-0.13492383,1.2078005,1.0906795
-0.2,-0.2,0.6,-0.5235987755982988,0.523598775598299,-0.5235987755982988,1.2374928,1.5901637,0.38075563,0.16241698,0.31223348,0.53206885,0.31205085,-0.3733319,1.5394596,-0.24807103,-0.78349906,-0.16146734,1.2236245,1.1169683
-0.2,-0.2,0.6,-0.5235987755982988,0.523598775598299,-0.5235987755982988,1.2288809,1.5804434,0.37431276,0.18048787,0.29719192,0.5287717,0.29268685,-0.35574177,1.5347217,-0.25562853,-0.76756185,-0.17901398,1.2152416,1.2845483
-0.2,-0.2,0.6,-0.5235987755982988,0.523598775598299,-0.5235987755982988,1.2703321,1.5904205,0.36835235,0.1621948,0.27583313,0.5133453,0.33144718,-0.37140042,1.547542,-0.26045668,-0.78421485,-0.15319552,1.209207,1.0963893
