sanky1234/BimanualDexCatch/isaacgymenvs/cem_results/football_pose_-0.2_-0.2_1.0999999999999999_0.5235987755982988_0.0_0_2025-05-24.csv
x,y,z,roll,pitch,yaw,robot1/joint1,robot1/joint2,robot1/joint3,robot1/joint4,robot1/joint5,robot1/joint6,robot1/joint7,robot2/joint1,robot2/joint2,robot2/joint3,robot2/joint4,robot2/joint5,robot2/joint6,robot2/joint7
-0.2,-0.2,1.0999999999999999,0.5235987755982988,0.0,0,-0.2608488,-1.3576918,0.9899174,0.14544426,0.010704016,0.9257687,0.4059344,-0.7326327,0.77575034,-0.96215653,-0.03991334,-0.95222795,0.8811351,-1.7827445
-0.2,-0.2,1.0999999999999999,0.5235987755982988,0.0,0,-0.27481422,-1.543455,1.0266521,0.006924085,-0.41449246,0.7109259,-0.12731238,-0.73524225,0.77439535,-0.9650365,-0.043313853,-0.9557254,0.88730085,-1.7918894
-0.2,-0.2,1.0999999999999999,0.5235987755982988,0.0,0,-0.7174126,-1.3621848,1.4401001,0.10777232,0.13613158,1.0632961,-0.34255415,-0.7355621,0.77689284,-0.9613018,-0.043133415,-0.9559437,0.88632596,-1.8248621
-0.2,-0.2,1.0999999999999999,0.5235987755982988,0.0,0,-0.124410816,-1.2511427,1.1488794,0.055404007,-0.20033818,0.65658545,1.1152537,-0.73887527,0.77195317,-0.95881575,-0.042243548,-0.95894504,0.89658713,-1.8358016
-0.2,-0.2,1.0999999999999999,0.5235987755982988,0.0,0,-0.6064301,-1.5040019,1.5073438,0.15054777,0.02075016,0.63551533,-0.42069837,-0.73898005,0.771511,-0.9518919,-0.041149974,-0.9581027,0.88906515,-1.8324037
-0.2,-0.2,1.0999999999999999,0.5235987755982988,0.0,0,-0.4256026,-1.2839966,1.2170405,-0.075470895,0.023355834,0.84304416,-1.2426434,-0.7431181,0.7724134,-0.9600669,-0.042543374,-0.95650494,0.8888372,-1.9594551
-0.2,-0.2,1.0999999999999999,0.5235987755982988,0.0,0,0.08241165,-1.4158484,0.9881725,0.11331972,-0.083747596,1.3719949,0.09871132,-0.7396095,0.7815842,-0.95553946,-0.043155484,-0.9669182,0.88245445,-1.8073314
-0.2,-0.2,1.0999999999999999,0.5235987755982988,0.0,0,-0.35721004,-1.3371387,0.9154136,-0.015970916,-0.10078151,0.5488407,-0.35984266,-0.73751897,0.77669954,-0.9556773,-0.044641204,-0.9591829,0.88174284,-1.8030485
-0.2,-0.2,1.0999999999999999,0.5235987755982988,0.0,0,-0.23962343,-1.3366172,1.430728,0.21002106,-0.012629587,1.1036452,1.5660262,-0.73753196,0.77620536,-0.9558523,-0.044770353,-0.9510551,0.88700366,-1.9091855
-0.2,-0.2,1.0999999999999999,0.5235987755982988,0.0,0,-0.2086367,-1.174284,1.0946908,0.16253121,0.12568289,1.0246772,1.7786106,-0.7433509,0.77619433,-0.9607441,-0.042604893,-0.95192856,0.8784469,-2.00249
-0.2,-0.2,1.0999999999999999,0.5235987755982988,0.0,0,-0.45094538,-1.2475816,1.2456673,0.12274443,-0.33787706,0.9946209,0.73291844,-0.73841983,0.77735233,-0.9601675,-0.04161439,-0.9627173,0.87480235,-1.8782678
-0.2,-0.2,1.0999999999999999,0.5235987755982988,0.0,0,-0.44602367,-1.240308,1.4489093,0.043330148,-0.4467839,0.77203333,-0.048904203,-0.7382186,0.7772501,-0.95448464,-0.043286156,-0.95336235,0.87979233,-1.7554703
-0.2,-0.2,1.0999999999999999,0.5235987755982988,0.0,0,-0.50809616,-1.3231552,1.2152175,0.13935234,-0.18043095,0.9701408,1.0475167,-0.7393771,0.780834,-0.96139455,-0.045355212,-0.9547274,0.88706034,-1.6861099
-0.2,-0.2,1.0999999999999999,0.5235987755982988,0.0,0,0.027980708,-1.4100841,1.2760488,-0.004775057,-0.021679223,1.3424706,0.07902105,-0.7383282,0.78181815,-0.96100163,-0.04337695,-0.9612347,0.88082445,-1.886805
-0.2,-0.2,1.0999999999999999,0.5235987755982988,0.0,0,-0.24273491,-1.236714,1.3557874,0.040568344,-0.07691222,1.1789553,0.61368895,-0.7412469,0.771964,-0.94908494,-0.04181925,-0.96110976,0.8796073,-1.8361607
-0.2,-0.2,1.0999999999999999,0.5235987755982988,0.0,0,-0.4350935,-1.2026126,1.5230876,0.107376456,-0.014862958,0.77321607,0.10689338,-0.7389242,0.77625185,-0.95468473,-0.044392113,-0.95041203,0.87981766,-1.8373635
-0.2,-0.2,1.0999999999999999,0.5235987755982988,0.0,0,0.3101529,-1.3127313,1.4935232,0.18726304,-0.2430022,1.04442,0.2618422,-0.7398166,0.7747411,-0.9622619,-0.041490793,-0.9564407,0.8849048,-1.8362192
-0.2,-0.2,1.0999999999999999,0.5235987755982988,0.0,0,-0.37438947,-1.3144283,1.1777993,0.041236695,-0.20264453,1.3061349,1.5658773,-0.7398366,0.7697213,-0.94793844,-0.04336811,-0.95520926,0.89140826,-1.7636653
-0.2,-0.2,1.0999999999999999,0.5235987755982988,0.0,0,-0.26246557,-1.2560534,1.1041111,0.031393092,-0.049885094,1.2511208,-0.550055,-0.7321945,0.7806123,-0.95183676,-0.043954313,-0.960558,0.880997,-1.7472879
-0.2,-0.2,1.0999999999999999,0.5235987755982988,0.0,0,-0.82591635,-1.3203336,1.2315954,0.14725478,-0.30734223,0.90033895,-0.28445083,-0.73714876,0.77638197,-0.9576054,-0.043677,-0.9509281,0.88408446,-1.9565569
-0.2,-0.2,1.0999999999999999,0.5235987755982988,0.0,0,-0.3766774,-1.271242,1.3362261,0.036283728,-0.30736464,1.0768113,0.61526215,-0.74139726,0.7747828,-0.9538744,-0.044902276,-0.95607674,0.88860995,-1.9584138
-0.2,-0.2,1.0999999999999999,0.5235987755982988,0.0,0,0.06784531,-1.3034748,1.2442511,0.012902319,-0.10473329,0.6762419,0.4949947,-0.7436697,0.7743314,-0.964812,-0.040668637,-0.96193206,0.8760485,-1.8591692
-0.2,-0.2,1.0999999999999999,0.5235987755982988,0.0,0,-0.61036044,-1.2759697,0.89486194,0.15869547,-0.2428306,0.87078583,-0.134644,-0.7394239,0.7761727,-0.9641166,-0.04254332,-0.95646816,0.8851817,-1.9125133
-0.2,-0.2,1.0999999999999999,0.5235987755982988,0.0,0,-0.5834845,-1.2977904,0.9620643,0.32167912,-0.16106571,0.9930163,0.9631708,-0.7389057,0.7748226,-0.9569417,-0.04183247,-0.9555788,0.8849398,-1.8431779
-0.2,-0.2,1.0999999999999999,0.5235987755982988,0.0,0,-0.08006809,-1.4907238,1.0327567,0.12590113,-0.097034514,1.0962492,1.1600511,-0.73725057,0.77739674,-0.95537907,-0.042794175,-0.9615585,0.8826011,-1.789896
-0.2,-0.2,1.0999999999999999,0.5235987755982988,0.0,0,-0.08570711,-1.3959869,1.4128493,0.31796476,0.026979277,1.2015516,-1.005153,-0.7386925,0.77576375,-0.9547645,-0.045178413,-0.9625738,0.88236696,-1.7171284
-0.2,-0.2,1.0999999999999999,0.5235987755982988,0.0,0,-0.56849474,-1.2576838,1.0732635,-0.03920095,-0.25820056,1.0549194,-0.35544747,-0.73876894,0.77274054,-0.95434934,-0.042333554,-0.9558007,0.8863217,-1.9034362
-0.2,-0.2,1.0999999999999999,0.5235987755982988,0.0,0,-0.44047052,-1.2111787,1.1805428,0.3583441,-0.22884537,0.8148767,1.2638454,-0.73839784,0.77253747,-0.9599072,-0.041229386,-0.9532036,0.88806117,-1.9291749
-0.2,-0.2,1.0999999999999999,0.5235987755982988,0.0,0,0.08648089,-1.3137629,1.3619484,0.18889187,-0.07128498,0.82626086,-0.2560318,-0.7418567,0.7718331,-0.95763636,-0.042154275,-0.9584039,0.87534106,-1.8574116
-0.2,-0.2,1.0999999999999999,0.5235987755982988,0.0,0,-0.4021473,-1.2419263,1.2989821,0.15613517,-0.043097124,1.2035848,0.08581303,-0.7349267,0.77903706,-0.9583728,-0.04316093,-0.9536114,0.87810826,-1.9219878
-0.2,-0.2,1.0999999999999999,0.5235987755982988,0.0,0,0.20132436,-1.3080511,1.5757967,0.1257139,-0.18637672,0.810895,-0.18889406,-0.7396098,0.77385545,-0.95209426,-0.04143868,-0.96467876,0.88755214,-1.8236946
-0.2,-0.2,1.0999999999999999,0.5235987755982988,0.0,0,-0.06925482,-1.4170789,1.0677928,0.15996324,0.15135412,1.0639784,0.97797894,-0.73849034,0.77306455,-0.95019335,-0.043177336,-0.95686424,0.87974066,-1.9202906
-0.2,-0.2,1.0999999999999999,0.5235987755982988,0.0,0,-0.28719863,-1.5453012,1.0275971,0.05162556,-0.21143693,1.0555239,0.5375827,-0.73580945,0.77736396,-0.9600086,-0.041899897,-0.9539657,0.88445574,-1.9026598
-0.2,-0.2,1.0999999999999999,0.5235987755982988,0.0,0,-0.45221925,-1.3113793,1.1106946,0.13543862,-0.18178111,1.0104352,0.4989712,-0.73937947,0.7751802,-0.9671471,-0.043572705,-0.9570685,0.88147205,-1.8640378
-0.2,-0.2,1.0999999999999999,0.5235987755982988,0.0,0,-0.69836146,-1.2428412,1.1163073,0.07179714,0.0785873,0.70579916,-0.18392223,-0.7373542,0.77564305,-0.957248,-0.04150478,-0.95934343,0.87329376,-1.8176674
-0.2,-0.2,1.0999999999999999,0.5235987755982988,0.0,0,-0.86972106,-1.5541111,1.4060262,0.0007138498,-0.061879512,0.8558866,-0.093834616,-0.7397353,0.7752191,-0.9585438,-0.04260362,-0.9514956,0.8846854,-1.8583634
-0.2,-0.2,1.0999999999999999,0.5235987755982988,0.0,0,-0.1940104,-1.1086992,1.1552001,0.11867061,-0.0951682,1.0157448,1.4809138,-0.73606646,0.7767339,-0.9583328,-0.043572843,-0.9528341,0.8787467,-1.9999747
-0.2,-0.2,1.0999999999999999,0.5235987755982988,0.0,0,-0.25320315,-1.2436521,1.1332878,-0.00048174403,0.33004028,0.94349617,-1.0197941,-0.7434421,0.7768124,-0.9633345,-0.043435477,-0.95728534,0.88920635,-1.8129689
-0.2,-0.2,1.0999999999999999,0.5235987755982988,0.0,0,-0.055523198,-1.5199476,1.0377352,-0.016692406,-0.18478523,1.1257585,-0.5635125,-0.73821056,0.7751863,-0.95579875,-0.0433699,-0.946542,0.88356566,-1.7933849
-0.2,-0.2,1.0999999999999999,0.5235987755982988,0.0,0,-0.17930336,-1.5112334,1.32979,-0.040817086,-0.19693504,0.98340374,0.17914328,-0.73385715,0.77685183,-0.9568407,-0.042805802,-0.9566759,0.8759181,-1.8097221
-0.2,-0.2,1.0999999999999999,0.5235987755982988,0.0,0,-0.33769652,-1.3250909,1.0318345,0.21898814,-0.36464766,0.91585225,0.5874724,-0.739254,0.7782657,-0.9635635,-0.04186797,-0.95177233,0.8883061,-1.7737205
-0.2,-0.2,1.0999999999999999,0.5235987755982988,0.0,0,-0.07462632,-1.4458051,1.1078477,-0.15758705,0.048280425,0.87393785,1.0814943,-0.7402107,0.7756848,-0.9621649,-0.04123907,-0.95969754,0.87546736,-1.9263792
-0.2,-0.2,1.0999999999999999,0.5235987755982988,0.0,0,0.044255264,-1.3829956,1.631888,0.108163334,-0.041534036,1.5633523,1.4842601,-0.73839647,0.7731343,-0.9610748,-0.043331936,-0.9557215,0.88825667,-1.7621732
-0.2,-0.2,1.0999999999999999,0.5235987755982988,0.0,0,0.025092881,-1.4182957,1.3306565,0.086526275,-0.37446463,0.8924942,-0.598779,-0.74008137,0.77465826,-0.96275306,-0.04372801,-0.9587678,0.88941175,-1.926031
-0.2,-0.2,1.0999999999999999,0.5235987755982988,0.0,0,-0.58674514,-1.3293133,1.2189317,-0.025365148,-0.1354278,1.211982,-0.32599473,-0.73853743,0.77597004,-0.9536577,-0.042109214,-0.9603968,0.88089556,-1.8702322
-0.2,-0.2,1.0999999999999999,0.5235987755982988,0.0,0,-0.48232752,-1.1983182,1.3206886,0.10046018,-0.5252747,1.137295,-0.8439347,-0.7296713,0.77825546,-0.9574384,-0.040786903,-0.9579322,0.87464666,-1.7378368
-0.2,-0.2,1.0999999999999999,0.5235987755982988,0.0,0,-0.031242315,-1.348104,1.0252329,0.030397456,0.19916545,0.75225693,1.0539111,-0.73452073,0.78026664,-0.9578044,-0.04294634,-0.9589327,0.87656975,-1.9264045
-0.2,-0.2,1.0999999999999999,0.5235987755982988,0.0,0,-0.74466753,-1.2311343,1.3654839,0.062832594,0.03259504,1.3704389,0.8611387,-0.7355187,0.7762689,-0.95687395,-0.042754546,-0.9511317,0.8876705,-1.8380312
-0.2,-0.2,1.0999999999999999,0.5235987755982988,0.0,0,-0.45391265,-1.2498626,1.5726662,0.040939115,-0.12620568,0.7290826,0.327278,-0.73922306,0.77609915,-0.97200906,-0.04230399,-0.9570593,0.8846288,-1.8529347
-0.2,-0.2,1.0999999999999999,0.5235987755982988,0.0,0,-0.6152937,-1.4325207,1.4513441,0.0869562,-0.4382615,0.8911006,0.025165986,-0.74060464,0.7742769,-0.9618312,-0.043985058,-0.9595832,0.8816076,-1.9619333
-0.2,-0.2,1.0999999999999999,0.5235987755982988,0.0,0,-0.15350588,-1.005919,1.6091225,0.19219169,-0.04986294,1.0203222,0.44802693,-0.7384786,0.77531815,-0.9602873,-0.04032868,-0.95454425,0.88717884,-1.8604279
-0.2,-0.2,1.0999999999999999,0.5235987755982988,0.0,0,-0.6110722,-1.2053691,1.3680705,0.064090304,-0.054175135,0.8336882,0.6459884,-0.7348735,0.77543485,-0.95717186,-0.0412648,-0.960232,0.8884492,-1.89909
-0.2,-0.2,1.0999999999999999,0.5235987755982988,0.0,0,0.054535486,-1.1885933,1.3135046,-0.014620716,-0.1893042,0.56978214,-0.580764,-0.7436045,0.77107507,-0.95325226,-0.04265487,-0.95712084,0.88931715,-1.9982569
-0.2,-0.2,1.0999999999999999,0.5235987755982988,0.0,0,-0.41966286,-1.6828804,1.1635585,-0.025273455,-0.3532918,0.6841677,1.731686,-0.74424213,0.76969224,-0.95804733,-0.042817652,-0.961934,0.8868264,-1.8626803
-0.2,-0.2,1.0999999999999999,0.5235987755982988,0.0,0,0.549657,-1.110008,1.1627606,-0.037262432,-0.27968678,0.8185767,0.003893911,-0.7428972,0.7772817,-0.9512345,-0.04229472,-0.95317394,0.882972,-1.7897508
-0.2,-0.2,1.0999999999999999,0.5235987755982988,0.0,0,-0.4199251,-1.551349,1.4795971,0.093148835,0.0071732616,1.1137841,0.15243869,-0.740964,0.7724613,-0.95739126,-0.043345276,-0.96009064,0.88219506,-1.9194108
-0.2,-0.2,1.0999999999999999,0.5235987755982988,0.0,0,-0.76799893,-1.3399612,1.4905165,0.08712898,0.06321718,1.0176758,-0.09727219,-0.74320936,0.7728763,-0.95815456,-0.04257299,-0.95547837,0.89019096,-2.0014508
-0.2,-0.2,1.0999999999999999,0.5235987755982988,0.0,0,-0.15786146,-1.3442252,1.3228868,0.021285228,-0.107047826,0.65350884,-0.034083333,-0.7420619,0.78470707,-0.9581979,-0.0457148,-0.95598894,0.88605607,-1.9589816
-0.2,-0.2,1.0999999999999999,0.5235987755982988,0.0,0,-0.5006062,-1.4612174,1.1352997,0.18926941,-0.1526163,0.89565337,-0.1737128,-0.7419759,0.7802738,-0.9549883,-0.043657392,-0.9605745,0.8753349,-2.0009544
-0.2,-0.2,1.0999999999999999,0.5235987755982988,0.0,0,-0.18747954,-1.5754825,1.2692213,0.22323403,-0.19757293,0.7414668,0.35674095,-0.73412263,0.783505,-0.95833236,-0.0437132,-0.9518527,0.88192946,-1.8578013
-0.2,-0.2,1.0999999999999999,0.5235987755982988,0.0,0,-0.3453285,-1.3724715,1.6819441,0.086348504,0.0070346994,0.97197807,-0.66250443,-0.7422259,0.7735025,-0.96151364,-0.042426836,-0.95941544,0.888907,-1.9091136
-0.2,-0.2,1.0999999999999999,0.5235987755982988,0.0,0,-0.2695606,-1.1614176,1.4092791,0.12021546,-0.21490861,0.8976581,0.37373352,-0.7406578,0.777461,-0.96275604,-0.041870426,-0.9562449,0.87709135,-1.9079788
-0.2,-0.2,1.0999999999999999,0.5235987755982988,0.0,0,-0.16596293,-1.2712278,1.3412762,0.052807037,-0.09864677,1.1797069,0.72640634,-0.7391495,0.77465355,-0.95609015,-0.0431511,-0.95648324,0.8871525,-1.8689018
-0.2,-0.2,1.0999999999999999,0.5235987755982988,0.0,0,-0.19974455,-1.3648264,1.1794562,0.21529444,0.14580363,1.0569403,1.4158279,-0.74408036,0.7733501,-0.96016955,-0.04149704,-0.9614782,0.88271385,-1.8920602
-0.2,-0.2,1.0999999999999999,0.5235987755982988,0.0,0,-0.35227215,-1.263784,1.0882615,0.14502461,0.14421678,1.376863,-0.00870166,-0.7337952,0.77341497,-0.9598127,-0.04507442,-0.9527481,0.8739069,-1.8716524
-0.2,-0.2,1.0999999999999999,0.5235987755982988,0.0,0,-0.2765572,-1.3434042,1.5212002,-0.028969161,0.10669304,1.0328574,-0.36040008,-0.7387771,0.77934295,-0.95788634,-0.040914062,-0.95241725,0.89332134,-1.8215677
-0.2,-0.2,1.0999999999999999,0.5235987755982988,0.0,0,-0.40844077,-1.445636,1.0304186,0.044813238,-0.24404301,1.0551343,-0.036526762,-0.73892903,0.774931,-0.9574675,-0.041738093,-0.9582947,0.88607144,-1.901267
-0.2,-0.2,1.0999999999999999,0.5235987755982988,0.0,0,-0.42129046,-1.4720721,1.2324054,-0.0103624705,0.009869694,0.7027695,0.54672307,-0.7401634,0.7763314,-0.95433056,-0.044270575,-0.9570759,0.879064,-1.8325195
-0.2,-0.2,1.0999999999999999,0.5235987755982988,0.0,0,0.29141018,-1.3660127,1.2641053,0.09623954,-0.14601998,0.9723682,1.1963639,-0.7360917,0.77303,-0.95925564,-0.041367922,-0.95898527,0.882636,-1.8371968
-0.2,-0.2,1.0999999999999999,0.5235987755982988,0.0,0,-0.45069525,-1.5454183,1.1361686,0.24631093,-0.17921688,0.93115777,1.6293812,-0.73437685,0.77573943,-0.9668579,-0.041216705,-0.9545271,0.89734924,-1.8307039
-0.2,-0.2,1.0999999999999999,0.5235987755982988,0.0,0,-0.765362,-1.2880442,1.1225939,0.06520978,-0.030254735,0.7029388,-1.3303206,-0.7455516,0.7719917,-0.96087617,-0.04233863,-0.9572589,0.888118,-1.840709
-0.2,-0.2,1.0999999999999999,0.5235987755982988,0.0,0,-0.6101458,-1.3997128,1.1676313,0.11879656,-0.136599,0.9790672,-0.3694264,-0.7353404,0.7796066,-0.95613676,-0.04268137,-0.95463675,0.881403,-1.8878462
-0.2,-0.2,1.0999999999999999,0.5235987755982988,0.0,0,-0.47303003,-1.3424506,1.4313039,0.09853355,-0.12449995,0.68630713,-0.06374855,-0.7379317,0.7745135,-0.95887494,-0.044432443,-0.9519564,0.8845164,-1.8733429
-0.2,-0.2,1.0999999999999999,0.5235987755982988,0.0,0,-0.4838551,-1.2778742,1.1032802,-0.06884022,-0.47194576,1.1826918,0.7829949,-0.73797613,0.7714785,-0.94958323,-0.040998627,-0.9530265,0.8854771,-1.9218603
-0.2,-0.2,1.0999999999999999,0.5235987755982988,0.0,0,-0.2888824,-1.2647606,1.2552246,0.1060508,-0.021608941,0.7463136,0.95125175,-0.7376055,0.7744606,-0.95755684,-0.041424204,-0.95076674,0.88146544,-1.9208546
-0.2,-0.2,1.0999999999999999,0.5235987755982988,0.0,0,-0.5811763,-1.4394591,1.3556803,-0.03167912,-0.0063650557,1.0030347,0.7003608,-0.739185,0.7773766,-0.9576374,-0.04403382,-0.96487594,0.884752,-1.8156852
-0.2,-0.2,1.0999999999999999,0.5235987755982988,0.0,0,-0.006438155,-1.1756687,1.3978056,0.0017427257,-0.21071953,0.92915314,-0.31824496,-0.7432081,0.7759948,-0.9608478,-0.042664994,-0.9574168,0.8891823,-1.9389616
-0.2,-0.2,1.0999999999999999,0.5235987755982988,0.0,0,-0.2073355,-1.3765054,1.023996,0.15753917,-0.04959058,0.9149407,-1.2109557,-0.7359457,0.782105,-0.96138346,-0.04352047,-0.95485944,0.8804034,-1.856579
-0.2,-0.2,1.0999999999999999,0.5235987755982988,0.0,0,0.19507124,-1.3589962,1.1443429,0.035620514,-0.032987528,0.87560904,0.8440548,-0.7380309,0.7764346,-0.9544184,-0.044289432,-0.95615125,0.87655497,-1.9726304
-0.2,-0.2,1.0999999999999999,0.5235987755982988,0.0,0,-0.25953564,-1.3471911,1.1816492,0.13533203,0.12842594,1.2957748,-0.45252165,-0.73829657,0.77768356,-0.9682222,-0.044867326,-0.95211697,0.8848567,-1.7854201
-0.2,-0.2,1.0999999999999999,0.5235987755982988,0.0,0,-0.5949008,-1.4143889,1.5339714,0.09356838,0.22958319,1.1228507,1.1507915,-0.7402699,0.7752913,-0.9527888,-0.045111842,-0.9570621,0.88391054,-1.9766597
-0.2,-0.2,1.0999999999999999,0.5235987755982988,0.0,0,-0.6617581,-1.3654156,1.162464,-0.03433885,-0.0022935355,1.1674695,0.0030897274,-0.7348334,0.77705514,-0.9630118,-0.04230923,-0.9559062,0.89027756,-1.8870704
-0.2,-0.2,1.0999999999999999,0.5235987755982988,0.0,0,-0.012469784,-1.3702159,1.2792706,0.09493782,0.027373249,0.9850798,-0.15468228,-0.7414284,0.7727839,-0.95433265,-0.04164891,-0.9639126,0.8905758,-1.8220801
-0.2,-0.2,1.0999999999999999,0.5235987755982988,0.0,0,0.027196327,-1.2357236,1.3045783,0.11021806,0.19762266,0.80335504,-0.15908799,-0.73770386,0.77106386,-0.9517403,-0.042653706,-0.9578748,0.8833857,-1.9936153
-0.2,-0.2,1.0999999999999999,0.5235987755982988,0.0,0,-0.5000164,-1.4064184,1.0744091,-0.035067,-0.3024079,1.0138652,1.4650958,-0.73757845,0.77535707,-0.9612326,-0.041008342,-0.95113397,0.88891953,-1.8374659
-0.2,-0.2,1.0999999999999999,0.5235987755982988,0.0,0,-0.24273741,-1.3663951,0.9696443,0.049825035,0.16322558,1.1501131,-0.06859253,-0.73934966,0.7781128,-0.95976675,-0.0427134,-0.9535966,0.89179516,-1.9643434
-0.2,-0.2,1.0999999999999999,0.5235987755982988,0.0,0,-0.1887535,-1.4314965,0.9965031,0.08560468,-0.16573288,0.9265202,-1.2868387,-0.73627466,0.77545744,-0.956675,-0.04168832,-0.95728606,0.88849324,-1.8103565
-0.2,-0.2,1.0999999999999999,0.5235987755982988,0.0,0,0.20883206,-1.3052267,1.2257476,0.042703517,-0.22906555,1.3078185,0.6788891,-0.7422064,0.7725588,-0.95455533,-0.04328705,-0.9547372,0.88998866,-1.9106858
-0.2,-0.2,1.0999999999999999,0.5235987755982988,0.0,0,-0.5165835,-1.3395151,1.2675915,0.05618511,0.10947336,1.02971,-0.06906134,-0.7388712,0.7732226,-0.95664394,-0.042301763,-0.95122516,0.8895614,-1.8418404
-0.2,-0.2,1.0999999999999999,0.5235987755982988,0.0,0,-0.11434508,-1.0984765,1.2208923,0.07722741,-0.20870022,0.94940084,-0.07671057,-0.7341312,0.77678865,-0.9530713,-0.042234935,-0.96080303,0.8755479,-1.7872127
-0.2,-0.2,1.0999999999999999,0.5235987755982988,0.0,0,-0.26505762,-1.3907428,1.3434283,0.041170515,-0.2493822,1.2354547,-0.48208132,-0.7419708,0.7769126,-0.95864165,-0.043419383,-0.9540294,0.88865423,-1.8382609
-0.2,-0.2,1.0999999999999999,0.5235987755982988,0.0,0,-0.41539824,-1.301079,1.1179512,0.24916555,0.11641215,1.0106175,1.024575,-0.7382706,0.7788915,-0.95604235,-0.04262116,-0.96279645,0.87477744,-1.8825125
-0.2,-0.2,1.0999999999999999,0.5235987755982988,0.0,0,-0.46898925,-1.4415284,1.1888604,0.052543815,0.05963115,0.9669217,1.6104246,-0.73599225,0.77888894,-0.9671199,-0.042592973,-0.95695627,0.88177836,-1.9375932
-0.2,-0.2,1.0999999999999999,0.5235987755982988,0.0,0,-0.122497596,-1.2447932,1.1297146,0.010373199,-0.07975778,1.0103633,-0.24659714,-0.7375524,0.77290624,-0.963635,-0.0418954,-0.95248324,0.8965333,-1.833774
-0.2,-0.2,1.0999999999999999,0.5235987755982988,0.0,0,-0.26767316,-1.4341103,1.1362342,0.2116224,-0.14149508,0.9293053,0.5755594,-0.739231,0.7792266,-0.96056265,-0.043196652,-0.9536998,0.8947653,-1.9122051
-0.2,-0.2,1.0999999999999999,0.5235987755982988,0.0,0,-0.61957544,-1.368408,1.2032231,-0.029690847,-0.315669,1.0270777,1.0807239,-0.7369213,0.7792734,-0.955427,-0.04156054,-0.96126515,0.88065404,-1.8649943
-0.2,-0.2,1.0999999999999999,0.5235987755982988,0.0,0,-0.74410784,-1.4236404,1.225464,0.18523182,-0.030183204,1.2355543,0.5168126,-0.7391673,0.7740454,-0.9563653,-0.041770384,-0.96240884,0.89015,-1.8319274
-0.2,-0.2,1.0999999999999999,0.5235987755982988,0.0,0,-0.44512266,-1.2915941,1.2773999,0.18655966,0.052320845,0.81465304,0.87098753,-0.7359089,0.7782001,-0.961967,-0.04240795,-0.9582352,0.8910259,-1.9517534
-0.2,-0.2,1.0999999999999999,0.5235987755982988,0.0,0,-0.14113143,-1.6512485,1.2575163,0.11290049,-0.01206924,1.0879244,1.324249,-0.7352671,0.7782292,-0.9627983,-0.042650312,-0.9562213,0.87442267,-1.8737129
-0.2,-0.2,1.0999999999999999,0.5235987755982988,0.0,0,-0.20977163,-1.3734792,1.2999634,-0.019161524,-0.5244682,0.99710715,-1.283931,-0.7368665,0.77868503,-0.9551775,-0.043982174,-0.9568212,0.8788923,-1.826883
-0.2,-0.2,1.0999999999999999,0.5235987755982988,0.0,0,-0.1681415,-1.2488861,1.0076857,0.050985277,0.07463219,0.89221454,1.3646098,-0.7440949,0.7774635,-0.95904404,-0.04386848,-0.9562897,0.88561165,-1.9123759
-0.2,-0.2,1.0999999999999999,0.5235987755982988,0.0,0,-0.6214638,-1.3654051,1.5511878,0.105211906,-0.2203672,0.88627833,-0.278429,-0.7355869,0.7758328,-0.95017165,-0.0406828,-0.9565779,0.87982625,-1.8446699
-0.2,-0.2,1.0999999999999999,0.5235987755982988,0.0,0,-0.21554935,-1.2124602,1.1521171,-0.021048082,-0.15534852,0.6849908,-0.030686101,-0.73728496,0.7784133,-0.9616955,-0.04271072,-0.9572514,0.8854698,-1.7825049
-0.2,-0.2,1.0999999999999999,0.5235987755982988,0.0,0,-0.10860898,-1.4241198,1.1768628,-0.07640069,0.062020272,0.8354045,0.14504127,-0.739216,0.7700784,-0.94844943,-0.041456334,-0.95447713,0.89009684,-1.8069326
-0.2,-0.2,1.0999999999999999,0.5235987755982988,0.0,0,-0.11692102,-1.2843786,1.4755042,0.06155555,-0.27395642,1.0186578,0.71244097,-0.7401402,0.77456075,-0.9614574,-0.043465238,-0.9685884,0.891997,-1.9891435
-0.2,-0.2,1.0999999999999999,0.5235987755982988,0.0,0,-0.35122427,-1.3780471,1.0854149,0.15907209,-0.122333676,0.9899685,1.1075585,-0.74612623,0.76855874,-0.9645222,-0.042821534,-0.9561427,0.885002,-1.9167943
-0.2,-0.2,1.0999999999999999,0.5235987755982988,0.0,0,-0.07915597,-1.4609629,1.2535375,0.036950704,0.24453175,0.942172,1.3602589,-0.73955894,0.77496046,-0.9622492,-0.041819617,-0.95636696,0.8827264,-1.8647956
-0.2,-0.2,1.0999999999999999,0.5235987755982988,0.0,0,-0.4377467,-1.3356658,1.2927067,0.115463756,-0.3172372,0.9066362,0.85050964,-0.7369358,0.7796879,-0.9649247,-0.042229254,-0.95619565,0.88908774,-1.9528137
-0.2,-0.2,1.0999999999999999,0.5235987755982988,0.0,0,-0.6039457,-1.5273888,1.3520055,0.1762973,0.19051464,1.0747222,0.2402023,-0.7383544,0.77659005,-0.9496767,-0.042854555,-0.95893514,0.8861709,-1.855319
-0.2,-0.2,1.0999999999999999,0.5235987755982988,0.0,0,-0.20944664,-1.2077281,0.9216585,0.09229106,-0.006428945,0.6532068,1.0124515,-0.74149776,0.77292514,-0.9512728,-0.04299699,-0.9556172,0.8859253,-1.9763657
-0.2,-0.2,1.0999999999999999,0.5235987755982988,0.0,0,-0.5839499,-1.3941169,1.1062987,0.0971869,-0.19433,0.7540308,0.6044686,-0.73153466,0.77392524,-0.95736134,-0.040566843,-0.9516983,0.88737935,-1.8958735
-0.2,-0.2,1.0999999999999999,0.5235987755982988,0.0,0,-0.52677536,-1.18931,1.3832732,0.054962456,-0.1590343,0.7179596,0.53063273,-0.73920983,0.7772355,-0.95259005,-0.04298964,-0.9472139,0.8793334,-1.9220005
-0.2,-0.2,1.0999999999999999,0.5235987755982988,0.0,0,-0.1723811,-1.3525547,1.2337662,0.11486765,-0.08373045,0.9805404,0.31424344,-0.73246026,0.7791484,-0.9539792,-0.04337298,-0.9550629,0.8885393,-1.9448084
-0.2,-0.2,1.0999999999999999,0.5235987755982988,0.0,0,-0.4148818,-1.3546544,1.3268063,0.14983568,0.20211025,0.807371,0.3108893,-0.7389245,0.77371484,-0.95156074,-0.042958356,-0.9537061,0.88180304,-1.8915416
-0.2,-0.2,1.0999999999999999,0.5235987755982988,0.0,0,-0.27940845,-1.4468505,0.85416317,-0.026206054,0.016979018,0.9457409,1.2936062,-0.7372818,0.7741847,-0.94606596,-0.043476276,-0.9517032,0.89255935,-1.7229506
-0.2,-0.2,1.0999999999999999,0.5235987755982988,0.0,0,-0.43065673,-1.2939965,1.2039474,0.026179329,-0.09274729,1.1028402,-0.056211907,-0.74381447,0.77174073,-0.95002246,-0.04253698,-0.955172,0.8870996,-1.7429403
-0.2,-0.2,1.0999999999999999,0.5235987755982988,0.0,0,-0.37379384,-1.4084649,1.1182505,-0.019514836,-0.090700924,1.2845367,1.8804687,-0.7411454,0.77517015,-0.9544829,-0.042828377,-0.95821786,0.8877939,-1.847463
-0.2,-0.2,1.0999999999999999,0.5235987755982988,0.0,0,-0.12480866,-1.3417369,1.4221519,0.20362471,-0.08989462,1.346807,-0.057881385,-0.7328225,0.7792454,-0.96096027,-0.041734584,-0.95507556,0.8845079,-1.9172488
-0.2,-0.2,1.0999999999999999,0.5235987755982988,0.0,0,0.26386708,-1.357276,1.2832325,0.08664996,0.24278072,0.9748071,-0.35924745,-0.7404908,0.77822083,-0.95571584,-0.043471996,-0.9554533,0.8825535,-1.8339305
-0.2,-0.2,1.0999999999999999,0.5235987755982988,0.0,0,-0.6210535,-1.3947686,1.5240839,-0.05055418,0.07666726,0.93109334,-0.52359223,-0.74086255,0.77979416,-0.9641882,-0.04108087,-0.9526893,0.88112617,-1.7536443
-0.2,-0.2,1.0999999999999999,0.5235987755982988,0.0,0,0.055722687,-1.3504595,1.1819168,0.01489849,-0.12558892,0.6585462,1.3623384,-0.73670745,0.7761927,-0.9553877,-0.0423201,-0.96048737,0.8826362,-1.8549051
-0.2,-0.2,1.0999999999999999,0.5235987755982988,0.0,0,-0.28115633,-1.275456,1.1135874,0.0035681752,-0.19415832,1.1295316,0.015478134,-0.7399781,0.77854395,-0.9508291,-0.045271967,-0.95755506,0.8817215,-1.8514785
-0.2,-0.2,1.0999999999999999,0.5235987755982988,0.0,0,-0.21736324,-1.2740088,1.3500896,-0.04852936,-0.08399173,1.0615853,0.064612605,-0.73516387,0.77759796,-0.9503684,-0.04168069,-0.956007,0.8831047,-1.7788962
-0.2,-0.2,1.0999999999999999,0.5235987755982988,0.0,0,-0.43154824,-1.4676287,1.0750729,0.17671825,-0.38199568,0.7703561,-1.032857,-0.7422467,0.77178246,-0.9663918,-0.039358206,-0.95922565,0.8903407,-1.82893
-0.2,-0.2,1.0999999999999999,0.5235987755982988,0.0,0,-0.42608824,-1.2699593,1.2497207,0.119268134,0.11396126,1.1562511,-0.14905898,-0.73509234,0.7762287,-0.95831007,-0.043874692,-0.9644498,0.87631875,-1.8976431
-0.2,-0.2,1.0999999999999999,0.5235987755982988,0.0,0,-0.40762654,-1.3581957,1.220672,0.1749583,-0.13440412,0.944018,0.6516837,-0.73823565,0.7797601,-0.95964825,-0.045372725,-0.9600419,0.8805043,-1.7447896
-0.2,-0.2,1.0999999999999999,0.5235987755982988,0.0,0,0.31626824,-1.3193212,1.1153017,0.0064490642,-0.17267433,1.1200562,1.5016216,-0.7396083,0.77526325,-0.95534575,-0.043656632,-0.95144165,0.8892381,-1.908196
-0.2,-0.2,1.0999999999999999,0.5235987755982988,0.0,0,-0.16179483,-1.2046402,1.4947892,-0.030870868,-0.12553093,1.0152304,0.38688925,-0.73876387,0.77446043,-0.95851165,-0.040980708,-0.9649891,0.88084984,-1.7542043
-0.2,-0.2,1.0999999999999999,0.5235987755982988,0.0,0,-0.29420733,-1.5382982,1.4300171,0.07777643,-0.229539,0.6264984,-0.9651942,-0.7384257,0.7773349,-0.9534528,-0.043166723,-0.9512885,0.877618,-1.9512111
-0.2,-0.2,1.0999999999999999,0.5235987755982988,0.0,0,-0.12994441,-1.3297427,1.1899632,0.05008254,0.0062077707,0.9729265,0.3692428,-0.74121934,0.7694757,-0.9411171,-0.04508428,-0.95347905,0.8877931,-1.9024073
-0.2,-0.2,1.0999999999999999,0.5235987755982988,0.0,0,-0.57008874,-1.4259017,1.3820891,0.05009943,-0.463585,1.072497,0.0595861,-0.7388174,0.7724694,-0.953465,-0.04180852,-0.9599064,0.8835033,-1.8705055
-0.2,-0.2,1.0999999999999999,0.5235987755982988,0.0,0,-0.19834605,-1.4138209,1.2494148,0.07935799,-0.3911031,0.99459577,-0.6965442,-0.735572,0.78207135,-0.95425797,-0.043415036,-0.95523244,0.88112897,-1.9239796
-0.2,-0.2,1.0999999999999999,0.5235987755982988,0.0,0,-0.5709298,-1.304321,1.1640065,0.09013915,-0.15423875,0.76732135,-0.12022503,-0.73797643,0.77783984,-0.9588095,-0.042266075,-0.95264983,0.8809621,-2.017114
-0.2,-0.2,1.0999999999999999,0.5235987755982988,0.0,0,-0.6367757,-1.3643346,1.2772889,0.10493184,-0.06564889,0.9426329,0.5447789,-0.7399693,0.77672523,-0.9519093,-0.043116245,-0.95736074,0.8840736,-1.9145958
-0.2,-0.2,1.0999999999999999,0.5235987755982988,0.0,0,-0.01231472,-1.3135313,1.2685219,0.19278869,-0.6141977,0.95295215,-0.85107327,-0.73885643,0.78043,-0.9640094,-0.0428304,-0.96052474,0.881103,-1.932966
-0.2,-0.2,1.0999999999999999,0.5235987755982988,0.0,0,-0.47320792,-1.3584977,1.0652496,0.14856826,-0.29911104,1.2597296,0.29539293,-0.7376542,0.7820679,-0.96475667,-0.043979056,-0.95785075,0.8879725,-1.8990802
-0.2,-0.2,1.0999999999999999,0.5235987755982988,0.0,0,-0.7005148,-1.2837932,1.194023,0.23866762,0.11873342,0.9079773,0.76473475,-0.73767865,0.77792966,-0.9606912,-0.040434316,-0.9617204,0.8783507,-1.8624814
-0.2,-0.2,1.0999999999999999,0.5235987755982988,0.0,0,-0.106558755,-1.1477498,1.3229728,0.13861324,-0.018856544,0.57739526,1.2262622,-0.73553586,0.7777513,-0.9639201,-0.04132244,-0.95635176,0.88530654,-1.98507
-0.2,-0.2,1.0999999999999999,0.5235987755982988,0.0,0,-0.5212735,-1.5540211,1.4534916,0.16109915,0.33403045,0.82526964,0.07404286,-0.7371562,0.7828641,-0.9577832,-0.042036824,-0.9587679,0.87717664,-1.8215905
-0.2,-0.2,1.0999999999999999,0.5235987755982988,0.0,0,-0.23076676,-1.5233078,1.2661288,0.029061805,-0.08087075,0.91536164,-0.045781888,-0.73818,0.7776407,-0.9655821,-0.041853886,-0.9537389,0.8802117,-2.0186744
-0.2,-0.2,1.0999999999999999,0.5235987755982988,0.0,0,-0.22850987,-1.2637985,1.2068366,0.17135786,0.043828893,1.048434,-0.46367842,-0.7379184,0.77697116,-0.9542455,-0.040842757,-0.96040606,0.8879772,-1.8627229
-0.2,-0.2,1.0999999999999999,0.5235987755982988,0.0,0,-0.09115241,-1.3543528,1.3079916,0.04028097,-0.022299545,0.6320493,0.6867771,-0.74259603,0.7735995,-0.94742286,-0.042306647,-0.96595967,0.8876514,-1.9301469
-0.2,-0.2,1.0999999999999999,0.5235987755982988,0.0,0,-0.42248353,-1.4343284,1.4684855,0.060703382,0.17636944,0.77526945,-0.690263,-0.7400419,0.7718956,-0.9549874,-0.042243987,-0.95648885,0.8915384,-1.8413838
-0.2,-0.2,1.0999999999999999,0.5235987755982988,0.0,0,-0.037270013,-1.3299549,1.2503709,0.05310391,-0.17375594,0.69152343,-0.57346493,-0.7376031,0.77400804,-0.9566692,-0.04290689,-0.95129806,0.8876854,-1.8646189
-0.2,-0.2,1.0999999999999999,0.5235987755982988,0.0,0,-0.6469666,-1.2784641,1.4573791,-0.032863572,-0.19138394,1.2746966,-0.728894,-0.73904353,0.7784464,-0.9670068,-0.04315591,-0.9575298,0.88256395,-1.780721
-0.2,-0.2,1.0999999999999999,0.5235987755982988,0.0,0,-0.22925036,-1.3447939,1.1755339,0.018153612,0.06664359,1.0252496,-0.22222,-0.7433596,0.77308476,-0.9572808,-0.043648098,-0.9565457,0.89374876,-1.8440275
-0.2,-0.2,1.0999999999999999,0.5235987755982988,0.0,0,0.014287329,-1.2388228,1.230714,0.20615795,-0.037660472,0.96890837,-0.15014425,-0.7406213,0.7749837,-0.9536676,-0.04220919,-0.9548485,0.88452387,-1.8921376
-0.2,-0.2,1.0999999999999999,0.5235987755982988,0.0,0,-0.31733254,-1.4093852,1.1050837,0.13047896,0.17473689,0.909788,1.335996,-0.74138576,0.7709924,-0.951573,-0.04201172,-0.95661765,0.88441825,-1.7945778
-0.2,-0.2,1.0999999999999999,0.5235987755982988,0.0,0,-0.5806389,-1.5463922,1.3882018,0.050219104,-0.032232326,1.0830423,0.36746863,-0.7369373,0.7779476,-0.95192295,-0.04365011,-0.96432585,0.88025975,-1.770837
-0.2,-0.2,1.0999999999999999,0.5235987755982988,0.0,0,-0.23814686,-1.4008319,1.1265044,-0.04706685,-0.21655971,1.2697119,-0.36818743,-0.7392003,0.77912414,-0.9574248,-0.044136483,-0.96245366,0.8797449,-1.8776164
-0.2,-0.2,1.0999999999999999,0.5235987755982988,0.0,0,-0.25526416,-1.4516796,1.2262535,0.21614885,-0.0025547286,0.64961374,1.7222868,-0.7358977,0.77844405,-0.9464177,-0.042423386,-0.9617472,0.88269866,-1.851474
-0.2,-0.2,1.0999999999999999,0.5235987755982988,0.0,0,-0.03394009,-1.422624,1.3047464,0.22292672,0.025102457,0.8180859,0.5165765,-0.7400993,0.77733105,-0.9476737,-0.043591045,-0.96348894,0.8733259,-1.8437119
-0.2,-0.2,1.0999999999999999,0.5235987755982988,0.0,0,-0.08747959,-1.4519377,1.2272655,0.05611079,-0.3556545,1.0462432,0.46081808,-0.7304512,0.77760595,-0.94862056,-0.04249787,-0.9446223,0.8790583,-1.8631911
-0.2,-0.2,1.0999999999999999,0.5235987755982988,0.0,0,-0.20224547,-1.3512555,1.1016055,0.080883,0.0051858593,0.6278835,1.2623304,-0.73355865,0.7792677,-0.9560128,-0.044539653,-0.9539551,0.88034153,-1.7765546
-0.2,-0.2,1.0999999999999999,0.5235987755982988,0.0,0,-0.5601625,-1.4324722,1.4536141,0.15387024,-0.05101414,1.1842933,0.90290546,-0.73927385,0.77447206,-0.958391,-0.044049874,-0.95291406,0.8789846,-1.8871965
-0.2,-0.2,1.0999999999999999,0.5235987755982988,0.0,0,-0.27262393,-1.3395208,1.26453,0.007806668,0.050141275,1.2959985,-0.08953492,-0.73973465,0.7799927,-0.965753,-0.042371046,-0.96083975,0.87823707,-1.7849667
-0.2,-0.2,1.0999999999999999,0.5235987755982988,0.0,0,-0.25870255,-1.4648805,1.3331928,0.09327481,-0.10895529,0.7952,0.5457478,-0.737853,0.77554655,-0.96992034,-0.044116583,-0.9546479,0.8916235,-1.8582277
-0.2,-0.2,1.0999999999999999,0.5235987755982988,0.0,0,-0.16155799,-1.1973394,1.3350115,-0.054594945,-0.023202186,0.79325044,-0.45026064,-0.7390857,0.7740737,-0.9515181,-0.043267228,-0.9568471,0.88223296,-1.8965348
-0.2,-0.2,1.0999999999999999,0.5235987755982988,0.0,0,-0.1653802,-1.3611574,1.1164186,0.21412434,-0.15717928,0.8665603,-1.1235989,-0.73675174,0.77917475,-0.95297104,-0.04223348,-0.9540436,0.87749934,-1.8577986
-0.2,-0.2,1.0999999999999999,0.5235987755982988,0.0,0,-0.5851114,-1.4327139,1.1924288,-0.044309493,0.09213631,0.9905819,1.5242745,-0.74493104,0.7743308,-0.96424645,-0.042599764,-0.9567081,0.886536,-1.8251401
-0.2,-0.2,1.0999999999999999,0.5235987755982988,0.0,0,-0.8842423,-1.5336968,1.3878738,0.13632618,-0.04069424,0.8027801,0.28526986,-0.73724806,0.78004557,-0.9646262,-0.04157778,-0.95533067,0.8841069,-1.8004584
-0.2,-0.2,1.0999999999999999,0.5235987755982988,0.0,0,-0.38963774,-1.3670236,1.4056845,0.058288045,-0.27936783,1.1745734,-0.009992941,-0.737446,0.7784549,-0.94978595,-0.04331043,-0.95901126,0.8817201,-1.8798987
-0.2,-0.2,1.0999999999999999,0.5235987755982988,0.0,0,-0.33590433,-1.5844831,1.1214789,0.15500066,-0.041623466,0.9048929,-0.26423535,-0.73764664,0.77685446,-0.9573131,-0.04194713,-0.9531285,0.88836765,-1.7426316
-0.2,-0.2,1.0999999999999999,0.5235987755982988,0.0,0,-0.22839248,-1.5293006,1.058452,0.18090469,0.029625364,0.8592689,0.15917923,-0.73724985,0.77784336,-0.9571319,-0.043612972,-0.952196,0.88368887,-1.8600141
-0.2,-0.2,1.0999999999999999,0.5235987755982988,0.0,0,0.16217601,-1.3606387,1.3888367,0.061824404,0.08181341,1.2058909,1.1668298,-0.7355674,0.7770679,-0.95490545,-0.04248822,-0.9522236,0.8796628,-1.8733166
-0.2,-0.2,1.0999999999999999,0.5235987755982988,0.0,0,-0.34274662,-1.2718933,1.2706552,0.11308422,0.123079814,1.1582687,1.2660823,-0.7399633,0.7763959,-0.94859177,-0.043338973,-0.95808244,0.8770967,-1.9102222
-0.2,-0.2,1.0999999999999999,0.5235987755982988,0.0,0,-0.14337754,-1.4452223,1.0088761,0.07841249,-0.022291208,0.90693694,-0.02381486,-0.7423691,0.7781241,-0.9650647,-0.043595683,-0.95391726,0.8842784,-1.9511127
-0.2,-0.2,1.0999999999999999,0.5235987755982988,0.0,0,-0.1578792,-1.2465142,1.1223059,0.08272627,0.1403277,0.52785116,0.9726355,-0.7443169,0.7738887,-0.9480855,-0.04299763,-0.96095365,0.8760219,-1.8574438
-0.2,-0.2,1.0999999999999999,0.5235987755982988,0.0,0,-0.42938438,-1.4320229,1.2833343,0.078761205,-0.0067439424,0.6195854,0.20471402,-0.7379994,0.77628356,-0.96007645,-0.04140486,-0.96217287,0.87393373,-1.8338691
-0.2,-0.2,1.0999999999999999,0.5235987755982988,0.0,0,-0.9062092,-1.4883511,1.5304465,-0.02779752,-0.24505952,1.0673429,-1.0618342,-0.73822767,0.7717424,-0.9448802,-0.04136851,-0.9504835,0.8881499,-1.8103727
-0.2,-0.2,1.0999999999999999,0.5235987755982988,0.0,0,-0.33299813,-1.3621334,1.0377374,0.07276908,-0.093684375,1.2006098,0.06326931,-0.74022436,0.7727124,-0.95223045,-0.040525075,-0.9596128,0.8788363,-1.8632172
-0.2,-0.2,1.0999999999999999,0.5235987755982988,0.0,0,-0.21355607,-1.3258293,0.98768085,0.11426709,-0.15830389,1.0243021,0.08673088,-0.734387,0.7763903,-0.9498682,-0.042936612,-0.95061034,0.8774129,-1.7635425
-0.2,-0.2,1.0999999999999999,0.5235987755982988,0.0,0,-0.03532826,-1.3874098,1.3180602,-0.0399219,-0.056060206,0.86542594,0.5645162,-0.73835695,0.77566826,-0.9667705,-0.041338693,-0.9559834,0.8844067,-1.8016696
-0.2,-0.2,1.0999999999999999,0.5235987755982988,0.0,0,-0.22508278,-1.099676,1.5503465,-0.09610626,0.124739446,0.9471244,-0.8575916,-0.7364824,0.77971745,-0.9488722,-0.04282223,-0.9669855,0.87757957,-1.9389625
-0.2,-0.2,1.0999999999999999,0.5235987755982988,0.0,0,-0.25036138,-1.5365548,1.2762717,-0.04065999,-0.06912018,0.92096364,-1.2930723,-0.73415565,0.7738995,-0.9545896,-0.04131412,-0.9574319,0.88516814,-1.9992183
-0.2,-0.2,1.0999999999999999,0.5235987755982988,0.0,0,-0.3303173,-1.3349702,1.12659,-0.027573654,-0.17343888,0.49634707,-0.5422318,-0.74018157,0.77827764,-0.9565882,-0.042426515,-0.9590002,0.8754042,-1.8980225
-0.2,-0.2,1.0999999999999999,0.5235987755982988,0.0,0,-0.44047558,-1.1639451,1.4484129,0.08394354,-0.4988285,1.1185073,0.8466832,-0.73575413,0.7742277,-0.9612113,-0.04444882,-0.95951325,0.88240606,-1.8530768
-0.2,-0.2,1.0999999999999999,0.5235987755982988,0.0,0,-0.23896271,-1.2835752,1.359769,0.049213603,0.29410434,0.7696735,1.4262408,-0.73862207,0.7772585,-0.95916826,-0.04131136,-0.9621851,0.89357615,-1.681657
-0.2,-0.2,1.0999999999999999,0.5235987755982988,0.0,0,-0.9072354,-1.3619505,1.465257,0.14884774,-0.048720185,1.0296836,-0.0056643276,-0.73171705,0.781567,-0.9556445,-0.04118872,-0.9593827,0.87524563,-1.8591057
-0.2,-0.2,1.0999999999999999,0.5235987755982988,0.0,0,0.0872704,-1.181481,1.0643556,-0.0698201,0.01898934,0.95062214,-0.7573304,-0.74089396,0.7757071,-0.95772177,-0.04281113,-0.9587456,0.89237607,-1.9262117
-0.2,-0.2,1.0999999999999999,0.5235987755982988,0.0,0,0.06257069,-1.2578944,1.282459,0.105549924,-0.40680116,1.11573,0.5110238,-0.7376045,0.7782169,-0.96127224,-0.0408892,-0.96386683,0.88482493,-1.8974204
-0.2,-0.2,1.0999999999999999,0.5235987755982988,0.0,0,-0.25132945,-1.4025607,1.4291425,0.05348889,-0.08569877,1.2572575,0.025790296,-0.73446006,0.77722067,-0.95575565,-0.042506747,-0.95790327,0.8817901,-1.8766043
-0.2,-0.2,1.0999999999999999,0.5235987755982988,0.0,0,-0.02240879,-1.4260997,1.3341513,0.12840882,-0.0738323,1.0271637,-1.3741976,-0.7364575,0.77549374,-0.9555207,-0.043665193,-0.9504318,0.88542575,-1.7263231
-0.2,-0.2,1.0999999999999999,0.5235987755982988,0.0,0,-0.6613033,-1.28827,1.2213403,0.15663536,-0.24525623,0.99442804,-0.3912895,-0.7375555,0.7804651,-0.96512455,-0.042532984,-0.9542099,0.8865376,-1.8377862
-0.2,-0.2,1.0999999999999999,0.5235987755982988,0.0,0,-0.3804449,-1.472303,0.9674001,0.028175844,0.28094786,0.8620288,-0.515249,-0.74116373,0.77278066,-0.95874155,-0.04113293,-0.95372224,0.8933149,-1.8961198
-0.2,-0.2,1.0999999999999999,0.5235987755982988,0.0,0,-0.26138064,-1.3509545,1.2560924,0.059658866,-0.30759266,0.76267487,1.1875936,-0.7383396,0.7809215,-0.95314336,-0.043295298,-0.95846254,0.88523585,-1.8877046
-0.2,-0.2,1.0999999999999999,0.5235987755982988,0.0,0,-0.44875902,-1.5264814,1.4136771,0.036041822,0.25592822,0.8694964,1.5972481,-0.7357223,0.77545124,-0.9635218,-0.04381407,-0.95853716,0.88338315,-1.9890332
-0.2,-0.2,1.0999999999999999,0.5235987755982988,0.0,0,-0.30517063,-1.3344053,1.3170388,0.010749102,-0.08829054,1.0997152,-0.039929945,-0.7355595,0.780734,-0.95376354,-0.044011477,-0.95293033,0.8830434,-1.9068356
-0.2,-0.2,1.0999999999999999,0.5235987755982988,0.0,0,-0.5336718,-1.3621136,1.3305229,0.27760574,-0.3429551,0.67745274,0.9165534,-0.7434886,0.7748545,-0.9558165,-0.04425592,-0.95626503,0.8857654,-1.8836635
-0.2,-0.2,1.0999999999999999,0.5235987755982988,0.0,0,-0.1539268,-1.2769005,1.2712984,0.07890956,-0.27119774,1.2210553,-0.08098377,-0.740297,0.7797761,-0.9496831,-0.043429703,-0.96635973,0.87529737,-1.9479334
-0.2,-0.2,1.0999999999999999,0.5235987755982988,0.0,0,-0.11276263,-1.4585563,1.3934556,0.11390711,0.082843564,0.81791323,0.36260128,-0.7362219,0.7808666,-0.95477474,-0.041984983,-0.9527006,0.881794,-1.8692964
-0.2,-0.2,1.0999999999999999,0.5235987755982988,0.0,0,-0.21985516,-1.2877152,1.3681818,-0.000704379,0.09348321,1.1149551,0.25314122,-0.74234486,0.7752209,-0.96878684,-0.043649122,-0.95250934,0.8849795,-1.9736133
-0.2,-0.2,1.0999999999999999,0.5235987755982988,0.0,0,-0.16075675,-1.2043923,1.3513266,0.17831701,-0.17689094,1.174066,-0.14831343,-0.73600394,0.78050303,-0.9625731,-0.043191087,-0.9543801,0.8820371,-1.843756
-0.2,-0.2,1.0999999999999999,0.5235987755982988,0.0,0,-0.348318,-1.4684315,1.4086063,0.10980212,-0.07297469,0.9469932,0.81959933,-0.73597616,0.77513856,-0.9596479,-0.042707045,-0.9573857,0.8788547,-1.7798086
-0.2,-0.2,1.0999999999999999,0.5235987755982988,0.0,0,-0.27075562,-1.5010098,1.2664788,0.117675856,-0.1817252,0.8373042,1.2279793,-0.74156356,0.77302015,-0.9710919,-0.043389358,-0.94761324,0.8890842,-1.8979716
-0.2,-0.2,1.0999999999999999,0.5235987755982988,0.0,0,0.028473968,-1.4908748,1.0552734,0.04272199,0.20890316,0.99556005,-0.53915995,-0.7383312,0.7815962,-0.96157205,-0.042736787,-0.95641506,0.8857619,-1.8403026
-0.2,-0.2,1.0999999999999999,0.5235987755982988,0.0,0,0.3083843,-1.4526106,1.4201043,0.21052994,-0.017591208,1.0749128,0.18713911,-0.7373518,0.7771519,-0.95831203,-0.042587943,-0.9515963,0.87617487,-1.8979046
-0.2,-0.2,1.0999999999999999,0.5235987755982988,0.0,0,-0.394928,-1.4339951,0.876828,0.013283964,0.046481602,1.2682562,0.016976383,-0.73728365,0.77860445,-0.94705653,-0.042404532,-0.9565607,0.891977,-1.8159343
-0.2,-0.2,1.0999999999999999,0.5235987755982988,0.0,0,-0.37133372,-1.1063902,1.3915241,0.09104503,0.122074425,1.2348832,0.73703146,-0.73761916,0.7824632,-0.954139,-0.044191662,-0.9556793,0.88607377,-1.9661403
-0.2,-0.2,1.0999999999999999,0.5235987755982988,0.0,0,-0.32222903,-1.4154699,1.224206,0.121663734,-0.13972186,0.86164874,-0.17630608,-0.7406786,0.77526206,-0.95229536,-0.0421618,-0.9566104,0.8819245,-1.9257078
-0.2,-0.2,1.0999999999999999,0.5235987755982988,0.0,0,-0.6609679,-1.2556416,1.2215263,0.20930457,0.3259765,1.2152989,-0.11384185,-0.74065834,0.77703524,-0.9561912,-0.044456013,-0.9546025,0.87684953,-1.8422924
-0.2,-0.2,1.0999999999999999,0.5235987755982988,0.0,0,-0.3617967,-1.338916,1.0377554,0.06137342,-0.03437202,0.87912333,0.15397452,-0.73964906,0.7749541,-0.9623399,-0.043338895,-0.9563331,0.88196313,-1.8215442
-0.2,-0.2,1.0999999999999999,0.5235987755982988,0.0,0,-0.351091,-1.4005142,1.3351016,-0.13507245,0.08471871,0.70220006,0.16635066,-0.74248105,0.7746692,-0.9606459,-0.04363791,-0.95122784,0.8873601,-1.8986808
-0.2,-0.2,1.0999999999999999,0.5235987755982988,0.0,0,-0.06700825,-1.2980433,1.1028768,0.089930356,-0.42962563,0.7578109,0.019142909,-0.7414531,0.78226966,-0.9657878,-0.043106783,-0.95760894,0.8772356,-1.9431957
-0.2,-0.2,1.0999999999999999,0.5235987755982988,0.0,0,-0.3505323,-1.4659916,1.069317,0.20457147,0.18489228,0.9863704,-0.007306696,-0.740508,0.7785409,-0.9703345,-0.043504495,-0.95613796,0.8807828,-1.7916747
-0.2,-0.2,1.0999999999999999,0.5235987755982988,0.0,0,-0.44541034,-1.3865381,1.064012,0.0996013,-0.28926143,1.4389069,0.18436195,-0.7372646,0.7826676,-0.9536573,-0.04188635,-0.95670146,0.8799237,-1.7205561
-0.2,-0.2,1.0999999999999999,0.5235987755982988,0.0,0,-0.30041012,-1.4396939,1.295815,0.06429747,-0.066927835,0.94625086,1.0568415,-0.73628455,0.776518,-0.9500824,-0.04311488,-0.9533705,0.8784863,-1.852134
-0.2,-0.2,1.0999999999999999,0.5235987755982988,0.0,0,-0.23303777,-1.3869333,1.0488713,0.03509966,0.010782625,1.0251365,0.40440708,-0.7384359,0.77548426,-0.95945215,-0.0397245,-0.9564332,0.88431746,-1.7700878
-0.2,-0.2,1.0999999999999999,0.5235987755982988,0.0,0,-0.27512264,-1.4569224,1.2943649,-0.02550862,0.122674756,1.0271324,-0.034053788,-0.7341337,0.7755046,-0.95228225,-0.04512525,-0.9533627,0.88721496,-1.7884833
-0.2,-0.2,1.0999999999999999,0.5235987755982988,0.0,0,-0.24588495,-1.1691818,1.2526865,0.025626758,0.00036935625,0.7676067,-1.330352,-0.733819,0.7790232,-0.9553336,-0.04200024,-0.95116436,0.8802977,-1.8144417
-0.2,-0.2,1.0999999999999999,0.5235987755982988,0.0,0,-0.39935166,-1.3492092,1.3186125,0.1144643,0.04995231,0.7638801,0.17911844,-0.7373596,0.78120273,-0.96489495,-0.04414822,-0.9633354,0.87942994,-1.8126156
-0.2,-0.2,1.0999999999999999,0.5235987755982988,0.0,0,-0.06505044,-1.4425797,1.0364871,0.14324062,-0.1249126,1.0012668,0.57985485,-0.7375882,0.7803395,-0.9598615,-0.04371489,-0.96482444,0.8705455,-1.7578275
-0.2,-0.2,1.0999999999999999,0.5235987755982988,0.0,0,-0.21352121,-1.3533773,1.1615129,0.09423106,-0.0058707,0.80725163,0.07872869,-0.73515254,0.7802151,-0.9643906,-0.042107373,-0.94961154,0.87983143,-1.7248967
-0.2,-0.2,1.0999999999999999,0.5235987755982988,0.0,0,-0.14437191,-1.3791112,1.3151199,0.26068982,-0.105789766,0.7396282,1.3194103,-0.7366274,0.77898896,-0.9589723,-0.041982327,-0.9610715,0.87894326,-1.9302154
-0.2,-0.2,1.0999999999999999,0.5235987755982988,0.0,0,-0.11484811,-1.3518972,1.430726,0.20411496,-0.18436545,0.61653155,0.85711354,-0.733272,0.77064425,-0.9444721,-0.041319165,-0.96363026,0.884421,-1.9041209
-0.2,-0.2,1.0999999999999999,0.5235987755982988,0.0,0,-0.31251082,-1.5084143,1.2659723,0.01241722,-0.111817054,0.64563495,-0.09265187,-0.7353262,0.7760733,-0.95564103,-0.041825686,-0.95214725,0.8842083,-1.8680842
-0.2,-0.2,1.0999999999999999,0.5235987755982988,0.0,0,-0.26828608,-1.2838595,1.3080041,0.1781841,-0.22448444,0.8812492,0.39611349,-0.7358723,0.77728266,-0.95576745,-0.043710243,-0.95504725,0.8776783,-1.8644129
-0.2,-0.2,1.0999999999999999,0.5235987755982988,0.0,0,-0.2125016,-1.2991863,1.199128,0.09131384,-0.18373288,0.9536163,0.27840668,-0.7340388,0.7778481,-0.9612674,-0.042106256,-0.96032214,0.87568074,-1.7001549
-0.2,-0.2,1.0999999999999999,0.5235987755982988,0.0,0,-0.4853077,-1.4837048,1.3548138,0.05126751,0.23163085,1.275572,0.72093713,-0.7359255,0.7821781,-0.94477546,-0.04523947,-0.95783573,0.8823841,-1.7963006
-0.2,-0.2,1.0999999999999999,0.5235987755982988,0.0,0,-0.23056692,-1.3089657,1.4818162,0.074705444,0.39297405,0.91014683,0.031732474,-0.7375471,0.7762333,-0.96155596,-0.042990655,-0.9505661,0.88461965,-1.881189
-0.2,-0.2,1.0999999999999999,0.5235987755982988,0.0,0,-0.13434131,-1.271821,1.0680116,0.08170282,-0.19098009,1.0710262,0.5672502,-0.7420427,0.77735347,-0.9693685,-0.041637782,-0.954818,0.887142,-1.8854754
-0.2,-0.2,1.0999999999999999,0.5235987755982988,0.0,0,-0.36911485,-1.4429219,1.2557592,0.10852456,-0.18281089,0.93451166,2.4029808,-0.7397612,0.7783375,-0.9545387,-0.043940537,-0.9524967,0.88662183,-1.728241
-0.2,-0.2,1.0999999999999999,0.5235987755982988,0.0,0,-0.53332365,-1.3486861,1.1509485,0.18048625,0.009392397,0.85382646,0.5858712,-0.7353631,0.7747453,-0.9567076,-0.040505927,-0.95093477,0.8821496,-1.881385
-0.2,-0.2,1.0999999999999999,0.5235987755982988,0.0,0,-0.24070784,-1.3078556,1.4561143,-0.12231316,-0.22831829,0.9047527,-0.56367254,-0.7350546,0.7792821,-0.9515024,-0.04472779,-0.95890963,0.8787243,-1.751122
-0.2,-0.2,1.0999999999999999,0.5235987755982988,0.0,0,-0.35146394,-1.4113412,1.5471838,0.14967133,-0.33118176,0.64688855,0.5096123,-0.7351521,0.77952796,-0.9598903,-0.043524347,-0.9517621,0.8836317,-1.9434211
-0.2,-0.2,1.0999999999999999,0.5235987755982988,0.0,0,-0.3766934,-1.0500387,1.1531519,0.13780373,-0.12661661,0.9609256,0.9088479,-0.74068284,0.77309394,-0.9504284,-0.041464683,-0.95845,0.8802587,-1.8918278
-0.2,-0.2,1.0999999999999999,0.5235987755982988,0.0,0,0.07014205,-1.2485367,1.3699626,0.27376288,-0.044225864,0.7940651,1.5315686,-0.7411387,0.77279085,-0.95541567,-0.041875113,-0.96259797,0.8875536,-1.8463936
-0.2,-0.2,1.0999999999999999,0.5235987755982988,0.0,0,-0.36979008,-1.2936345,1.1707827,0.09465973,-0.14868921,0.83943856,1.6715089,-0.73560405,0.77818376,-0.9594194,-0.04357744,-0.95260936,0.8822317,-1.7071075
-0.2,-0.2,1.0999999999999999,0.5235987755982988,0.0,0,0.19129148,-1.3462119,1.0997288,0.090925574,0.05095898,0.9581607,1.7770634,-0.7395888,0.7751246,-0.9526804,-0.043270297,-0.95490456,0.8870677,-1.7972941
-0.2,-0.2,1.0999999999999999,0.5235987755982988,0.0,0,-0.50579524,-1.4080982,1.6633103,-0.0060104826,-0.006649439,0.90130585,-1.1250207,-0.7375565,0.7798606,-0.95395756,-0.04234672,-0.95623684,0.8805705,-1.8453243
-0.2,-0.2,1.0999999999999999,0.5235987755982988,0.0,0,-0.74673176,-1.3487606,1.1484644,-0.05623252,-0.15944333,1.0007539,0.26475677,-0.7355305,0.7725313,-0.96042484,-0.04251935,-0.95998573,0.88745344,-1.8358421
-0.2,-0.2,1.0999999999999999,0.5235987755982988,0.0,0,-0.6572337,-1.5863677,1.0469836,0.08293857,-0.0274721,0.68253404,1.1008322,-0.7344,0.78370875,-0.94646674,-0.044522103,-0.96034044,0.88196635,-1.7636447
-0.2,-0.2,1.0999999999999999,0.5235987755982988,0.0,0,-0.73886657,-1.3795494,1.3794737,0.19394474,-0.19520403,0.757708,-0.76323533,-0.74489677,0.7732876,-0.9621174,-0.042811885,-0.9575777,0.89294225,-1.895814
-0.2,-0.2,1.0999999999999999,0.5235987755982988,0.0,0,-0.45456278,-1.1928537,1.2936755,0.08916245,-0.008662097,1.1148589,0.2857939,-0.743637,0.77321553,-0.9526095,-0.04292232,-0.95149195,0.88146716,-1.915783
-0.2,-0.2,1.0999999999999999,0.5235987755982988,0.0,0,-0.3018489,-1.2725103,1.2508469,0.1651374,-0.13044018,0.96719754,0.32594836,-0.7413466,0.77995676,-0.96052486,-0.04233875,-0.9530717,0.8866057,-1.8101555
-0.2,-0.2,1.0999999999999999,0.5235987755982988,0.0,0,0.036849633,-1.2557651,1.1786585,0.029404558,0.06903185,0.9181345,-0.7121515,-0.73811597,0.77759546,-0.96106654,-0.043525696,-0.9531767,0.882199,-1.7012726
-0.2,-0.2,1.0999999999999999,0.5235987755982988,0.0,0,-0.46924096,-1.4988122,0.9893385,-0.11236258,-0.22667457,1.219178,0.10578463,-0.73488045,0.7744893,-0.9614539,-0.04157513,-0.9554009,0.88472646,-1.9637626
-0.2,-0.2,1.0999999999999999,0.5235987755982988,0.0,0,-0.35119435,-1.3060443,1.4117378,-0.04323232,-0.07343139,1.0102228,0.4242447,-0.7381105,0.77646995,-0.9553261,-0.04139639,-0.95340484,0.8848114,-1.8358943
-0.2,-0.2,1.0999999999999999,0.5235987755982988,0.0,0,-0.45672977,-1.4830543,1.0142562,0.07197127,-0.024247508,1.0077507,0.489274,-0.739144,0.77268773,-0.95196295,-0.042759918,-0.9566925,0.8800934,-1.8569345
-0.2,-0.2,1.0999999999999999,0.5235987755982988,0.0,0,-0.28902084,-1.4043881,1.3148574,0.16515239,-0.18135607,1.1519531,-0.5921991,-0.7391298,0.77588624,-0.95348275,-0.040178295,-0.95692015,0.8719462,-1.8667959
-0.2,-0.2,1.0999999999999999,0.5235987755982988,0.0,0,-0.17028189,-1.4630903,1.3712837,-0.0026137028,-0.21076655,0.7748426,1.6472404,-0.74061054,0.7791662,-0.955411,-0.043334085,-0.9506241,0.87930846,-2.0341363
-0.2,-0.2,1.0999999999999999,0.5235987755982988,0.0,0,-0.4811912,-1.3159981,1.6665237,0.16703801,-0.016201314,0.40627515,1.246909,-0.7376837,0.7804121,-0.95859265,-0.0429599,-0.95487005,0.88137037,-1.784515
-0.2,-0.2,1.0999999999999999,0.5235987755982988,0.0,0,-0.20332497,-1.4512651,1.2699372,0.071516395,-0.04101335,1.0102885,-1.2036875,-0.7436241,0.7723511,-0.96066874,-0.04345993,-0.9549983,0.8829156,-1.7757865
-0.2,-0.2,1.0999999999999999,0.5235987755982988,0.0,0,-0.35616502,-1.3656112,1.33053,-0.053904116,-0.13707094,0.95743376,0.27751097,-0.7396565,0.7770366,-0.96979123,-0.041020725,-0.9561418,0.8753535,-1.7905889
-0.2,-0.2,1.0999999999999999,0.5235987755982988,0.0,0,0.0150717525,-1.4848315,1.1823943,0.06709813,-0.32436448,0.84404457,0.4277702,-0.7382098,0.77752066,-0.94000256,-0.043799743,-0.95782954,0.8853337,-1.9614383
-0.2,-0.2,1.0999999999999999,0.5235987755982988,0.0,0,-0.68885636,-1.3928435,1.3252456,-0.008144541,-0.23939817,0.9371488,1.5541785,-0.74021345,0.7743156,-0.93982744,-0.04212525,-0.9634983,0.88579655,-1.8770772
-0.2,-0.2,1.0999999999999999,0.5235987755982988,0.0,0,0.19999778,-1.3135859,1.1399989,0.037284903,-0.34068418,1.1997588,-0.29983795,-0.7396862,0.7754693,-0.9565609,-0.04300733,-0.95692724,0.89116156,-1.7918882
-0.2,-0.2,1.0999999999999999,0.5235987755982988,0.0,0,-0.25119126,-1.3641726,1.4311453,0.2241661,-0.14297281,0.9839806,0.5624675,-0.7371672,0.7771594,-0.9476524,-0.042235702,-0.9489076,0.8811455,-1.835225
-0.2,-0.2,1.0999999999999999,0.5235987755982988,0.0,0,-0.29086554,-1.5327554,1.0811247,0.04973242,0.16465995,0.8714885,-0.056711674,-0.7346538,0.77655,-0.9506749,-0.040635083,-0.960417,0.87198687,-1.9717894
-0.2,-0.2,1.0999999999999999,0.5235987755982988,0.0,0,0.047492947,-1.5262206,1.1573639,0.10008538,0.20629556,0.9987628,-0.60163057,-0.74121606,0.7797201,-0.95777535,-0.043829296,-0.9582122,0.8815932,-1.8226764
-0.2,-0.2,1.0999999999999999,0.5235987755982988,0.0,0,-0.14285396,-1.2404207,1.2980757,0.13699478,-0.11241434,1.4671956,-0.31305093,-0.73833734,0.78045464,-0.9500815,-0.043213487,-0.95738876,0.88134366,-1.8558272
-0.2,-0.2,1.0999999999999999,0.5235987755982988,0.0,0,-0.36231285,-1.3402253,1.2924358,0.093625255,-0.23433878,1.1233947,0.20519571,-0.74149007,0.7763925,-0.95621604,-0.041742798,-0.9572994,0.8948725,-1.8660403
-0.2,-0.2,1.0999999999999999,0.5235987755982988,0.0,0,0.07790662,-1.5383816,0.9842068,-0.124625325,-0.054024685,1.3365842,1.0140853,-0.73850906,0.7772856,-0.9651357,-0.04429032,-0.9547307,0.8876339,-1.8298262
-0.2,-0.2,1.0999999999999999,0.5235987755982988,0.0,0,-0.24576975,-1.2039759,1.1703794,0.16611554,-0.119536035,0.9416171,-0.9917247,-0.739985,0.774268,-0.96619207,-0.04205255,-0.95250076,0.8871788,-1.7825918
-0.2,-0.2,1.0999999999999999,0.5235987755982988,0.0,0,-0.071610324,-1.4485081,1.3012578,0.12867549,-0.05713667,0.8738096,0.10070381,-0.73979753,0.7761053,-0.94732654,-0.0416606,-0.9611119,0.87949747,-1.856761
-0.2,-0.2,1.0999999999999999,0.5235987755982988,0.0,0,-0.6580403,-1.2514352,1.2630538,0.15682553,0.035924517,0.96890897,-0.37718892,-0.73672265,0.777457,-0.9524337,-0.043255504,-0.96913815,0.8819332,-1.8557061
