sanky1234/BimanualDexCatch/isaacgymenvs/cem_results/football_pose_-0.2_0.10000000000000003_1.4999999999999998_0.5235987755982988_0.0_0_2025-05-25.csv
x,y,z,roll,pitch,yaw,robot1/joint1,robot1/joint2,robot1/joint3,robot1/joint4,robot1/joint5,robot1/joint6,robot1/joint7,robot2/joint1,robot2/joint2,robot2/joint3,robot2/joint4,robot2/joint5,robot2/joint6,robot2/joint7
-0.2,0.10000000000000003,1.4999999999999998,0.5235987755982988,0.0,0,0.54040855,0.029230112,0.99266064,0.7075557,0.09491382,1.0385237,0.7975908,-0.9053932,1.106286,-0.7757534,0.5528676,-0.19345349,1.2127259,1.397282
-0.2,0.10000000000000003,1.4999999999999998,0.5235987755982988,0.0,0,0.5232966,0.029167728,0.99225414,0.70919526,0.092044815,1.0213698,0.76422626,-0.84950936,0.99985915,-0.78327817,0.53635603,-0.21404159,1.2190168,1.2460711
-0.2,0.10000000000000003,1.4999999999999998,0.5235987755982988,0.0,0,0.54043746,0.02542819,0.9932017,0.7090035,0.09657133,1.0093143,0.6535287,-0.7900003,1.052125,-0.750067,0.5174007,-0.15573172,1.1675184,0.83097976
-0.2,0.10000000000000003,1.4999999999999998,0.5235987755982988,0.0,0,0.53465563,0.026169602,0.9956792,0.7071091,0.0981578,1.0012314,0.7917301,-0.87455845,0.99883413,-0.84941614,0.5451189,-0.1307682,1.1934336,1.3250716
-0.2,0.10000000000000003,1.4999999999999998,0.5235987755982988,0.0,0,0.5352995,0.026782325,0.9885193,0.7081078,0.0918085,0.9933255,0.64787525,-0.8624079,0.942622,-0.7622792,0.5660723,-0.21200119,1.2091687,0.74839485
-0.2,0.10000000000000003,1.4999999999999998,0.5235987755982988,0.0,0,0.53627324,0.026687985,0.9978917,0.71066517,0.09505395,0.9965628,0.7122873,-0.85282177,1.0625744,-0.79336035,0.540884,-0.16181672,1.1951855,0.92648566
-0.2,0.10000000000000003,1.4999999999999998,0.5235987755982988,0.0,0,0.53814083,0.029362543,0.9929002,0.710362,0.09468119,1.025019,0.6782315,-0.83683723,1.0368264,-0.7836479,0.5423767,-0.17604221,1.1977154,0.93414664
-0.2,0.10000000000000003,1.4999999999999998,0.5235987755982988,0.0,0,0.5389587,0.028162843,0.98966455,0.7097272,0.10232209,1.0349853,0.7342203,-0.850415,1.122483,-0.7946691,0.5827308,-0.20418373,1.2096066,1.0471506
-0.2,0.10000000000000003,1.4999999999999998,0.5235987755982988,0.0,0,0.5357488,0.032625295,0.98962325,0.7109919,0.09718599,1.0093936,0.76639456,-0.83958143,0.97628975,-0.7912631,0.6014516,-0.21540467,1.1634325,1.190597
-0.2,0.10000000000000003,1.4999999999999998,0.5235987755982988,0.0,0,0.53111386,0.031865474,0.9858975,0.70836854,0.09793161,1.0120031,0.6634332,-0.7863161,0.9831619,-0.81545717,0.5675309,-0.18865967,1.1902608,0.84417784
-0.2,0.10000000000000003,1.4999999999999998,0.5235987755982988,0.0,0,0.5406959,0.03138314,0.9878887,0.7080649,0.09651017,1.0092767,0.7928822,-0.81543475,1.0352863,-0.80640227,0.56342024,-0.14792003,1.192454,0.7238489
-0.2,0.10000000000000003,1.4999999999999998,0.5235987755982988,0.0,0,0.5305927,0.034768835,0.9936094,0.70945996,0.09413737,1.0409787,0.80203754,-0.92105204,1.0407971,-0.76903784,0.5637753,-0.12160471,1.1766508,1.0899324
-0.2,0.10000000000000003,1.4999999999999998,0.5235987755982988,0.0,0,0.5357509,0.027169717,0.99312603,0.7115736,0.097055316,1.0074012,0.7214938,-0.8479362,1.0473226,-0.77636206,0.5392023,-0.17821936,1.2075883,0.91589
-0.2,0.10000000000000003,1.4999999999999998,0.5235987755982988,0.0,0,0.5297234,0.025285823,0.998185,0.7113251,0.10054265,1.0070888,0.7142299,-0.7753411,1.0501039,-0.8161299,0.5477972,-0.17436858,1.1847273,0.9338055
-0.2,0.10000000000000003,1.4999999999999998,0.5235987755982988,0.0,0,0.5426183,0.02977599,1.00026,0.7103034,0.0941026,1.0058455,0.73602617,-0.8930962,1.1110599,-0.7965603,0.5565115,-0.15137525,1.1735387,1.2700219
-0.2,0.10000000000000003,1.4999999999999998,0.5235987755982988,0.0,0,0.53916496,0.026024215,0.9958602,0.70998067,0.099922635,1.0103145,0.71101284,-0.8113221,1.133427,-0.777108,0.5620234,-0.21651588,1.1945577,1.2779075
-0.2,0.10000000000000003,1.4999999999999998,0.5235987755982988,0.0,0,0.5389666,0.031008955,0.99188226,0.7077796,0.09617871,1.0073837,0.7386702,-0.80308,1.0695943,-0.7994327,0.5712841,-0.19890879,1.2046428,0.8986469
-0.2,0.10000000000000003,1.4999999999999998,0.5235987755982988,0.0,0,0.52684754,0.028468437,0.9855102,0.7076567,0.09174223,1.0141401,0.73114383,-0.89208233,1.112146,-0.8428615,0.6076681,-0.15354025,1.1858436,0.82214344
-0.2,0.10000000000000003,1.4999999999999998,0.5235987755982988,0.0,0,0.531401,0.02349938,0.99056,0.7084406,0.09521116,1.027323,0.69806606,-0.9312636,1.0569208,-0.7835664,0.5674546,-0.18943338,1.2128476,0.98649186
-0.2,0.10000000000000003,1.4999999999999998,0.5235987755982988,0.0,0,0.5343463,0.025975319,1.000069,0.70903414,0.09215091,0.99640334,0.713125,-0.8273047,0.9696765,-0.80218613,0.5606247,-0.14567792,1.200566,0.56798315
-0.2,0.10000000000000003,1.4999999999999998,0.5235987755982988,0.0,0,0.53546685,0.029367665,0.989793,0.7080393,0.09762423,0.99797,0.7035632,-0.8473528,1.0786783,-0.7768798,0.5781656,-0.20559558,1.1895676,1.0686377
-0.2,0.10000000000000003,1.4999999999999998,0.5235987755982988,0.0,0,0.5277474,0.025372716,0.99613124,0.7097172,0.097599976,1.0204273,0.641825,-0.8887826,1.1168393,-0.7976984,0.58861923,-0.16926722,1.1834339,0.73132163
-0.2,0.10000000000000003,1.4999999999999998,0.5235987755982988,0.0,0,0.5407772,0.026927298,0.99010336,0.7103707,0.092544906,1.0215054,0.6576888,-0.81197095,1.1186057,-0.7949545,0.5808468,-0.21417466,1.2047741,0.98456264
-0.2,0.10000000000000003,1.4999999999999998,0.5235987755982988,0.0,0,0.53144747,0.029939055,0.9864308,0.7121276,0.09795937,1.0143853,0.7074761,-0.8818447,0.98488784,-0.819766,0.55521995,-0.20356105,1.2139931,0.8690847
-0.2,0.10000000000000003,1.4999999999999998,0.5235987755982988,0.0,0,0.54059505,0.030471457,0.999792,0.71094584,0.09210072,1.0274584,0.7157587,-0.8856494,1.0577412,-0.7908948,0.5725409,-0.1842562,1.1815833,1.078877
-0.2,0.10000000000000003,1.4999999999999998,0.5235987755982988,0.0,0,0.53752786,0.029411463,0.9980494,0.7111751,0.09845039,1.043779,0.75597066,-0.88667905,1.0259321,-0.7915009,0.5813327,-0.15530023,1.1599408,0.91363454
-0.2,0.10000000000000003,1.4999999999999998,0.5235987755982988,0.0,0,0.53212166,0.028713077,0.99634993,0.70810986,0.09727429,1.0241901,0.68222857,-0.90911525,1.1447686,-0.74347025,0.5606657,-0.19753562,1.1996608,1.0602455
-0.2,0.10000000000000003,1.4999999999999998,0.5235987755982988,0.0,0,0.5347141,0.024545798,0.99940526,0.7095163,0.09842317,1.0352774,0.7756229,-0.8712634,1.0116011,-0.76294804,0.5732619,-0.20304532,1.2152238,0.79072464
-0.2,0.10000000000000003,1.4999999999999998,0.5235987755982988,0.0,0,0.53194016,0.026985053,0.99235207,0.70920366,0.101755254,1.0086334,0.71966785,-0.88748175,1.0608186,-0.7900591,0.555739,-0.15192957,1.1705377,0.8863344
-0.2,0.10000000000000003,1.4999999999999998,0.5235987755982988,0.0,0,0.5328668,0.026977057,0.98555624,0.70738786,0.095858,1.0051461,0.67627794,-0.913006,0.98175776,-0.80684155,0.54858667,-0.15505913,1.1904305,1.1815805
-0.2,0.10000000000000003,1.4999999999999998,0.5235987755982988,0.0,0,0.535377,0.025180073,1.0010817,0.7082668,0.09934652,1.0154053,0.7831118,-0.88164514,1.1454586,-0.7775067,0.57803917,-0.16309398,1.1871835,0.97963506
-0.2,0.10000000000000003,1.4999999999999998,0.5235987755982988,0.0,0,0.5334848,0.033777993,0.99964744,0.71141523,0.09871509,1.0163629,0.6396158,-0.8671182,1.0982311,-0.80165154,0.55868673,-0.15206984,1.1762072,1.4733051
-0.2,0.10000000000000003,1.4999999999999998,0.5235987755982988,0.0,0,0.5379765,0.0310099,0.9887995,0.7086103,0.09849651,0.9927583,0.64701664,-0.8163004,1.0725596,-0.7764914,0.56285757,-0.2101845,1.2093089,1.3316543
-0.2,0.10000000000000003,1.4999999999999998,0.5235987755982988,0.0,0,0.53275156,0.027036805,0.9951634,0.70739496,0.09615698,1.013672,0.640062,-0.7644052,1.1067774,-0.8111851,0.5443326,-0.1771617,1.1750042,1.2884635
-0.2,0.10000000000000003,1.4999999999999998,0.5235987755982988,0.0,0,0.53377926,0.025839273,0.9910269,0.71071655,0.09855622,1.0142931,0.7119163,-0.8507183,1.0550913,-0.81552607,0.55026984,-0.15476215,1.1768816,1.1582841
-0.2,0.10000000000000003,1.4999999999999998,0.5235987755982988,0.0,0,0.53155947,0.028768225,0.994515,0.7094202,0.09797569,1.0230734,0.7477653,-0.85794324,1.0955688,-0.7930492,0.54818845,-0.12508827,1.1937321,0.76532394
-0.2,0.10000000000000003,1.4999999999999998,0.5235987755982988,0.0,0,0.52709186,0.027878396,0.99026376,0.7094556,0.09180645,1.022642,0.7215706,-0.8454084,1.041013,-0.7691151,0.5446148,-0.16890985,1.194592,0.79853046
-0.2,0.10000000000000003,1.4999999999999998,0.5235987755982988,0.0,0,0.5287442,0.031083401,0.9934181,0.7102442,0.09850596,1.0156908,0.7128213,-0.81604254,1.0601908,-0.80084,0.57054317,-0.13118352,1.1676477,0.75942904
-0.2,0.10000000000000003,1.4999999999999998,0.5235987755982988,0.0,0,0.5404117,0.033281304,0.9916992,0.710463,0.093454525,1.0142509,0.69457227,-0.9498912,1.0159061,-0.7711763,0.5264882,-0.18529625,1.1904683,1.4144597
-0.2,0.10000000000000003,1.4999999999999998,0.5235987755982988,0.0,0,0.5370652,0.03124107,0.99220747,0.70797896,0.10143707,1.0226856,0.6994145,-0.91759694,1.0115072,-0.7587315,0.5882125,-0.24755017,1.2136884,1.1804253
-0.2,0.10000000000000003,1.4999999999999998,0.5235987755982988,0.0,0,0.53287095,0.031505033,0.99515355,0.7092418,0.09598846,1.0066062,0.7594136,-0.91367674,0.9963639,-0.7966305,0.56666374,-0.1604479,1.1699635,0.9716605
-0.2,0.10000000000000003,1.4999999999999998,0.5235987755982988,0.0,0,0.5326882,0.034802582,1.001167,0.7091174,0.097900495,1.0068507,0.7511093,-0.86461765,1.004963,-0.7706798,0.53816104,-0.19465321,1.196178,0.92169917
-0.2,0.10000000000000003,1.4999999999999998,0.5235987755982988,0.0,0,0.53841144,0.022329787,0.9998972,0.70787126,0.09966672,0.9888566,0.6952832,-0.7382952,1.0836049,-0.8141805,0.55753976,-0.15228906,1.1714927,1.0015237
-0.2,0.10000000000000003,1.4999999999999998,0.5235987755982988,0.0,0,0.53448653,0.036594134,1.0026543,0.708801,0.09431314,1.0209101,0.76754135,-0.84108716,1.1079147,-0.7988875,0.5374759,-0.17958844,1.1514508,1.2901354
-0.2,0.10000000000000003,1.4999999999999998,0.5235987755982988,0.0,0,0.5298524,0.024579717,0.9864352,0.7086725,0.09566792,0.99797326,0.7260702,-0.8097356,0.9764244,-0.78621364,0.53805363,-0.20818263,1.2134217,0.710182
-0.2,0.10000000000000003,1.4999999999999998,0.5235987755982988,0.0,0,0.530136,0.028365588,0.99176615,0.7108672,0.09699795,1.0092254,0.6428689,-0.9132215,1.0835109,-0.7737337,0.53240687,-0.173466,1.1801676,1.3157868
-0.2,0.10000000000000003,1.4999999999999998,0.5235987755982988,0.0,0,0.53833693,0.02521591,0.9914575,0.71111166,0.10025283,1.004466,0.6621015,-0.85339695,0.99770015,-0.8209337,0.56270456,-0.15374215,1.1752992,0.90198755
-0.2,0.10000000000000003,1.4999999999999998,0.5235987755982988,0.0,0,0.5358117,0.027672367,0.99308646,0.7090653,0.09001142,1.0084782,0.6678989,-0.84916264,1.1093129,-0.79952747,0.5230249,-0.1813514,1.2045557,1.2154288
-0.2,0.10000000000000003,1.4999999999999998,0.5235987755982988,0.0,0,0.5344453,0.030408215,0.99556476,0.7086894,0.09555984,1.0269189,0.6374153,-0.87055707,1.1091113,-0.770932,0.5464033,-0.20248239,1.2272692,0.9922826
-0.2,0.10000000000000003,1.4999999999999998,0.5235987755982988,0.0,0,0.52893454,0.033421244,0.9897744,0.71065843,0.09782566,1.0283935,0.77020895,-0.83524317,1.0699599,-0.81712276,0.55722517,-0.12529187,1.1614717,1.0722357
-0.2,0.10000000000000003,1.4999999999999998,0.5235987755982988,0.0,0,0.5348476,0.026261983,0.9950826,0.710084,0.09763418,1.013991,0.7599008,-0.84783155,1.061207,-0.7850241,0.555608,-0.15546505,1.2038783,0.76349586
-0.2,0.10000000000000003,1.4999999999999998,0.5235987755982988,0.0,0,0.53183866,0.03086241,0.99309105,0.70974237,0.09326194,1.0209041,0.77312726,-0.88851297,1.035318,-0.7832098,0.5386142,-0.18042326,1.201602,1.5676597
-0.2,0.10000000000000003,1.4999999999999998,0.5235987755982988,0.0,0,0.53499687,0.023483528,0.9881151,0.70885545,0.09292685,0.9882565,0.70644665,-0.84330624,0.9639794,-0.8118371,0.5265574,-0.18228722,1.2360144,0.77818733
-0.2,0.10000000000000003,1.4999999999999998,0.5235987755982988,0.0,0,0.5348833,0.032568827,0.99447334,0.70643383,0.09287097,1.0277671,0.76783127,-0.8388235,1.0340393,-0.7807725,0.55029315,-0.18388991,1.1480972,1.2284876
-0.2,0.10000000000000003,1.4999999999999998,0.5235987755982988,0.0,0,0.53168154,0.028879942,1.0005903,0.7071319,0.09301105,1.0176681,0.66938156,-0.8547692,1.0509593,-0.7941671,0.56565714,-0.20396423,1.1946614,1.1863602
-0.2,0.10000000000000003,1.4999999999999998,0.5235987755982988,0.0,0,0.5329233,0.026122963,0.9972818,0.7085029,0.091876596,1.0019238,0.69464123,-0.7893634,1.0209304,-0.7982322,0.52937007,-0.18359813,1.1726209,1.0169328
-0.2,0.10000000000000003,1.4999999999999998,0.5235987755982988,0.0,0,0.53489345,0.027101388,0.9995418,0.70774525,0.09388541,1.0237229,0.72720206,-0.88746893,1.0722923,-0.7875209,0.5777359,-0.19094655,1.1897553,1.0676261
-0.2,0.10000000000000003,1.4999999999999998,0.5235987755982988,0.0,0,0.5292782,0.032703184,0.9906233,0.7085594,0.098202564,1.0313622,0.7472871,-0.8184506,1.0349262,-0.81493455,0.55759764,-0.18051301,1.207426,0.81178176
-0.2,0.10000000000000003,1.4999999999999998,0.5235987755982988,0.0,0,0.53555113,0.027476894,0.98983955,0.71089196,0.099390514,1.0040641,0.8114493,-0.8621525,1.0816756,-0.7306801,0.5820165,-0.2231955,1.1833217,0.82695895
-0.2,0.10000000000000003,1.4999999999999998,0.5235987755982988,0.0,0,0.52991796,0.028418066,0.9905545,0.70717424,0.09898926,1.0197815,0.60641295,-0.801562,1.0763662,-0.7994199,0.5379813,-0.1945169,1.2250677,0.8833096
-0.2,0.10000000000000003,1.4999999999999998,0.5235987755982988,0.0,0,0.53635794,0.023923635,0.99027,0.71018153,0.099253014,1.0193381,0.68212056,-0.86760575,1.0821447,-0.78864604,0.53994757,-0.17335579,1.1877202,1.0877161
-0.2,0.10000000000000003,1.4999999999999998,0.5235987755982988,0.0,0,0.5340519,0.02969283,0.9945169,0.70938414,0.09903575,1.0088342,0.6663609,-0.85828954,1.0260955,-0.7680098,0.55975395,-0.22031045,1.1718482,1.2114792
-0.2,0.10000000000000003,1.4999999999999998,0.5235987755982988,0.0,0,0.5305117,0.027462212,0.98636997,0.7068537,0.09293929,1.0240885,0.72469735,-0.87767756,1.0565652,-0.78405124,0.5630482,-0.17102605,1.1827353,0.7628976
-0.2,0.10000000000000003,1.4999999999999998,0.5235987755982988,0.0,0,0.5323337,0.02617355,0.99530035,0.71069586,0.10231538,1.0099745,0.7118791,-0.88653314,1.1230637,-0.7969924,0.56318164,-0.17638247,1.1832205,1.0294968
-0.2,0.10000000000000003,1.4999999999999998,0.5235987755982988,0.0,0,0.52706,0.026539855,0.9921346,0.70935017,0.09693368,1.0183523,0.7199709,-0.82135963,1.0372244,-0.8076653,0.5442624,-0.18252255,1.2047769,0.8214276
-0.2,0.10000000000000003,1.4999999999999998,0.5235987755982988,0.0,0,0.5293961,0.020049656,0.98709524,0.7101437,0.09211289,1.0200315,0.6598999,-0.8304253,1.124328,-0.78340346,0.56264454,-0.15743618,1.1820706,0.4203956
-0.2,0.10000000000000003,1.4999999999999998,0.5235987755982988,0.0,0,0.537219,0.02047729,0.9936305,0.710598,0.09447887,1.0194107,0.71998537,-0.8557096,1.0786113,-0.7785065,0.54634696,-0.15834111,1.2003797,0.71614987
-0.2,0.10000000000000003,1.4999999999999998,0.5235987755982988,0.0,0,0.5339952,0.030307297,0.9989581,0.7107034,0.099878624,1.0200919,0.7749263,-0.7935862,1.122468,-0.7688471,0.5816846,-0.19488683,1.181791,0.73597234
-0.2,0.10000000000000003,1.4999999999999998,0.5235987755982988,0.0,0,0.5366822,0.02776389,0.9893479,0.7142467,0.0974419,1.0157522,0.7033808,-0.91143394,1.0459862,-0.7950129,0.5588225,-0.19050248,1.1741707,1.29558
-0.2,0.10000000000000003,1.4999999999999998,0.5235987755982988,0.0,0,0.5393402,0.022457717,0.99315685,0.7083983,0.09474194,1.0270538,0.6329588,-0.9118563,1.0404552,-0.7796573,0.5259972,-0.13516496,1.1961076,1.1010925
-0.2,0.10000000000000003,1.4999999999999998,0.5235987755982988,0.0,0,0.53292334,0.023945693,0.99184924,0.71022075,0.099456966,1.0112447,0.76290935,-0.9068952,0.97592103,-0.81266344,0.56849414,-0.16750714,1.1746815,0.9930678
-0.2,0.10000000000000003,1.4999999999999998,0.5235987755982988,0.0,0,0.5321484,0.03209093,0.99417096,0.7112,0.0968086,1.0137515,0.7424135,-0.8566824,1.0260993,-0.85038704,0.5532945,-0.1405872,1.1695484,1.1913948
-0.2,0.10000000000000003,1.4999999999999998,0.5235987755982988,0.0,0,0.52890193,0.029665705,0.996215,0.7104111,0.096823186,1.0121937,0.68942827,-0.8503963,1.0174754,-0.7954074,0.6004535,-0.19311242,1.1858047,0.808709
-0.2,0.10000000000000003,1.4999999999999998,0.5235987755982988,0.0,0,0.5379691,0.02929831,0.9880579,0.70772105,0.09597224,0.9995331,0.76145405,-0.8772453,1.1328464,-0.7239609,0.5814607,-0.2044416,1.1892345,0.6884458
-0.2,0.10000000000000003,1.4999999999999998,0.5235987755982988,0.0,0,0.5361272,0.026425635,0.992205,0.710701,0.1005296,1.0540973,0.8450009,-0.80816853,1.0738373,-0.78793246,0.5407157,-0.16352633,1.2275686,0.7133298
-0.2,0.10000000000000003,1.4999999999999998,0.5235987755982988,0.0,0,0.53147054,0.028084848,0.9958803,0.711581,0.0910925,1.014319,0.66236794,-0.7852409,0.9491195,-0.77934563,0.5200808,-0.19317813,1.1857046,0.9392144
-0.2,0.10000000000000003,1.4999999999999998,0.5235987755982988,0.0,0,0.5401907,0.034860186,0.996452,0.7075008,0.09438805,1.0296487,0.6861622,-0.8147679,1.1322558,-0.81919926,0.56141126,-0.16903603,1.197086,0.99504757
-0.2,0.10000000000000003,1.4999999999999998,0.5235987755982988,0.0,0,0.5405666,0.030601291,0.9898114,0.7105189,0.09227174,1.0041724,0.6860936,-0.8878094,1.0412416,-0.82411635,0.56026196,-0.14309086,1.1990905,0.78423977
-0.2,0.10000000000000003,1.4999999999999998,0.5235987755982988,0.0,0,0.53220856,0.028038958,0.9977841,0.70971006,0.092123434,1.0212853,0.65303224,-0.85815626,1.0964059,-0.82555294,0.5722441,-0.15960957,1.1822387,0.9137127
-0.2,0.10000000000000003,1.4999999999999998,0.5235987755982988,0.0,0,0.53683674,0.031252947,0.9871114,0.71048963,0.10035741,0.9956613,0.727657,-0.86641985,1.058035,-0.80746394,0.5489858,-0.13600169,1.174956,0.96579576
-0.2,0.10000000000000003,1.4999999999999998,0.5235987755982988,0.0,0,0.5301156,0.023102669,0.99836206,0.7101811,0.09759405,1.0124594,0.78248775,-0.87794846,1.1055267,-0.768268,0.57367855,-0.22538438,1.2022028,0.93444675
-0.2,0.10000000000000003,1.4999999999999998,0.5235987755982988,0.0,0,0.52896374,0.03154526,0.99296737,0.70953196,0.10163224,1.0215267,0.7598841,-0.83065397,1.091518,-0.81223136,0.5594447,-0.17027451,1.1988341,0.9382412
-0.2,0.10000000000000003,1.4999999999999998,0.5235987755982988,0.0,0,0.52673686,0.025525576,0.98424923,0.70902944,0.10018302,1.0275036,0.68482304,-0.8662135,0.97265977,-0.76480275,0.5734603,-0.20076723,1.1476539,0.87489086
-0.2,0.10000000000000003,1.4999999999999998,0.5235987755982988,0.0,0,0.53262234,0.027587611,0.9979327,0.7130492,0.09452075,1.014578,0.6513356,-0.9179092,1.0803119,-0.791681,0.5504808,-0.18049356,1.1922468,1.2677238
-0.2,0.10000000000000003,1.4999999999999998,0.5235987755982988,0.0,0,0.53391725,0.030327432,0.9933425,0.70894325,0.090906344,1.0328016,0.7660327,-0.86667955,1.0359446,-0.81755924,0.5659096,-0.19219919,1.2015522,1.1260477
-0.2,0.10000000000000003,1.4999999999999998,0.5235987755982988,0.0,0,0.531445,0.024577428,0.9894584,0.7073319,0.09778609,1.023774,0.77062815,-0.8807573,1.0273373,-0.7919881,0.56407464,-0.18824409,1.1542544,1.2564195
-0.2,0.10000000000000003,1.4999999999999998,0.5235987755982988,0.0,0,0.539976,0.02423529,0.9922882,0.70904076,0.09516923,1.0093719,0.7830562,-0.8119494,1.0931119,-0.77776784,0.5431038,-0.22376508,1.1883626,1.0594423
-0.2,0.10000000000000003,1.4999999999999998,0.5235987755982988,0.0,0,0.5321279,0.028442975,0.9942707,0.7079529,0.09680276,1.0085517,0.7628771,-0.86357844,1.0509118,-0.8071116,0.5418075,-0.14732225,1.1704596,1.3846757
-0.2,0.10000000000000003,1.4999999999999998,0.5235987755982988,0.0,0,0.53956455,0.024801848,0.99470997,0.7109738,0.10126604,1.0144643,0.69116646,-0.81645256,1.0933138,-0.7970237,0.5807854,-0.14642619,1.1684358,0.61975574
-0.2,0.10000000000000003,1.4999999999999998,0.5235987755982988,0.0,0,0.534001,0.034554433,0.9921848,0.71012765,0.09688612,1.0310816,0.76939535,-0.86222184,1.0178933,-0.80464554,0.5892888,-0.1947803,1.1572943,1.153985
-0.2,0.10000000000000003,1.4999999999999998,0.5235987755982988,0.0,0,0.5350891,0.025036052,0.99442023,0.70890945,0.090404764,1.0237771,0.6023278,-0.85744655,1.0447493,-0.77492493,0.55485207,-0.23708273,1.207717,1.4142402
-0.2,0.10000000000000003,1.4999999999999998,0.5235987755982988,0.0,0,0.5398982,0.022966346,0.99568677,0.71085143,0.09328348,1.0149932,0.73026687,-0.87525815,1.0729945,-0.8385347,0.5849735,-0.1691036,1.1893348,0.83123547
-0.2,0.10000000000000003,1.4999999999999998,0.5235987755982988,0.0,0,0.5404479,0.026648818,0.9867885,0.7088793,0.091364965,1.0136873,0.7417031,-0.8558174,1.1095058,-0.7993758,0.5441611,-0.18470852,1.1721596,1.3468685
-0.2,0.10000000000000003,1.4999999999999998,0.5235987755982988,0.0,0,0.5349594,0.028606763,0.9916796,0.70870376,0.09241606,1.0209211,0.7633475,-0.8339306,0.97990555,-0.75014234,0.57874745,-0.19620702,1.1900513,0.5884755
-0.2,0.10000000000000003,1.4999999999999998,0.5235987755982988,0.0,0,0.5326339,0.03223427,0.99645203,0.7110971,0.098376006,1.0226214,0.6973438,-0.86215645,1.0936677,-0.7474227,0.5597003,-0.16619298,1.1917312,0.60642874
-0.2,0.10000000000000003,1.4999999999999998,0.5235987755982988,0.0,0,0.5383965,0.025595704,0.99087906,0.7094267,0.102719635,1.0129082,0.7700505,-0.8298634,1.0462508,-0.8208563,0.566646,-0.2024365,1.1698741,1.3109653
-0.2,0.10000000000000003,1.4999999999999998,0.5235987755982988,0.0,0,0.5353761,0.029254306,0.990694,0.71060175,0.09030726,1.044457,0.72571206,-0.97263837,0.92037815,-0.8184327,0.55387557,-0.15538321,1.1994693,1.1851581
-0.2,0.10000000000000003,1.4999999999999998,0.5235987755982988,0.0,0,0.5349504,0.028803583,0.99681705,0.7098125,0.09550739,1.0052657,0.66933924,-0.90714246,1.0862565,-0.808629,0.56432444,-0.14054868,1.1610177,1.0802624
-0.2,0.10000000000000003,1.4999999999999998,0.5235987755982988,0.0,0,0.52836835,0.028396683,0.9944336,0.7098589,0.096301466,1.0181028,0.68421793,-0.86246425,1.0713756,-0.81189317,0.56146985,-0.1544043,1.20879,1.0164224
-0.2,0.10000000000000003,1.4999999999999998,0.5235987755982988,0.0,0,0.5345794,0.031750996,0.9937122,0.7080992,0.09580865,1.0136209,0.7231695,-0.88646483,1.1204551,-0.77316695,0.5556784,-0.14239925,1.1814888,0.73808885
-0.2,0.10000000000000003,1.4999999999999998,0.5235987755982988,0.0,0,0.5335218,0.02753656,0.99881524,0.71056306,0.09981215,1.0177373,0.6914861,-0.8701958,1.0845273,-0.79197866,0.52956116,-0.19711594,1.220624,1.1745309
-0.2,0.10000000000000003,1.4999999999999998,0.5235987755982988,0.0,0,0.53638107,0.026896011,0.9987868,0.71004003,0.09780871,1.0284255,0.7287679,-0.8724944,1.0865737,-0.7999852,0.5856632,-0.17499933,1.1809206,0.80376345
-0.2,0.10000000000000003,1.4999999999999998,0.5235987755982988,0.0,0,0.53385556,0.031217182,0.99522674,0.7077633,0.10344933,1.0054193,0.77291,-0.88849664,1.120878,-0.798858,0.56784546,-0.16226219,1.1497791,1.1586515
-0.2,0.10000000000000003,1.4999999999999998,0.5235987755982988,0.0,0,0.5366258,0.031022511,0.99412256,0.70998,0.09619492,1.0008454,0.7446616,-0.8873416,1.0687073,-0.8039213,0.53916687,-0.17460726,1.1642787,1.139882
-0.2,0.10000000000000003,1.4999999999999998,0.5235987755982988,0.0,0,0.5284461,0.02681188,0.9966307,0.7103152,0.098846205,1.0032536,0.67532134,-0.8873073,1.0388614,-0.7803778,0.5510838,-0.16485764,1.1698065,0.8735524
-0.2,0.10000000000000003,1.4999999999999998,0.5235987755982988,0.0,0,0.5312845,0.028340485,0.98873526,0.7085071,0.098892696,1.0147036,0.6775487,-0.83531153,1.0389285,-0.7724478,0.5534447,-0.18610112,1.1779169,0.8659583
-0.2,0.10000000000000003,1.4999999999999998,0.5235987755982988,0.0,0,0.53783053,0.024545109,0.9842911,0.7101645,0.098119795,1.008377,0.79321367,-0.8401185,1.0881786,-0.82068616,0.5965825,-0.1926108,1.1758661,0.9263393
-0.2,0.10000000000000003,1.4999999999999998,0.5235987755982988,0.0,0,0.5346605,0.030899338,0.99113804,0.7085571,0.0972253,1.0147698,0.806444,-0.8494509,1.1403806,-0.77359647,0.5636986,-0.15767458,1.1834955,0.68487555
-0.2,0.10000000000000003,1.4999999999999998,0.5235987755982988,0.0,0,0.5286411,0.026166378,0.9961145,0.7088922,0.09673707,1.0016541,0.6590805,-0.83766675,1.0769143,-0.7939577,0.55734926,-0.15893961,1.1608655,0.88371825
-0.2,0.10000000000000003,1.4999999999999998,0.5235987755982988,0.0,0,0.5376819,0.02553618,0.99253607,0.7097281,0.09208064,1.0103884,0.7744085,-0.84225637,1.0348483,-0.75830173,0.5422078,-0.18982507,1.2275574,0.54592264
-0.2,0.10000000000000003,1.4999999999999998,0.5235987755982988,0.0,0,0.53769666,0.024967961,0.98795456,0.710273,0.09775809,1.0108527,0.7616642,-0.74899256,1.104506,-0.8437138,0.57994086,-0.16082829,1.1791321,0.8331243
-0.2,0.10000000000000003,1.4999999999999998,0.5235987755982988,0.0,0,0.5338422,0.030802555,0.98648214,0.7102614,0.09281261,1.0047616,0.7446265,-0.8495752,1.0690621,-0.8045361,0.5752859,-0.1808648,1.2266176,0.46261734
-0.2,0.10000000000000003,1.4999999999999998,0.5235987755982988,0.0,0,0.54308057,0.023730831,0.98941076,0.7082025,0.09683278,1.0026188,0.6846242,-0.8221611,0.96820194,-0.782219,0.56477976,-0.22003135,1.2186178,0.71484363
-0.2,0.10000000000000003,1.4999999999999998,0.5235987755982988,0.0,0,0.5373083,0.028851453,1.0010396,0.709403,0.09310905,1.0108585,0.700299,-0.8509449,1.0952694,-0.79124904,0.551589,-0.19163255,1.1857258,1.7424536
-0.2,0.10000000000000003,1.4999999999999998,0.5235987755982988,0.0,0,0.5394216,0.028638136,0.99123687,0.7094506,0.100365765,1.0015067,0.66852415,-0.8959385,1.0730886,-0.80936986,0.5662746,-0.19620767,1.2213628,0.8538463
-0.2,0.10000000000000003,1.4999999999999998,0.5235987755982988,0.0,0,0.53438216,0.028367331,0.994727,0.70995927,0.08862483,0.99243975,0.68768525,-0.8595923,1.0490143,-0.73210377,0.5562789,-0.20474999,1.1525657,0.992048
-0.2,0.10000000000000003,1.4999999999999998,0.5235987755982988,0.0,0,0.5297482,0.03246764,0.98849785,0.7088665,0.096912615,1.0007453,0.68231505,-0.8780111,1.0854174,-0.79126555,0.57609063,-0.17227663,1.2063826,0.5595404
-0.2,0.10000000000000003,1.4999999999999998,0.5235987755982988,0.0,0,0.5322236,0.0307745,0.9937942,0.7091305,0.092154674,1.0207503,0.7140252,-0.86794704,1.0168511,-0.8127886,0.5537561,-0.18393481,1.1954547,0.87848556
-0.2,0.10000000000000003,1.4999999999999998,0.5235987755982988,0.0,0,0.5369511,0.028407605,0.99503756,0.70997006,0.102498345,1.034535,0.65401226,-0.82631093,0.89532864,-0.7593674,0.55001247,-0.13347073,1.153173,0.90300524
-0.2,0.10000000000000003,1.4999999999999998,0.5235987755982988,0.0,0,0.5298635,0.026912414,0.9888561,0.70942277,0.09851587,1.0038965,0.71745706,-0.84589016,1.0428835,-0.7986015,0.5637353,-0.20121673,1.1882659,0.9800986
-0.2,0.10000000000000003,1.4999999999999998,0.5235987755982988,0.0,0,0.5348083,0.030946793,0.99787915,0.70990765,0.096677795,1.0229636,0.6969107,-0.9454021,1.002766,-0.78747654,0.55692023,-0.19935688,1.1774298,1.4535998
-0.2,0.10000000000000003,1.4999999999999998,0.5235987755982988,0.0,0,0.53556436,0.027037922,0.99702805,0.7088958,0.09269278,1.0034274,0.67572767,-0.8792371,1.1382127,-0.79687697,0.5500635,-0.14032404,1.1763673,0.8448984
-0.2,0.10000000000000003,1.4999999999999998,0.5235987755982988,0.0,0,0.53351086,0.018381214,0.99475086,0.7069108,0.09823264,1.0081463,0.7300817,-0.8353207,1.0895997,-0.8232664,0.52764106,-0.13332796,1.1972227,0.82173043
-0.2,0.10000000000000003,1.4999999999999998,0.5235987755982988,0.0,0,0.53254896,0.029180204,0.9914667,0.70966536,0.09695365,1.0010232,0.7087725,-0.8461849,1.0603907,-0.8072788,0.5580257,-0.1972453,1.2018435,0.76940346
-0.2,0.10000000000000003,1.4999999999999998,0.5235987755982988,0.0,0,0.527229,0.027494805,0.9855551,0.7094049,0.09523668,1.032078,0.66386765,-0.8519242,1.0440841,-0.8024188,0.5779382,-0.17003904,1.1943336,1.1491168
-0.2,0.10000000000000003,1.4999999999999998,0.5235987755982988,0.0,0,0.5312139,0.027763907,0.99443424,0.7106795,0.09449212,1.0283813,0.7539643,-0.8498906,1.018089,-0.77248937,0.5527988,-0.18300956,1.1993076,0.72706103
-0.2,0.10000000000000003,1.4999999999999998,0.5235987755982988,0.0,0,0.5285829,0.029852638,0.9864464,0.70828474,0.10164907,1.0127761,0.69845945,-0.8733245,1.090173,-0.7895686,0.55521774,-0.15891235,1.1607399,1.2549787
-0.2,0.10000000000000003,1.4999999999999998,0.5235987755982988,0.0,0,0.5343995,0.02774572,0.9938643,0.7098231,0.093723334,1.0371749,0.73543894,-0.86149025,1.0508814,-0.79223615,0.54719526,-0.16764782,1.2255164,0.64149183
-0.2,0.10000000000000003,1.4999999999999998,0.5235987755982988,0.0,0,0.5297009,0.027991747,0.9958987,0.7103096,0.09467976,1.0249374,0.7601615,-0.90807796,1.1648926,-0.78415966,0.5466586,-0.13375281,1.1833396,0.8166565
-0.2,0.10000000000000003,1.4999999999999998,0.5235987755982988,0.0,0,0.53007114,0.033363875,0.99426544,0.7095406,0.09954757,1.015692,0.7521327,-0.8814582,1.0364788,-0.7678505,0.56310487,-0.17841958,1.1705345,0.81709635
-0.2,0.10000000000000003,1.4999999999999998,0.5235987755982988,0.0,0,0.52683115,0.027683701,0.9930991,0.7084737,0.097578116,1.0157444,0.7710542,-0.8452579,1.119018,-0.7894706,0.55737936,-0.17656675,1.1904731,0.82653123
-0.2,0.10000000000000003,1.4999999999999998,0.5235987755982988,0.0,0,0.53014684,0.029911228,1.0022153,0.7104889,0.0986694,0.98970175,0.7144903,-0.797464,1.0228517,-0.7923758,0.53066,-0.17650948,1.1625179,0.92154855
-0.2,0.10000000000000003,1.4999999999999998,0.5235987755982988,0.0,0,0.5365712,0.034873497,0.9935566,0.70821875,0.092908956,1.0277736,0.72556984,-0.8474798,1.0301563,-0.839989,0.5433687,-0.149063,1.1820933,0.91773194
-0.2,0.10000000000000003,1.4999999999999998,0.5235987755982988,0.0,0,0.5303461,0.025348336,0.9980059,0.7098755,0.09758638,1.0237187,0.7448049,-0.88955116,1.1111759,-0.835954,0.57101965,-0.10475398,1.1890225,0.66818035
-0.2,0.10000000000000003,1.4999999999999998,0.5235987755982988,0.0,0,0.53051627,0.025319608,0.99446094,0.70886445,0.09883984,1.0130259,0.8110477,-0.83009326,1.1216308,-0.8170151,0.56730783,-0.19291198,1.1783544,0.9794988
-0.2,0.10000000000000003,1.4999999999999998,0.5235987755982988,0.0,0,0.5400544,0.029687228,0.99452263,0.7116218,0.09841457,1.0131631,0.69617295,-0.8716435,1.1465644,-0.8309791,0.5638671,-0.122735485,1.2038977,0.58017856
-0.2,0.10000000000000003,1.4999999999999998,0.5235987755982988,0.0,0,0.5362189,0.02610953,0.99596524,0.70879585,0.09398229,1.0173413,0.6994099,-0.851455,0.9729785,-0.8219303,0.5545908,-0.1948652,1.1860243,0.8342916
-0.2,0.10000000000000003,1.4999999999999998,0.5235987755982988,0.0,0,0.53276515,0.025659982,0.9913734,0.70909745,0.09791236,1.014838,0.74173063,-0.8787803,1.035891,-0.730686,0.58527803,-0.1952249,1.1728328,0.72206277
-0.2,0.10000000000000003,1.4999999999999998,0.5235987755982988,0.0,0,0.5346667,0.028748164,1.0000868,0.70995563,0.11189404,1.0020485,0.76887864,-0.8654009,1.0149189,-0.7639057,0.5357869,-0.15944806,1.1484617,0.8207811
-0.2,0.10000000000000003,1.4999999999999998,0.5235987755982988,0.0,0,0.53376704,0.027850233,0.99565935,0.7091403,0.09914726,1.0164046,0.7035285,-0.8786654,1.0462973,-0.8010209,0.5612855,-0.19908862,1.1839654,1.03228
-0.2,0.10000000000000003,1.4999999999999998,0.5235987755982988,0.0,0,0.5340583,0.02355509,0.99373484,0.7092075,0.09635618,1.0219046,0.72428393,-0.78011507,1.1431577,-0.81156564,0.5288899,-0.17925079,1.2142451,0.8015302
-0.2,0.10000000000000003,1.4999999999999998,0.5235987755982988,0.0,0,0.5353875,0.027514525,0.98946637,0.70883983,0.096940264,0.9909718,0.6514871,-0.80366164,1.1281,-0.80969626,0.55465364,-0.15407877,1.1878533,0.7591581
-0.2,0.10000000000000003,1.4999999999999998,0.5235987755982988,0.0,0,0.5349843,0.025987253,0.9964795,0.7093155,0.0975573,1.037484,0.724024,-0.8791793,1.0845422,-0.7640831,0.56900454,-0.18801662,1.1938783,0.6966807
-0.2,0.10000000000000003,1.4999999999999998,0.5235987755982988,0.0,0,0.53690255,0.023682104,0.9968397,0.71159804,0.09921378,1.0124947,0.7080701,-0.88496,1.0951638,-0.7697357,0.5611504,-0.18805525,1.1840436,0.8113573
-0.2,0.10000000000000003,1.4999999999999998,0.5235987755982988,0.0,0,0.53183484,0.035642292,0.99898404,0.7100987,0.101531364,1.0086923,0.7691847,-0.838088,1.1607448,-0.8202735,0.56430054,-0.16170132,1.1820012,1.1273674
-0.2,0.10000000000000003,1.4999999999999998,0.5235987755982988,0.0,0,0.5336021,0.029992972,0.991938,0.7104427,0.09768491,1.0043299,0.6919697,-0.86583066,1.0927285,-0.7861076,0.55604315,-0.18634675,1.2218426,0.6823517
-0.2,0.10000000000000003,1.4999999999999998,0.5235987755982988,0.0,0,0.5346138,0.035384193,0.9930726,0.7104421,0.096575044,1.012352,0.73065865,-0.7709232,1.0122515,-0.7529033,0.5255173,-0.18478042,1.2022144,0.5074483
-0.2,0.10000000000000003,1.4999999999999998,0.5235987755982988,0.0,0,0.53250253,0.02778661,0.9935092,0.7111155,0.092979014,1.0211052,0.6740523,-0.9072481,1.0684147,-0.82911915,0.550644,-0.15690075,1.1863676,0.98089707
-0.2,0.10000000000000003,1.4999999999999998,0.5235987755982988,0.0,0,0.5297918,0.030647194,0.9848774,0.7091135,0.09669716,1.0341185,0.7086131,-0.86476874,1.1720493,-0.7948769,0.5583607,-0.1971218,1.1896019,0.9372173
-0.2,0.10000000000000003,1.4999999999999998,0.5235987755982988,0.0,0,0.5322506,0.029237647,0.9885102,0.7097067,0.095627375,1.015318,0.79872346,-0.8118559,1.0385289,-0.8071334,0.5577041,-0.16692783,1.1966187,0.5840459
-0.2,0.10000000000000003,1.4999999999999998,0.5235987755982988,0.0,0,0.53242296,0.029875554,0.9949216,0.71206087,0.09431734,1.0100102,0.70159787,-0.8490367,1.0353174,-0.7382313,0.5486902,-0.19235015,1.1676316,0.6586319
-0.2,0.10000000000000003,1.4999999999999998,0.5235987755982988,0.0,0,0.5315048,0.026473787,0.99655277,0.7086565,0.09676378,1.014187,0.7108073,-0.88694155,1.1337779,-0.8171291,0.54153687,-0.14715032,1.188495,0.9064535
-0.2,0.10000000000000003,1.4999999999999998,0.5235987755982988,0.0,0,0.5375175,0.028419318,0.9910128,0.70969003,0.10054358,0.98944324,0.7396411,-0.8659713,1.1402014,-0.79272366,0.5732166,-0.18619032,1.1914163,0.8130076
-0.2,0.10000000000000003,1.4999999999999998,0.5235987755982988,0.0,0,0.52848786,0.032497432,0.99093086,0.7100098,0.08935556,1.0018167,0.7467357,-0.8637141,1.0280156,-0.7914325,0.5358009,-0.1369997,1.1666167,1.0307206
-0.2,0.10000000000000003,1.4999999999999998,0.5235987755982988,0.0,0,0.5250686,0.0255298,0.9880362,0.7085557,0.09595784,1.025261,0.75060636,-0.82053214,0.99993175,-0.78993773,0.5760194,-0.16046831,1.201706,0.41839984
-0.2,0.10000000000000003,1.4999999999999998,0.5235987755982988,0.0,0,0.5343911,0.030736325,0.9965403,0.70978445,0.09225215,1.0321659,0.76763195,-0.86973494,1.1083353,-0.7898765,0.5723868,-0.17021503,1.1479765,0.77501595
-0.2,0.10000000000000003,1.4999999999999998,0.5235987755982988,0.0,0,0.5275056,0.02883118,0.9886885,0.70705825,0.100989416,1.0386827,0.7467664,-0.83718944,1.0859624,-0.80293435,0.57439935,-0.19277152,1.1886022,0.74188304
-0.2,0.10000000000000003,1.4999999999999998,0.5235987755982988,0.0,0,0.53146577,0.028903145,0.98917365,0.7083433,0.09657692,1.0120059,0.75124675,-0.899389,1.0825039,-0.7500327,0.5324626,-0.12695843,1.1819091,0.5599714
-0.2,0.10000000000000003,1.4999999999999998,0.5235987755982988,0.0,0,0.542901,0.033014674,0.9839461,0.70922893,0.09452773,1.0293581,0.7570483,-0.9446497,0.995671,-0.7969578,0.56884694,-0.2181621,1.2355273,1.0974219
-0.2,0.10000000000000003,1.4999999999999998,0.5235987755982988,0.0,0,0.5368196,0.028125707,0.98965716,0.70927066,0.09532432,1.0029529,0.7382805,-0.8925916,1.0315952,-0.7581489,0.51701415,-0.15659174,1.1593364,0.94499165
-0.2,0.10000000000000003,1.4999999999999998,0.5235987755982988,0.0,0,0.53324276,0.023992352,0.99837464,0.7073985,0.10078753,1.0237322,0.752259,-0.7952154,1.0308678,-0.8143446,0.5813772,-0.14849503,1.15775,0.62035626
-0.2,0.10000000000000003,1.4999999999999998,0.5235987755982988,0.0,0,0.5386606,0.03417288,0.9942777,0.7103764,0.100462906,1.0302882,0.5967303,-0.83845705,1.0132234,-0.78012824,0.560934,-0.23438382,1.2070296,0.90293133
-0.2,0.10000000000000003,1.4999999999999998,0.5235987755982988,0.0,0,0.53767926,0.027456334,0.98549247,0.7105334,0.094518304,1.0197432,0.7264674,-0.89575,1.0795003,-0.77366567,0.57205313,-0.19090205,1.1806384,1.0409082
-0.2,0.10000000000000003,1.4999999999999998,0.5235987755982988,0.0,0,0.53371423,0.03083988,0.99383587,0.70910496,0.094810925,1.017631,0.7352686,-0.827801,1.1395711,-0.792574,0.57669157,-0.19172959,1.1821686,0.8115731
-0.2,0.10000000000000003,1.4999999999999998,0.5235987755982988,0.0,0,0.53136957,0.026705874,0.9938549,0.711339,0.10102699,1.0046676,0.70929295,-0.85127205,1.1664655,-0.792393,0.5736157,-0.17499398,1.2092075,0.61295515
-0.2,0.10000000000000003,1.4999999999999998,0.5235987755982988,0.0,0,0.5329972,0.028094577,0.99168813,0.7109211,0.101498716,1.012592,0.7552795,-0.9273238,0.99355686,-0.8053421,0.5862387,-0.17769459,1.2098005,0.9887047
-0.2,0.10000000000000003,1.4999999999999998,0.5235987755982988,0.0,0,0.54005045,0.028828057,0.99648744,0.70866746,0.09451399,1.0555904,0.69686043,-0.8091965,1.2338884,-0.7920668,0.56120926,-0.13431491,1.1660297,0.76355153
-0.2,0.10000000000000003,1.4999999999999998,0.5235987755982988,0.0,0,0.53145903,0.02871781,0.98579377,0.70892805,0.10001477,1.0155112,0.82988024,-0.8719791,1.0675135,-0.7987501,0.5640932,-0.20289178,1.2057219,0.9938868
-0.2,0.10000000000000003,1.4999999999999998,0.5235987755982988,0.0,0,0.5336237,0.026968434,1.0004327,0.71006775,0.10199047,1.0034767,0.6509594,-0.7775132,1.1322541,-0.782623,0.5475118,-0.18084228,1.1955713,0.7549313
-0.2,0.10000000000000003,1.4999999999999998,0.5235987755982988,0.0,0,0.5292158,0.02355927,0.9959473,0.7113809,0.100589834,1.0226828,0.69106084,-0.8481922,1.0814817,-0.80240035,0.51770383,-0.15065981,1.1648589,1.3024958
-0.2,0.10000000000000003,1.4999999999999998,0.5235987755982988,0.0,0,0.53408587,0.028534342,0.99426997,0.7106406,0.098363094,1.0014186,0.6556888,-0.9131158,1.0237036,-0.8125781,0.5497362,-0.15727714,1.17536,0.9279358
-0.2,0.10000000000000003,1.4999999999999998,0.5235987755982988,0.0,0,0.5316428,0.027222713,0.99428546,0.7116106,0.100389354,1.0290297,0.6562747,-0.8280912,1.0737618,-0.84865177,0.54666984,-0.14523335,1.1763673,0.79911375
-0.2,0.10000000000000003,1.4999999999999998,0.5235987755982988,0.0,0,0.53315663,0.02754529,0.99220616,0.7073569,0.08997079,1.0176895,0.7712795,-0.8507248,1.115711,-0.8104176,0.5584108,-0.18333517,1.1963433,0.6338468
-0.2,0.10000000000000003,1.4999999999999998,0.5235987755982988,0.0,0,0.53425497,0.02619759,0.9952724,0.708176,0.094696596,1.0026743,0.73781663,-0.9346022,1.0660956,-0.831803,0.56724924,-0.16383596,1.1830074,1.0392841
-0.2,0.10000000000000003,1.4999999999999998,0.5235987755982988,0.0,0,0.5359452,0.032360557,1.0007191,0.70769477,0.10090922,1.022022,0.66097444,-0.91385394,1.0888085,-0.7804837,0.5473629,-0.102413625,1.1715604,0.5242726
-0.2,0.10000000000000003,1.4999999999999998,0.5235987755982988,0.0,0,0.5291356,0.031025713,0.9830642,0.7089781,0.093400165,1.0227289,0.8224657,-0.78828514,1.0241948,-0.84847593,0.56536883,-0.18685098,1.1768153,0.78924406
-0.2,0.10000000000000003,1.4999999999999998,0.5235987755982988,0.0,0,0.53146636,0.02238666,0.9976888,0.708023,0.0896307,1.0129464,0.77428806,-0.9140487,1.0256115,-0.8162156,0.57061595,-0.14800386,1.1618636,1.2028255
-0.2,0.10000000000000003,1.4999999999999998,0.5235987755982988,0.0,0,0.53012776,0.03352223,0.9888929,0.70992327,0.10115878,1.0187906,0.7710871,-0.87316775,1.0034753,-0.7665602,0.55081236,-0.20965865,1.1730717,0.79378027
-0.2,0.10000000000000003,1.4999999999999998,0.5235987755982988,0.0,0,0.53510183,0.03136481,0.9887235,0.70900357,0.097815275,1.0244392,0.77177644,-0.80521196,1.1463383,-0.80468017,0.56196874,-0.17702359,1.208319,0.76273197
-0.2,0.10000000000000003,1.4999999999999998,0.5235987755982988,0.0,0,0.53757566,0.028121399,0.987397,0.7090471,0.09694418,1.0113777,0.7672291,-0.8343327,1.0116298,-0.8199581,0.56489927,-0.15213795,1.1822124,0.5496262
-0.2,0.10000000000000003,1.4999999999999998,0.5235987755982988,0.0,0,0.5292418,0.02985526,0.99171394,0.7093812,0.100435324,1.0219554,0.6746391,-0.809898,1.0903431,-0.8093465,0.5369349,-0.18946277,1.140341,1.4572552
-0.2,0.10000000000000003,1.4999999999999998,0.5235987755982988,0.0,0,0.53696,0.025027977,0.9976477,0.71165586,0.09848668,1.0242729,0.6381552,-0.7968747,1.1148196,-0.79639494,0.5574449,-0.17986724,1.1818448,0.6631093
-0.2,0.10000000000000003,1.4999999999999998,0.5235987755982988,0.0,0,0.5295946,0.027735129,0.99743986,0.70973736,0.09640409,1.026442,0.7101148,-0.8561175,1.0039802,-0.7909297,0.58253765,-0.14460534,1.2099574,0.97054285
-0.2,0.10000000000000003,1.4999999999999998,0.5235987755982988,0.0,0,0.5364463,0.026460119,0.98945373,0.70725477,0.089281306,1.000434,0.7135968,-0.8730027,1.0324429,-0.7911978,0.54883206,-0.15614559,1.1793871,0.6294469
-0.2,0.10000000000000003,1.4999999999999998,0.5235987755982988,0.0,0,0.5315514,0.028307581,0.9940111,0.70902044,0.09405176,1.0271719,0.70567006,-0.81604064,1.0257938,-0.8097201,0.54843724,-0.19764395,1.1865567,0.7670483
-0.2,0.10000000000000003,1.4999999999999998,0.5235987755982988,0.0,0,0.5319011,0.023978299,0.99089646,0.70921975,0.09820047,1.0102491,0.711976,-0.87671274,1.0813705,-0.7707608,0.54686016,-0.15798892,1.2198455,0.5376448
-0.2,0.10000000000000003,1.4999999999999998,0.5235987755982988,0.0,0,0.5313776,0.028123925,0.9930586,0.7075211,0.10039171,1.0282921,0.72562194,-0.82416433,0.9730184,-0.7859092,0.5481533,-0.1985618,1.1496857,0.8409886
-0.2,0.10000000000000003,1.4999999999999998,0.5235987755982988,0.0,0,0.5333025,0.02903329,0.9896557,0.71119136,0.09991562,1.0348953,0.7816566,-0.9098772,1.023976,-0.8142476,0.57281727,-0.19920312,1.2032268,0.74791926
-0.2,0.10000000000000003,1.4999999999999998,0.5235987755982988,0.0,0,0.530205,0.0281245,0.9945992,0.70959806,0.09337953,1.0278926,0.7795516,-0.82919556,1.0431975,-0.81528646,0.5233814,-0.16980083,1.1737764,0.90030617
-0.2,0.10000000000000003,1.4999999999999998,0.5235987755982988,0.0,0,0.540398,0.027047096,0.9889353,0.7085219,0.10156749,1.0205367,0.7316541,-0.9009771,1.0951793,-0.7814441,0.5256887,-0.21047369,1.1964861,1.4515617
-0.2,0.10000000000000003,1.4999999999999998,0.5235987755982988,0.0,0,0.5226266,0.0336803,0.9930597,0.7103096,0.09541506,1.0060098,0.85417247,-0.91164505,1.1108615,-0.82015747,0.54628724,-0.2154353,1.238163,1.2352228
-0.2,0.10000000000000003,1.4999999999999998,0.5235987755982988,0.0,0,0.5365409,0.027517501,0.98853123,0.7087046,0.0988332,1.0127885,0.7582331,-0.9378727,1.1233304,-0.8140985,0.5706844,-0.1751455,1.1783756,0.83413726
-0.2,0.10000000000000003,1.4999999999999998,0.5235987755982988,0.0,0,0.5293445,0.024643164,0.99272066,0.70940226,0.09365693,1.0266944,0.7277504,-0.8431172,0.9390947,-0.8261226,0.52521914,-0.15630372,1.1825682,1.1426367
-0.2,0.10000000000000003,1.4999999999999998,0.5235987755982988,0.0,0,0.53142935,0.02713732,0.98706543,0.7084952,0.09450894,1.0289879,0.6334523,-0.8912704,1.044733,-0.82235175,0.51423603,-0.15594542,1.210397,0.73620826
-0.2,0.10000000000000003,1.4999999999999998,0.5235987755982988,0.0,0,0.53078693,0.027737817,0.9926352,0.708406,0.09820741,1.0112091,0.742733,-0.92297083,1.110414,-0.7990882,0.5369284,-0.11620636,1.1953875,1.2624841
-0.2,0.10000000000000003,1.4999999999999998,0.5235987755982988,0.0,0,0.52671635,0.025839513,0.99852306,0.70831615,0.09945146,1.0128574,0.8047536,-0.8824585,0.9816897,-0.80294514,0.5483677,-0.15623441,1.168201,1.2052838
-0.2,0.10000000000000003,1.4999999999999998,0.5235987755982988,0.0,0,0.53603923,0.028550161,0.99170387,0.7100197,0.10115358,0.9997829,0.7411189,-0.82956904,1.0898743,-0.8132407,0.5698141,-0.24408263,1.1897013,1.0058647
-0.2,0.10000000000000003,1.4999999999999998,0.5235987755982988,0.0,0,0.53652555,0.023639852,0.99382263,0.71106464,0.097425014,0.99984115,0.72567916,-0.8087286,1.1514194,-0.8017063,0.548626,-0.18868892,1.1709805,0.8964424
-0.2,0.10000000000000003,1.4999999999999998,0.5235987755982988,0.0,0,0.5309636,0.0329792,0.99141383,0.7091054,0.09263219,0.9819933,0.75575304,-0.8633631,1.0016472,-0.8372279,0.5525755,-0.11620621,1.2087224,1.1511745
-0.2,0.10000000000000003,1.4999999999999998,0.5235987755982988,0.0,0,0.5360426,0.029103454,0.98846054,0.71025515,0.09606522,1.0269704,0.7569879,-0.91850704,0.9908979,-0.8188804,0.53900677,-0.16697443,1.2045463,0.6021457
-0.2,0.10000000000000003,1.4999999999999998,0.5235987755982988,0.0,0,0.5294998,0.028525691,0.9936259,0.71132356,0.098724626,1.0063478,0.73820114,-0.9353993,1.026213,-0.7723039,0.5766764,-0.19292417,1.2009696,1.2694329
-0.2,0.10000000000000003,1.4999999999999998,0.5235987755982988,0.0,0,0.53013265,0.024568899,0.9986489,0.7081475,0.104098506,1.0287691,0.73898226,-0.87534684,1.0418159,-0.73194504,0.55674076,-0.15141314,1.1882707,1.0129138
-0.2,0.10000000000000003,1.4999999999999998,0.5235987755982988,0.0,0,0.5329906,0.02651267,0.99043345,0.70834196,0.09575022,1.0095739,0.7494814,-0.84696496,1.1560085,-0.80555034,0.5275744,-0.14883684,1.1513597,0.9057316
-0.2,0.10000000000000003,1.4999999999999998,0.5235987755982988,0.0,0,0.5401562,0.021156106,0.98574203,0.7084987,0.0952839,1.0079764,0.72545564,-0.8932094,0.96187913,-0.78339356,0.56627023,-0.15787289,1.1936859,0.35474375
-0.2,0.10000000000000003,1.4999999999999998,0.5235987755982988,0.0,0,0.5299206,0.028222157,0.9876309,0.70999914,0.098387845,1.0308331,0.76289314,-0.8405556,1.030134,-0.8016066,0.5720028,-0.217621,1.1930248,0.7225705
-0.2,0.10000000000000003,1.4999999999999998,0.5235987755982988,0.0,0,0.5299852,0.03378632,1.0007615,0.71119195,0.0944922,1.0361031,0.7827764,-0.83907455,1.003804,-0.79219514,0.5761403,-0.15385899,1.1606998,0.4418314
-0.2,0.10000000000000003,1.4999999999999998,0.5235987755982988,0.0,0,0.53362054,0.027759826,0.9919836,0.7121286,0.09410456,1.0248435,0.76531994,-0.8356543,1.0493717,-0.8198731,0.5539803,-0.1686554,1.1812444,0.63778025
-0.2,0.10000000000000003,1.4999999999999998,0.5235987755982988,0.0,0,0.53848726,0.029119322,0.9977465,0.70906353,0.09670887,1.0437273,0.73559505,-0.9055776,1.0945607,-0.81376463,0.5936293,-0.18977188,1.2062167,0.5947455
-0.2,0.10000000000000003,1.4999999999999998,0.5235987755982988,0.0,0,0.53539217,0.02930727,0.9903592,0.70887405,0.0955465,1.0258583,0.7387967,-0.8757194,1.01356,-0.8066291,0.55981106,-0.14808397,1.1789032,0.49995568
-0.2,0.10000000000000003,1.4999999999999998,0.5235987755982988,0.0,0,0.53262746,0.029154617,0.9963063,0.71069515,0.102082625,1.000297,0.73001707,-0.8540204,1.0620848,-0.7421673,0.56822824,-0.14254056,1.2068127,1.3053867
-0.2,0.10000000000000003,1.4999999999999998,0.5235987755982988,0.0,0,0.5339782,0.028764956,0.9979315,0.70854217,0.09345131,1.0011898,0.62090045,-0.7691687,1.0226933,-0.7681055,0.5541853,-0.15597205,1.2114476,1.488932
-0.2,0.10000000000000003,1.4999999999999998,0.5235987755982988,0.0,0,0.53117704,0.03009529,0.99562126,0.7088799,0.09846317,1.013924,0.7446976,-0.85703206,1.0304812,-0.74537987,0.54341877,-0.13579832,1.2229912,1.1069051
-0.2,0.10000000000000003,1.4999999999999998,0.5235987755982988,0.0,0,0.5251754,0.02954441,0.9992538,0.7101782,0.09641516,0.9908799,0.7089452,-0.855477,1.0984606,-0.8054332,0.6028844,-0.11358896,1.2268541,1.1386526
-0.2,0.10000000000000003,1.4999999999999998,0.5235987755982988,0.0,0,0.5321573,0.025888888,0.991306,0.7119163,0.09931743,0.9828698,0.6516302,-0.8420108,1.0790764,-0.7365035,0.59367776,-0.16617851,1.1947528,1.2771904
-0.2,0.10000000000000003,1.4999999999999998,0.5235987755982988,0.0,0,0.5320393,0.031808645,0.9949063,0.7074356,0.09524829,0.99435276,0.7555912,-0.8647557,1.0223842,-0.7094829,0.52732474,-0.17410451,1.1802475,1.4905761
-0.2,0.10000000000000003,1.4999999999999998,0.5235987755982988,0.0,0,0.531415,0.02647471,0.9949815,0.70830446,0.09935628,1.0273321,0.8042474,-0.82751393,1.0989454,-0.79082096,0.584737,-0.12295635,1.1977973,1.0440116
-0.2,0.10000000000000003,1.4999999999999998,0.5235987755982988,0.0,0,0.5314898,0.028461868,0.9910181,0.71025926,0.09558774,1.0293877,0.7300578,-0.868449,1.0969725,-0.7569555,0.55066246,-0.15039396,1.2303056,1.1381727
-0.2,0.10000000000000003,1.4999999999999998,0.5235987755982988,0.0,0,0.5315986,0.027707806,0.9951013,0.70928913,0.097561054,1.0167736,0.7228688,-0.8076928,1.041338,-0.78762335,0.5640748,-0.16025162,1.1951715,1.0872052
-0.2,0.10000000000000003,1.4999999999999998,0.5235987755982988,0.0,0,0.53345466,0.029603738,0.9940925,0.7070647,0.096827164,1.006027,0.7293943,-0.80528885,1.035177,-0.76805955,0.5630596,-0.1778807,1.2029353,1.0771499
-0.2,0.10000000000000003,1.4999999999999998,0.5235987755982988,0.0,0,0.5356901,0.030036326,0.99718153,0.71131384,0.09891911,1.0449536,0.72253746,-0.8242577,0.9929424,-0.7457478,0.5841026,-0.19170777,1.2070403,0.98033965
-0.2,0.10000000000000003,1.4999999999999998,0.5235987755982988,0.0,0,0.53111404,0.027506305,0.99660194,0.709253,0.099539354,1.0083789,0.6036198,-0.8475331,0.96715695,-0.7375469,0.57863164,-0.20620131,1.1971449,1.1124774
-0.2,0.10000000000000003,1.4999999999999998,0.5235987755982988,0.0,0,0.5374412,0.026386831,0.99903095,0.7085453,0.095289946,1.0108273,0.71051836,-0.8514722,1.0794872,-0.7784071,0.58954054,-0.16277349,1.1912,1.0467641
-0.2,0.10000000000000003,1.4999999999999998,0.5235987755982988,0.0,0,0.53277856,0.029933076,0.99657154,0.7100295,0.09423924,1.0115398,0.7967332,-0.8880199,1.0873703,-0.7733865,0.533153,-0.13141546,1.1975194,1.0426098
-0.2,0.10000000000000003,1.4999999999999998,0.5235987755982988,0.0,0,0.5326217,0.0331333,0.9965066,0.70968443,0.096205875,0.9929863,0.6224034,-0.9111923,0.97371423,-0.76218385,0.55228853,-0.14723426,1.2210866,1.586463
-0.2,0.10000000000000003,1.4999999999999998,0.5235987755982988,0.0,0,0.5377214,0.024903966,0.98506624,0.70831215,0.09468998,1.0174851,0.78573334,-0.8477675,1.1066556,-0.79194087,0.5835462,-0.119603574,1.2110081,1.2838234
-0.2,0.10000000000000003,1.4999999999999998,0.5235987755982988,0.0,0,0.52968943,0.027634552,0.9961425,0.707443,0.09787842,1.0162846,0.7914075,-0.8565275,1.0824971,-0.75141466,0.6052779,-0.16073212,1.1635091,0.92770255
-0.2,0.10000000000000003,1.4999999999999998,0.5235987755982988,0.0,0,0.5406042,0.030463,0.9915025,0.70893735,0.09423817,1.0152179,0.7500196,-0.8430173,0.98723465,-0.7634149,0.5682975,-0.17286053,1.161039,1.0387937
-0.2,0.10000000000000003,1.4999999999999998,0.5235987755982988,0.0,0,0.5289529,0.029877087,0.98988426,0.70711327,0.09650527,1.0086071,0.67236847,-0.8825429,1.1259726,-0.74761474,0.56647074,-0.09678227,1.1702539,1.2678295
-0.2,0.10000000000000003,1.4999999999999998,0.5235987755982988,0.0,0,0.5418323,0.025227401,1.004846,0.7093557,0.09788064,1.0275924,0.6389063,-0.87038046,1.0365705,-0.80627936,0.5898491,-0.13690649,1.1952751,1.0077882
-0.2,0.10000000000000003,1.4999999999999998,0.5235987755982988,0.0,0,0.53499305,0.027638502,1.0052599,0.7078195,0.08944403,1.0033997,0.61324626,-0.8687994,1.0856872,-0.771613,0.57198095,-0.14340103,1.1833981,0.980841
-0.2,0.10000000000000003,1.4999999999999998,0.5235987755982988,0.0,0,0.52835673,0.021162158,0.99614817,0.7087638,0.094033085,1.0216223,0.7231966,-0.9001557,1.0008559,-0.7510077,0.54973096,-0.17268428,1.1985108,1.0699816
-0.2,0.10000000000000003,1.4999999999999998,0.5235987755982988,0.0,0,0.532137,0.024053711,0.9899765,0.7081549,0.09178996,1.0100765,0.7151668,-0.88425636,1.0725354,-0.75871474,0.5689935,-0.11924669,1.1892754,1.1622162
-0.2,0.10000000000000003,1.4999999999999998,0.5235987755982988,0.0,0,0.53544474,0.02258374,0.9892433,0.7071473,0.10113482,1.024465,0.6724553,-0.9317361,1.13606,-0.73806304,0.56268626,-0.20951472,1.2350739,1.3039359
-0.2,0.10000000000000003,1.4999999999999998,0.5235987755982988,0.0,0,0.53116775,0.02590868,0.99459743,0.7096865,0.10009232,1.0296276,0.81446195,-0.8150942,1.0986362,-0.7874061,0.586993,-0.16507548,1.1881138,0.99136573
-0.2,0.10000000000000003,1.4999999999999998,0.5235987755982988,0.0,0,0.53615576,0.027040754,0.9881627,0.70979184,0.0977336,0.9959575,0.6745908,-0.78747857,1.0924851,-0.80565226,0.5493007,-0.10064108,1.2090105,0.7496043
-0.2,0.10000000000000003,1.4999999999999998,0.5235987755982988,0.0,0,0.53124243,0.02375501,0.99285036,0.707565,0.094273806,0.9965576,0.6820546,-0.891827,1.0257077,-0.7688624,0.5630099,-0.14902328,1.1718628,1.0395532
-0.2,0.10000000000000003,1.4999999999999998,0.5235987755982988,0.0,0,0.5338253,0.031745035,0.99570787,0.71077484,0.09519618,1.0163802,0.74919695,-0.8921778,0.9125807,-0.79319507,0.57890016,-0.18532681,1.2164658,1.1319162
-0.2,0.10000000000000003,1.4999999999999998,0.5235987755982988,0.0,0,0.5308268,0.02474283,0.9945687,0.7091194,0.10087607,1.0112455,0.75856256,-0.82055366,1.0051954,-0.82485485,0.56787944,-0.16028865,1.2147379,1.1634015
-0.2,0.10000000000000003,1.4999999999999998,0.5235987755982988,0.0,0,0.5289042,0.027875792,0.99994826,0.70880014,0.094266705,1.0129229,0.7241191,-0.8389816,1.051978,-0.77308553,0.523248,-0.17709549,1.2144792,1.1956975
-0.2,0.10000000000000003,1.4999999999999998,0.5235987755982988,0.0,0,0.5319435,0.029045172,0.99504006,0.7091496,0.09277629,1.0075158,0.6821718,-0.8157908,1.0612698,-0.79198456,0.59878325,-0.18440108,1.170849,0.9960907
-0.2,0.10000000000000003,1.4999999999999998,0.5235987755982988,0.0,0,0.5330836,0.022337327,0.99548924,0.7062475,0.09607863,0.98637646,0.72344583,-0.858333,1.0855266,-0.76942986,0.52742213,-0.14841919,1.167631,1.1738496
-0.2,0.10000000000000003,1.4999999999999998,0.5235987755982988,0.0,0,0.5400324,0.032230575,1.0007619,0.70919794,0.09910218,1.0246439,0.7633719,-0.8137787,1.0827181,-0.80430275,0.5786193,-0.16920201,1.2002777,0.9473396
-0.2,0.10000000000000003,1.4999999999999998,0.5235987755982988,0.0,0,0.5379927,0.029173039,0.9928181,0.7081931,0.09580638,1.043193,0.83362925,-0.8761042,1.1389502,-0.78782,0.5694899,-0.15724269,1.1840322,1.4054447
-0.2,0.10000000000000003,1.4999999999999998,0.5235987755982988,0.0,0,0.5302322,0.028316392,0.9946785,0.70982856,0.09527099,1.0135183,0.69776064,-0.85684705,1.0828933,-0.8277903,0.5628974,-0.15296334,1.1862785,0.99286115
-0.2,0.10000000000000003,1.4999999999999998,0.5235987755982988,0.0,0,0.5311306,0.031527255,0.9923754,0.7082407,0.1020729,1.0243534,0.78110856,-0.8859674,1.120569,-0.77107745,0.52724504,-0.16471533,1.1821586,1.3738253
-0.2,0.10000000000000003,1.4999999999999998,0.5235987755982988,0.0,0,0.5310562,0.031676404,0.98148733,0.70832735,0.09159422,1.0310823,0.7816382,-0.9230314,1.1252773,-0.74826,0.5628422,-0.16437404,1.2059013,1.1225253
-0.2,0.10000000000000003,1.4999999999999998,0.5235987755982988,0.0,0,0.5372247,0.032264896,1.0007013,0.7094057,0.09522631,1.0428612,0.7370738,-0.8861871,0.9337804,-0.7895863,0.5484713,-0.18401276,1.2047268,1.0495316
-0.2,0.10000000000000003,1.4999999999999998,0.5235987755982988,0.0,0,0.5331697,0.024746526,0.9979936,0.70924157,0.09873441,1.0149602,0.6505472,-0.9258177,1.0991509,-0.790243,0.5817072,-0.15845414,1.1717279,1.2519443
-0.2,0.10000000000000003,1.4999999999999998,0.5235987755982988,0.0,0,0.530203,0.025973914,1.0041326,0.709787,0.09607223,1.0246882,0.6724959,-0.8516301,1.0638428,-0.78384167,0.5813319,-0.14560263,1.1704472,0.7067441
-0.2,0.10000000000000003,1.4999999999999998,0.5235987755982988,0.0,0,0.5398361,0.031310104,0.99933386,0.7100856,0.091853246,1.027532,0.73334265,-0.93321687,1.147805,-0.7907795,0.55872446,-0.1587562,1.2071787,1.1300002
-0.2,0.10000000000000003,1.4999999999999998,0.5235987755982988,0.0,0,0.53805095,0.034113374,0.99661875,0.7096876,0.09484018,1.0087471,0.70370007,-0.9528455,1.117782,-0.77687156,0.5470981,-0.1621537,1.2205924,0.96879697
-0.2,0.10000000000000003,1.4999999999999998,0.5235987755982988,0.0,0,0.5347952,0.030990154,0.995247,0.70936805,0.099512085,1.0093204,0.66651464,-0.91661924,1.0945448,-0.76765966,0.58895785,-0.15012251,1.143242,0.67158484
-0.2,0.10000000000000003,1.4999999999999998,0.5235987755982988,0.0,0,0.5293004,0.028558152,0.99424016,0.710333,0.10332945,1.014201,0.773896,-0.91824454,1.1420985,-0.7993223,0.5469814,-0.11177853,1.2025045,1.5021269
-0.2,0.10000000000000003,1.4999999999999998,0.5235987755982988,0.0,0,0.53014183,0.02441998,1.001509,0.7081319,0.09734516,1.0116447,0.7055044,-0.89415795,1.1884042,-0.75888526,0.596469,-0.24153726,1.2052997,0.64398754
-0.2,0.10000000000000003,1.4999999999999998,0.5235987755982988,0.0,0,0.53410655,0.02478139,0.9903291,0.7107592,0.10045208,1.013206,0.707308,-0.8610436,1.0868192,-0.75778323,0.56291443,-0.15813775,1.1644669,1.208155
-0.2,0.10000000000000003,1.4999999999999998,0.5235987755982988,0.0,0,0.5257752,0.032245092,0.9886761,0.70916635,0.096781306,1.0199685,0.7108525,-0.8584826,1.0154752,-0.7425913,0.55423933,-0.18409182,1.1604367,0.5575539
