sanky1234/BimanualDexCatch/isaacgymenvs/cem_results/football_pose_0.1_-0.1_0.7999999999999999_0.0_0.5235987755982988_0_2025-05-26.csv
x,y,z,roll,pitch,yaw,robot1/joint1,robot1/joint2,robot1/joint3,robot1/joint4,robot1/joint5,robot1/joint6,robot1/joint7,robot2/joint1,robot2/joint2,robot2/joint3,robot2/joint4,robot2/joint5,robot2/joint6,robot2/joint7
0.1,-0.1,0.7999999999999999,0.0,0.5235987755982988,0,-1.549464,1.5750734,-0.5853281,-0.27782965,-0.05358989,1.20145,0.032929823,-1.0639949,1.2041267,0.040902846,-0.06384076,-0.19135758,1.2999879,1.1361885
0.1,-0.1,0.7999999999999999,0.0,0.5235987755982988,0,-1.5666289,1.5831456,-0.5807493,-0.27507612,-0.10826097,1.2040062,0.077627994,-1.0518838,1.2423261,-0.05542206,-0.06526629,-0.1662649,1.2691045,0.12813845
0.1,-0.1,0.7999999999999999,0.0,0.5235987755982988,0,-1.5607104,1.5734924,-0.59682715,-0.2646373,-0.06808792,1.196006,0.12879823,-1.0444338,1.2521069,-0.088481486,-0.041856382,0.11221686,1.2410772,1.24684
0.1,-0.1,0.7999999999999999,0.0,0.5235987755982988,0,-1.568092,1.577751,-0.5823038,-0.27508354,-0.07555618,1.201018,0.09279079,-1.0661265,1.2564546,0.027426498,-0.13402429,0.03673804,1.2600358,-0.17254388
0.1,-0.1,0.7999999999999999,0.0,0.5235987755982988,0,-1.5571599,1.5745126,-0.58773434,-0.27031505,-0.07741705,1.2046764,0.20355411,-1.0971491,1.2183194,0.2193548,-0.05573,-0.10154136,1.2782608,-0.1415635
0.1,-0.1,0.7999999999999999,0.0,0.5235987755982988,0,-1.5549518,1.577063,-0.5869216,-0.2660809,-0.07544807,1.2019836,0.11251251,-1.0550246,1.2246128,-0.015947625,-0.07344227,0.02438392,1.2932885,-0.4508084
0.1,-0.1,0.7999999999999999,0.0,0.5235987755982988,0,-1.5559093,1.5768641,-0.58734906,-0.26646775,-0.07231727,1.2037036,0.12790817,-1.0736563,1.1222416,-0.16403377,-0.082508124,0.030244637,1.2918961,-0.6275923
0.1,-0.1,0.7999999999999999,0.0,0.5235987755982988,0,-1.5568249,1.5773298,-0.5936304,-0.2721031,-0.06380819,1.2048922,0.119299695,-1.0331475,1.267884,-0.17343193,-0.09261156,-0.29069862,1.2704993,-0.13508925
0.1,-0.1,0.7999999999999999,0.0,0.5235987755982988,0,-1.5570948,1.57486,-0.58710253,-0.25910464,-0.050742406,1.2054455,0.08728739,-1.0563629,1.2806479,0.028057009,-0.031176377,0.08152788,1.2768716,0.5421231
0.1,-0.1,0.7999999999999999,0.0,0.5235987755982988,0,-1.5506938,1.5805758,-0.57612264,-0.27940747,-0.08069918,1.2055513,0.13312596,-1.0602632,1.2029663,-0.07738351,-0.087038465,0.11042011,1.2326742,-0.29296204
0.1,-0.1,0.7999999999999999,0.0,0.5235987755982988,0,-1.5540749,1.5796875,-0.5834804,-0.2669483,-0.07654354,1.2011188,0.07921274,-1.0428067,1.1960306,-0.00873507,-0.07194705,0.008516631,1.2266477,0.45439148
0.1,-0.1,0.7999999999999999,0.0,0.5235987755982988,0,-1.5449167,1.5847659,-0.5801394,-0.27001274,-0.06572791,1.1960549,0.089047804,-1.0652465,1.1739379,0.06708955,-0.045493282,0.107165135,1.3145856,0.90425557
0.1,-0.1,0.7999999999999999,0.0,0.5235987755982988,0,-1.563325,1.585318,-0.5768999,-0.27221552,-0.06369649,1.2060227,0.13162975,-1.0567486,1.1814137,-0.059381686,-0.07107588,-0.56358045,1.3055995,-1.125669
0.1,-0.1,0.7999999999999999,0.0,0.5235987755982988,0,-1.5571408,1.5762419,-0.5991921,-0.26501158,-0.081847295,1.1998628,0.10561284,-1.0531873,1.2828032,0.012528921,-0.06595492,-0.29580876,1.28709,0.3013643
0.1,-0.1,0.7999999999999999,0.0,0.5235987755982988,0,-1.5523932,1.5785992,-0.58257353,-0.27838987,-0.109944195,1.1951567,0.10798213,-1.0497836,1.2475863,-0.05502418,-0.05074785,0.056831118,1.219081,-0.060007833
0.1,-0.1,0.7999999999999999,0.0,0.5235987755982988,0,-1.5489229,1.5793309,-0.57453734,-0.28055236,-0.06808918,1.194993,0.10120905,-1.0919807,1.1862918,-0.05592319,-0.06712881,-0.21206322,1.2968512,0.09923353
0.1,-0.1,0.7999999999999999,0.0,0.5235987755982988,0,-1.5570656,1.5752524,-0.57371897,-0.27221638,-0.04891092,1.203896,0.15558092,-1.0313556,1.280392,0.023133958,-0.09828603,-0.06706195,1.2963109,-0.80670303
0.1,-0.1,0.7999999999999999,0.0,0.5235987755982988,0,-1.5490657,1.5756186,-0.56645626,-0.2750423,-0.05248576,1.202235,0.12065167,-1.0778605,1.2163519,0.18327318,-0.100727774,-0.28266633,1.2782414,-1.3050789
0.1,-0.1,0.7999999999999999,0.0,0.5235987755982988,0,-1.5494121,1.583632,-0.5862414,-0.27415624,-0.09313931,1.2053127,0.11421253,-1.0476251,1.2299676,0.0057342392,-0.06359325,-0.032267377,1.2724351,0.74934286
0.1,-0.1,0.7999999999999999,0.0,0.5235987755982988,0,-1.557025,1.5756788,-0.581796,-0.26784027,-0.06287424,1.2012124,0.046156235,-1.0590359,1.2174788,-0.15764463,-0.04638149,0.112845436,1.2731713,0.9711764
0.1,-0.1,0.7999999999999999,0.0,0.5235987755982988,0,-1.5487196,1.5773991,-0.57329583,-0.2760906,-0.057545885,1.2065696,0.091807045,-1.075876,1.2023396,-0.035748743,-0.081107154,-0.29532185,1.3201959,-0.5224192
0.1,-0.1,0.7999999999999999,0.0,0.5235987755982988,0,-1.5545453,1.5784068,-0.5790785,-0.27074,-0.050628033,1.2041074,0.18770374,-1.0480075,1.2010157,0.052465178,-0.08146936,-0.13028131,1.2337431,-0.9152716
0.1,-0.1,0.7999999999999999,0.0,0.5235987755982988,0,-1.5618519,1.5745336,-0.59609807,-0.26755613,-0.08935036,1.1968201,0.15121607,-1.0539603,1.1836826,-0.032211423,-0.085263655,-0.21891119,1.2208023,0.78959024
0.1,-0.1,0.7999999999999999,0.0,0.5235987755982988,0,-1.5562305,1.5788381,-0.5834593,-0.26549327,-0.08583,1.2019793,0.10010858,-1.0438795,1.3028502,0.10040893,-0.08842465,-0.16690813,1.2504728,-0.42461026
0.1,-0.1,0.7999999999999999,0.0,0.5235987755982988,0,-1.5649388,1.5752403,-0.5940104,-0.27088416,-0.067766875,1.2044171,0.076609746,-1.0462971,1.2069815,-0.0055455836,-0.06856323,-0.08237926,1.2846824,0.5779759
0.1,-0.1,0.7999999999999999,0.0,0.5235987755982988,0,-1.5564739,1.5812377,-0.5767758,-0.26641765,-0.055992708,1.1974827,0.08823511,-1.0468038,1.2459465,-0.038654327,-0.08235541,-0.036238164,1.272445,1.643191
0.1,-0.1,0.7999999999999999,0.0,0.5235987755982988,0,-1.5570931,1.5790204,-0.58065283,-0.26510885,-0.09976712,1.2063246,0.13348429,-1.0457406,1.2232754,0.03574554,-0.014169772,-0.25310084,1.3113241,0.22176377
0.1,-0.1,0.7999999999999999,0.0,0.5235987755982988,0,-1.5578171,1.5782069,-0.5949815,-0.27394152,-0.0560827,1.1971917,0.09640953,-1.0518122,1.1615815,-0.008764787,-0.050970625,-0.043017816,1.26803,2.4227338
0.1,-0.1,0.7999999999999999,0.0,0.5235987755982988,0,-1.5535716,1.5745764,-0.572338,-0.27614626,-0.068057895,1.2030225,0.029371923,-1.0440285,1.1787481,-0.106796265,-0.021485776,-0.07839976,1.3259078,-0.35526523
0.1,-0.1,0.7999999999999999,0.0,0.5235987755982988,0,-1.550771,1.5810819,-0.58849406,-0.26719356,-0.059032694,1.1978061,0.19201308,-1.0782384,1.2766389,0.1126641,-0.047666997,-0.4316837,1.2815176,0.67911655
0.1,-0.1,0.7999999999999999,0.0,0.5235987755982988,0,-1.5556308,1.5769849,-0.5806671,-0.27004665,-0.037011016,1.1983685,0.045873318,-1.0384157,1.2414312,-0.00039753335,-0.040037893,0.026037395,1.3216481,-0.2780425
0.1,-0.1,0.7999999999999999,0.0,0.5235987755982988,0,-1.5669868,1.5786642,-0.5888071,-0.2633166,-0.06092403,1.2033831,0.0471476,-1.0738872,1.1966414,0.13088892,-0.08878156,0.009391374,1.2560527,-0.31271198
0.1,-0.1,0.7999999999999999,0.0,0.5235987755982988,0,-1.5509868,1.5752869,-0.5784041,-0.2800844,-0.07886726,1.1965575,0.12575045,-1.0582638,1.2537972,-0.068409145,-0.032585364,-0.03334763,1.2658049,-0.12424203
0.1,-0.1,0.7999999999999999,0.0,0.5235987755982988,0,-1.5412437,1.5792023,-0.5848856,-0.2624256,-0.0626015,1.2062892,0.065030865,-1.0360571,1.1810582,0.16417463,-0.046113253,-0.13582796,1.3224672,-0.65197045
0.1,-0.1,0.7999999999999999,0.0,0.5235987755982988,0,-1.5615,1.5766321,-0.58228457,-0.27061865,-0.081972145,1.2012188,0.10342479,-1.0465945,1.2476251,-0.018658949,-0.051290136,-0.37158188,1.2748017,0.34898153
0.1,-0.1,0.7999999999999999,0.0,0.5235987755982988,0,-1.5524802,1.5808567,-0.59142923,-0.28024986,-0.07668426,1.1973165,0.12944818,-1.0425704,1.1795663,0.011361957,-0.057192326,-0.0014493841,1.3033793,-0.40951535
0.1,-0.1,0.7999999999999999,0.0,0.5235987755982988,0,-1.5453069,1.5748026,-0.5728487,-0.2754299,-0.05525776,1.206549,0.08175226,-1.0776806,1.266264,-0.14726505,-0.07743637,-0.28692043,1.3228875,-0.35056937
0.1,-0.1,0.7999999999999999,0.0,0.5235987755982988,0,-1.5595006,1.5817645,-0.5879202,-0.26871943,-0.055773277,1.2028637,0.061881512,-1.0349283,1.2039659,0.0074413395,-0.057064794,-0.1021321,1.2702032,0.32165653
0.1,-0.1,0.7999999999999999,0.0,0.5235987755982988,0,-1.5550112,1.5794061,-0.58412224,-0.27235857,-0.055512436,1.2010825,0.124113835,-1.0596805,1.2600579,-0.056984555,-0.054083455,-0.1679575,1.2947258,0.29957154
0.1,-0.1,0.7999999999999999,0.0,0.5235987755982988,0,-1.5674975,1.5867902,-0.5765607,-0.27083656,-0.081845,1.2055063,0.15796621,-1.0598146,1.2216513,-0.055396896,-0.12056658,-0.17711966,1.2650309,1.2312835
0.1,-0.1,0.7999999999999999,0.0,0.5235987755982988,0,-1.5528387,1.5740715,-0.57923865,-0.27853256,-0.07296721,1.1971959,0.057132415,-1.0827669,1.2073203,0.077947035,-0.0633894,-0.24979877,1.2573893,-1.2174543
0.1,-0.1,0.7999999999999999,0.0,0.5235987755982988,0,-1.5658457,1.5764093,-0.58542776,-0.26835775,-0.048747852,1.1992717,0.025019415,-1.0377022,1.178972,0.003003494,-0.07136074,0.05490329,1.2436208,0.24082187
0.1,-0.1,0.7999999999999999,0.0,0.5235987755982988,0,-1.5465904,1.5845745,-0.5892203,-0.27319095,-0.07614618,1.2025346,0.1704415,-1.0525203,1.1874825,-0.05361058,-0.06603531,-0.02074846,1.1762803,0.22897038
0.1,-0.1,0.7999999999999999,0.0,0.5235987755982988,0,-1.5599605,1.5805333,-0.5868161,-0.27184778,-0.08388651,1.2013867,0.14069779,-1.084523,1.2063779,0.070199154,-0.08202962,-0.23187609,1.2895746,0.06947297
0.1,-0.1,0.7999999999999999,0.0,0.5235987755982988,0,-1.5504136,1.5758744,-0.5765224,-0.26668027,-0.07565766,1.2032968,0.15379114,-1.0617099,1.2561883,-0.05745834,-0.055796582,-0.01392547,1.2834587,1.0362239
0.1,-0.1,0.7999999999999999,0.0,0.5235987755982988,0,-1.5528864,1.5766902,-0.56965333,-0.2715462,-0.06346156,1.1991562,0.15964337,-1.0629961,1.211355,0.26687646,-0.07752604,0.25898144,1.2793213,-0.04914495
0.1,-0.1,0.7999999999999999,0.0,0.5235987755982988,0,-1.5493593,1.5824778,-0.5649769,-0.27317533,-0.07452224,1.198466,0.041884102,-1.061447,1.2270868,-0.109634705,-0.06280243,-0.112759285,1.2832348,0.43592322
0.1,-0.1,0.7999999999999999,0.0,0.5235987755982988,0,-1.5495523,1.575651,-0.58664155,-0.2664928,-0.073569156,1.1996577,0.05893893,-1.0338386,1.1909783,-0.06211413,-0.0677129,0.04557359,1.245778,1.3614525
0.1,-0.1,0.7999999999999999,0.0,0.5235987755982988,0,-1.5594115,1.5826207,-0.5748694,-0.27395025,-0.036192417,1.2039554,-0.004539215,-1.0538883,1.3124765,-0.06325749,-0.06329548,-0.041815042,1.2801417,1.3674829
0.1,-0.1,0.7999999999999999,0.0,0.5235987755982988,0,-1.5575715,1.5809661,-0.602334,-0.26969793,-0.06705839,1.2114087,0.06965581,-1.0576093,1.1949645,0.055496324,-0.073131986,0.1112016,1.2953968,-0.22817674
0.1,-0.1,0.7999999999999999,0.0,0.5235987755982988,0,-1.5660993,1.5863657,-0.5850949,-0.27451697,-0.09161188,1.2069287,0.20778726,-1.0485978,1.2195007,-0.02192385,-0.08650927,-0.12560335,1.2726717,0.7490998
0.1,-0.1,0.7999999999999999,0.0,0.5235987755982988,0,-1.554312,1.5799246,-0.58460784,-0.2689185,-0.058812793,1.2024522,0.053796206,-1.0468608,1.2354821,-0.054421607,-0.101489514,-0.087213576,1.2822438,-0.20789024
0.1,-0.1,0.7999999999999999,0.0,0.5235987755982988,0,-1.5593024,1.5677272,-0.59210175,-0.27232832,-0.047909316,1.2065773,0.15123643,-1.0441413,1.2610974,0.11874987,-0.018777236,-0.07578095,1.2768985,0.0019146515
0.1,-0.1,0.7999999999999999,0.0,0.5235987755982988,0,-1.5458486,1.580505,-0.5911629,-0.2748635,-0.060078602,1.2126307,0.0034257206,-1.039606,1.2617735,0.01696953,-0.076028034,-0.2409698,1.295526,-0.7432853
0.1,-0.1,0.7999999999999999,0.0,0.5235987755982988,0,-1.5558188,1.5840136,-0.58189535,-0.26917493,-0.08914153,1.2056715,0.06714272,-1.0448288,1.1941906,-0.06865237,-0.07160344,0.12862644,1.2462387,-0.050223447
0.1,-0.1,0.7999999999999999,0.0,0.5235987755982988,0,-1.5544465,1.5817394,-0.5892856,-0.27406293,-0.062582254,1.1955698,0.047501445,-1.0417339,1.2035166,0.037271585,-0.06981651,-0.22504202,1.3070922,1.533124
0.1,-0.1,0.7999999999999999,0.0,0.5235987755982988,0,-1.5523854,1.576619,-0.58995944,-0.2746223,-0.08092039,1.2078334,0.11954196,-1.0509666,1.2645508,-0.13817273,-0.07469721,0.01890625,1.2918444,0.5387829
0.1,-0.1,0.7999999999999999,0.0,0.5235987755982988,0,-1.5582452,1.5671643,-0.5933624,-0.2658783,-0.059031334,1.1950401,0.12559389,-1.0649128,1.2166017,-0.10675359,-0.115958415,-0.0363418,1.3015181,-1.1699307
0.1,-0.1,0.7999999999999999,0.0,0.5235987755982988,0,-1.573672,1.578021,-0.58760786,-0.27633044,-0.0511328,1.2091397,0.11052716,-1.0569971,1.2534415,0.0374981,-0.053763714,-0.31113997,1.314849,0.54429173
0.1,-0.1,0.7999999999999999,0.0,0.5235987755982988,0,-1.5571873,1.5793461,-0.5773813,-0.2691089,-0.105673075,1.206162,0.101312816,-1.0825977,1.2450489,-0.031160431,-0.05363806,-0.3357914,1.2576069,0.89267176
0.1,-0.1,0.7999999999999999,0.0,0.5235987755982988,0,-1.5529639,1.5815653,-0.5870191,-0.26978776,-0.09735849,1.2084088,0.09301441,-1.0455878,1.2223595,-0.08936852,-0.033330265,0.029025206,1.2879356,-0.24759048
0.1,-0.1,0.7999999999999999,0.0,0.5235987755982988,0,-1.5527291,1.5821373,-0.5839151,-0.2775125,-0.075290926,1.2039324,0.0713121,-1.047871,1.2397152,-0.10218034,-0.086243615,-0.17027588,1.3233061,0.025305308
0.1,-0.1,0.7999999999999999,0.0,0.5235987755982988,0,-1.563192,1.5741173,-0.5830237,-0.26967314,-0.059297923,1.1953031,0.060310904,-1.0433055,1.1991774,-0.027786361,-0.086063765,0.05967096,1.2490135,-0.6822574
0.1,-0.1,0.7999999999999999,0.0,0.5235987755982988,0,-1.5523865,1.5823158,-0.58792084,-0.268477,-0.05674848,1.2039073,0.16216071,-1.0649765,1.2505257,-0.0873596,-0.047493365,-0.3118469,1.2629286,1.0186976
0.1,-0.1,0.7999999999999999,0.0,0.5235987755982988,0,-1.5479585,1.5722342,-0.59468293,-0.2717038,-0.09311767,1.196213,0.120644525,-1.067457,1.1551332,-0.08917328,-0.10818716,-0.17997585,1.271714,-0.26022363
0.1,-0.1,0.7999999999999999,0.0,0.5235987755982988,0,-1.5559791,1.5782876,-0.5829616,-0.27934417,-0.06667888,1.2051479,0.09898717,-1.0837533,1.2253999,0.033468578,-0.06998303,-0.52524763,1.244614,-1.2121301
0.1,-0.1,0.7999999999999999,0.0,0.5235987755982988,0,-1.5503396,1.5821034,-0.58291274,-0.27866527,-0.032584395,1.207145,0.1303366,-1.0650084,1.2362964,-0.006531477,-0.08320718,-0.20846274,1.2600235,0.38460758
0.1,-0.1,0.7999999999999999,0.0,0.5235987755982988,0,-1.5516832,1.5729834,-0.5844859,-0.27492338,-0.08623946,1.2075461,0.12573689,-1.0700479,1.2761216,0.10203173,-0.038640432,0.07031,1.3120458,-0.9759752
0.1,-0.1,0.7999999999999999,0.0,0.5235987755982988,0,-1.5538709,1.5743119,-0.57729703,-0.27248126,-0.06604885,1.2027192,-0.010308224,-1.0641825,1.2163299,0.08375886,-0.056259133,0.14384748,1.288359,0.6898367
0.1,-0.1,0.7999999999999999,0.0,0.5235987755982988,0,-1.5582752,1.5694569,-0.58865845,-0.27379468,-0.07329046,1.2060589,0.10141365,-1.0527325,1.2092472,-0.017711412,-0.06226406,-0.107746,1.2330304,0.0020039226
0.1,-0.1,0.7999999999999999,0.0,0.5235987755982988,0,-1.5540534,1.5774555,-0.57796746,-0.2712533,-0.061913677,1.2013724,0.036451858,-1.059597,1.2688439,0.11488404,-0.07688355,-0.100592844,1.3053969,-0.49600098
0.1,-0.1,0.7999999999999999,0.0,0.5235987755982988,0,-1.5562922,1.582325,-0.5827961,-0.26959875,-0.0747501,1.2053299,0.1407726,-1.0417737,1.2067592,-0.02187912,-0.08662571,-0.18586643,1.2706224,-0.23375006
0.1,-0.1,0.7999999999999999,0.0,0.5235987755982988,0,-1.5657513,1.5866851,-0.5868197,-0.2748449,-0.07702472,1.205885,0.049048733,-1.0465719,1.227739,0.08438853,-0.053808313,-0.07455724,1.2404505,-0.053453617
0.1,-0.1,0.7999999999999999,0.0,0.5235987755982988,0,-1.5542859,1.5761225,-0.58326304,-0.27086985,-0.06826848,1.2030194,0.07936364,-1.0553916,1.1723337,0.14344656,-0.08898888,-0.010170911,1.3562053,-0.695169
0.1,-0.1,0.7999999999999999,0.0,0.5235987755982988,0,-1.5478026,1.5735921,-0.59090257,-0.27972534,-0.0656985,1.1988964,0.07162009,-1.0774261,1.1788098,0.10305267,-0.052781016,-0.031213209,1.3156546,0.061804436
0.1,-0.1,0.7999999999999999,0.0,0.5235987755982988,0,-1.5522951,1.5766131,-0.57715833,-0.27570197,-0.059162624,1.1977777,0.06954212,-1.0592598,1.2682924,-0.1281309,-0.031175675,-0.22260973,1.2529154,-0.17714816
0.1,-0.1,0.7999999999999999,0.0,0.5235987755982988,0,-1.5636148,1.5746342,-0.59307045,-0.26988426,-0.052580222,1.2028605,0.042283032,-1.0584669,1.30958,-0.12551065,-0.02955803,0.037443947,1.2882657,0.07802004
0.1,-0.1,0.7999999999999999,0.0,0.5235987755982988,0,-1.551608,1.5786445,-0.5724063,-0.27331504,-0.0637381,1.2060633,0.10199009,-1.051827,1.2129631,0.01775894,-0.060756244,-0.15407653,1.295773,0.6023606
0.1,-0.1,0.7999999999999999,0.0,0.5235987755982988,0,-1.5538989,1.5736861,-0.5897352,-0.2711067,-0.05286097,1.2026892,0.05471374,-1.0548469,1.2928208,0.05237578,-0.042926844,-0.124040626,1.2608906,-0.3012164
0.1,-0.1,0.7999999999999999,0.0,0.5235987755982988,0,-1.5564162,1.5738928,-0.5772595,-0.2704817,-0.06392772,1.1952573,0.0991305,-1.0753653,1.2403294,0.045888346,-0.10299467,-0.085504934,1.2414382,0.64333636
0.1,-0.1,0.7999999999999999,0.0,0.5235987755982988,0,-1.5544679,1.5862186,-0.58422714,-0.26404095,-0.05734266,1.202656,0.01468312,-1.0425895,1.2042297,-0.085260384,-0.039917998,-0.08304012,1.2598736,-0.27158827
0.1,-0.1,0.7999999999999999,0.0,0.5235987755982988,0,-1.5502708,1.5800295,-0.5836869,-0.27125466,-0.0841501,1.2131398,0.09463726,-1.0710511,1.2670847,-0.10415994,-0.111634925,-0.050758306,1.2542132,-1.3343943
0.1,-0.1,0.7999999999999999,0.0,0.5235987755982988,0,-1.5582668,1.5841932,-0.5835973,-0.28039572,-0.066142656,1.2053665,0.11031252,-1.0548717,1.2248888,-0.107565224,-0.122577205,-0.16360205,1.3009402,-0.18533446
0.1,-0.1,0.7999999999999999,0.0,0.5235987755982988,0,-1.5557506,1.5780637,-0.58561397,-0.28436038,-0.05525306,1.2076792,0.03414356,-1.0763875,1.1580698,-0.1602815,-0.08147678,-0.06605737,1.2653028,0.5251403
0.1,-0.1,0.7999999999999999,0.0,0.5235987755982988,0,-1.5595491,1.5714602,-0.5801824,-0.28354105,-0.047279168,1.2045498,0.1082841,-1.0626217,1.167855,-0.00026548648,-0.06731081,-0.36564952,1.2579552,0.44267055
0.1,-0.1,0.7999999999999999,0.0,0.5235987755982988,0,-1.5707488,1.5747063,-0.5848311,-0.2672011,-0.07872804,1.1980388,0.106731035,-1.0560603,1.3640649,0.13706993,-0.0553797,-0.06463266,1.2821414,0.80727416
0.1,-0.1,0.7999999999999999,0.0,0.5235987755982988,0,-1.5609432,1.5848912,-0.5878176,-0.2682196,-0.06639062,1.204929,0.10110459,-1.0811824,1.2512221,-0.036287904,-0.07925141,-0.073605545,1.2205191,1.0813854
0.1,-0.1,0.7999999999999999,0.0,0.5235987755982988,0,-1.5646992,1.5806646,-0.58710617,-0.266675,-0.06912131,1.2008294,0.034592222,-1.0664055,1.273734,-0.12753485,-0.06917091,-0.068624474,1.3231289,-1.0348728
0.1,-0.1,0.7999999999999999,0.0,0.5235987755982988,0,-1.5590533,1.5790019,-0.58284146,-0.26491138,-0.07528815,1.1992172,0.060732283,-1.0423466,1.2285671,0.009223755,-0.05531668,-0.08530679,1.2335457,0.96587104
0.1,-0.1,0.7999999999999999,0.0,0.5235987755982988,0,-1.5523423,1.5785421,-0.58923745,-0.2653969,-0.06858854,1.1998924,0.19104612,-1.0377934,1.2267556,0.108742304,-0.067007944,-0.18320253,1.2508456,-0.44353312
0.1,-0.1,0.7999999999999999,0.0,0.5235987755982988,0,-1.5592945,1.5839901,-0.5822438,-0.26154578,-0.06386893,1.208456,0.1066219,-1.0721148,1.2535565,-0.017321317,-0.036166083,-0.14262272,1.2877742,-1.5900794
0.1,-0.1,0.7999999999999999,0.0,0.5235987755982988,0,-1.552691,1.5814584,-0.5888361,-0.26588863,-0.05730927,1.2081397,0.03845171,-1.0483774,1.2757062,-0.14586179,-0.1253948,0.014643411,1.281646,1.4071093
0.1,-0.1,0.7999999999999999,0.0,0.5235987755982988,0,-1.5666863,1.5776069,-0.59329146,-0.2652335,-0.08268076,1.2007278,0.024089262,-1.043932,1.2347358,-0.06552743,-0.06018467,-0.14850882,1.3229455,0.287042
0.1,-0.1,0.7999999999999999,0.0,0.5235987755982988,0,-1.5553035,1.5812005,-0.58444893,-0.26922426,-0.07073319,1.2093902,0.062434435,-1.0519135,1.242092,-0.19725889,-0.035343237,-0.005785147,1.2293115,0.023026062
0.1,-0.1,0.7999999999999999,0.0,0.5235987755982988,0,-1.5476635,1.5830963,-0.5868287,-0.26253164,-0.08385219,1.2022041,0.025438938,-1.0583199,1.1924033,0.17222774,-0.06378907,-0.031813048,1.2433809,0.47793314
0.1,-0.1,0.7999999999999999,0.0,0.5235987755982988,0,-1.5584875,1.5787774,-0.5972023,-0.26520187,-0.038258534,1.2055429,0.12318214,-1.0746305,1.206914,-0.04338226,-0.029886294,-0.09495841,1.2121747,0.44299078
0.1,-0.1,0.7999999999999999,0.0,0.5235987755982988,0,-1.5654725,1.5770582,-0.58691114,-0.26108283,-0.059881687,1.1962867,0.14915885,-1.0643182,1.2555934,-0.05966375,-0.05912788,0.15877199,1.2723458,0.87346
0.1,-0.1,0.7999999999999999,0.0,0.5235987755982988,0,-1.5549192,1.5814164,-0.5838968,-0.26685497,-0.050620794,1.1963027,0.060801037,-1.0658709,1.2687324,0.09426892,-0.032977782,0.059023123,1.2807432,-0.6630893
0.1,-0.1,0.7999999999999999,0.0,0.5235987755982988,0,-1.5530869,1.5853624,-0.5867563,-0.27029103,-0.074226536,1.2027359,0.09551354,-1.0561801,1.2647134,-0.08511534,-0.047242917,0.10054773,1.3095578,-0.19188014
0.1,-0.1,0.7999999999999999,0.0,0.5235987755982988,0,-1.5467172,1.5774984,-0.57544464,-0.26880047,-0.0636768,1.2056731,0.14017507,-1.066749,1.2658978,-0.09975806,-0.100493684,-0.100641906,1.2847601,1.1223427
0.1,-0.1,0.7999999999999999,0.0,0.5235987755982988,0,-1.5408521,1.5805914,-0.5928265,-0.27138844,-0.0560429,1.2080835,0.059178807,-1.0679308,1.1535016,0.00803224,-0.011698472,-0.13674486,1.2834127,1.095238
0.1,-0.1,0.7999999999999999,0.0,0.5235987755982988,0,-1.5591996,1.5700637,-0.5762778,-0.27624688,-0.072160944,1.2055933,0.069558926,-1.0326475,1.1944971,0.088323236,-0.0039040092,-0.056867607,1.2910839,0.4639815
0.1,-0.1,0.7999999999999999,0.0,0.5235987755982988,0,-1.5639039,1.5816106,-0.5756466,-0.25496477,-0.0713802,1.2007887,0.04618819,-1.084937,1.2302862,-0.1722367,-0.04826901,0.06376115,1.2683572,0.46498606
0.1,-0.1,0.7999999999999999,0.0,0.5235987755982988,0,-1.5547289,1.5766809,-0.58866847,-0.26650527,-0.07778713,1.2050831,-0.015736336,-1.0354563,1.1922485,-0.002599575,-0.07333091,0.11081789,1.3005749,-0.3416759
0.1,-0.1,0.7999999999999999,0.0,0.5235987755982988,0,-1.5482345,1.5737125,-0.5823794,-0.26949778,-0.08663243,1.2063496,0.029473938,-1.054853,1.285489,-0.0019645032,-0.091933906,-0.22467853,1.284104,0.9161443
0.1,-0.1,0.7999999999999999,0.0,0.5235987755982988,0,-1.5585408,1.5809221,-0.58703,-0.2611144,-0.0608504,1.1970567,0.016927645,-1.0638827,1.1643423,0.079270594,-0.069468185,-0.18765049,1.2550128,0.011806357
0.1,-0.1,0.7999999999999999,0.0,0.5235987755982988,0,-1.5512272,1.584632,-0.58785665,-0.27434397,-0.08510592,1.2019467,0.15231578,-1.0496061,1.2209256,-0.14857131,-0.09433217,-0.089331515,1.2760308,-0.24790259
0.1,-0.1,0.7999999999999999,0.0,0.5235987755982988,0,-1.5522898,1.5823753,-0.59352946,-0.26907992,-0.07802852,1.2071245,0.14586236,-1.0468929,1.148146,-0.10155011,-0.065537505,-0.0725404,1.2507306,0.8019118
0.1,-0.1,0.7999999999999999,0.0,0.5235987755982988,0,-1.559948,1.5744463,-0.57421726,-0.26732776,-0.078134924,1.2068346,0.13993075,-1.0302018,1.2942922,0.1334889,-0.121831045,-0.15520166,1.2891403,0.24660616
0.1,-0.1,0.7999999999999999,0.0,0.5235987755982988,0,-1.56104,1.5826596,-0.5783465,-0.26669022,-0.06466517,1.206722,0.11211912,-1.051704,1.2918421,-0.11555051,-0.06958456,-0.30129418,1.228978,-0.61202157
0.1,-0.1,0.7999999999999999,0.0,0.5235987755982988,0,-1.5581503,1.582974,-0.58104265,-0.26929307,-0.040627837,1.2084922,0.09301709,-1.0701821,1.3819414,0.092170924,-0.028102448,0.20400831,1.2623202,0.7805343
0.1,-0.1,0.7999999999999999,0.0,0.5235987755982988,0,-1.5592316,1.5793117,-0.5867579,-0.27307788,-0.05424658,1.2102255,-0.0013076899,-1.0740893,1.2524352,0.035376664,-0.03432763,0.0030728956,1.2912371,0.22060941
0.1,-0.1,0.7999999999999999,0.0,0.5235987755982988,0,-1.5522164,1.582845,-0.5806537,-0.2698312,-0.049227655,1.199855,0.09182206,-1.0677327,1.1836594,-0.05719029,-0.05839746,-0.12698486,1.2414093,0.5567654
0.1,-0.1,0.7999999999999999,0.0,0.5235987755982988,0,-1.5402036,1.5769141,-0.57954526,-0.27301505,-0.051969137,1.2048079,0.15529647,-1.0753208,1.2234552,0.018774472,-0.043202605,-0.12412849,1.2390525,-0.18726024
0.1,-0.1,0.7999999999999999,0.0,0.5235987755982988,0,-1.5578489,1.5786046,-0.5850134,-0.26814908,-0.058995258,1.2116388,0.007958633,-1.0746288,1.2636296,-0.07411892,-0.08793935,-0.08235058,1.282391,-0.21986149
0.1,-0.1,0.7999999999999999,0.0,0.5235987755982988,0,-1.552906,1.577484,-0.58401906,-0.27136192,-0.035081577,1.2081883,0.09406911,-1.0537326,1.2371917,0.13157009,-0.07577144,0.029588006,1.2920482,0.20746346
0.1,-0.1,0.7999999999999999,0.0,0.5235987755982988,0,-1.5569649,1.5828322,-0.592057,-0.26716113,-0.047273703,1.2082794,0.14898065,-1.033625,1.2587163,0.005419119,-0.03828652,0.33228537,1.2949891,-1.7670267
0.1,-0.1,0.7999999999999999,0.0,0.5235987755982988,0,-1.5625676,1.5715293,-0.5681028,-0.2713123,-0.086901434,1.202546,0.0567323,-1.0684693,1.2307547,-0.12863325,-0.08057917,-0.04568842,1.2846936,0.039385658
0.1,-0.1,0.7999999999999999,0.0,0.5235987755982988,0,-1.5535362,1.576226,-0.58756953,-0.2724701,-0.061593197,1.2092987,0.16525218,-1.046154,1.2242848,0.01168535,-0.08184574,0.05248216,1.3253611,0.3548994
0.1,-0.1,0.7999999999999999,0.0,0.5235987755982988,0,-1.5555048,1.5837535,-0.5828574,-0.27238238,-0.07192539,1.2045428,0.099480964,-1.0518384,1.1275108,0.16832684,-0.03858545,-0.20768225,1.2793801,0.92163736
0.1,-0.1,0.7999999999999999,0.0,0.5235987755982988,0,-1.5528619,1.578513,-0.59095764,-0.25959086,-0.07808694,1.2015295,0.087241516,-1.0619314,1.272699,0.07131692,-0.08144902,-0.25072375,1.2880542,-0.09156978
0.1,-0.1,0.7999999999999999,0.0,0.5235987755982988,0,-1.5593703,1.5780363,-0.5821771,-0.267195,-0.06761082,1.1961095,0.08290006,-1.0572066,1.1446768,-0.030758478,-0.067248926,-0.09771834,1.3092582,-0.1436004
0.1,-0.1,0.7999999999999999,0.0,0.5235987755982988,0,-1.5645561,1.5808942,-0.5899981,-0.27776742,-0.088032246,1.2083188,0.18707964,-1.05369,1.207531,-0.028831543,-0.045640334,-0.15758815,1.3094349,0.7877431
0.1,-0.1,0.7999999999999999,0.0,0.5235987755982988,0,-1.5633276,1.5844468,-0.5948466,-0.276901,-0.04926713,1.2127331,0.024312539,-1.0831277,1.2391875,-0.0483013,-0.0602382,-0.20482713,1.275553,0.70176864
0.1,-0.1,0.7999999999999999,0.0,0.5235987755982988,0,-1.5551362,1.5825241,-0.5955703,-0.27343294,-0.038528364,1.2055386,0.0949661,-1.0482546,1.2140768,0.06806385,-0.09257453,-0.01163729,1.2807231,-1.1464454
0.1,-0.1,0.7999999999999999,0.0,0.5235987755982988,0,-1.5592881,1.5813814,-0.5844243,-0.28136653,-0.08408793,1.1983014,0.05525783,-1.0666559,1.2210966,-0.16620913,-0.07634856,-0.34709707,1.2878877,-0.7595282
0.1,-0.1,0.7999999999999999,0.0,0.5235987755982988,0,-1.5541704,1.5734619,-0.5850062,-0.26508477,-0.081953265,1.1991724,0.017136313,-1.0479852,1.251159,0.08916733,-0.09941729,0.17938371,1.3146254,-0.021063853
0.1,-0.1,0.7999999999999999,0.0,0.5235987755982988,0,-1.554999,1.5748687,-0.5851432,-0.26628715,-0.06698381,1.2062974,0.07451047,-1.0594269,1.1350687,0.02217637,-0.10823425,-0.29209423,1.2832359,1.0728805
0.1,-0.1,0.7999999999999999,0.0,0.5235987755982988,0,-1.5507888,1.5802718,-0.58195984,-0.26592293,-0.10399104,1.2037011,0.10486379,-1.0457077,1.2165701,0.10389536,-0.026847364,-0.044238135,1.2857646,0.4437068
0.1,-0.1,0.7999999999999999,0.0,0.5235987755982988,0,-1.5411131,1.5780833,-0.59109026,-0.27552608,-0.0624974,1.2044033,0.090747364,-1.0593123,1.2055649,0.016892795,-0.026995588,0.09289384,1.2168274,-0.91839767
0.1,-0.1,0.7999999999999999,0.0,0.5235987755982988,0,-1.5574555,1.5754701,-0.5819076,-0.27396998,-0.04954445,1.1996796,0.121406615,-1.0588826,1.2187272,0.0028700947,-0.048719868,-0.36113524,1.3164535,-0.91172755
0.1,-0.1,0.7999999999999999,0.0,0.5235987755982988,0,-1.555211,1.5797843,-0.5819845,-0.27427843,-0.05349384,1.2102712,0.07102821,-1.0493758,1.2156025,-0.022140265,-0.11146471,-0.2949346,1.2587606,0.43926278
0.1,-0.1,0.7999999999999999,0.0,0.5235987755982988,0,-1.5555115,1.5821906,-0.58475465,-0.26597822,-0.07533406,1.1972141,0.099405766,-1.0791856,1.1709565,0.07849543,-0.077746496,-0.19476828,1.3009979,-0.6275655
0.1,-0.1,0.7999999999999999,0.0,0.5235987755982988,0,-1.5479151,1.5824735,-0.59391195,-0.28047094,-0.04791105,1.1991522,0.22593968,-1.0516618,1.230053,-0.03377425,-0.059874862,-0.38614485,1.2758034,0.7400848
0.1,-0.1,0.7999999999999999,0.0,0.5235987755982988,0,-1.5365425,1.5801796,-0.57878053,-0.2716392,-0.06858572,1.2021749,0.13756044,-1.0664748,1.2258924,-0.18220647,-0.040422034,0.11209339,1.2476609,-1.2311394
0.1,-0.1,0.7999999999999999,0.0,0.5235987755982988,0,-1.557631,1.580038,-0.5782068,-0.26981607,-0.08309654,1.1967727,0.17256877,-1.0665103,1.2333616,-0.04013155,-0.029372146,-0.07770405,1.2789968,0.3026559
0.1,-0.1,0.7999999999999999,0.0,0.5235987755982988,0,-1.5610051,1.5763475,-0.5866131,-0.2654087,-0.08205932,1.2066324,0.07773399,-1.0736365,1.2681081,0.056720816,-0.072140664,-0.24024925,1.2152342,0.68257093
0.1,-0.1,0.7999999999999999,0.0,0.5235987755982988,0,-1.5507463,1.582158,-0.5801202,-0.2651434,-0.048140686,1.2008692,0.15736839,-1.0762421,1.2590762,-0.018015957,-0.050445106,-0.19748786,1.2514623,-0.4157208
0.1,-0.1,0.7999999999999999,0.0,0.5235987755982988,0,-1.5579575,1.5786535,-0.5864659,-0.26621526,-0.07292114,1.2001334,0.123987496,-1.0361323,1.2664589,0.028888658,-0.13907698,-0.26253372,1.294512,1.2979841
0.1,-0.1,0.7999999999999999,0.0,0.5235987755982988,0,-1.5490468,1.5754949,-0.5823373,-0.26664788,-0.06042697,1.2124285,0.110970885,-1.0546242,1.2290478,0.024641206,-0.018528745,0.18046565,1.274237,-0.19197072
0.1,-0.1,0.7999999999999999,0.0,0.5235987755982988,0,-1.5558147,1.5822936,-0.5815401,-0.26630658,-0.062879845,1.2069231,0.052946795,-1.0890975,1.2726774,-0.05732638,-0.09099604,-0.017472597,1.3229431,1.2672318
0.1,-0.1,0.7999999999999999,0.0,0.5235987755982988,0,-1.5471048,1.5794095,-0.5834295,-0.26960835,-0.05121106,1.2046354,0.040866572,-1.057141,1.2176458,0.10897832,-0.02669043,-0.08195567,1.2938316,-1.0476592
0.1,-0.1,0.7999999999999999,0.0,0.5235987755982988,0,-1.5591623,1.5810564,-0.5715652,-0.2685141,-0.084200524,1.2091662,0.13039252,-1.0388068,1.2027804,0.13253245,-0.11018194,-0.24829459,1.2702888,0.41101393
0.1,-0.1,0.7999999999999999,0.0,0.5235987755982988,0,-1.5596547,1.5756046,-0.5867462,-0.26654512,-0.074850105,1.2021321,0.020554008,-1.0678396,1.2350575,0.024844475,-0.07916798,0.23291737,1.2667592,-0.6551914
0.1,-0.1,0.7999999999999999,0.0,0.5235987755982988,0,-1.5535722,1.5771259,-0.59101516,-0.27173886,-0.06319204,1.1952527,0.016484406,-1.0472099,1.2358705,0.014328377,-0.09042812,-0.16236214,1.2870529,0.90147173
0.1,-0.1,0.7999999999999999,0.0,0.5235987755982988,0,-1.5584528,1.5767497,-0.58132917,-0.27140495,-0.041752033,1.1991515,0.07968226,-1.044196,1.1644263,0.14715587,-0.02099678,-0.339953,1.241172,-0.48072496
0.1,-0.1,0.7999999999999999,0.0,0.5235987755982988,0,-1.5559359,1.5788444,-0.5725827,-0.27257985,-0.07313699,1.2033844,0.10115569,-1.0648037,1.2622836,0.059568886,-0.07375732,-0.05593371,1.310042,1.1575329
0.1,-0.1,0.7999999999999999,0.0,0.5235987755982988,0,-1.5561603,1.584503,-0.58889097,-0.27693096,-0.06891256,1.2050003,0.06125473,-1.0955676,1.2528429,0.10000312,-0.06389806,-0.18520445,1.293136,0.19792165
0.1,-0.1,0.7999999999999999,0.0,0.5235987755982988,0,-1.5585034,1.5824755,-0.5740933,-0.26712707,-0.07637467,1.2082111,0.12929358,-1.0380139,1.3007292,0.06802165,-0.08106748,0.069375716,1.2924377,-1.1399689
0.1,-0.1,0.7999999999999999,0.0,0.5235987755982988,0,-1.5385293,1.5793785,-0.58636206,-0.27833217,-0.10206401,1.2069114,0.05870656,-1.0502349,1.2927258,-0.002666579,-0.072529025,-0.043977723,1.2442526,0.43835682
0.1,-0.1,0.7999999999999999,0.0,0.5235987755982988,0,-1.5532118,1.5808636,-0.5881737,-0.27564687,-0.06085659,1.1967195,0.08031372,-1.0797247,1.19798,0.08499988,-0.04921642,-0.17096902,1.2959447,-0.258249
0.1,-0.1,0.7999999999999999,0.0,0.5235987755982988,0,-1.5567267,1.5795251,-0.58864254,-0.27396396,-0.09841573,1.2086941,0.09840006,-1.0528623,1.1327688,0.041125406,-0.08896808,-0.17285012,1.244578,0.112478316
0.1,-0.1,0.7999999999999999,0.0,0.5235987755982988,0,-1.5682176,1.5774903,-0.5829834,-0.26672858,-0.078311734,1.1987729,0.12258793,-1.0581089,1.21714,-0.067603625,-0.053707078,-0.024020769,1.3338704,0.81635576
0.1,-0.1,0.7999999999999999,0.0,0.5235987755982988,0,-1.5501972,1.5810912,-0.59589237,-0.26227242,-0.059881184,1.1971567,0.050278652,-1.0456526,1.2896403,0.05666631,-0.040164005,-0.3583409,1.2849584,0.21410586
0.1,-0.1,0.7999999999999999,0.0,0.5235987755982988,0,-1.5469558,1.5781507,-0.5827088,-0.25924963,-0.065449655,1.2064396,-0.031966574,-1.0417409,1.1961559,0.045406293,-0.033613704,-0.31847516,1.2712755,-0.58787805
0.1,-0.1,0.7999999999999999,0.0,0.5235987755982988,0,-1.5556623,1.5733353,-0.5834099,-0.2701789,-0.07123854,1.2104211,0.05085234,-1.0588188,1.2262965,0.12592264,-0.058699045,-0.035007007,1.2479502,0.42435795
0.1,-0.1,0.7999999999999999,0.0,0.5235987755982988,0,-1.5529794,1.5721232,-0.5902089,-0.2569687,-0.06897376,1.2012173,0.13737245,-1.0716063,1.2426147,-0.11218162,-0.05299407,0.10028553,1.2889686,0.5576592
0.1,-0.1,0.7999999999999999,0.0,0.5235987755982988,0,-1.5510002,1.5837265,-0.5824935,-0.26848945,-0.080313824,1.1963435,0.0710267,-1.0521756,1.268306,-0.19219156,-0.0852001,-0.18721105,1.2289013,1.0339825
0.1,-0.1,0.7999999999999999,0.0,0.5235987755982988,0,-1.5597929,1.5835404,-0.5839096,-0.27236572,-0.06607022,1.2007184,0.0014592282,-1.060833,1.3137779,-0.0017871094,-0.07793605,0.0032813712,1.2403839,-0.18457858
0.1,-0.1,0.7999999999999999,0.0,0.5235987755982988,0,-1.5599829,1.576428,-0.5774469,-0.26732737,-0.07882267,1.2012353,0.12863244,-1.0623299,1.1972055,-0.014142928,-0.060492117,0.03029798,1.34455,0.10186644
0.1,-0.1,0.7999999999999999,0.0,0.5235987755982988,0,-1.5449016,1.5774072,-0.5804826,-0.25860807,-0.08452504,1.2049558,0.10145991,-1.063073,1.2626673,0.20089737,-0.06618411,-0.079124615,1.2681872,0.5763131
0.1,-0.1,0.7999999999999999,0.0,0.5235987755982988,0,-1.5603578,1.57752,-0.5844166,-0.27833247,-0.063049346,1.1967101,0.049990598,-1.0886875,1.251005,-0.09633017,-0.0946972,-0.3606965,1.2483214,0.046390083
0.1,-0.1,0.7999999999999999,0.0,0.5235987755982988,0,-1.5555291,1.582084,-0.583632,-0.27287388,-0.062143482,1.2017013,0.12320696,-1.0626888,1.1704152,-0.070666745,-0.046631683,0.06932937,1.2649275,0.10745437
0.1,-0.1,0.7999999999999999,0.0,0.5235987755982988,0,-1.5499918,1.5719743,-0.58456516,-0.26861674,-0.061292253,1.2065765,0.050059013,-1.0454757,1.261891,0.035354834,-0.06996054,0.25793347,1.2438791,-0.28419673
0.1,-0.1,0.7999999999999999,0.0,0.5235987755982988,0,-1.5563401,1.5765805,-0.5778382,-0.26568067,-0.0657483,1.2014871,0.053843465,-1.0595918,1.2155894,0.16790845,-0.08894736,-0.27832732,1.2253654,-0.81489366
0.1,-0.1,0.7999999999999999,0.0,0.5235987755982988,0,-1.5573984,1.5801848,-0.5877264,-0.26779154,-0.06211308,1.2061982,0.1779481,-1.0415673,1.2295913,0.11262604,-0.092182845,-0.11755502,1.2799495,-0.10850639
0.1,-0.1,0.7999999999999999,0.0,0.5235987755982988,0,-1.559632,1.5809475,-0.5850574,-0.2680896,-0.065278776,1.1975824,0.045809384,-1.0340009,1.1914705,-0.16166417,-0.07042453,-0.027033793,1.2760706,-0.8419795
0.1,-0.1,0.7999999999999999,0.0,0.5235987755982988,0,-1.5634937,1.5761626,-0.580503,-0.2646249,-0.06915035,1.2053163,0.028112343,-1.0823839,1.2941296,0.004894716,-0.043662198,-0.12733719,1.2948474,1.2214841
0.1,-0.1,0.7999999999999999,0.0,0.5235987755982988,0,-1.5597094,1.5810542,-0.58983874,-0.2713288,-0.063372,1.2019656,0.08636951,-1.0576361,1.2328486,-0.12324853,-0.038894445,-0.18419233,1.2788211,-0.08978829
0.1,-0.1,0.7999999999999999,0.0,0.5235987755982988,0,-1.5509701,1.5789015,-0.5746162,-0.26963046,-0.075130135,1.204488,0.15540166,-1.0474575,1.1732589,0.025092779,-0.06536977,-0.10033401,1.2731172,-0.25327313
0.1,-0.1,0.7999999999999999,0.0,0.5235987755982988,0,-1.5491575,1.5776178,-0.5767917,-0.26149178,-0.08558928,1.2026734,0.18324655,-1.0455079,1.2370591,0.24453773,-0.08697774,-0.009560865,1.3053184,0.4686291
0.1,-0.1,0.7999999999999999,0.0,0.5235987755982988,0,-1.559903,1.57652,-0.59764063,-0.26557946,-0.06703232,1.2004737,0.05969911,-1.0706053,1.2060661,0.02139923,-0.08700501,-0.038614187,1.3287401,0.0011803227
0.1,-0.1,0.7999999999999999,0.0,0.5235987755982988,0,-1.5634096,1.582631,-0.5850057,-0.26432192,-0.06378394,1.2036058,0.12136355,-1.076825,1.2395396,-0.045586653,-0.047604125,0.029009316,1.2642208,-0.5167704
0.1,-0.1,0.7999999999999999,0.0,0.5235987755982988,0,-1.544188,1.5721065,-0.5899484,-0.2622981,-0.08768964,1.200926,0.070754066,-1.0695419,1.2652838,-0.014213847,-0.0666218,-0.10589996,1.2496873,0.19464827
0.1,-0.1,0.7999999999999999,0.0,0.5235987755982988,0,-1.550917,1.5812448,-0.5807986,-0.26506475,-0.072509505,1.2075791,0.1362189,-1.0386664,1.2387127,0.026351133,-0.061481908,-0.13790528,1.2243619,0.61108154
0.1,-0.1,0.7999999999999999,0.0,0.5235987755982988,0,-1.5569359,1.5769441,-0.58787733,-0.268078,-0.08119523,1.199967,0.048828155,-1.0370814,1.2065822,0.009498599,-0.08866474,-0.07105323,1.267294,0.013381609
0.1,-0.1,0.7999999999999999,0.0,0.5235987755982988,0,-1.5496091,1.5719011,-0.58688724,-0.278267,-0.06905604,1.1981906,0.10403217,-1.0609394,1.2472236,-0.10217369,-0.07906287,-0.15938912,1.2760947,0.88548625
0.1,-0.1,0.7999999999999999,0.0,0.5235987755982988,0,-1.5525539,1.5799208,-0.58355135,-0.26383573,-0.08066,1.2005141,0.11082484,-1.0486021,1.2345793,-0.11376035,-0.0736755,-0.01741381,1.2820045,0.72817874
0.1,-0.1,0.7999999999999999,0.0,0.5235987755982988,0,-1.5583361,1.5799,-0.5898712,-0.26385662,-0.075167164,1.2001914,0.12562218,-1.0491098,1.2316967,0.05895089,-0.061764557,-0.19132502,1.2669158,1.1705625
0.1,-0.1,0.7999999999999999,0.0,0.5235987755982988,0,-1.5537074,1.5813042,-0.5832501,-0.26006562,-0.06593324,1.200047,0.099165566,-1.0473362,1.2640481,-0.05693497,-0.093735985,-0.10138657,1.2865889,0.43551248
0.1,-0.1,0.7999999999999999,0.0,0.5235987755982988,0,-1.5559081,1.576494,-0.5852715,-0.27695858,-0.08558168,1.2051227,0.059924003,-1.0755769,1.256433,-0.007958608,-0.04234757,-0.18081433,1.2614022,0.935967
0.1,-0.1,0.7999999999999999,0.0,0.5235987755982988,0,-1.56088,1.5795335,-0.58739275,-0.26182872,-0.06923988,1.2045251,0.1092524,-1.0445005,1.2808448,0.16820024,-0.007289414,0.42389232,1.2843565,-0.780737
0.1,-0.1,0.7999999999999999,0.0,0.5235987755982988,0,-1.5653954,1.5814309,-0.5943603,-0.26998186,-0.062849574,1.2029358,0.106544316,-1.0603814,1.2058045,0.014237662,-0.05186085,-0.092801966,1.2908874,0.47367415
0.1,-0.1,0.7999999999999999,0.0,0.5235987755982988,0,-1.552968,1.577168,-0.5793699,-0.26680693,-0.07609468,1.202241,0.09021373,-1.075194,1.2245733,-0.046711788,-0.05636887,-0.03888072,1.2871182,0.07444236
0.1,-0.1,0.7999999999999999,0.0,0.5235987755982988,0,-1.5467632,1.5787982,-0.59127843,-0.26365572,-0.056561373,1.2039852,0.074793234,-1.0729315,1.2563592,0.06288059,-0.10079113,0.12375231,1.3533276,0.7882441
0.1,-0.1,0.7999999999999999,0.0,0.5235987755982988,0,-1.5527388,1.5825835,-0.57830584,-0.27191073,-0.051405095,1.1995765,0.08753902,-1.085884,1.2399085,-0.09303097,-0.07232957,-0.12545127,1.2998462,-1.2264786
0.1,-0.1,0.7999999999999999,0.0,0.5235987755982988,0,-1.5566303,1.5808682,-0.5798672,-0.2727418,-0.058913533,1.2087824,0.15707506,-1.0511309,1.2136185,0.06236795,-0.05440499,0.10021005,1.2849419,1.3482525
0.1,-0.1,0.7999999999999999,0.0,0.5235987755982988,0,-1.5574576,1.5794891,-0.57468903,-0.26848674,-0.07968278,1.2135614,0.11887868,-1.0739305,1.2369773,0.15503544,-0.10041777,-0.15788719,1.2867534,-0.30721438
0.1,-0.1,0.7999999999999999,0.0,0.5235987755982988,0,-1.5524023,1.5777334,-0.580391,-0.26932147,-0.06988641,1.1976031,0.0372876,-1.0859289,1.187233,-0.016144667,-0.061808076,-0.216098,1.2716018,0.6381763
0.1,-0.1,0.7999999999999999,0.0,0.5235987755982988,0,-1.5530401,1.5832596,-0.58703303,-0.2783179,-0.047995158,1.198662,0.10516457,-1.0486823,1.1770315,-0.100508116,-0.027483195,0.15936752,1.2809486,-0.5414008
0.1,-0.1,0.7999999999999999,0.0,0.5235987755982988,0,-1.5509079,1.5861776,-0.5806828,-0.26627994,-0.07224886,1.2005863,0.09540842,-1.0627466,1.2164857,-0.09296883,-0.072712876,0.06936397,1.2701286,1.3703241
0.1,-0.1,0.7999999999999999,0.0,0.5235987755982988,0,-1.5603577,1.581062,-0.58712345,-0.267261,-0.093783684,1.1980858,0.011333337,-1.075878,1.2123319,-0.09228451,-0.100089684,-0.09376025,1.2789888,0.95304567
0.1,-0.1,0.7999999999999999,0.0,0.5235987755982988,0,-1.5557675,1.5738053,-0.5830842,-0.26754266,-0.061259087,1.2023509,0.065645695,-1.0652051,1.2453119,-0.14084177,-0.07254688,0.045459215,1.2640145,0.23265082
0.1,-0.1,0.7999999999999999,0.0,0.5235987755982988,0,-1.5568799,1.5766908,-0.58199716,-0.27558133,-0.049558412,1.2011074,0.057014067,-1.0196286,1.2024083,0.107321136,-0.10558325,-0.029882284,1.2950394,0.43104598
0.1,-0.1,0.7999999999999999,0.0,0.5235987755982988,0,-1.5440191,1.5806694,-0.583726,-0.27233502,-0.07180442,1.2048575,0.055671617,-1.048015,1.191868,-0.19331804,-0.057224646,-0.26423645,1.2417004,-0.15713961
0.1,-0.1,0.7999999999999999,0.0,0.5235987755982988,0,-1.5528389,1.5758017,-0.59286535,-0.2740889,-0.07512054,1.2037765,0.0551073,-1.0452359,1.2391857,-0.039093237,-0.05624483,-0.12479245,1.2430531,0.5986613
0.1,-0.1,0.7999999999999999,0.0,0.5235987755982988,0,-1.5619683,1.574687,-0.574657,-0.27311376,-0.08528579,1.1997001,0.035692997,-1.0444416,1.2480227,0.0036585699,-0.047730953,0.07067088,1.2397027,1.2297812
0.1,-0.1,0.7999999999999999,0.0,0.5235987755982988,0,-1.5484104,1.5739708,-0.5916919,-0.27819368,-0.071008004,1.1989844,0.04454048,-1.0430524,1.2214619,0.081519015,-0.058211114,-0.04498441,1.2580072,0.94799566
0.1,-0.1,0.7999999999999999,0.0,0.5235987755982988,0,-1.5566354,1.5783391,-0.58052003,-0.26119766,-0.05233655,1.2026176,0.10935407,-1.0475576,1.2103543,0.014158222,-0.050044224,-0.011854309,1.2905576,1.3856066
0.1,-0.1,0.7999999999999999,0.0,0.5235987755982988,0,-1.5622287,1.568969,-0.5797282,-0.26355624,-0.04463909,1.1925391,-0.00031830405,-1.0532215,1.2483898,-0.084431,-0.04335393,-0.12819651,1.2691267,0.09649387
0.1,-0.1,0.7999999999999999,0.0,0.5235987755982988,0,-1.5543157,1.574902,-0.5882605,-0.27453938,-0.0571338,1.2014769,0.13010587,-1.069885,1.2928052,-0.104448825,-0.06683185,-0.16779402,1.2515273,-0.12068056
0.1,-0.1,0.7999999999999999,0.0,0.5235987755982988,0,-1.5542277,1.5746205,-0.58619606,-0.2700433,-0.062444277,1.2054968,0.0826958,-1.0756551,1.1410232,-0.026601229,-0.02795869,0.02936803,1.2945563,0.1347479
0.1,-0.1,0.7999999999999999,0.0,0.5235987755982988,0,-1.5603104,1.5845364,-0.5844608,-0.26911277,-0.06323184,1.2071763,0.16214414,-1.0685012,1.175006,-0.15980911,-0.0723288,-0.37107003,1.2590883,-0.33672968
0.1,-0.1,0.7999999999999999,0.0,0.5235987755982988,0,-1.5505348,1.5696436,-0.5793054,-0.2705201,-0.07271459,1.2064523,0.048263963,-1.0699185,1.2446872,-0.008708572,-0.10611924,0.03255036,1.3263496,-0.8975037
0.1,-0.1,0.7999999999999999,0.0,0.5235987755982988,0,-1.5428354,1.5735743,-0.5918683,-0.27248892,-0.06128925,1.2023695,0.11076712,-1.0702859,1.2090602,0.006386342,-0.039281435,-0.058334585,1.2769173,-0.79938245
0.1,-0.1,0.7999999999999999,0.0,0.5235987755982988,0,-1.5559393,1.5739847,-0.5865855,-0.2630608,-0.057786014,1.2050731,0.0077813873,-1.0533022,1.3107667,-0.06480665,-0.051540133,-0.054766268,1.2505982,0.6482663
0.1,-0.1,0.7999999999999999,0.0,0.5235987755982988,0,-1.562474,1.5680205,-0.59110975,-0.26052526,-0.065248676,1.2069347,0.029775731,-1.0542995,1.2590909,-0.013100212,-0.05893952,0.14941783,1.3112783,0.37621695
0.1,-0.1,0.7999999999999999,0.0,0.5235987755982988,0,-1.5507185,1.5796613,-0.5810286,-0.2750631,-0.058506418,1.1983091,0.0513167,-1.0502895,1.1941569,0.056095436,-0.06824801,-0.035149574,1.2797179,0.8143823
0.1,-0.1,0.7999999999999999,0.0,0.5235987755982988,0,-1.5451566,1.578671,-0.591793,-0.2632616,-0.0787465,1.2036114,0.15036602,-1.0313809,1.1824734,-0.021667857,-0.071573876,0.034846224,1.3184235,0.021710176
0.1,-0.1,0.7999999999999999,0.0,0.5235987755982988,0,-1.546111,1.5737978,-0.5842457,-0.27118888,-0.06108553,1.2034324,0.09349693,-1.0476552,1.2848202,-0.03380286,-0.040640753,-0.15835299,1.2480618,-0.2637814
0.1,-0.1,0.7999999999999999,0.0,0.5235987755982988,0,-1.555466,1.570302,-0.59222317,-0.26406887,-0.05643938,1.1987176,0.09932299,-1.0822762,1.2474967,-0.07038292,-0.075556874,-0.28187725,1.2792989,0.12727931
0.1,-0.1,0.7999999999999999,0.0,0.5235987755982988,0,-1.5632534,1.5876609,-0.5908793,-0.2690363,-0.08190967,1.2038575,0.11020924,-1.0441376,1.2273881,-0.04392861,-0.09263316,-0.08701656,1.2464217,0.5083396
0.1,-0.1,0.7999999999999999,0.0,0.5235987755982988,0,-1.5542253,1.5835043,-0.57857704,-0.2641509,-0.087710656,1.1996211,0.12648486,-1.0632517,1.1736267,0.0054036607,-0.10552477,-0.09447587,1.2391202,1.2434018
0.1,-0.1,0.7999999999999999,0.0,0.5235987755982988,0,-1.5562866,1.5834382,-0.57303965,-0.27358255,-0.063118026,1.2075012,0.11487065,-1.071168,1.2191373,0.04062531,-0.026141541,-0.22806975,1.2526885,-1.6437287
0.1,-0.1,0.7999999999999999,0.0,0.5235987755982988,0,-1.5573306,1.5755767,-0.58806235,-0.25945726,-0.07556222,1.2043074,0.17744079,-1.0525678,1.244153,0.016036855,-0.07610919,-0.1898612,1.2644099,1.1349211
0.1,-0.1,0.7999999999999999,0.0,0.5235987755982988,0,-1.5618773,1.5836176,-0.58271027,-0.26836222,-0.06241669,1.192683,0.07706391,-1.0384755,1.2345874,-0.025284493,-0.07375421,0.043267287,1.2437644,0.399863
0.1,-0.1,0.7999999999999999,0.0,0.5235987755982988,0,-1.5597643,1.5803605,-0.5744572,-0.26578346,-0.07443508,1.2065921,0.10537541,-1.0614036,1.1988497,0.19271646,-0.039060142,-0.099359944,1.2753618,0.3982317
0.1,-0.1,0.7999999999999999,0.0,0.5235987755982988,0,-1.5506252,1.5798734,-0.58299637,-0.25674206,-0.064766966,1.1934112,0.107165806,-1.0574975,1.2413342,0.023730602,-0.035308532,0.14165612,1.2605679,-0.12844148
0.1,-0.1,0.7999999999999999,0.0,0.5235987755982988,0,-1.5610749,1.5822438,-0.58821476,-0.26771054,-0.0737148,1.2013385,0.08868049,-1.0550534,1.2694854,0.1532413,-0.0719072,-0.016034981,1.2698443,2.7280777
0.1,-0.1,0.7999999999999999,0.0,0.5235987755982988,0,-1.5453815,1.579736,-0.5741055,-0.26967844,-0.07298963,1.20704,0.11252045,-1.0460662,1.2511358,0.056337398,-0.06107223,-0.12936112,1.2661225,-0.3808904
0.1,-0.1,0.7999999999999999,0.0,0.5235987755982988,0,-1.5592921,1.578422,-0.5876526,-0.2645176,-0.08731152,1.2118357,0.12294621,-1.065056,1.2674946,0.08948463,-0.06675873,0.091827095,1.3245957,0.36082023
0.1,-0.1,0.7999999999999999,0.0,0.5235987755982988,0,-1.5583235,1.5799567,-0.5839668,-0.2654977,-0.06331144,1.2075324,0.06827008,-1.0664372,1.2707981,0.0773958,-0.07479529,0.1329794,1.2968215,1.0043582
0.1,-0.1,0.7999999999999999,0.0,0.5235987755982988,0,-1.5517023,1.5710732,-0.5911011,-0.25802574,-0.07448159,1.1998127,0.038022533,-1.046784,1.2142682,0.007535149,-0.09510678,0.03704446,1.2331127,1.0134448
0.1,-0.1,0.7999999999999999,0.0,0.5235987755982988,0,-1.5524491,1.5715523,-0.58498734,-0.26619357,-0.05806633,1.205846,0.09666737,-1.0861526,1.176681,0.08822287,-0.05054672,-0.12046915,1.2799333,0.03976692
0.1,-0.1,0.7999999999999999,0.0,0.5235987755982988,0,-1.5440326,1.5871179,-0.5861264,-0.25631022,-0.07254254,1.1995746,0.105452895,-1.0338249,1.2019753,0.00440004,-0.072936095,-0.18317488,1.2639148,0.041575864
0.1,-0.1,0.7999999999999999,0.0,0.5235987755982988,0,-1.5453722,1.583579,-0.5837774,-0.26600924,-0.052874915,1.2182757,0.06739268,-1.0560281,1.1523124,-0.014917821,-0.030628502,-0.21136549,1.3071846,-1.316369
0.1,-0.1,0.7999999999999999,0.0,0.5235987755982988,0,-1.5563247,1.5832424,-0.5849308,-0.2566603,-0.07417566,1.2018411,0.14771233,-1.0788904,1.2738911,-0.10387677,-0.044852525,-0.05550515,1.2763277,1.1359268
0.1,-0.1,0.7999999999999999,0.0,0.5235987755982988,0,-1.5553576,1.5799652,-0.5825657,-0.26659143,-0.07507975,1.2040983,0.1304878,-1.0583167,1.2129147,-0.09220145,-0.068245076,-0.060611308,1.2402768,-1.4219491
0.1,-0.1,0.7999999999999999,0.0,0.5235987755982988,0,-1.5602914,1.5819354,-0.5875541,-0.26522982,-0.07828577,1.2116961,0.102808654,-1.0634364,1.1634028,-0.042052086,-0.07856204,-0.050230354,1.2658312,0.07561941
0.1,-0.1,0.7999999999999999,0.0,0.5235987755982988,0,-1.5553178,1.5753442,-0.5815297,-0.263505,-0.068298005,1.2103527,0.09277858,-1.0676849,1.140517,0.0030067924,-0.074217655,-0.23583116,1.2680043,1.0393279
0.1,-0.1,0.7999999999999999,0.0,0.5235987755982988,0,-1.5497171,1.5814766,-0.5798859,-0.27546486,-0.07550535,1.1969618,0.05007455,-1.073586,1.1980081,-0.055867232,-0.075866595,0.031724934,1.249703,0.14379746
0.1,-0.1,0.7999999999999999,0.0,0.5235987755982988,0,-1.5576223,1.5730616,-0.58318096,-0.27027673,-0.059857205,1.20212,0.04776382,-1.063768,1.2538983,-0.039612494,-0.017227294,-0.123664916,1.2892748,0.014326419
0.1,-0.1,0.7999999999999999,0.0,0.5235987755982988,0,-1.5621943,1.5765566,-0.5779585,-0.2759361,-0.0774101,1.2049485,0.09346804,-1.0773048,1.2508898,0.102640755,-0.0024245481,0.02083294,1.2883984,0.29132977
0.1,-0.1,0.7999999999999999,0.0,0.5235987755982988,0,-1.5566531,1.5796144,-0.58042914,-0.26871195,-0.088207275,1.2141091,0.04728615,-1.0683612,1.1798729,-0.13059218,-0.07482716,-0.3309486,1.2465569,0.5845909
0.1,-0.1,0.7999999999999999,0.0,0.5235987755982988,0,-1.5664331,1.5764859,-0.59628356,-0.26232284,-0.06424582,1.2066214,0.0062613958,-1.0673052,1.2194934,-0.16148315,-0.040629186,-0.14574005,1.2938201,-0.031647258
0.1,-0.1,0.7999999999999999,0.0,0.5235987755982988,0,-1.5475782,1.573872,-0.58574027,-0.2752108,-0.059508752,1.2048624,0.10034704,-1.0618397,1.2152903,-0.048026647,-0.07175547,0.036757186,1.2766021,-0.8947989
0.1,-0.1,0.7999999999999999,0.0,0.5235987755982988,0,-1.5641756,1.5771832,-0.57979965,-0.26320028,-0.04332532,1.2022504,0.071385205,-1.073217,1.2726216,-0.046823144,-0.04857848,0.24444483,1.2458234,0.65944517
0.1,-0.1,0.7999999999999999,0.0,0.5235987755982988,0,-1.5584785,1.5705799,-0.5812639,-0.2675546,-0.07190097,1.2062328,0.14736485,-1.0522305,1.2716681,-0.21940495,-0.008911133,-0.17519324,1.2750236,0.55217564
0.1,-0.1,0.7999999999999999,0.0,0.5235987755982988,0,-1.5527507,1.576749,-0.5802327,-0.2741111,-0.08574349,1.2089318,0.12992357,-1.0492898,1.2425473,-0.049869504,-0.03729478,-0.3521548,1.3181634,0.7326014
0.1,-0.1,0.7999999999999999,0.0,0.5235987755982988,0,-1.5442867,1.5781573,-0.5828064,-0.27556625,-0.055824686,1.2016695,0.13390985,-1.0486722,1.1709216,0.046978094,-0.055499077,-0.038726136,1.2905567,-1.4290342
0.1,-0.1,0.7999999999999999,0.0,0.5235987755982988,0,-1.5580645,1.5781456,-0.58315307,-0.27657405,-0.08572684,1.2017059,0.042535875,-1.0686164,1.2661391,0.019326624,-0.092238456,-0.332964,1.228714,0.7460798
0.1,-0.1,0.7999999999999999,0.0,0.5235987755982988,0,-1.5614392,1.5859169,-0.59296894,-0.2807685,-0.067830704,1.2020596,0.11011951,-1.0407972,1.2764857,0.038058627,-0.04006828,-0.2446185,1.3183357,-0.09171003
0.1,-0.1,0.7999999999999999,0.0,0.5235987755982988,0,-1.5481787,1.5789887,-0.59102124,-0.27502254,-0.07110343,1.2002119,0.053888682,-1.0388209,1.2638897,-0.19276007,-0.07478867,-0.06549122,1.2654302,-0.4350847
0.1,-0.1,0.7999999999999999,0.0,0.5235987755982988,0,-1.5665668,1.5719223,-0.579962,-0.2703977,-0.078931086,1.2063926,0.121737115,-1.0698292,1.246448,0.07797375,-0.056225557,-0.2861422,1.2757277,0.71901757
0.1,-0.1,0.7999999999999999,0.0,0.5235987755982988,0,-1.5501486,1.5768939,-0.5868017,-0.27545846,-0.0753169,1.2006036,0.06911883,-1.0369517,1.2350614,0.008071499,-0.022076571,-0.069858335,1.2969778,0.30652168
0.1,-0.1,0.7999999999999999,0.0,0.5235987755982988,0,-1.5561547,1.5820068,-0.5879977,-0.2734896,-0.09844274,1.2001382,0.11831376,-1.0654346,1.1881585,-0.08827485,-0.037672073,-0.07264509,1.290612,1.0147043
0.1,-0.1,0.7999999999999999,0.0,0.5235987755982988,0,-1.5582488,1.5843623,-0.5794414,-0.27849996,-0.066159636,1.2054737,0.088499725,-1.0724964,1.1952796,0.07853297,-0.02867162,-0.15175946,1.2492365,1.150052
0.1,-0.1,0.7999999999999999,0.0,0.5235987755982988,0,-1.5567921,1.5852545,-0.57995015,-0.26665175,-0.06759766,1.2038757,0.06274098,-1.0570265,1.2636138,0.028801683,-0.053033397,-0.3012512,1.3110137,0.33619028
0.1,-0.1,0.7999999999999999,0.0,0.5235987755982988,0,-1.5607361,1.5861789,-0.5843809,-0.27226415,-0.06287928,1.2002467,0.12123982,-1.038975,1.164861,0.13745204,-0.08621719,-0.1531574,1.2885504,0.21354464
0.1,-0.1,0.7999999999999999,0.0,0.5235987755982988,0,-1.5470048,1.5786222,-0.5886963,-0.26484844,-0.07902782,1.2036544,0.10850242,-1.0287879,1.3227733,0.017978894,-0.06339689,-0.095742345,1.26349,-0.4241631
0.1,-0.1,0.7999999999999999,0.0,0.5235987755982988,0,-1.5518066,1.5834816,-0.5866822,-0.27911824,-0.028043384,1.2052268,0.054182082,-1.0477959,1.1930009,0.0083951885,-0.069389634,-0.20811222,1.2727473,0.067976646
0.1,-0.1,0.7999999999999999,0.0,0.5235987755982988,0,-1.5492685,1.5836961,-0.59126705,-0.2629846,-0.029728385,1.1959047,0.081061445,-1.0591955,1.1805091,-0.013006454,-0.07647367,-0.18012671,1.30938,1.6797965
0.1,-0.1,0.7999999999999999,0.0,0.5235987755982988,0,-1.5527234,1.5775373,-0.58431417,-0.2634396,-0.045980554,1.1992352,0.14582975,-1.0494304,1.2411819,0.030380186,-0.04543471,0.014972834,1.2627074,-0.67016715
0.1,-0.1,0.7999999999999999,0.0,0.5235987755982988,0,-1.5593531,1.5802386,-0.58138806,-0.26696178,-0.06333227,1.2046322,0.114700936,-1.0582905,1.2318219,0.043420065,-0.10357801,0.14235136,1.3073812,-0.26141024
0.1,-0.1,0.7999999999999999,0.0,0.5235987755982988,0,-1.5447922,1.5774239,-0.58184373,-0.26234487,-0.06485485,1.2033625,0.09085543,-1.054757,1.1666094,-0.019857325,-0.013320264,0.1993167,1.3166023,0.96182394
0.1,-0.1,0.7999999999999999,0.0,0.5235987755982988,0,-1.5645791,1.5760591,-0.5823765,-0.27372804,-0.0713278,1.2037245,0.05066814,-1.0297552,1.1969227,0.092447884,-0.09762899,0.057915743,1.2571899,0.2736401
