sanky1234/BimanualDexCatch/isaacgymenvs/cem_results/football_pose_0.0_0.0_1.2999999999999998_-0.5235987755982988_0.5235987755982988_0_2025-05-26.csv
x,y,z,roll,pitch,yaw,robot1/joint1,robot1/joint2,robot1/joint3,robot1/joint4,robot1/joint5,robot1/joint6,robot1/joint7,robot2/joint1,robot2/joint2,robot2/joint3,robot2/joint4,robot2/joint5,robot2/joint6,robot2/joint7
0.0,0.0,1.2999999999999998,-0.5235987755982988,0.5235987755982988,0,-0.6243864,-1.1639646,2.0990036,-0.040761005,-0.20678502,1.2533116,-0.2604057,-0.05948407,1.3481787,0.04454856,-0.014764034,-0.060477104,1.2675573,-1.1613612
0.0,0.0,1.2999999999999998,-0.5235987755982988,0.5235987755982988,0,-0.6250706,-1.1653275,2.0658336,-0.031424575,-0.16274574,1.1360341,0.022197044,-0.06970198,1.2899368,0.104896165,-0.05799309,-0.095086135,1.2088673,-2.273753
0.0,0.0,1.2999999999999998,-0.5235987755982988,0.5235987755982988,0,-0.62508345,-1.1674665,2.0773401,-0.08138999,-0.05807386,1.1586754,-1.1695223,0.10411766,1.3695911,0.40337977,-0.03883289,0.03323209,1.2302668,-0.42548797
0.0,0.0,1.2999999999999998,-0.5235987755982988,0.5235987755982988,0,-0.623739,-1.1678891,2.0417218,-0.036160573,-0.053597007,1.202181,-0.8516799,-0.1783643,1.284585,0.14293385,-0.108168736,0.2693683,1.2480596,0.5666675
0.0,0.0,1.2999999999999998,-0.5235987755982988,0.5235987755982988,0,-0.62292403,-1.1643403,2.0999458,-0.07258737,0.027176067,1.1525617,-0.41151315,0.027919957,1.3092608,0.11692021,-0.08443934,-0.16426863,1.2251028,-0.78026724
0.0,0.0,1.2999999999999998,-0.5235987755982988,0.5235987755982988,0,-0.6236356,-1.1644311,2.0711155,-0.032392815,0.0042607514,1.1978999,-0.5929122,-0.042132378,1.2832427,0.20668806,-0.04924,0.14840057,1.2087859,-1.0863863
0.0,0.0,1.2999999999999998,-0.5235987755982988,0.5235987755982988,0,-0.62375045,-1.1667612,2.1206934,-0.0038166982,-0.093904346,1.1194724,-0.28847566,-0.12998535,1.3081408,0.051738165,-0.076212145,0.1644932,1.2665925,1.0911409
0.0,0.0,1.2999999999999998,-0.5235987755982988,0.5235987755982988,0,-0.62375873,-1.16913,2.0835276,-0.06847513,-0.16583604,1.2459899,-1.098142,-0.059695102,1.3134496,0.26587728,-0.083609655,-0.18924665,1.1621459,-0.7289892
0.0,0.0,1.2999999999999998,-0.5235987755982988,0.5235987755982988,0,-0.6235083,-1.1635704,2.080997,-0.068295844,0.0860938,1.2248359,-0.9625726,0.055852797,1.3265573,0.35700077,-0.00936628,0.2921779,1.1742964,2.0320613
0.0,0.0,1.2999999999999998,-0.5235987755982988,0.5235987755982988,0,-0.6243934,-1.1648589,2.0978842,-0.0077984408,0.1213214,1.2401077,0.2491139,-0.016539734,1.2975478,0.28008217,-0.08015479,-0.018178936,1.2473474,0.552672
0.0,0.0,1.2999999999999998,-0.5235987755982988,0.5235987755982988,0,-0.6237441,-1.1669508,2.0600119,-0.022813775,0.075656444,1.13858,-1.0459529,-0.004189193,1.3016202,0.22716959,-0.050415106,-0.07625153,1.1488818,-1.5216353
0.0,0.0,1.2999999999999998,-0.5235987755982988,0.5235987755982988,0,-0.6248154,-1.165598,2.079201,-0.045002904,-0.05262676,1.2362415,-0.78863925,-0.17674945,1.3298672,0.15760434,-0.08780668,-0.060096294,1.1412318,0.026482396
0.0,0.0,1.2999999999999998,-0.5235987755982988,0.5235987755982988,0,-0.62339556,-1.1663269,2.0750566,-0.034176596,-0.10286943,1.1439234,0.45068726,0.08548336,1.3572344,-0.04368596,-0.0821018,0.15993337,1.217859,1.3878417
0.0,0.0,1.2999999999999998,-0.5235987755982988,0.5235987755982988,0,-0.6241226,-1.1667008,2.0686872,-0.035337962,-0.09622717,1.1816925,-1.0799943,-0.12916747,1.2712942,0.16236116,-0.09621114,0.069693364,1.1795152,-0.27481303
0.0,0.0,1.2999999999999998,-0.5235987755982988,0.5235987755982988,0,-0.6246471,-1.166302,2.0811234,-0.013435343,0.102803476,1.1860741,0.0672085,-0.07121615,1.3137513,0.26728424,-0.08828954,0.04228782,1.182912,-0.30944714
0.0,0.0,1.2999999999999998,-0.5235987755982988,0.5235987755982988,0,-0.6246295,-1.165296,2.0945342,-0.03143518,-0.06388956,1.2307276,-1.283888,-0.10771203,1.2817096,0.13207366,-0.056170605,0.06124007,1.1801678,0.68008596
0.0,0.0,1.2999999999999998,-0.5235987755982988,0.5235987755982988,0,-0.6246024,-1.169365,2.0902526,-0.04977968,0.06137707,1.1942534,-0.5312421,0.21952811,1.3501155,0.09883151,-0.05427315,0.041535888,1.196244,0.1347992
0.0,0.0,1.2999999999999998,-0.5235987755982988,0.5235987755982988,0,-0.6255003,-1.1674006,2.1188812,-0.05528579,-0.039359424,1.176175,-0.2962299,-0.037325375,1.244085,0.13289252,-0.08457764,0.15893051,1.2232354,-1.4017103
0.0,0.0,1.2999999999999998,-0.5235987755982988,0.5235987755982988,0,-0.6236539,-1.1674234,2.123952,-0.01660858,-0.068206534,1.2505498,-1.0032192,0.12338663,1.3428155,0.07596362,-0.07743372,0.0456848,1.1840123,-1.4848146
0.0,0.0,1.2999999999999998,-0.5235987755982988,0.5235987755982988,0,-0.6245466,-1.1656684,2.07528,-0.038835134,0.09729249,1.1349564,-1.3971074,-0.07296097,1.3271211,0.25684592,-0.08766656,0.12325068,1.2542099,0.4033547
0.0,0.0,1.2999999999999998,-0.5235987755982988,0.5235987755982988,0,-0.6244874,-1.1670564,2.0627458,-0.034993183,-0.028341155,1.249206,-0.95469916,-0.15004721,1.3368243,0.13824402,-0.019149575,0.07303861,1.1643533,-0.5189074
0.0,0.0,1.2999999999999998,-0.5235987755982988,0.5235987755982988,0,-0.6251322,-1.1653249,2.0705175,-0.046396166,-0.1802405,1.2131498,-0.36190054,0.047165655,1.3060397,0.1272829,-0.051327605,-0.09704032,1.2965871,1.1110684
0.0,0.0,1.2999999999999998,-0.5235987755982988,0.5235987755982988,0,-0.6246537,-1.1658521,2.0687168,-0.061475936,0.10093112,1.1299212,-0.9108628,0.10430527,1.3243108,0.08800249,-0.03598847,-0.06386175,1.3020132,-0.9596145
0.0,0.0,1.2999999999999998,-0.5235987755982988,0.5235987755982988,0,-0.6246709,-1.1692061,2.079659,-0.03417036,-0.04709648,1.1511804,-0.76794857,0.053618893,1.2853092,0.17566952,-0.08239045,0.021256603,1.1888381,0.52460855
0.0,0.0,1.2999999999999998,-0.5235987755982988,0.5235987755982988,0,-0.6229329,-1.1684804,2.0314536,-0.041487854,0.003258205,1.1498575,-0.43420732,0.09057963,1.3120842,0.26021355,-0.043616705,0.108042434,1.2650688,-0.9581361
0.0,0.0,1.2999999999999998,-0.5235987755982988,0.5235987755982988,0,-0.62437624,-1.1669227,2.1104746,-0.05881563,-0.20741111,1.2107706,-0.23849885,0.11381362,1.3289975,0.2665219,-0.06281043,0.009816043,1.15033,0.2698462
0.0,0.0,1.2999999999999998,-0.5235987755982988,0.5235987755982988,0,-0.6247973,-1.1699599,2.075513,-0.06592514,-0.053756807,1.22889,-0.7866349,-0.11466571,1.2830083,0.2656657,-0.080135755,0.1394016,1.2776095,-0.74441254
0.0,0.0,1.2999999999999998,-0.5235987755982988,0.5235987755982988,0,-0.62512547,-1.1679543,2.0802848,-0.034099735,-0.09086643,1.1724373,-0.4401954,-0.08071417,1.3226748,0.10084752,-0.07801694,-0.053482443,1.2016315,-0.07636963
0.0,0.0,1.2999999999999998,-0.5235987755982988,0.5235987755982988,0,-0.62513405,-1.1678469,2.0931177,-0.05946415,-0.15290973,1.2231443,-0.39813128,0.059461296,1.3170654,0.1774459,-5.6473087e-05,-0.22319324,1.1766574,-0.29629803
0.0,0.0,1.2999999999999998,-0.5235987755982988,0.5235987755982988,0,-0.6236924,-1.1676612,2.0721574,-0.0484317,-0.14619951,1.2119776,-0.4905099,-0.15596941,1.2882138,0.06767412,-0.073765785,0.07375976,1.2049,-2.094576
0.0,0.0,1.2999999999999998,-0.5235987755982988,0.5235987755982988,0,-0.62361366,-1.1673326,2.0593143,-0.05097519,-0.17530096,1.2617824,-0.6911949,-0.08359788,1.3756787,-0.08192515,-0.10807986,0.14148892,1.1846313,1.1319029
0.0,0.0,1.2999999999999998,-0.5235987755982988,0.5235987755982988,0,-0.6234967,-1.1663344,2.1017265,-0.098068856,-0.12263167,1.1855437,-0.9367629,0.079534926,1.3614563,0.1680129,-0.10870231,0.065982714,1.3342324,0.74350065
0.0,0.0,1.2999999999999998,-0.5235987755982988,0.5235987755982988,0,-0.6254175,-1.1654127,2.066093,-0.046382133,-0.19628039,1.1664009,0.7050424,-0.058984533,1.3321604,0.21030004,-0.06467154,0.09003791,1.2652434,-0.35891452
0.0,0.0,1.2999999999999998,-0.5235987755982988,0.5235987755982988,0,-0.62521803,-1.1687577,2.0807457,-0.045247704,-0.044177383,1.1654619,-0.61991227,0.23717415,1.3022702,0.064047806,-0.060133062,0.055662878,1.2456491,-0.9273217
0.0,0.0,1.2999999999999998,-0.5235987755982988,0.5235987755982988,0,-0.6240196,-1.1647537,2.066463,-0.049173158,-0.07032635,1.1315277,-1.269366,0.021751069,1.3391913,0.31488025,-0.09797967,0.10797455,1.2609731,1.0135925
0.0,0.0,1.2999999999999998,-0.5235987755982988,0.5235987755982988,0,-0.62486136,-1.1680975,2.061395,-0.015788766,0.20304812,1.1794193,-0.6086052,0.025889479,1.3059678,0.14127447,-0.013870338,0.052659743,1.2917471,-0.087472074
0.0,0.0,1.2999999999999998,-0.5235987755982988,0.5235987755982988,0,-0.6237319,-1.1645244,2.0572388,-0.04996665,-0.0056108553,1.225131,-0.05755571,-0.053189307,1.3116558,0.09868158,-0.0987221,0.088703305,1.194313,0.36640412
0.0,0.0,1.2999999999999998,-0.5235987755982988,0.5235987755982988,0,-0.62462705,-1.1653996,2.073783,-0.031976696,-0.10541542,1.1471883,-0.6782971,-0.121784545,1.3290039,0.17693359,-0.07300126,0.0824659,1.2663451,1.5520328
0.0,0.0,1.2999999999999998,-0.5235987755982988,0.5235987755982988,0,-0.6240912,-1.1661735,2.0819602,-0.037403397,-0.1406085,1.2122519,-0.6740379,0.019834839,1.2882111,0.031051772,-0.05991575,0.11408715,1.230607,0.97182256
0.0,0.0,1.2999999999999998,-0.5235987755982988,0.5235987755982988,0,-0.6249668,-1.1676832,2.067674,-0.032182585,0.088766776,1.2324059,-1.4611526,-0.0347549,1.3173121,0.039690573,-0.05344525,-0.006964527,1.2546734,1.0429217
0.0,0.0,1.2999999999999998,-0.5235987755982988,0.5235987755982988,0,-0.6228604,-1.1657885,2.0952027,-0.022685638,-0.26348555,1.1967504,0.4085967,-0.07319059,1.2729435,0.09226105,-0.08791094,-0.054126468,1.2207171,1.2074951
0.0,0.0,1.2999999999999998,-0.5235987755982988,0.5235987755982988,0,-0.6244645,-1.1683459,2.1128786,-0.105660416,-0.134801,1.1922014,-1.1460242,0.08992216,1.3320184,0.25954333,-0.050252248,-0.08244128,1.1926329,0.37414807
0.0,0.0,1.2999999999999998,-0.5235987755982988,0.5235987755982988,0,-0.62413037,-1.1677089,2.090158,-0.07356313,-0.17948012,1.1701511,-0.35190713,0.046257872,1.2877125,0.16773283,-0.06531096,-0.058819674,1.2174218,1.187737
0.0,0.0,1.2999999999999998,-0.5235987755982988,0.5235987755982988,0,-0.62489235,-1.165646,2.0624418,-0.022481462,0.038343363,1.2417617,-0.17443708,0.17145978,1.2984998,0.13895877,-0.07383225,-0.002654474,1.1495345,1.6426706
0.0,0.0,1.2999999999999998,-0.5235987755982988,0.5235987755982988,0,-0.6234526,-1.1691957,2.0732117,-0.017072992,-0.09698763,1.195346,0.16434808,-0.080266155,1.3117108,0.13397335,-0.06776182,-0.07007974,1.2366358,-0.63902813
0.0,0.0,1.2999999999999998,-0.5235987755982988,0.5235987755982988,0,-0.6236964,-1.1657056,2.0621622,-0.052341346,0.04538882,1.1574514,-0.9265717,0.11801211,1.308513,0.05428014,-0.032152314,-0.045522843,1.24423,0.4712688
0.0,0.0,1.2999999999999998,-0.5235987755982988,0.5235987755982988,0,-0.6255407,-1.1680579,2.0731158,-0.09420176,-0.026579104,1.1807712,-0.66396314,-0.10397655,1.250839,0.025698964,-0.05145208,0.21212755,1.2541541,-0.7391913
0.0,0.0,1.2999999999999998,-0.5235987755982988,0.5235987755982988,0,-0.62389386,-1.1656553,2.1040194,-0.1255341,0.041348685,1.2334317,-0.20923242,-0.060345452,1.3059858,0.19087441,-0.041080143,0.030752352,1.1982305,0.7277979
0.0,0.0,1.2999999999999998,-0.5235987755982988,0.5235987755982988,0,-0.6232247,-1.1663772,2.0719028,-0.007996735,-0.017007675,1.2830515,0.024419311,0.16602933,1.318238,0.11941785,-0.04169083,0.071468025,1.2713412,0.42862946
0.0,0.0,1.2999999999999998,-0.5235987755982988,0.5235987755982988,0,-0.6238518,-1.1654918,2.0682194,-0.039814733,-0.0726149,1.1489481,-0.2674722,-0.16314937,1.2944106,0.24850315,-0.045057982,0.03760675,1.2001365,1.138212
0.0,0.0,1.2999999999999998,-0.5235987755982988,0.5235987755982988,0,-0.6235412,-1.165633,2.0636609,-0.00023410766,-0.14490703,1.1958185,-0.514858,0.12396241,1.3203907,0.013032674,-0.031369183,-0.04396397,1.1801738,-0.06815366
0.0,0.0,1.2999999999999998,-0.5235987755982988,0.5235987755982988,0,-0.6243714,-1.1656975,2.0647855,-0.03227875,0.030717932,1.2193425,-1.2550087,-0.111391336,1.347566,0.24111128,-0.06453692,-0.026857456,1.2096967,-1.2981932
0.0,0.0,1.2999999999999998,-0.5235987755982988,0.5235987755982988,0,-0.62337667,-1.1662734,2.0489025,-0.00866192,0.048148382,1.1816212,-1.0375689,-0.016332923,1.2667826,-0.038350344,-0.08977518,0.22759287,1.149237,2.8047833
0.0,0.0,1.2999999999999998,-0.5235987755982988,0.5235987755982988,0,-0.6233248,-1.1652387,2.0642216,-0.018978309,-0.10546835,1.1868758,-0.13018608,0.019325247,1.2914,0.23979603,-0.050707467,0.1493807,1.2821734,-0.1392248
0.0,0.0,1.2999999999999998,-0.5235987755982988,0.5235987755982988,0,-0.6251645,-1.1639922,2.0695543,-0.009826755,-0.06305841,1.1591123,-0.30261442,0.19098033,1.2904269,0.2550305,-0.04520412,0.063792825,1.2297646,2.308662
0.0,0.0,1.2999999999999998,-0.5235987755982988,0.5235987755982988,0,-0.6243774,-1.1651073,2.0561,-0.040565714,-0.21576172,1.1519412,0.2897716,-0.017604511,1.288381,0.27577516,-0.08848261,-0.097234316,1.1965538,0.6205373
0.0,0.0,1.2999999999999998,-0.5235987755982988,0.5235987755982988,0,-0.62410855,-1.1678836,2.0724337,-0.06744056,-0.036258776,1.1721282,-1.4203838,0.18654552,1.2585709,0.20860974,-0.06110989,-0.1362131,1.2890254,0.06528021
0.0,0.0,1.2999999999999998,-0.5235987755982988,0.5235987755982988,0,-0.62429565,-1.1669183,2.066561,-0.041442722,-0.012914213,1.1669976,-0.35201535,-0.046635564,1.3304032,0.019379694,-0.0855654,0.22381665,1.2148293,-1.6329645
0.0,0.0,1.2999999999999998,-0.5235987755982988,0.5235987755982988,0,-0.6239032,-1.1679696,2.062736,-0.03369968,-0.0422369,1.190155,-0.9907539,-0.2492395,1.3592445,0.25406173,-0.0297047,-0.07161123,1.1984094,1.3115777
0.0,0.0,1.2999999999999998,-0.5235987755982988,0.5235987755982988,0,-0.625865,-1.1653614,2.0975873,-0.03505105,0.023030885,1.2074274,0.30846816,0.07540428,1.3196667,0.10157769,-0.054633968,0.096659645,1.2533059,-1.2359593
0.0,0.0,1.2999999999999998,-0.5235987755982988,0.5235987755982988,0,-0.6235234,-1.1667658,2.0488672,-0.031358432,-0.089398034,1.2139057,-0.13150929,-0.22930641,1.2729661,-0.055718023,-0.04776579,0.10744102,1.1405073,0.008208314
0.0,0.0,1.2999999999999998,-0.5235987755982988,0.5235987755982988,0,-0.6242948,-1.1668956,2.0866644,-0.03376358,-0.107133776,1.1621387,-0.24426205,0.07195291,1.3036164,-0.016414164,-0.07640318,-0.010384387,1.2561716,0.57123464
0.0,0.0,1.2999999999999998,-0.5235987755982988,0.5235987755982988,0,-0.62559575,-1.1664218,2.0681024,-0.009668395,0.071660444,1.2326121,-0.46296263,-0.172161,1.3172902,-0.09620611,-0.08329041,-0.05586417,1.1980608,1.3088193
0.0,0.0,1.2999999999999998,-0.5235987755982988,0.5235987755982988,0,-0.62521875,-1.1660333,2.0564919,-0.08663018,-0.04846405,1.1887959,-1.3277382,0.085721456,1.3463976,0.1580752,-0.101490356,-0.1290398,1.2159501,0.1335617
0.0,0.0,1.2999999999999998,-0.5235987755982988,0.5235987755982988,0,-0.62510103,-1.1654357,2.061229,-0.03978782,-0.109854326,1.2327434,-0.26818994,-0.11962509,1.2688107,0.06205843,-0.079167716,0.023878647,1.3373601,-1.6054786
0.0,0.0,1.2999999999999998,-0.5235987755982988,0.5235987755982988,0,-0.62399125,-1.165696,2.0556667,-0.07867303,-0.07163501,1.1791164,-0.48209593,-0.3308612,1.3136019,0.10896058,-0.011030871,-0.17340541,1.243046,-0.6297233
0.0,0.0,1.2999999999999998,-0.5235987755982988,0.5235987755982988,0,-0.6235465,-1.1683906,2.060462,-0.006588681,-0.1611377,1.1648172,-0.48777846,0.14043878,1.3187246,0.1157779,-0.100834064,0.025598481,1.1858186,-0.29707545
0.0,0.0,1.2999999999999998,-0.5235987755982988,0.5235987755982988,0,-0.623912,-1.1684715,2.082885,-0.05185977,-0.056360744,1.1830322,-0.72164375,-0.010877551,1.3102375,-0.003811629,-0.05496158,-0.10594053,1.2087302,-0.14257652
0.0,0.0,1.2999999999999998,-0.5235987755982988,0.5235987755982988,0,-0.62338614,-1.1658154,2.1050942,-0.06784785,0.017674807,1.1928023,-1.1293309,-0.14521578,1.3173045,0.2572003,-0.05815289,0.074810974,1.1902945,-0.3267507
0.0,0.0,1.2999999999999998,-0.5235987755982988,0.5235987755982988,0,-0.6237506,-1.1656456,2.0932324,-0.048796065,-0.17486414,1.2472757,0.20401466,-0.1199245,1.3330722,0.09725225,-0.020777285,-0.075313106,1.2168921,-1.1705357
0.0,0.0,1.2999999999999998,-0.5235987755982988,0.5235987755982988,0,-0.62369376,-1.1665987,2.0597126,-0.07831672,-0.0021628088,1.1699338,0.09925724,-0.15780397,1.3516234,0.33117524,-0.029166685,0.07885689,1.2037337,-0.5859881
0.0,0.0,1.2999999999999998,-0.5235987755982988,0.5235987755982988,0,-0.62478626,-1.1663759,2.0640476,-0.041651387,0.038802437,1.2365643,-1.2908685,0.0119989095,1.3280083,0.1814073,-0.0031605174,0.04333034,1.1125535,0.76878536
0.0,0.0,1.2999999999999998,-0.5235987755982988,0.5235987755982988,0,-0.62522763,-1.1640859,2.1001697,-0.03100276,-0.10732671,1.1713411,0.4849315,0.077883616,1.3238916,0.38525695,-0.07028808,-0.028167784,1.2830344,-0.07415862
0.0,0.0,1.2999999999999998,-0.5235987755982988,0.5235987755982988,0,-0.6236475,-1.1708211,2.0915718,-0.036144927,-0.12114991,1.1782453,0.42305523,0.050079238,1.3782724,0.016131926,-0.009005429,0.073271826,1.2624694,0.11227416
0.0,0.0,1.2999999999999998,-0.5235987755982988,0.5235987755982988,0,-0.6243317,-1.1677711,2.0799112,-0.039278112,-0.0048233303,1.203873,-1.4425173,-0.23101558,1.3206916,0.2668807,-0.05026536,0.12760806,1.232796,0.92017025
0.0,0.0,1.2999999999999998,-0.5235987755982988,0.5235987755982988,0,-0.6243981,-1.1689179,2.0863872,-0.070411064,-0.122122906,1.1218443,-0.8736052,-0.025259508,1.2771828,0.16655436,-0.058751307,0.0011237687,1.157421,0.90938306
0.0,0.0,1.2999999999999998,-0.5235987755982988,0.5235987755982988,0,-0.62361014,-1.1680886,2.059888,-0.037670016,-0.08309744,1.2234334,0.13273221,0.13701023,1.3061308,-0.034455366,-0.10390191,-0.039070304,1.1749924,0.39678538
0.0,0.0,1.2999999999999998,-0.5235987755982988,0.5235987755982988,0,-0.6222994,-1.1683979,2.092778,-0.042072404,-0.006509452,1.2310851,0.046114236,0.16413996,1.3556477,0.09686693,-0.100569025,-0.049991842,1.2223362,0.20329338
0.0,0.0,1.2999999999999998,-0.5235987755982988,0.5235987755982988,0,-0.62468344,-1.1683618,2.0717597,-0.022326156,0.07513315,1.1714036,-0.40483227,-0.020405056,1.3124038,0.027105546,-0.103190824,0.0048308196,1.1213802,-1.1303393
0.0,0.0,1.2999999999999998,-0.5235987755982988,0.5235987755982988,0,-0.6253284,-1.1644474,2.0752873,-0.03524071,-0.087098226,1.1372839,-0.22119436,0.20094544,1.2550812,0.1557284,-0.04807598,0.16650303,1.2359024,-0.57404757
0.0,0.0,1.2999999999999998,-0.5235987755982988,0.5235987755982988,0,-0.62446463,-1.1657945,2.0532687,-0.020965403,-0.06750431,1.2108184,0.25999373,-0.049686436,1.3092002,0.22459121,-0.031829607,-0.103352904,1.111357,1.6425127
0.0,0.0,1.2999999999999998,-0.5235987755982988,0.5235987755982988,0,-0.625553,-1.167028,2.0726542,-0.06303936,0.012747899,1.1333597,-0.84942937,-0.21361238,1.3126514,0.13868439,0.033802006,0.101458505,1.1942011,0.57859266
0.0,0.0,1.2999999999999998,-0.5235987755982988,0.5235987755982988,0,-0.6256818,-1.1654191,2.100084,-0.05281987,-0.056000147,1.1817307,-0.5729217,0.038249712,1.3506278,0.06715319,-0.054697756,0.11437849,1.2641457,1.1422001
0.0,0.0,1.2999999999999998,-0.5235987755982988,0.5235987755982988,0,-0.6255233,-1.1656721,2.0839784,-0.036533546,0.07941173,1.1732669,-0.24451788,0.05490115,1.3073897,0.18706886,-0.08836363,0.05630733,1.2403919,-0.5362886
0.0,0.0,1.2999999999999998,-0.5235987755982988,0.5235987755982988,0,-0.62621987,-1.164709,2.0671496,-0.050059408,-0.103175625,1.1203158,-0.2824062,-0.049503855,1.3258744,0.14028314,-0.10310425,0.0073423265,1.1118138,0.057893686
0.0,0.0,1.2999999999999998,-0.5235987755982988,0.5235987755982988,0,-0.62435395,-1.1657987,2.0628421,-0.06741444,-0.10313384,1.2070613,-1.3725399,0.04609133,1.389619,0.12881072,-0.06956698,-0.14306727,1.2456648,-0.066130504
0.0,0.0,1.2999999999999998,-0.5235987755982988,0.5235987755982988,0,-0.62429065,-1.1665938,2.060776,-0.021987416,-0.16391163,1.2299002,0.11274624,0.13592798,1.3092825,0.13263495,-0.048348594,-0.15476525,1.1633668,0.015599031
0.0,0.0,1.2999999999999998,-0.5235987755982988,0.5235987755982988,0,-0.62526035,-1.1660306,2.0654652,-0.041688148,-0.16700202,1.2394943,-0.008555772,0.13588844,1.3233292,0.21016565,-0.082788564,0.095077746,1.1931955,0.61776483
0.0,0.0,1.2999999999999998,-0.5235987755982988,0.5235987755982988,0,-0.6246465,-1.1672297,2.067935,-0.04068949,-0.074444585,1.2046831,-0.3579814,-0.051424608,1.3006692,0.021597462,-0.039955743,0.097113535,1.2102665,1.0931034
0.0,0.0,1.2999999999999998,-0.5235987755982988,0.5235987755982988,0,-0.6245643,-1.1660533,2.0628412,-0.047717147,-0.05752726,1.2116903,-0.8132464,0.11057501,1.3056864,0.2724464,-0.042720284,0.025189126,1.2518067,0.16502565
0.0,0.0,1.2999999999999998,-0.5235987755982988,0.5235987755982988,0,-0.6236975,-1.1663269,2.048375,-0.027754987,0.0023233052,1.2634097,-0.81609255,0.23387307,1.2832499,0.138435,-0.08453088,0.24240498,1.1838269,-0.07562542
0.0,0.0,1.2999999999999998,-0.5235987755982988,0.5235987755982988,0,-0.62376237,-1.1665634,2.0688665,-0.04133768,-0.060663395,1.2014533,0.33408612,0.008395261,1.3164676,0.08225819,-0.07148067,0.14866693,1.2303138,0.85178804
0.0,0.0,1.2999999999999998,-0.5235987755982988,0.5235987755982988,0,-0.6240282,-1.1685,2.0698042,-0.04171202,-0.09794889,1.1897581,-0.42947468,0.1727804,1.2552265,0.23887925,-0.084866345,0.18699835,1.2287024,-1.2439831
0.0,0.0,1.2999999999999998,-0.5235987755982988,0.5235987755982988,0,-0.62442434,-1.1658558,2.0563886,-0.0044771535,-0.0071781753,1.1913418,-1.8189089,-0.06024984,1.2975906,0.1709594,-0.038200237,0.16327947,1.2240591,0.27546546
0.0,0.0,1.2999999999999998,-0.5235987755982988,0.5235987755982988,0,-0.62326676,-1.1657405,2.1107967,-0.055154383,-0.1488788,1.0771875,-0.2077086,0.011523457,1.3157358,0.31656793,-0.015643058,-0.026932126,1.2520671,-1.25253
0.0,0.0,1.2999999999999998,-0.5235987755982988,0.5235987755982988,0,-0.6234272,-1.1664449,2.068472,-0.04098771,-0.068829745,1.1609236,-0.83330405,0.069000475,1.26968,0.15651971,-0.06745935,0.09240253,1.2516273,2.128918
0.0,0.0,1.2999999999999998,-0.5235987755982988,0.5235987755982988,0,-0.6237793,-1.1668438,2.0911968,-0.058771156,-0.21393587,1.1941655,-0.5940179,0.0054008276,1.3064554,0.21201849,-0.1307753,0.033764426,1.202098,1.5546091
0.0,0.0,1.2999999999999998,-0.5235987755982988,0.5235987755982988,0,-0.6252478,-1.1684284,2.1042352,-0.022303429,-0.050360214,1.137636,-0.6109663,-0.12991825,1.3206007,0.18403427,-0.08105599,0.062231433,1.1554703,-2.7331326
0.0,0.0,1.2999999999999998,-0.5235987755982988,0.5235987755982988,0,-0.6228494,-1.16564,2.0683825,-0.028692087,-0.11036356,1.186575,-0.4447066,-0.14957139,1.3315988,0.09269731,-0.059635833,-0.0546015,1.1095173,-0.50361425
0.0,0.0,1.2999999999999998,-0.5235987755982988,0.5235987755982988,0,-0.62531346,-1.1660954,2.07684,-0.058332205,-0.14774755,1.2491742,-0.054890126,0.12990296,1.3810823,0.17933518,-0.058827475,-0.03231238,1.2531184,-0.5836421
0.0,0.0,1.2999999999999998,-0.5235987755982988,0.5235987755982988,0,-0.6240659,-1.1672623,2.0563314,-0.036958247,-0.17101924,1.2282228,-0.014780014,-0.13041876,1.3569984,-0.065172195,-0.0988767,0.007589078,1.1532325,-0.68769
0.0,0.0,1.2999999999999998,-0.5235987755982988,0.5235987755982988,0,-0.6250019,-1.1658005,2.046638,-0.042410806,0.096396916,1.1493622,-0.21329023,0.1627241,1.3374807,0.22757852,-0.09039509,-0.09052981,1.1555818,2.0782866
0.0,0.0,1.2999999999999998,-0.5235987755982988,0.5235987755982988,0,-0.62362176,-1.1654727,2.0171587,-0.022898972,-0.13329422,1.1749812,0.81284404,-0.038167354,1.3375944,0.16701384,-0.09688574,-0.022120174,1.2156138,-0.48232257
0.0,0.0,1.2999999999999998,-0.5235987755982988,0.5235987755982988,0,-0.6232234,-1.1656849,2.041172,-0.0045271358,-0.013685189,1.2654331,-0.07775489,0.02026663,1.2882266,0.19483592,-0.0287437,0.027639974,1.3412529,0.47340453
0.0,0.0,1.2999999999999998,-0.5235987755982988,0.5235987755982988,0,-0.62438583,-1.164583,2.0370777,-0.04651224,-0.039931554,1.1505231,-0.7439697,0.065584905,1.3143708,0.07020436,-0.1012712,-0.0063430974,1.183745,1.477071
0.0,0.0,1.2999999999999998,-0.5235987755982988,0.5235987755982988,0,-0.62418336,-1.1685258,2.0811374,-0.054386966,-0.15596314,1.21191,-0.020649655,-0.026408976,1.3386593,0.14228548,-0.0351883,-0.006489089,1.1449296,0.9225633
0.0,0.0,1.2999999999999998,-0.5235987755982988,0.5235987755982988,0,-0.6227769,-1.1660787,2.032933,-0.023785295,-0.012297301,1.1725588,-1.5552169,-0.050491862,1.2681963,0.102006845,-0.088264436,-0.15461943,1.3087553,0.86690116
0.0,0.0,1.2999999999999998,-0.5235987755982988,0.5235987755982988,0,-0.6254405,-1.167186,2.0493753,-0.04109077,-0.06970191,1.1792123,-0.6029035,-0.13436142,1.342865,-0.105009586,0.005751553,0.067608304,1.2140017,-0.24276233
0.0,0.0,1.2999999999999998,-0.5235987755982988,0.5235987755982988,0,-0.62415385,-1.168119,2.0898619,-0.024027359,-0.040241122,1.2416624,-0.8566207,-0.045302544,1.3180188,0.08229373,-0.09481693,-0.112980865,1.1185727,-0.5844833
0.0,0.0,1.2999999999999998,-0.5235987755982988,0.5235987755982988,0,-0.6239438,-1.1634378,2.0649316,-0.045887526,-0.06182027,1.2522831,0.0463913,-0.029567067,1.3564285,0.19835305,-0.108866446,0.1065088,1.2106321,-0.19589242
0.0,0.0,1.2999999999999998,-0.5235987755982988,0.5235987755982988,0,-0.62261164,-1.1670895,2.0753899,-0.045930076,-0.1407812,1.1633426,-0.7673442,0.09582656,1.2727077,0.12613663,-0.03197257,0.015995631,1.2385701,0.4252842
0.0,0.0,1.2999999999999998,-0.5235987755982988,0.5235987755982988,0,-0.6226012,-1.1658741,2.0866458,-0.06764256,-0.0819519,1.2256699,-0.6624429,-0.008639776,1.3228226,0.096026696,0.0028962924,0.008060992,1.2214478,-0.41341567
0.0,0.0,1.2999999999999998,-0.5235987755982988,0.5235987755982988,0,-0.62364,-1.1664606,2.0650156,-0.047639113,-0.09843356,1.1876227,-0.10600991,-0.024659924,1.342148,0.21287908,-0.060824383,-0.009059447,1.3040241,0.20210445
0.0,0.0,1.2999999999999998,-0.5235987755982988,0.5235987755982988,0,-0.6243376,-1.169452,2.0869083,-0.04437735,-0.09548578,1.1315478,-0.14287344,-0.23520787,1.3091631,-0.006041774,-0.047614705,0.09416565,1.2504648,-0.84900075
0.0,0.0,1.2999999999999998,-0.5235987755982988,0.5235987755982988,0,-0.6259067,-1.1665163,2.0679379,-0.07149073,-0.048965424,1.2759091,-0.88929075,-0.076791525,1.2972913,0.22377354,-0.046972882,0.20145008,1.203097,-1.5144544
0.0,0.0,1.2999999999999998,-0.5235987755982988,0.5235987755982988,0,-0.6223216,-1.1668204,2.072388,-0.07655043,0.023810275,1.1580267,-0.7819321,-0.041112106,1.3363677,0.11265919,-0.072473675,-0.0931187,1.1885815,1.7563442
0.0,0.0,1.2999999999999998,-0.5235987755982988,0.5235987755982988,0,-0.6221655,-1.1671245,2.0905924,-0.016652513,0.005845562,1.1819296,-0.707234,-0.03711662,1.3095824,0.06677498,-0.089365035,-0.15725146,1.213056,1.4173859
0.0,0.0,1.2999999999999998,-0.5235987755982988,0.5235987755982988,0,-0.6230544,-1.1687933,2.1019208,-0.059193768,-0.16830337,1.1617537,-0.54620343,0.12212829,1.2891709,-0.011292193,-0.060076248,0.023285279,1.212243,0.88834584
0.0,0.0,1.2999999999999998,-0.5235987755982988,0.5235987755982988,0,-0.624292,-1.1642305,2.0821853,-0.018477442,-0.018696316,1.1736958,-1.2644274,-0.09772809,1.3858058,0.17021905,-0.036168143,0.09474253,1.2899308,-0.4603739
0.0,0.0,1.2999999999999998,-0.5235987755982988,0.5235987755982988,0,-0.62429625,-1.1634231,2.0738885,-0.056877363,-0.04872426,1.1869577,-1.0385226,-0.0926216,1.3641905,0.37651828,-0.06068686,-0.06240787,1.2183812,0.04226346
0.0,0.0,1.2999999999999998,-0.5235987755982988,0.5235987755982988,0,-0.62469465,-1.1651571,2.1049218,-0.020312954,-0.031684704,1.1683549,0.10159453,-0.03299572,1.3600926,0.032201596,-0.11928177,0.113537416,1.1809876,0.9971627
0.0,0.0,1.2999999999999998,-0.5235987755982988,0.5235987755982988,0,-0.6254027,-1.1647631,2.1059968,-0.04120223,0.040242318,1.1757164,-0.43949723,-0.008702952,1.3201332,0.122034475,-0.048190877,0.10215012,1.2287674,1.1470835
0.0,0.0,1.2999999999999998,-0.5235987755982988,0.5235987755982988,0,-0.62344426,-1.1656243,2.094866,-0.03513198,0.0040664626,1.173463,-0.6418419,-0.050295122,1.3802387,-0.026788797,-0.039294474,0.038537476,1.1008198,2.2850463
0.0,0.0,1.2999999999999998,-0.5235987755982988,0.5235987755982988,0,-0.62536657,-1.170147,2.0793629,-0.068366215,-0.055418856,1.1284548,-0.16372947,0.022958776,1.3398738,0.2657324,0.009155586,0.11316246,1.270724,0.7953346
0.0,0.0,1.2999999999999998,-0.5235987755982988,0.5235987755982988,0,-0.6251918,-1.1650653,2.096778,-0.038096815,-0.0689725,1.2156249,1.1189481,0.09897853,1.2965991,0.11946728,-0.059220426,-0.05472644,1.3268334,-0.45595708
0.0,0.0,1.2999999999999998,-0.5235987755982988,0.5235987755982988,0,-0.623339,-1.1652328,2.0886025,-0.033780087,0.05331861,1.1878318,-0.715733,0.01616051,1.2751768,0.092295736,-0.068635166,-0.05345844,1.1703621,0.7036609
0.0,0.0,1.2999999999999998,-0.5235987755982988,0.5235987755982988,0,-0.6249373,-1.1622071,2.1011834,-0.03970872,-0.051179454,1.2247065,-0.410515,-0.068165176,1.2746398,0.06554549,-0.10167409,-0.08541213,1.2187058,0.0868141
0.0,0.0,1.2999999999999998,-0.5235987755982988,0.5235987755982988,0,-0.62330323,-1.1645914,2.0734434,-0.05927819,-0.008754483,1.2339174,-0.6570009,0.018453598,1.2790488,0.04324096,-0.108367704,0.12292438,1.2213421,0.35155934
0.0,0.0,1.2999999999999998,-0.5235987755982988,0.5235987755982988,0,-0.6227443,-1.1640519,2.05075,-0.04443034,-0.009443654,1.1898161,0.02875773,0.15285873,1.3652911,0.10924052,-0.06724275,-0.012655159,1.1318288,1.9500725
0.0,0.0,1.2999999999999998,-0.5235987755982988,0.5235987755982988,0,-0.6259866,-1.1644306,2.120616,-0.078201346,-0.016238237,1.1766635,0.7082156,0.066202946,1.313754,0.061913557,-0.0464438,0.078527406,1.3008763,-0.52041715
0.0,0.0,1.2999999999999998,-0.5235987755982988,0.5235987755982988,0,-0.62173194,-1.1670233,2.098135,-0.026770912,0.05252233,1.1945244,-0.039233834,-0.21442229,1.3124208,0.25771347,-0.11731498,0.006631791,1.1696095,1.3665855
0.0,0.0,1.2999999999999998,-0.5235987755982988,0.5235987755982988,0,-0.6233322,-1.1678156,2.0832648,-0.005343874,-0.18211776,1.1172789,-1.7055231,0.013364453,1.2950929,0.27532947,-0.05423413,0.1376833,1.2478386,2.1015635
0.0,0.0,1.2999999999999998,-0.5235987755982988,0.5235987755982988,0,-0.62466335,-1.1695276,2.0654075,-0.053951047,-0.014561154,1.1747395,-0.31400377,-0.1618509,1.344014,0.03692528,-0.045263126,0.17551214,1.2450047,0.48134074
0.0,0.0,1.2999999999999998,-0.5235987755982988,0.5235987755982988,0,-0.6245381,-1.1670582,2.0884666,-0.051917974,-0.13040642,1.1396631,-0.31451735,0.09655674,1.2799431,-0.05078554,-0.03677325,0.0059102327,1.2012863,0.07817409
0.0,0.0,1.2999999999999998,-0.5235987755982988,0.5235987755982988,0,-0.6219685,-1.1651946,2.1029515,-0.09807013,-0.25951326,1.1480216,-1.484817,0.0663588,1.3291395,0.023502601,-0.08125727,0.13797879,1.1874957,0.23009361
0.0,0.0,1.2999999999999998,-0.5235987755982988,0.5235987755982988,0,-0.62477446,-1.165416,2.0555549,-0.037915435,0.03022206,1.218952,0.4908245,-0.06597582,1.2764032,0.010143789,-0.055094566,-0.087783456,1.2250249,0.34876752
0.0,0.0,1.2999999999999998,-0.5235987755982988,0.5235987755982988,0,-0.62404895,-1.1669649,2.0891895,0.0006750183,-0.034939457,1.1981592,-1.004404,0.07811395,1.3254809,0.2015857,-0.054188043,-0.09324184,1.2285812,1.3792666
0.0,0.0,1.2999999999999998,-0.5235987755982988,0.5235987755982988,0,-0.6240948,-1.1649222,2.0894334,-0.013641627,-0.2238221,1.2049353,-0.45243767,0.19331309,1.2897813,0.010857311,0.006582976,0.12884516,1.2859764,-0.08120728
0.0,0.0,1.2999999999999998,-0.5235987755982988,0.5235987755982988,0,-0.62357384,-1.1673915,2.0866115,-0.0951108,-0.036200747,1.18036,-0.2525052,0.1656632,1.305699,0.14702551,-0.022649374,0.054318473,1.2249379,0.47964984
0.0,0.0,1.2999999999999998,-0.5235987755982988,0.5235987755982988,0,-0.6241087,-1.1647289,2.0444689,0.014429148,-0.044295426,1.2131238,-0.54929227,0.099125534,1.2955402,0.1913608,-0.06577483,-0.105379276,1.1505165,0.07100961
0.0,0.0,1.2999999999999998,-0.5235987755982988,0.5235987755982988,0,-0.62409645,-1.1694748,2.1191742,-0.05901666,-0.023387166,1.189399,-0.5273859,0.09042924,1.3294281,0.1379565,-0.0056482954,-0.08821843,1.2165602,0.32638985
0.0,0.0,1.2999999999999998,-0.5235987755982988,0.5235987755982988,0,-0.6237982,-1.1649463,2.0670989,-0.046460964,0.106389835,1.1316764,-0.31818697,-0.07196761,1.3444425,0.03366957,-0.013552,0.10478836,1.243881,-0.44540134
0.0,0.0,1.2999999999999998,-0.5235987755982988,0.5235987755982988,0,-0.62472826,-1.1643491,2.1059585,-0.070612386,0.046550944,1.2114934,-0.5326316,-0.056987144,1.325595,-0.014195914,-0.096237615,-0.050331548,1.1038938,1.1471732
0.0,0.0,1.2999999999999998,-0.5235987755982988,0.5235987755982988,0,-0.62285507,-1.1661088,2.1023128,-0.0440924,0.04943492,1.1662455,-0.27640423,-0.041066382,1.310935,0.12320558,-0.04561391,0.124939285,1.2447591,0.78925717
0.0,0.0,1.2999999999999998,-0.5235987755982988,0.5235987755982988,0,-0.6240901,-1.1628101,2.067395,-0.024071557,-0.06390702,1.2022934,-1.2868347,-0.12533852,1.2859604,0.18409413,-0.092518024,-0.051319867,1.1579818,1.347405
0.0,0.0,1.2999999999999998,-0.5235987755982988,0.5235987755982988,0,-0.6239666,-1.1668366,2.0760906,-0.07043964,-0.091739036,1.2000366,-0.10048368,0.0039740363,1.2874196,0.105247304,-0.022009289,0.024853457,1.2527716,0.6778024
0.0,0.0,1.2999999999999998,-0.5235987755982988,0.5235987755982988,0,-0.6250798,-1.1649884,2.114192,-0.029405711,-0.04490789,1.1513401,0.0061985184,0.0584482,1.2811247,0.19883235,-0.045299817,-0.12546249,1.1457853,-0.4467125
0.0,0.0,1.2999999999999998,-0.5235987755982988,0.5235987755982988,0,-0.6235024,-1.1668445,2.130522,-0.032322437,-0.24778022,1.1779184,-0.03513322,-0.2922419,1.3188488,0.13822387,-0.045616265,0.03809072,1.1589977,-0.6792223
0.0,0.0,1.2999999999999998,-0.5235987755982988,0.5235987755982988,0,-0.62412447,-1.168506,2.0838888,-0.05025784,-0.0049404097,1.1548876,-0.31277448,0.02269384,1.3346273,0.094526455,-0.051978238,0.046839755,1.20194,-0.054266497
0.0,0.0,1.2999999999999998,-0.5235987755982988,0.5235987755982988,0,-0.624486,-1.1654681,2.0384102,-0.039077684,0.035836373,1.1705066,-0.32413158,0.050217144,1.3279196,0.12183975,-0.09330979,0.3304233,1.2675806,-0.06591109
0.0,0.0,1.2999999999999998,-0.5235987755982988,0.5235987755982988,0,-0.6253447,-1.1659933,2.0396411,-0.022856094,-0.1454068,1.2429692,-0.35377905,0.022340178,1.238196,0.072877504,-0.07004043,0.19761135,1.2410715,0.40193412
0.0,0.0,1.2999999999999998,-0.5235987755982988,0.5235987755982988,0,-0.62371904,-1.1650546,2.076536,0.024148198,-0.06718718,1.1455505,-0.8851911,0.04134603,1.261343,0.24732855,-0.08592798,0.08843554,1.2917829,-0.5706602
0.0,0.0,1.2999999999999998,-0.5235987755982988,0.5235987755982988,0,-0.6232907,-1.1667192,2.078844,-0.04154727,0.03586515,1.1313288,-0.55443,0.12022563,1.291006,0.2990546,-0.058773383,-0.01252745,1.1645344,0.6326226
0.0,0.0,1.2999999999999998,-0.5235987755982988,0.5235987755982988,0,-0.6240169,-1.1641501,2.1369562,-0.06507465,0.00881223,1.1667109,-1.140245,0.04276072,1.3253064,0.14891464,-0.043156635,0.10234755,1.2169013,2.4718184
0.0,0.0,1.2999999999999998,-0.5235987755982988,0.5235987755982988,0,-0.6241913,-1.1625175,2.1295948,-0.016903564,-0.17373917,1.1749458,-0.089189775,-0.13041893,1.3400604,0.25164452,-0.08476185,0.016776372,1.2668607,1.8340708
0.0,0.0,1.2999999999999998,-0.5235987755982988,0.5235987755982988,0,-0.62442046,-1.1682416,2.0884168,-0.05237753,0.15970297,1.1561275,0.37437722,-0.07034688,1.3536416,0.2580626,-0.040913545,-0.047236428,1.2281182,1.268684
0.0,0.0,1.2999999999999998,-0.5235987755982988,0.5235987755982988,0,-0.6246865,-1.1696646,2.0939732,-0.0655923,-0.104387715,1.146579,-0.76900035,-0.13658991,1.3157479,0.08669704,-0.07412008,-0.072523,1.1667233,1.010193
0.0,0.0,1.2999999999999998,-0.5235987755982988,0.5235987755982988,0,-0.62330735,-1.164443,2.0902932,-0.012570289,-0.118097864,1.2181216,-0.5798515,-0.049569935,1.3333257,0.09503413,-0.103552446,-0.002651933,1.2445625,0.133597
0.0,0.0,1.2999999999999998,-0.5235987755982988,0.5235987755982988,0,-0.6240261,-1.1651089,2.1272652,-0.011770618,-0.02981415,1.2506361,-0.38458362,0.038179144,1.3289682,0.08694552,-0.061632846,0.06974619,1.1957048,-0.37071735
0.0,0.0,1.2999999999999998,-0.5235987755982988,0.5235987755982988,0,-0.62386906,-1.1683964,2.0533423,-0.02986872,-0.072216935,1.1541389,-0.51024413,-0.045311972,1.3516704,0.19712923,-0.09563787,-0.009289539,1.2259395,0.52375615
0.0,0.0,1.2999999999999998,-0.5235987755982988,0.5235987755982988,0,-0.6239006,-1.1684883,2.103918,-0.04762739,-0.2140387,1.1670561,-0.42564467,0.041441098,1.3294426,0.19928971,-0.042812765,0.1657664,1.201287,-0.3083143
0.0,0.0,1.2999999999999998,-0.5235987755982988,0.5235987755982988,0,-0.62356573,-1.1681433,2.074237,-0.043265063,-0.32380292,1.1540252,-0.0488217,0.17295465,1.326519,0.22598977,-0.080098696,0.05825674,1.3170757,0.058874495
0.0,0.0,1.2999999999999998,-0.5235987755982988,0.5235987755982988,0,-0.6226904,-1.1682218,2.0467396,-0.047251973,-0.048327774,1.2116654,0.27416742,-0.027479311,1.292572,0.0070530362,-0.07911949,0.0076510045,1.1787995,0.10858268
0.0,0.0,1.2999999999999998,-0.5235987755982988,0.5235987755982988,0,-0.62404305,-1.1653188,2.0480154,-0.022979634,-0.070790336,1.1886326,-0.21786343,0.042492084,1.3496635,0.26387548,-0.075430624,-0.1602763,1.2035191,-1.4115015
0.0,0.0,1.2999999999999998,-0.5235987755982988,0.5235987755982988,0,-0.6247505,-1.1686175,2.087386,0.00468204,-0.18909849,1.2018242,-0.77517825,0.008133847,1.2654089,0.18629201,-0.07775483,0.15375397,1.2956198,0.063228644
0.0,0.0,1.2999999999999998,-0.5235987755982988,0.5235987755982988,0,-0.6256926,-1.1648023,2.0583053,-0.032952297,-0.09582355,1.186854,-1.1499898,-0.14026816,1.2587124,0.11243353,-0.08319617,0.027219787,1.2157758,0.28373247
0.0,0.0,1.2999999999999998,-0.5235987755982988,0.5235987755982988,0,-0.62467164,-1.1659186,2.0875664,-0.09115227,0.02453026,1.2567805,-1.1922505,0.169395,1.3317116,-0.030727947,-0.014613005,0.09716422,1.244137,2.2513285
0.0,0.0,1.2999999999999998,-0.5235987755982988,0.5235987755982988,0,-0.62346774,-1.1682304,2.1227386,-0.041545577,-0.075167,1.2261024,-0.71969765,-0.09427068,1.2618247,-0.059215333,-0.027014744,0.04515972,1.1967398,0.8840797
0.0,0.0,1.2999999999999998,-0.5235987755982988,0.5235987755982988,0,-0.62429565,-1.1660625,2.0974176,0.011014698,-0.18841691,1.1942017,0.540569,-0.022078225,1.2766167,-0.10620617,-0.03215935,0.014376292,1.2477415,0.108773984
0.0,0.0,1.2999999999999998,-0.5235987755982988,0.5235987755982988,0,-0.62346536,-1.1673611,2.0752869,-0.03919512,-0.085332036,1.248765,-0.9328337,-0.030359574,1.3453914,0.26492727,-0.055445567,-0.014833945,1.2296687,0.73435426
0.0,0.0,1.2999999999999998,-0.5235987755982988,0.5235987755982988,0,-0.6228608,-1.1657516,2.0730212,0.010786077,-0.11204362,1.1682061,-0.5499278,-0.097286545,1.2998915,0.20224611,-0.07094206,-0.07346789,1.1977718,-0.29198554
0.0,0.0,1.2999999999999998,-0.5235987755982988,0.5235987755982988,0,-0.6231874,-1.1679535,2.1044207,-0.095185645,-0.022123436,1.259188,-0.5442819,0.100856714,1.3083504,0.1750474,-0.041257147,-0.06579983,1.2042463,0.35962057
0.0,0.0,1.2999999999999998,-0.5235987755982988,0.5235987755982988,0,-0.62464,-1.1659142,2.098087,-0.080771126,-0.0619826,1.2550634,-0.34549743,-0.0068268604,1.2979767,0.10513786,-0.113598645,0.17652552,1.2497618,-1.628882
0.0,0.0,1.2999999999999998,-0.5235987755982988,0.5235987755982988,0,-0.622341,-1.1653956,2.0940251,-0.0607391,-0.07949625,1.1956626,-0.5439251,0.07184083,1.3251107,0.21088824,-0.11424926,0.13274907,1.2069206,1.4271615
0.0,0.0,1.2999999999999998,-0.5235987755982988,0.5235987755982988,0,-0.62397057,-1.1642381,2.0969017,-0.030821247,-0.0802665,1.2161505,-0.84949726,0.15909672,1.3292651,0.1270961,-0.06361887,-0.13451049,1.2341589,2.043459
0.0,0.0,1.2999999999999998,-0.5235987755982988,0.5235987755982988,0,-0.62493885,-1.1654098,2.0867329,-0.005157357,-0.010388356,1.2171862,-0.5377002,0.041716058,1.3080349,0.13312681,-0.028343882,-0.052137166,1.2577202,1.1347475
0.0,0.0,1.2999999999999998,-0.5235987755982988,0.5235987755982988,0,-0.625558,-1.1645118,2.0585084,-0.0041145976,-0.042020496,1.1625676,-0.16374241,0.01368139,1.2818819,0.24805816,-0.016286187,0.17323303,1.1651436,0.7230222
0.0,0.0,1.2999999999999998,-0.5235987755982988,0.5235987755982988,0,-0.62441725,-1.1661472,2.1301932,-0.03420177,-0.0893104,1.1756128,-0.4269531,0.08655103,1.3516499,0.20820548,-0.099307746,0.08913459,1.2673157,-0.5014137
0.0,0.0,1.2999999999999998,-0.5235987755982988,0.5235987755982988,0,-0.6257858,-1.166252,2.0773547,-0.034142967,0.008416336,1.0822628,-0.8809385,-0.08128475,1.3254209,0.17367534,-0.1092721,0.18730009,1.2992128,0.10783783
0.0,0.0,1.2999999999999998,-0.5235987755982988,0.5235987755982988,0,-0.62334174,-1.1639555,2.0722642,-0.018698568,-0.096347265,1.1574668,-1.5254698,0.08118564,1.2487648,0.26457602,-0.08727485,0.0989459,1.1793432,1.1087672
0.0,0.0,1.2999999999999998,-0.5235987755982988,0.5235987755982988,0,-0.6233667,-1.1626894,2.059368,-0.042861953,-0.08515985,1.1998411,-1.471714,0.021750078,1.2641584,0.033448666,-0.046463516,-0.16329314,1.213676,-0.5288933
0.0,0.0,1.2999999999999998,-0.5235987755982988,0.5235987755982988,0,-0.62359744,-1.1677041,2.090503,-0.043136895,-0.0053275223,1.1605785,0.473405,-0.13387695,1.3394608,0.025857966,-0.048395935,0.11367402,1.1682456,1.8469601
0.0,0.0,1.2999999999999998,-0.5235987755982988,0.5235987755982988,0,-0.6240448,-1.1696321,2.094823,-0.03486011,0.020568578,1.1466757,-0.85835576,-0.014579966,1.3537769,-0.0071808333,-0.024341065,0.042758755,1.2185763,0.49395218
0.0,0.0,1.2999999999999998,-0.5235987755982988,0.5235987755982988,0,-0.6234807,-1.1644267,2.0729659,-0.016487787,-0.053291094,1.1844771,-1.7576574,0.045163967,1.3199238,-0.13626903,-0.04590985,-0.043189213,1.1192774,0.49470404
0.0,0.0,1.2999999999999998,-0.5235987755982988,0.5235987755982988,0,-0.6250049,-1.1677104,2.101972,-0.048392158,-0.1557444,1.1691034,-0.54723495,-0.11832118,1.2937971,0.23615302,-0.07657857,0.121754855,1.3253084,0.77244157
0.0,0.0,1.2999999999999998,-0.5235987755982988,0.5235987755982988,0,-0.62415427,-1.1702822,2.0944357,-0.035702664,-0.005530967,1.1714853,-1.3440497,0.061868392,1.3084228,0.020701768,-0.086343415,0.051517073,1.2670211,1.1046135
0.0,0.0,1.2999999999999998,-0.5235987755982988,0.5235987755982988,0,-0.62451786,-1.1657887,2.1006355,-0.02465155,-0.12237237,1.2061139,-0.20943582,0.006901025,1.2863182,0.028944302,-0.057917714,0.051297113,1.1822759,0.96555793
0.0,0.0,1.2999999999999998,-0.5235987755982988,0.5235987755982988,0,-0.62532586,-1.1676097,2.089441,-0.0036589126,-0.2944699,1.2282199,-0.9379827,0.16427517,1.3341893,0.20108452,-0.08625551,0.060765065,1.1482326,0.7820407
0.0,0.0,1.2999999999999998,-0.5235987755982988,0.5235987755982988,0,-0.6260712,-1.1658634,2.0907307,-0.04584202,-0.057963017,1.1579938,-1.4566469,-0.08470938,1.3451825,0.2720775,-0.011327997,-0.019057902,1.1505119,-0.6358038
0.0,0.0,1.2999999999999998,-0.5235987755982988,0.5235987755982988,0,-0.6261151,-1.1652054,2.0558689,-0.02003315,-0.1524847,1.1847163,-1.3231632,-0.102117814,1.3258474,0.108870804,-0.044747584,0.05066138,1.2095112,0.5300095
0.0,0.0,1.2999999999999998,-0.5235987755982988,0.5235987755982988,0,-0.62458426,-1.166487,2.1073272,-0.020048078,0.029264864,1.2438892,0.0477465,0.13649347,1.3249699,0.20895965,-0.055606715,0.07123313,1.2114621,2.8708277
0.0,0.0,1.2999999999999998,-0.5235987755982988,0.5235987755982988,0,-0.6249204,-1.1667346,2.0967548,-0.025452677,-0.10593734,1.1727439,-0.53329515,-0.16234174,1.318876,0.3712911,-0.087997064,0.07056529,1.2171404,0.9619901
0.0,0.0,1.2999999999999998,-0.5235987755982988,0.5235987755982988,0,-0.6244618,-1.16713,2.099204,-0.041195333,-0.0042874985,1.1477659,-1.0215672,0.082072265,1.2933481,0.29857293,-0.08762529,0.04756893,1.1641736,0.37610644
0.0,0.0,1.2999999999999998,-0.5235987755982988,0.5235987755982988,0,-0.6239977,-1.1661882,2.0514529,-0.041836385,-0.052400187,1.2478281,-0.5258199,-0.0984607,1.3572896,0.19416012,-0.065321214,0.24117447,1.2194625,0.51270145
0.0,0.0,1.2999999999999998,-0.5235987755982988,0.5235987755982988,0,-0.62437,-1.1655892,2.0952091,-0.008044645,-0.17611103,1.143053,-0.14587349,-0.080652915,1.302773,0.09584901,-0.13390902,0.062253233,1.1984468,0.3144299
0.0,0.0,1.2999999999999998,-0.5235987755982988,0.5235987755982988,0,-0.62393636,-1.167386,2.0728662,-0.041779663,0.039536826,1.1859201,-0.53411776,0.052133527,1.2482505,0.11406775,-0.071928084,-0.18993415,1.2461462,1.7977461
0.0,0.0,1.2999999999999998,-0.5235987755982988,0.5235987755982988,0,-0.6231611,-1.1674932,2.0728698,-0.023783157,0.04946265,1.2249637,-1.0917022,-0.16589732,1.2679521,0.33338076,-0.1014786,0.016065452,1.2817227,0.9222696
0.0,0.0,1.2999999999999998,-0.5235987755982988,0.5235987755982988,0,-0.62362766,-1.1664621,2.0597012,-0.026728244,-0.18569882,1.1962041,0.22615898,0.014376167,1.3299452,0.038255464,-0.04416799,0.01302748,1.3125144,0.6579015
0.0,0.0,1.2999999999999998,-0.5235987755982988,0.5235987755982988,0,-0.6238662,-1.1653427,2.0785267,0.008167221,-0.0551157,1.1826924,0.58662945,-0.120111525,1.3406476,0.22491555,-0.06320593,0.100800484,1.2267548,-0.7463192
0.0,0.0,1.2999999999999998,-0.5235987755982988,0.5235987755982988,0,-0.6236625,-1.1667237,2.0712702,-0.03849831,-0.11812835,1.1258394,0.7908578,-0.10767072,1.2989248,0.09427376,-0.11259097,0.2256893,1.2661325,-0.3460975
0.0,0.0,1.2999999999999998,-0.5235987755982988,0.5235987755982988,0,-0.6228529,-1.1653436,2.0665808,-0.017401254,0.10600693,1.1985238,-0.24370079,-0.027742052,1.309406,-0.010994949,-0.014596418,0.026865674,1.328941,-0.26182655
0.0,0.0,1.2999999999999998,-0.5235987755982988,0.5235987755982988,0,-0.62383556,-1.1678218,2.1023831,-0.057368685,-0.22883756,1.2095897,-0.39895782,-0.034757946,1.3261899,0.27810666,-0.11796926,0.070802495,1.183413,-0.014007526
0.0,0.0,1.2999999999999998,-0.5235987755982988,0.5235987755982988,0,-0.62445116,-1.166181,2.0872862,-0.0042371545,-0.12920259,1.2230616,-0.03740085,-0.116023615,1.2936414,0.08025324,-0.04883162,0.11521495,1.238202,0.31188077
0.0,0.0,1.2999999999999998,-0.5235987755982988,0.5235987755982988,0,-0.6236539,-1.1676682,2.0751028,-0.018725205,0.051150534,1.231951,0.06345883,0.012623524,1.2966983,0.054386996,-0.08912979,-0.017017817,1.2045652,0.5687491
0.0,0.0,1.2999999999999998,-0.5235987755982988,0.5235987755982988,0,-0.62400895,-1.1658897,2.0690038,-0.00639987,0.028706158,1.1589977,0.05908995,0.050347555,1.313661,0.08166267,-0.11934576,0.043280598,1.2165958,-0.6979743
0.0,0.0,1.2999999999999998,-0.5235987755982988,0.5235987755982988,0,-0.62531966,-1.1685175,2.0773318,0.028579986,-0.101417534,1.2674358,-1.0200444,0.2574783,1.271847,0.20485061,-0.08700829,0.122969136,1.1678168,-0.282811
0.0,0.0,1.2999999999999998,-0.5235987755982988,0.5235987755982988,0,-0.62260365,-1.1669047,2.084388,-0.022015458,-0.05565738,1.1876237,-0.62420964,0.022721196,1.2539487,0.21317649,-0.07531643,-0.101695195,1.185002,0.90550965
0.0,0.0,1.2999999999999998,-0.5235987755982988,0.5235987755982988,0,-0.62305737,-1.1672788,2.0705433,-0.06533152,-0.031050451,1.1705059,-0.9647336,-0.06922463,1.3040063,-0.049795844,-0.10661717,-0.019673588,1.2008219,0.3291202
0.0,0.0,1.2999999999999998,-0.5235987755982988,0.5235987755982988,0,-0.6245796,-1.1678746,2.0853667,-0.101494886,0.0074383854,1.2463986,-0.90028954,0.0051164217,1.3139808,-0.04616107,-0.09024893,0.07812491,1.2694132,-0.87500846
0.0,0.0,1.2999999999999998,-0.5235987755982988,0.5235987755982988,0,-0.6236309,-1.1658095,2.0960155,-0.059352912,-0.0077936808,1.2195737,-0.7210871,-0.108965024,1.3079591,0.23409246,-0.008905909,0.02779294,1.2227854,-0.96728617
0.0,0.0,1.2999999999999998,-0.5235987755982988,0.5235987755982988,0,-0.62552285,-1.1676607,2.060018,-0.061643988,-0.058333572,1.2368144,-1.4346629,0.10798208,1.3055727,0.157367,-0.05508884,-0.10210948,1.2094955,-0.58017576
0.0,0.0,1.2999999999999998,-0.5235987755982988,0.5235987755982988,0,-0.6251005,-1.1661,2.061213,-0.04112739,-0.04629169,1.1886594,0.008878724,-0.1804646,1.3528793,0.3357948,-0.09495281,0.13040873,1.2656349,0.13808267
0.0,0.0,1.2999999999999998,-0.5235987755982988,0.5235987755982988,0,-0.6246785,-1.1650908,2.0940745,-0.014438617,-0.28369457,1.2220807,-0.16071397,-0.004770179,1.2651772,0.13191567,-0.03607639,0.06703225,1.150843,0.6491953
0.0,0.0,1.2999999999999998,-0.5235987755982988,0.5235987755982988,0,-0.624612,-1.1695905,2.059347,-0.0603633,-0.17557581,1.2473145,-0.2100954,-0.018264411,1.3024046,0.16088033,-0.07158905,0.025534414,1.3033805,-0.33651066
0.0,0.0,1.2999999999999998,-0.5235987755982988,0.5235987755982988,0,-0.623362,-1.1661875,2.0686753,-0.06766248,-0.0843749,1.1860842,-1.0580146,0.018432919,1.2863017,0.22939095,-0.041997973,-0.0043249843,1.1577799,1.4972413
0.0,0.0,1.2999999999999998,-0.5235987755982988,0.5235987755982988,0,-0.622673,-1.1654799,2.0642982,-0.055048592,-0.044313032,1.1462106,-0.8278786,-0.0056742355,1.3330626,-0.12725815,-0.07519313,0.20363478,1.2552727,0.28936917
0.0,0.0,1.2999999999999998,-0.5235987755982988,0.5235987755982988,0,-0.6249071,-1.165269,2.0792303,-0.037493646,-0.042533863,1.2324435,0.24642996,0.035000883,1.273448,0.21316338,-0.08942076,-0.022328172,1.2017931,0.2798593
0.0,0.0,1.2999999999999998,-0.5235987755982988,0.5235987755982988,0,-0.62504995,-1.1680244,2.05862,0.013213234,-0.11913372,1.1592903,-0.89603305,0.033129103,1.3150675,0.086771466,-0.06498537,-0.034708615,1.1973274,0.5866066
0.0,0.0,1.2999999999999998,-0.5235987755982988,0.5235987755982988,0,-0.6245939,-1.1664896,2.0591927,-0.029386709,-0.07621475,1.2198741,-1.0537561,0.12951736,1.2790397,-0.021855982,-0.0771579,0.02661697,1.2160718,0.09102371
0.0,0.0,1.2999999999999998,-0.5235987755982988,0.5235987755982988,0,-0.6235627,-1.1639836,2.071731,-0.044047035,-0.15630761,1.1544757,-0.68603045,-0.12646636,1.3363004,0.2338386,-0.057378616,-0.028985541,1.2607865,1.417716
0.0,0.0,1.2999999999999998,-0.5235987755982988,0.5235987755982988,0,-0.6230247,-1.1680485,2.0776684,-0.061928835,-0.10478032,1.1989658,-1.0936474,-0.09944165,1.3420846,0.19031106,-0.047137357,0.075852446,1.1606154,1.7345695
0.0,0.0,1.2999999999999998,-0.5235987755982988,0.5235987755982988,0,-0.6244685,-1.1663686,2.0996776,-0.08728852,-0.054235205,1.2160995,-1.0115106,0.058560826,1.2979212,0.062452804,-0.042009868,-0.09424013,1.149066,-0.42018864
0.0,0.0,1.2999999999999998,-0.5235987755982988,0.5235987755982988,0,-0.62464917,-1.1672746,2.0519073,-0.035179336,-0.05288632,1.218137,-0.95683944,0.19520664,1.3031646,0.057734434,-0.11487426,0.051204573,1.2410295,-0.80269915
0.0,0.0,1.2999999999999998,-0.5235987755982988,0.5235987755982988,0,-0.6230533,-1.1645759,2.0924468,-0.056806684,-0.14975284,1.2176793,-0.3624636,-0.10597168,1.3493085,0.32204282,-0.017882481,-0.0023960264,1.2473053,0.5347506
0.0,0.0,1.2999999999999998,-0.5235987755982988,0.5235987755982988,0,-0.62502456,-1.1674985,2.0674703,-0.048069358,-0.15717015,1.1615444,-0.12068877,0.05484542,1.3217454,0.1817693,-0.06796216,-0.018639697,1.2971988,-0.7523668
0.0,0.0,1.2999999999999998,-0.5235987755982988,0.5235987755982988,0,-0.6232031,-1.1669651,2.063778,-0.035767395,-0.07288223,1.1898245,0.23411074,-0.063247204,1.2950226,0.299209,-0.0983393,-0.032094415,1.2932404,0.22487223
0.0,0.0,1.2999999999999998,-0.5235987755982988,0.5235987755982988,0,-0.6239537,-1.1657921,2.0933082,-0.0688972,-0.040226787,1.1633061,0.17563443,0.049763046,1.3123727,0.17224313,-0.045823768,0.18782318,1.1731446,-2.1077392
0.0,0.0,1.2999999999999998,-0.5235987755982988,0.5235987755982988,0,-0.62426823,-1.1664848,2.0966697,-0.048147663,0.021980044,1.2721518,0.08824181,-0.15173364,1.2668923,0.092977405,-0.026072504,-0.0025934987,1.2600249,0.4067362
0.0,0.0,1.2999999999999998,-0.5235987755982988,0.5235987755982988,0,-0.62405676,-1.1640667,2.091505,-0.06469199,-0.060553472,1.1520705,-0.5743431,0.0050308313,1.3102767,0.245578,-0.06659094,-0.12033902,1.168906,1.6917193
0.0,0.0,1.2999999999999998,-0.5235987755982988,0.5235987755982988,0,-0.6230982,-1.1659532,2.0334277,-0.05537226,-0.12249287,1.1809391,-1.0884144,-0.027323056,1.3497546,-0.08933904,-0.026863055,0.14110756,1.1528413,2.0663097
0.0,0.0,1.2999999999999998,-0.5235987755982988,0.5235987755982988,0,-0.6254158,-1.166606,2.0881896,-0.061759755,-0.08031959,1.2280396,0.0024365382,-0.03312482,1.2873946,0.27492705,-0.036192603,0.042695682,1.1211665,-0.45859852
0.0,0.0,1.2999999999999998,-0.5235987755982988,0.5235987755982988,0,-0.62599045,-1.164524,2.0863967,-0.06530416,-0.1976042,1.1652646,0.074617125,-0.017233822,1.3313146,0.27646193,-0.054281887,0.04459352,1.2638527,-0.33713853
0.0,0.0,1.2999999999999998,-0.5235987755982988,0.5235987755982988,0,-0.62471,-1.1674659,2.030877,-0.11538117,-0.031315263,1.1718007,-0.53419286,-0.040913466,1.2845068,0.14992638,-0.02012921,0.1583753,1.1683658,1.6268109
0.0,0.0,1.2999999999999998,-0.5235987755982988,0.5235987755982988,0,-0.6215568,-1.1654118,2.094855,-0.05098171,-0.050492145,1.2631421,-0.6562069,-0.0634075,1.3242506,0.24015175,-0.056691963,-0.014807527,1.1770751,0.5194565
0.0,0.0,1.2999999999999998,-0.5235987755982988,0.5235987755982988,0,-0.62422836,-1.1662961,2.0928533,-0.06540054,-0.15357645,1.2165585,-0.4444797,0.0070866435,1.3147607,0.20287304,-0.092726186,0.10289428,1.2235351,-0.6604252
0.0,0.0,1.2999999999999998,-0.5235987755982988,0.5235987755982988,0,-0.6239135,-1.1678499,2.0948806,-0.020402016,-0.29462314,1.1966829,0.1827867,-0.056397405,1.3125049,0.19152349,-0.018855209,-0.0049243984,1.2610964,-1.1285458
0.0,0.0,1.2999999999999998,-0.5235987755982988,0.5235987755982988,0,-0.623783,-1.1654748,2.0439546,-0.05241341,0.07662497,1.2099842,0.2148416,-0.04325472,1.3197125,0.35357678,-0.095748,-0.11336073,1.1847292,-0.3467749
0.0,0.0,1.2999999999999998,-0.5235987755982988,0.5235987755982988,0,-0.6247017,-1.1636934,2.0847056,-0.02463934,-0.03640262,1.1274261,-0.6998238,0.06265735,1.2695104,0.12992612,-0.03784794,0.12591074,1.1726855,-2.400993
0.0,0.0,1.2999999999999998,-0.5235987755982988,0.5235987755982988,0,-0.62468225,-1.1659907,2.1232004,-0.039431322,-0.022076258,1.1490905,-0.6929595,0.0010504825,1.3126135,0.17836837,-0.07826032,0.18102695,1.3124062,0.5227072
0.0,0.0,1.2999999999999998,-0.5235987755982988,0.5235987755982988,0,-0.62357235,-1.1656476,2.0665016,0.005218207,-0.05179937,1.2358208,-0.8021218,-0.093114264,1.336344,0.2017559,-0.06416315,-0.15764083,1.3096402,0.35308504
0.0,0.0,1.2999999999999998,-0.5235987755982988,0.5235987755982988,0,-0.62583524,-1.1676881,2.0607395,-0.0045417035,0.11308531,1.1923444,-0.47372976,-0.06767987,1.3073566,0.07713841,-0.031044384,-0.05176312,1.2721363,0.25450006
0.0,0.0,1.2999999999999998,-0.5235987755982988,0.5235987755982988,0,-0.6253359,-1.1672279,2.0932486,-0.017709145,-0.14096823,1.2190951,-0.93793094,0.01057539,1.344011,0.18307383,-0.08941314,-0.08912993,1.2143121,1.5927541
0.0,0.0,1.2999999999999998,-0.5235987755982988,0.5235987755982988,0,-0.6248216,-1.1664153,2.0684896,-0.044489704,-0.07543804,1.2107153,-0.62714475,-0.019808192,1.3318571,0.09563674,-0.061389472,0.29058692,1.1916652,-0.09992548
0.0,0.0,1.2999999999999998,-0.5235987755982988,0.5235987755982988,0,-0.62491035,-1.166133,2.0951107,-0.10431136,-0.09840054,1.1796523,-0.72819936,0.04711871,1.3010951,0.30646494,-0.008286415,-0.017849157,1.2063535,-0.1395769
0.0,0.0,1.2999999999999998,-0.5235987755982988,0.5235987755982988,0,-0.62510985,-1.1646032,2.1010244,-0.0149741005,0.03304232,1.1922247,-1.0449277,-0.033121355,1.3108059,0.06559121,-0.036828518,-0.052788675,1.2280864,2.3426738
0.0,0.0,1.2999999999999998,-0.5235987755982988,0.5235987755982988,0,-0.6242535,-1.1662759,2.083027,-0.027469,-0.04738692,1.1511505,-0.20661342,-0.08155248,1.3230989,0.075191095,-0.02442102,-0.035040617,1.196035,-0.6257394
0.0,0.0,1.2999999999999998,-0.5235987755982988,0.5235987755982988,0,-0.62417537,-1.1677629,2.0742617,-0.033116054,-0.12939438,1.178746,-0.6677924,0.16200906,1.2639486,0.21868637,-0.061654918,0.16951402,1.2631836,0.7921014
0.0,0.0,1.2999999999999998,-0.5235987755982988,0.5235987755982988,0,-0.6242546,-1.1674652,2.0457072,-0.07703574,0.015853047,1.1927636,0.93798006,-0.054983366,1.3339229,0.23478499,-0.028140577,-0.07790062,1.2532927,0.7780383
0.0,0.0,1.2999999999999998,-0.5235987755982988,0.5235987755982988,0,-0.6253027,-1.1661632,2.075696,-0.050663725,-0.0026786258,1.1243662,-0.11625265,-0.03831963,1.2937981,0.27058986,-0.10226618,0.034603663,1.2062483,-0.0111819105
0.0,0.0,1.2999999999999998,-0.5235987755982988,0.5235987755982988,0,-0.62365603,-1.1660169,2.0660937,-0.0473439,-0.11915821,1.2150507,-0.12807156,0.008570269,1.3417976,0.14903131,-0.08410187,0.01950361,1.264046,-0.3564383
0.0,0.0,1.2999999999999998,-0.5235987755982988,0.5235987755982988,0,-0.6236734,-1.1665889,2.1033218,-0.01056471,-0.03701853,1.1888801,-0.6147097,0.032027137,1.2973522,0.12013839,-0.041303195,0.045241494,1.2445763,1.2215506
0.0,0.0,1.2999999999999998,-0.5235987755982988,0.5235987755982988,0,-0.62341416,-1.1642392,2.0863833,-0.072140545,-0.0153627815,1.1992736,-0.4776882,0.092804804,1.3344892,0.23819007,-0.056258924,-0.1901089,1.24417,-0.20334734
0.0,0.0,1.2999999999999998,-0.5235987755982988,0.5235987755982988,0,-0.62381417,-1.1681837,2.0949423,-0.04351835,0.038953815,1.1663511,-0.8365097,0.01427095,1.3043258,0.15430932,-0.0540158,0.033497646,1.2472105,2.696744
0.0,0.0,1.2999999999999998,-0.5235987755982988,0.5235987755982988,0,-0.624178,-1.1645563,2.078111,-0.07199509,-0.2718424,1.1371645,-0.37459862,-0.01716115,1.3026252,0.012019997,-0.06575689,-0.15650861,1.2492102,-0.6471275
0.0,0.0,1.2999999999999998,-0.5235987755982988,0.5235987755982988,0,-0.62482953,-1.1662651,2.0656111,-0.0016673226,-0.014857615,1.1819234,-0.27699476,-0.029550958,1.3198414,0.24168968,-0.08944906,-0.059847288,1.2168229,1.2045525
0.0,0.0,1.2999999999999998,-0.5235987755982988,0.5235987755982988,0,-0.6233718,-1.1690338,2.1371598,0.0019480772,-0.14370303,1.1407912,-0.89592785,-0.00736084,1.2690265,0.036945418,-0.03121728,-0.012717336,1.2095119,0.18737939
