sanky1234/BimanualDexCatch/isaacgymenvs/cem_results/football_pose_0.1_-0.1_0.7999999999999999_0.5235987755982988_0.5235987755982988_0_2025-05-26.csv
x,y,z,roll,pitch,yaw,robot1/joint1,robot1/joint2,robot1/joint3,robot1/joint4,robot1/joint5,robot1/joint6,robot1/joint7,robot2/joint1,robot2/joint2,robot2/joint3,robot2/joint4,robot2/joint5,robot2/joint6,robot2/joint7
0.1,-0.1,0.7999999999999999,0.5235987755982988,0.5235987755982988,0,-1.4938856,1.8618848,-0.45644477,-0.44694933,-0.4675165,1.5293573,0.45249492,-1.3618898,0.53895044,0.69925594,0.0717547,-0.13654965,1.0037272,0.09951771
0.1,-0.1,0.7999999999999999,0.5235987755982988,0.5235987755982988,0,-1.4580151,1.8728517,-0.471054,-0.42084092,-0.44727027,1.5183188,0.5044782,-1.3548104,0.9390899,2.9065561,-0.046912804,-0.10265581,1.2804567,0.69859433
0.1,-0.1,0.7999999999999999,0.5235987755982988,0.5235987755982988,0,-1.2055707,1.8815863,-0.4375472,-0.43904757,-0.4760512,1.5119479,0.5634984,-1.3913758,1.0704212,-1.7826163,0.04541625,0.044936273,1.2502675,0.56431437
0.1,-0.1,0.7999999999999999,0.5235987755982988,0.5235987755982988,0,-1.3974351,1.8641363,-0.47423887,-0.44914982,-0.4895408,1.493911,0.41330793,-1.3750488,0.91604394,-0.7706631,-0.005280875,-0.50170547,1.0267713,-0.90603167
0.1,-0.1,0.7999999999999999,0.5235987755982988,0.5235987755982988,0,-1.3996764,1.8798786,-0.4745925,-0.51182604,-0.46828187,1.5117844,0.5980422,-1.393718,0.8984708,0.36383283,0.14719035,-0.20951812,1.2314111,0.91206115
0.1,-0.1,0.7999999999999999,0.5235987755982988,0.5235987755982988,0,-1.3716424,1.8706955,-0.45806018,-0.41720963,-0.4614797,1.5415041,0.63739234,-1.4356079,0.8677952,-1.711139,0.015055505,-0.23802646,1.1404251,2.2385476
0.1,-0.1,0.7999999999999999,0.5235987755982988,0.5235987755982988,0,-1.1938839,1.8629167,-0.43451712,-0.47981486,-0.48206857,1.5064608,0.5300895,-1.4085329,0.7953909,-1.5044478,0.15903659,0.10948635,1.2135636,0.38050833
0.1,-0.1,0.7999999999999999,0.5235987755982988,0.5235987755982988,0,-1.2467507,1.8593668,-0.46341178,-0.5355535,-0.44443306,1.5221407,0.5490738,-1.4171904,1.224766,-2.686449,0.09734986,-0.425134,1.0086789,-0.45782936
0.1,-0.1,0.7999999999999999,0.5235987755982988,0.5235987755982988,0,-1.1733425,1.846463,-0.43692982,-0.1813059,-0.4513662,1.5119511,0.6036397,-1.3835157,1.0273308,0.62312806,-0.09363034,-0.16772011,1.028741,0.61161184
0.1,-0.1,0.7999999999999999,0.5235987755982988,0.5235987755982988,0,-1.2913382,1.8588709,-0.44824994,-0.35467917,-0.43688154,1.5083468,0.5419794,-1.3991423,0.8948887,-0.89269614,0.016744757,-0.09394237,1.0487866,-0.11874932
0.1,-0.1,0.7999999999999999,0.5235987755982988,0.5235987755982988,0,-1.0802246,1.8580532,-0.42632204,-0.32468972,-0.39116463,1.5280654,0.58321214,-1.4069213,0.8132596,1.1287847,0.101821795,-0.0156155685,1.121497,0.52833915
0.1,-0.1,0.7999999999999999,0.5235987755982988,0.5235987755982988,0,-1.1822013,1.8564179,-0.4762958,-0.48377806,-0.4160298,1.5258034,0.51706845,-1.3810679,0.8988334,-0.5077415,0.11157503,-0.07757076,1.0847403,-0.6514113
0.1,-0.1,0.7999999999999999,0.5235987755982988,0.5235987755982988,0,-1.1532589,1.8879402,-0.44269696,-0.4718718,-0.45122492,1.5067755,0.531015,-1.392426,0.7877457,1.035423,-0.13128191,-0.06337591,1.0853399,-1.6808555
0.1,-0.1,0.7999999999999999,0.5235987755982988,0.5235987755982988,0,-1.289005,1.8568124,-0.48190165,-0.48619998,-0.42750308,1.5241934,0.5069434,-1.3886976,0.9731463,1.107232,-0.025902944,-0.41710356,1.0107324,-0.531876
0.1,-0.1,0.7999999999999999,0.5235987755982988,0.5235987755982988,0,-1.2320876,1.8636338,-0.45130873,-0.3112821,-0.42844585,1.4903982,0.5796889,-1.392373,0.62041193,2.529652,-0.02874537,0.23881318,1.1620796,0.32287383
0.1,-0.1,0.7999999999999999,0.5235987755982988,0.5235987755982988,0,-1.2217526,1.8392458,-0.46223718,-0.32395422,-0.46118778,1.5107938,0.43371543,-1.392794,0.86307675,-0.08319947,-0.08528328,-0.2275293,1.0461873,-0.5013654
0.1,-0.1,0.7999999999999999,0.5235987755982988,0.5235987755982988,0,-1.2571694,1.8604497,-0.45462373,-0.4036535,-0.40740883,1.5036672,0.53344935,-1.4117135,0.7422153,-2.073048,-0.021016328,-0.43945035,0.9839275,0.8762591
0.1,-0.1,0.7999999999999999,0.5235987755982988,0.5235987755982988,0,-1.3073506,1.8916242,-0.44615468,-0.35405123,-0.41403505,1.523083,0.46302965,-1.4030174,1.1258267,1.1056488,-0.1461644,-0.07213871,1.183774,0.0022336137
0.1,-0.1,0.7999999999999999,0.5235987755982988,0.5235987755982988,0,-1.4164199,1.8706379,-0.4522673,-0.2501951,-0.46037528,1.5088445,0.609672,-1.3888712,0.9828599,-1.2276878,-0.068907656,-0.17029338,1.0119605,1.126047
0.1,-0.1,0.7999999999999999,0.5235987755982988,0.5235987755982988,0,-1.1574345,1.8653901,-0.46689713,-0.43898314,-0.4441374,1.5348331,0.58611023,-1.4345081,0.7333069,0.3477222,2.541105e-05,0.092087016,1.2029068,1.9807553
0.1,-0.1,0.7999999999999999,0.5235987755982988,0.5235987755982988,0,-1.311712,1.8533111,-0.4687285,-0.2984603,-0.45358,1.4907339,0.5042264,-1.3710929,0.73906976,1.4463733,0.011649073,-0.045246977,1.0501083,1.7170851
0.1,-0.1,0.7999999999999999,0.5235987755982988,0.5235987755982988,0,-1.2845224,1.8504741,-0.46206948,-0.45006654,-0.43558678,1.5388417,0.59658074,-1.3837913,1.0142328,0.32026187,-0.16484632,-0.3523901,1.0456345,-0.04264505
0.1,-0.1,0.7999999999999999,0.5235987755982988,0.5235987755982988,0,-1.3137828,1.8784481,-0.4368976,-0.3565289,-0.41611847,1.5347,0.5457751,-1.4010329,1.0997499,1.4857961,0.025647344,-0.37516862,1.0665972,2.0906126
0.1,-0.1,0.7999999999999999,0.5235987755982988,0.5235987755982988,0,-1.2351446,1.8876343,-0.47561786,-0.36305246,-0.47275615,1.4993014,0.44211125,-1.3981681,0.70668423,1.9268984,0.1809396,-0.3555383,1.1170928,-0.2747243
0.1,-0.1,0.7999999999999999,0.5235987755982988,0.5235987755982988,0,-1.3215001,1.869424,-0.47218823,-0.41213143,-0.4239451,1.503118,0.52818424,-1.3911927,1.0939196,0.9435649,-0.065177836,-0.64397067,0.8487244,-0.47748762
0.1,-0.1,0.7999999999999999,0.5235987755982988,0.5235987755982988,0,-1.2533474,1.8619442,-0.44964844,-0.32691675,-0.5066875,1.5273005,0.47656298,-1.4029922,0.72456664,-0.7417954,0.015196229,0.005499982,1.1200206,2.6921525
0.1,-0.1,0.7999999999999999,0.5235987755982988,0.5235987755982988,0,-1.27488,1.889423,-0.45516798,-0.38598043,-0.44518426,1.4916459,0.5072528,-1.4298251,0.89134306,-0.18786134,0.052410576,-0.14622168,1.299058,0.6951497
0.1,-0.1,0.7999999999999999,0.5235987755982988,0.5235987755982988,0,-1.2037398,1.8749164,-0.46774167,-0.42193812,-0.5193013,1.5352684,0.66857696,-1.3867505,0.9577334,1.2432888,0.010368675,-0.19148657,1.183381,0.9218331
0.1,-0.1,0.7999999999999999,0.5235987755982988,0.5235987755982988,0,-1.2791388,1.8723377,-0.45624566,-0.41365704,-0.49243444,1.4957701,0.49714282,-1.4054413,0.728645,1.1361498,-0.002604143,0.117992364,1.1728064,0.22527044
0.1,-0.1,0.7999999999999999,0.5235987755982988,0.5235987755982988,0,-1.2833763,1.8588603,-0.4535338,-0.49173892,-0.43023828,1.5507323,0.5308173,-1.3998313,0.8848332,2.1817214,-0.046372112,-0.05785469,1.0266595,-1.2429237
0.1,-0.1,0.7999999999999999,0.5235987755982988,0.5235987755982988,0,-1.2354733,1.8208145,-0.46052387,-0.26634628,-0.4458307,1.5248438,0.5105081,-1.3969382,0.8914081,0.486087,-0.056062654,-0.57503897,1.1185161,0.75969297
0.1,-0.1,0.7999999999999999,0.5235987755982988,0.5235987755982988,0,-1.3338665,1.8732122,-0.47195345,-0.31838346,-0.4052371,1.503185,0.6049877,-1.3657851,1.0784774,0.873999,0.08093427,0.16181567,1.0382706,0.5865074
0.1,-0.1,0.7999999999999999,0.5235987755982988,0.5235987755982988,0,-1.3392937,1.8426387,-0.45079967,-0.42057037,-0.48222435,1.4865673,0.5766044,-1.3904333,0.83739907,0.75708747,0.04317955,-0.014008457,1.1612545,0.32012677
0.1,-0.1,0.7999999999999999,0.5235987755982988,0.5235987755982988,0,-1.241542,1.8831271,-0.46385226,-0.3548928,-0.47452423,1.5008708,0.5079385,-1.3876517,0.8501095,-1.4683121,-0.060401518,-0.023027085,1.1028602,-0.60073644
0.1,-0.1,0.7999999999999999,0.5235987755982988,0.5235987755982988,0,-1.3294677,1.876837,-0.4596886,-0.43745294,-0.41337362,1.4833328,0.5073042,-1.4002864,0.80968016,1.6875126,0.10336957,-0.094631605,1.181985,0.47237748
0.1,-0.1,0.7999999999999999,0.5235987755982988,0.5235987755982988,0,-1.3382947,1.885267,-0.43028364,-0.38885346,-0.46190178,1.524834,0.596306,-1.4049402,0.81172645,-1.2153665,0.0139114335,-0.027290573,1.0374973,0.6386487
0.1,-0.1,0.7999999999999999,0.5235987755982988,0.5235987755982988,0,-1.4442989,1.8663507,-0.45072165,-0.4539282,-0.47929555,1.5111312,0.49404618,-1.3895037,0.8732643,-1.5316768,-0.06436957,-0.11084107,1.079182,1.181858
0.1,-0.1,0.7999999999999999,0.5235987755982988,0.5235987755982988,0,-1.41132,1.8600956,-0.4431849,-0.51847094,-0.45360085,1.5598403,0.5110696,-1.4408628,1.0625855,1.2350819,0.0857399,0.06937167,0.8740632,1.4729322
0.1,-0.1,0.7999999999999999,0.5235987755982988,0.5235987755982988,0,-1.2873127,1.8812104,-0.44871935,-0.58162993,-0.4217399,1.5457712,0.52389526,-1.3746792,1.1438825,-0.0005528204,0.067361526,0.01866417,1.1814717,0.7130511
0.1,-0.1,0.7999999999999999,0.5235987755982988,0.5235987755982988,0,-1.1939042,1.8760239,-0.45857805,-0.388636,-0.4579083,1.51878,0.6389808,-1.3702904,0.9768857,0.5355899,0.09918368,-0.17873368,1.111119,0.055060297
0.1,-0.1,0.7999999999999999,0.5235987755982988,0.5235987755982988,0,-1.2805609,1.8543183,-0.44908884,-0.4567584,-0.43221295,1.5082923,0.4976435,-1.3869902,1.0920761,0.9401792,-0.069084376,0.060082607,1.1553442,-0.98264414
0.1,-0.1,0.7999999999999999,0.5235987755982988,0.5235987755982988,0,-1.40287,1.8607435,-0.42981958,-0.37646943,-0.45618778,1.4905322,0.5445041,-1.4307498,0.9267594,1.1904426,0.02818136,-0.13460949,0.99377465,0.9074966
0.1,-0.1,0.7999999999999999,0.5235987755982988,0.5235987755982988,0,-1.2403044,1.8968796,-0.4561891,-0.23575984,-0.47185603,1.5322711,0.60907096,-1.379855,0.8544621,2.5641024,0.021679059,0.07490251,1.197396,0.90853816
0.1,-0.1,0.7999999999999999,0.5235987755982988,0.5235987755982988,0,-1.2499871,1.852894,-0.4456464,-0.22275493,-0.45137388,1.5578132,0.43908843,-1.383681,0.8415147,0.95390624,0.015514898,-0.14498273,1.215202,0.5788796
0.1,-0.1,0.7999999999999999,0.5235987755982988,0.5235987755982988,0,-1.3634642,1.8873769,-0.45448533,-0.3521635,-0.42371947,1.507146,0.5368601,-1.4139913,0.980574,-0.80052197,-0.068929285,-0.13187693,1.0479226,1.3258243
0.1,-0.1,0.7999999999999999,0.5235987755982988,0.5235987755982988,0,-1.3435799,1.8478564,-0.43858922,-0.2983857,-0.42326045,1.5037324,0.5941983,-1.4161768,0.8362858,0.9764959,0.06183433,-0.16460174,1.0716102,0.038067758
0.1,-0.1,0.7999999999999999,0.5235987755982988,0.5235987755982988,0,-1.3880657,1.886094,-0.4507896,-0.33148843,-0.48635757,1.5106077,0.5304934,-1.3841428,1.0478336,1.1709315,0.116212845,0.25967032,1.1561452,-0.4489182
0.1,-0.1,0.7999999999999999,0.5235987755982988,0.5235987755982988,0,-1.3062205,1.865997,-0.46549845,-0.47087651,-0.4924088,1.5165875,0.62965286,-1.3866177,0.8750575,1.2892163,-0.0027270624,-0.32375768,1.0223656,-0.19286044
0.1,-0.1,0.7999999999999999,0.5235987755982988,0.5235987755982988,0,-1.2959876,1.8499105,-0.4444315,-0.479647,-0.4712742,1.5018488,0.6022087,-1.3654835,0.84474736,-0.84147316,-0.007794267,-0.09277731,1.0357876,0.4531933
0.1,-0.1,0.7999999999999999,0.5235987755982988,0.5235987755982988,0,-1.3520728,1.8885918,-0.47464466,-0.51261896,-0.4481149,1.5211952,0.5527102,-1.387083,1.0805724,-0.4001575,0.15404795,-0.25505355,1.0934547,-0.23018958
0.1,-0.1,0.7999999999999999,0.5235987755982988,0.5235987755982988,0,-1.4578196,1.8698992,-0.45924714,-0.3542588,-0.4818589,1.4586034,0.5529766,-1.395972,0.86091745,-0.04337155,0.03350486,-0.22341281,0.9819609,-0.032797005
0.1,-0.1,0.7999999999999999,0.5235987755982988,0.5235987755982988,0,-1.2056313,1.8745052,-0.4641239,-0.56547433,-0.42801633,1.5006493,0.561624,-1.3972719,0.94065523,0.41022366,-0.08481975,-0.1927692,1.1860229,0.8928451
0.1,-0.1,0.7999999999999999,0.5235987755982988,0.5235987755982988,0,-1.1896509,1.8651042,-0.45057017,-0.2337986,-0.4724494,1.5531484,0.4645528,-1.3833964,1.0098389,-1.2564473,-0.022256553,-0.0038888108,1.1896403,-0.12576173
0.1,-0.1,0.7999999999999999,0.5235987755982988,0.5235987755982988,0,-1.326139,1.8764633,-0.4576797,-0.43112436,-0.47990108,1.5191448,0.4998843,-1.3853818,0.88675493,0.043690875,-0.021799726,0.062614135,1.0760361,-0.44416118
0.1,-0.1,0.7999999999999999,0.5235987755982988,0.5235987755982988,0,-1.2685462,1.8609754,-0.43550467,-0.4170181,-0.43282962,1.5092194,0.5237392,-1.3899121,0.9776596,-0.76150835,-0.07236,0.07205464,1.0010364,-1.4069904
0.1,-0.1,0.7999999999999999,0.5235987755982988,0.5235987755982988,0,-1.2140405,1.879836,-0.44531584,-0.1684195,-0.4090445,1.5057551,0.4910135,-1.4144137,0.732851,1.9744437,-0.020226449,-0.15994915,1.2362654,-1.0526242
0.1,-0.1,0.7999999999999999,0.5235987755982988,0.5235987755982988,0,-1.255009,1.8986417,-0.46569338,-0.39265463,-0.45476645,1.5269346,0.49236512,-1.3648156,0.91416955,-0.67408836,0.054846108,-0.45752367,1.0029128,-0.041860458
0.1,-0.1,0.7999999999999999,0.5235987755982988,0.5235987755982988,0,-1.2468778,1.8634126,-0.44902557,-0.2908092,-0.44890538,1.4931805,0.6102572,-1.384147,1.0411726,0.40233785,0.01525516,-0.47389436,1.164826,0.15837914
0.1,-0.1,0.7999999999999999,0.5235987755982988,0.5235987755982988,0,-1.3184279,1.849856,-0.47076774,-0.39266822,-0.45908806,1.5130248,0.53259116,-1.3487219,0.6695092,0.76036215,0.018649517,0.030650625,1.0734632,0.9173524
0.1,-0.1,0.7999999999999999,0.5235987755982988,0.5235987755982988,0,-1.2995328,1.8751428,-0.44171473,-0.42207375,-0.45740062,1.5488336,0.40092108,-1.4173657,1.3157662,1.2154802,0.052445564,-0.030982405,1.1270651,0.9017308
0.1,-0.1,0.7999999999999999,0.5235987755982988,0.5235987755982988,0,-1.3479133,1.8552849,-0.4303867,-0.44445914,-0.44672823,1.5118726,0.5790954,-1.3887893,0.5947177,-0.1485985,-0.08253057,-0.31294575,1.0736595,0.2574667
0.1,-0.1,0.7999999999999999,0.5235987755982988,0.5235987755982988,0,-1.2740052,1.8861454,-0.45210853,-0.35068116,-0.4500362,1.5558219,0.66275054,-1.4143684,0.92018735,1.0052913,-0.13089158,0.042096376,1.0006741,0.21007608
0.1,-0.1,0.7999999999999999,0.5235987755982988,0.5235987755982988,0,-1.338771,1.8388648,-0.4809111,-0.36785,-0.44937962,1.5358526,0.5652116,-1.3749951,0.8508758,1.0645604,0.029219292,-0.21760295,1.231131,0.09615319
0.1,-0.1,0.7999999999999999,0.5235987755982988,0.5235987755982988,0,-1.2689011,1.8869735,-0.46556658,-0.37819007,-0.4592015,1.5027348,0.54539376,-1.4076102,0.7143642,-0.4780438,0.009190683,-0.4194485,1.1564254,-0.30640256
0.1,-0.1,0.7999999999999999,0.5235987755982988,0.5235987755982988,0,-1.341054,1.8599632,-0.46356976,-0.425222,-0.4746507,1.4926898,0.51446897,-1.384083,1.1187146,-0.98828155,-0.019655688,-0.25050923,1.0465872,0.416943
0.1,-0.1,0.7999999999999999,0.5235987755982988,0.5235987755982988,0,-1.3462421,1.8832009,-0.46772915,-0.42685434,-0.45657155,1.5422002,0.54090446,-1.395598,0.53242296,0.84126514,0.046883535,-0.18595669,1.268461,-0.2001533
0.1,-0.1,0.7999999999999999,0.5235987755982988,0.5235987755982988,0,-1.2964479,1.8540477,-0.46131697,-0.29068285,-0.47585818,1.5178336,0.50204134,-1.4036493,1.1568848,0.9984146,0.012212226,-0.37739235,0.9952013,-0.021822859
0.1,-0.1,0.7999999999999999,0.5235987755982988,0.5235987755982988,0,-1.3817803,1.8484682,-0.46003845,-0.3175514,-0.4597678,1.5284139,0.4335585,-1.4053986,0.9229185,1.8323326,0.051758993,-0.25497317,1.052919,-0.031605877
0.1,-0.1,0.7999999999999999,0.5235987755982988,0.5235987755982988,0,-1.2612745,1.8658462,-0.44245163,-0.28547278,-0.4263508,1.4927875,0.58490735,-1.3970371,0.74506724,-0.12125166,0.015634902,-0.15883403,1.0157317,0.28098518
0.1,-0.1,0.7999999999999999,0.5235987755982988,0.5235987755982988,0,-1.2878836,1.8514053,-0.47010466,-0.28074166,-0.43807957,1.5127313,0.5576916,-1.3916348,0.5151661,0.33332965,0.049717292,-0.5379398,1.0973543,0.81678504
0.1,-0.1,0.7999999999999999,0.5235987755982988,0.5235987755982988,0,-1.3308407,1.8733739,-0.46242508,-0.2981731,-0.4343614,1.5172006,0.44428104,-1.3969257,1.1371179,-0.9740565,0.100306034,-0.17686771,1.2299751,1.0069238
0.1,-0.1,0.7999999999999999,0.5235987755982988,0.5235987755982988,0,-1.367038,1.8437725,-0.47184408,-0.37094012,-0.44009185,1.5071338,0.603523,-1.3917347,0.5992044,-0.7231455,-0.014416831,-0.60488456,0.9721064,0.004415596
0.1,-0.1,0.7999999999999999,0.5235987755982988,0.5235987755982988,0,-1.3850852,1.8947604,-0.46800953,-0.49888054,-0.48813874,1.5133046,0.53813845,-1.4151937,1.1449322,-1.6323918,0.013034799,-0.48250753,1.1145455,0.09433332
0.1,-0.1,0.7999999999999999,0.5235987755982988,0.5235987755982988,0,-1.3911164,1.8770175,-0.45520422,-0.39320582,-0.45584333,1.54583,0.44644955,-1.4388798,0.9434796,1.0586568,0.017824028,-0.4579515,1.0561779,-0.44720367
0.1,-0.1,0.7999999999999999,0.5235987755982988,0.5235987755982988,0,-1.332993,1.8663274,-0.45460624,-0.40392745,-0.44895917,1.4989736,0.52096236,-1.3836472,0.7191205,0.11267985,-0.014914179,0.16181837,1.2156271,1.0445167
0.1,-0.1,0.7999999999999999,0.5235987755982988,0.5235987755982988,0,-1.4286984,1.8751497,-0.47003058,-0.4205775,-0.48362538,1.5385514,0.4367643,-1.3883543,1.2888771,1.2152592,-0.023766808,-0.04377064,1.2192683,-0.61789113
0.1,-0.1,0.7999999999999999,0.5235987755982988,0.5235987755982988,0,-1.2982391,1.8703961,-0.46418387,-0.31985456,-0.4267276,1.5086286,0.67249036,-1.3733318,1.0330781,-0.115098014,-0.023310293,-0.2174728,0.96077275,0.12657312
0.1,-0.1,0.7999999999999999,0.5235987755982988,0.5235987755982988,0,-1.3656422,1.8635702,-0.47032526,-0.3466732,-0.43458802,1.5049065,0.47536173,-1.3931831,0.6866114,0.23755907,-0.010929442,-0.18757291,1.134176,0.7410204
0.1,-0.1,0.7999999999999999,0.5235987755982988,0.5235987755982988,0,-1.3554813,1.8855228,-0.4596224,-0.38670054,-0.4697818,1.5134864,0.46925953,-1.3803711,0.92081964,0.4855394,0.047849063,-0.24431163,1.2415426,-0.00597188
0.1,-0.1,0.7999999999999999,0.5235987755982988,0.5235987755982988,0,-1.2786559,1.8681772,-0.44505534,-0.3195262,-0.44840428,1.5203336,0.51331925,-1.427115,0.9597998,1.3571206,-0.087050356,-0.12268567,1.2308106,-0.75952935
0.1,-0.1,0.7999999999999999,0.5235987755982988,0.5235987755982988,0,-1.2521025,1.8329659,-0.46466404,-0.4051543,-0.42714566,1.5197368,0.63764936,-1.4023912,0.9864463,0.49656084,0.018898612,-0.2990045,1.2047222,1.8587841
0.1,-0.1,0.7999999999999999,0.5235987755982988,0.5235987755982988,0,-1.5309569,1.8562976,-0.45337614,-0.3684396,-0.47463357,1.4865948,0.6213416,-1.3881727,0.9051987,0.5994367,-0.122441664,-0.24559684,1.048999,-1.0323378
0.1,-0.1,0.7999999999999999,0.5235987755982988,0.5235987755982988,0,-1.4534955,1.8843617,-0.46681988,-0.3082473,-0.45299456,1.5407737,0.58685875,-1.4248892,0.95029414,0.47362673,0.015173485,-0.11112257,1.012047,-0.5762876
0.1,-0.1,0.7999999999999999,0.5235987755982988,0.5235987755982988,0,-1.442678,1.8830215,-0.45924616,-0.3405398,-0.4797197,1.5395381,0.5967735,-1.4160806,0.9176592,1.8227874,0.048124395,0.098946504,1.1922904,0.67266923
0.1,-0.1,0.7999999999999999,0.5235987755982988,0.5235987755982988,0,-1.3646957,1.8532954,-0.46062097,-0.34742132,-0.44182622,1.5452034,0.6547767,-1.3702899,0.81965566,0.37584716,-0.040353313,-0.41475776,1.120419,-0.8409137
0.1,-0.1,0.7999999999999999,0.5235987755982988,0.5235987755982988,0,-1.3455813,1.8463037,-0.45175683,-0.38348424,-0.4638166,1.5048054,0.46106714,-1.4275646,0.88745594,-0.3295261,0.021639822,-0.41067973,0.9864256,1.1184895
0.1,-0.1,0.7999999999999999,0.5235987755982988,0.5235987755982988,0,-1.4438089,1.8835117,-0.4507547,-0.44376558,-0.45874426,1.5059112,0.5922656,-1.3860558,0.7513812,-0.30045685,-0.04780982,-0.18385758,1.169237,0.06385195
0.1,-0.1,0.7999999999999999,0.5235987755982988,0.5235987755982988,0,-1.330181,1.8833517,-0.44737267,-0.35500175,-0.4332409,1.5345961,0.54319906,-1.3895793,1.1272612,0.7954595,-0.013325784,-0.11412229,0.9231842,0.29749978
0.1,-0.1,0.7999999999999999,0.5235987755982988,0.5235987755982988,0,-1.4477139,1.8892686,-0.45147592,-0.37822393,-0.43746358,1.506252,0.43096867,-1.41821,0.907191,-0.77996004,-0.04685329,-0.14564362,1.0690757,1.4001018
0.1,-0.1,0.7999999999999999,0.5235987755982988,0.5235987755982988,0,-1.5333343,1.8644853,-0.45714167,-0.45203486,-0.4596043,1.4784493,0.47710714,-1.3694599,0.5048433,-0.43354312,-0.05660584,-0.35441872,1.0873555,-0.22304067
0.1,-0.1,0.7999999999999999,0.5235987755982988,0.5235987755982988,0,-1.2412771,1.8535033,-0.4671916,-0.3642612,-0.47482392,1.5211272,0.49386072,-1.3658804,0.9970367,0.19864433,0.021026172,-0.059654765,0.9779713,0.16479167
0.1,-0.1,0.7999999999999999,0.5235987755982988,0.5235987755982988,0,-1.1743634,1.896981,-0.45861176,-0.4032592,-0.50543594,1.5017413,0.4623744,-1.4000355,0.91109407,0.04689288,-0.014179061,-0.02854605,1.3992873,-0.16138363
0.1,-0.1,0.7999999999999999,0.5235987755982988,0.5235987755982988,0,-1.3307883,1.8627268,-0.4345934,-0.41587147,-0.44809362,1.5166723,0.7000782,-1.4630373,0.98578244,0.9678804,-0.1156128,-0.03610489,1.3064232,-0.7005879
0.1,-0.1,0.7999999999999999,0.5235987755982988,0.5235987755982988,0,-1.265647,1.8641597,-0.46518725,-0.49246338,-0.4684245,1.4886606,0.47852683,-1.4230658,0.9063374,-0.16828094,0.07815188,-0.056742936,1.0457323,0.012087649
0.1,-0.1,0.7999999999999999,0.5235987755982988,0.5235987755982988,0,-1.361216,1.8893883,-0.46402293,-0.3862199,-0.40021193,1.5145361,0.41418928,-1.3936319,0.74914336,1.260842,0.14815877,0.09797433,1.1392812,-2.1055267
0.1,-0.1,0.7999999999999999,0.5235987755982988,0.5235987755982988,0,-1.3846871,1.864798,-0.46609464,-0.4531612,-0.44596007,1.5033344,0.61720496,-1.4067914,1.0579388,0.640896,0.015273511,0.053621806,1.1217222,0.5823143
0.1,-0.1,0.7999999999999999,0.5235987755982988,0.5235987755982988,0,-1.208487,1.852121,-0.45187297,-0.38501364,-0.4490799,1.5086682,0.5953018,-1.3851963,1.0133879,-0.1828331,0.12025052,-0.3364399,1.1889467,-0.1409156
0.1,-0.1,0.7999999999999999,0.5235987755982988,0.5235987755982988,0,-1.2856613,1.8593291,-0.47889194,-0.44221577,-0.45041332,1.5276928,0.5522436,-1.4113599,0.9481589,0.37151584,0.002298714,-0.2952343,1.1879209,-0.27268842
0.1,-0.1,0.7999999999999999,0.5235987755982988,0.5235987755982988,0,-1.3060285,1.8656197,-0.4396078,-0.4792869,-0.4716264,1.5405326,0.35981134,-1.3887202,0.73673266,-0.39848098,-0.04426273,-0.30425978,1.0727341,0.012697736
0.1,-0.1,0.7999999999999999,0.5235987755982988,0.5235987755982988,0,-1.3404795,1.845439,-0.45715412,-0.5461148,-0.431276,1.4838308,0.43852678,-1.4188504,0.977482,-0.06612761,-0.0078085787,0.077488326,0.95346785,1.1542878
0.1,-0.1,0.7999999999999999,0.5235987755982988,0.5235987755982988,0,-1.1968415,1.872565,-0.45415798,-0.2940876,-0.41806793,1.512619,0.53145415,-1.4027702,1.0179775,0.022465196,0.10787985,-0.114391536,1.1833975,1.5627627
0.1,-0.1,0.7999999999999999,0.5235987755982988,0.5235987755982988,0,-1.2229052,1.887925,-0.45579207,-0.29065993,-0.45976982,1.5312222,0.46272865,-1.3433138,0.72093546,-1.1768265,0.03386162,-0.19845346,1.20587,-0.70859617
0.1,-0.1,0.7999999999999999,0.5235987755982988,0.5235987755982988,0,-1.3027384,1.8955175,-0.47175545,-0.3660202,-0.45871142,1.5452367,0.504195,-1.391069,0.9312194,0.541134,-0.02508818,-0.42897305,1.0942652,0.095536515
0.1,-0.1,0.7999999999999999,0.5235987755982988,0.5235987755982988,0,-1.360811,1.8541921,-0.4709937,-0.37713867,-0.4444322,1.5051968,0.5659325,-1.4443423,0.9218715,-0.26839063,-0.029962044,-0.55705196,1.0698094,-1.3389617
0.1,-0.1,0.7999999999999999,0.5235987755982988,0.5235987755982988,0,-1.1811119,1.8470231,-0.4451859,-0.43674153,-0.47251782,1.5524485,0.5167487,-1.4336058,1.1875824,-1.2626169,-0.093173504,-0.6332527,1.1638843,1.6999667
0.1,-0.1,0.7999999999999999,0.5235987755982988,0.5235987755982988,0,-1.4029034,1.8752959,-0.4489956,-0.38186508,-0.43240425,1.5201557,0.52869296,-1.3939196,0.91821516,-0.25492322,-0.101405285,-0.46664453,1.1780064,0.78297514
0.1,-0.1,0.7999999999999999,0.5235987755982988,0.5235987755982988,0,-1.3985112,1.869206,-0.44316676,-0.3996358,-0.45349276,1.5201212,0.5646423,-1.4184592,0.9279138,0.49382532,-0.09424008,-0.006218329,1.0950435,0.08922932
0.1,-0.1,0.7999999999999999,0.5235987755982988,0.5235987755982988,0,-1.3082113,1.8691945,-0.4491839,-0.35283318,-0.4463798,1.5248514,0.59122354,-1.4249521,0.85796225,-1.6032457,-0.03863783,-0.1959562,1.0468296,-0.8392952
0.1,-0.1,0.7999999999999999,0.5235987755982988,0.5235987755982988,0,-1.39566,1.8802638,-0.44568843,-0.3414243,-0.4506373,1.5212809,0.5205742,-1.3863156,0.77039164,1.0532268,0.119690485,-0.17566232,1.1144205,1.2612526
0.1,-0.1,0.7999999999999999,0.5235987755982988,0.5235987755982988,0,-1.3751178,1.8904483,-0.43236908,-0.34538606,-0.46992105,1.5126334,0.56824684,-1.3482976,0.9108919,-0.0049424367,-0.07056495,0.014275033,1.051406,0.30516094
0.1,-0.1,0.7999999999999999,0.5235987755982988,0.5235987755982988,0,-1.3263435,1.8651896,-0.48171034,-0.3313913,-0.44980326,1.5399953,0.42072392,-1.385533,1.025817,-2.1951978,-0.013600752,-0.035319805,1.1522421,0.642124
0.1,-0.1,0.7999999999999999,0.5235987755982988,0.5235987755982988,0,-1.471809,1.8324494,-0.43771604,-0.40713093,-0.49170968,1.52808,0.55973667,-1.3916678,1.2770013,-0.31203038,-0.059463512,-0.23963304,1.093486,1.387096
0.1,-0.1,0.7999999999999999,0.5235987755982988,0.5235987755982988,0,-1.4059938,1.8796861,-0.47752988,-0.45493588,-0.46690857,1.5371213,0.51980394,-1.4100071,0.9923568,0.41674167,0.08253174,-0.34882078,1.1119484,1.0723575
0.1,-0.1,0.7999999999999999,0.5235987755982988,0.5235987755982988,0,-1.4907669,1.8866688,-0.4593791,-0.44554156,-0.4381115,1.5339023,0.5604301,-1.3815042,0.7144542,-0.6635128,0.040520485,-0.41451293,1.2500126,0.8617339
0.1,-0.1,0.7999999999999999,0.5235987755982988,0.5235987755982988,0,-1.226434,1.8633337,-0.4452701,-0.33782205,-0.45402992,1.5245166,0.5804144,-1.3897874,0.9629844,-1.3578616,-0.029334765,-0.32198018,1.0980484,0.70137554
0.1,-0.1,0.7999999999999999,0.5235987755982988,0.5235987755982988,0,-1.459584,1.8490582,-0.44498333,-0.39838335,-0.46720928,1.529824,0.5106366,-1.3942734,0.8171124,-1.5541805,0.018167214,-0.43792924,1.0291363,1.066765
0.1,-0.1,0.7999999999999999,0.5235987755982988,0.5235987755982988,0,-1.4761574,1.8510422,-0.43203953,-0.42809063,-0.46347275,1.51398,0.60029685,-1.4011418,0.8995195,2.6727517,0.13866076,-0.24845001,1.0172833,0.024265805
0.1,-0.1,0.7999999999999999,0.5235987755982988,0.5235987755982988,0,-1.4826686,1.8501378,-0.45341918,-0.4891638,-0.42753065,1.4965571,0.5167315,-1.4029351,0.9808584,0.7487813,0.02274157,-0.36877832,1.005607,-1.0933245
0.1,-0.1,0.7999999999999999,0.5235987755982988,0.5235987755982988,0,-1.3968942,1.8787112,-0.4476469,-0.3319547,-0.47454,1.505336,0.60949236,-1.4061965,0.79074156,-0.4801306,0.0909936,0.27252123,1.0734032,1.5246499
0.1,-0.1,0.7999999999999999,0.5235987755982988,0.5235987755982988,0,-1.3391447,1.8637174,-0.45187807,-0.5107267,-0.51192164,1.5131416,0.5620809,-1.411337,1.0187737,0.5367363,0.082288526,-0.456008,1.1942582,0.8082549
0.1,-0.1,0.7999999999999999,0.5235987755982988,0.5235987755982988,0,-1.4649042,1.8705944,-0.46527728,-0.42697018,-0.47190803,1.5172625,0.4309025,-1.3822811,0.8876831,-2.062742,0.11552505,-0.1162108,0.9979923,0.43751323
0.1,-0.1,0.7999999999999999,0.5235987755982988,0.5235987755982988,0,-1.3816526,1.8720313,-0.46998838,-0.39196178,-0.42019778,1.4718059,0.48133504,-1.3896917,0.91674566,1.90489,-0.032105237,-0.28248408,1.0377928,0.34739247
0.1,-0.1,0.7999999999999999,0.5235987755982988,0.5235987755982988,0,-1.2396736,1.8515908,-0.4397231,-0.429747,-0.37227184,1.5244172,0.46159062,-1.3837612,0.83849996,0.23546034,0.1666134,0.004454331,1.0993499,-0.1200647
0.1,-0.1,0.7999999999999999,0.5235987755982988,0.5235987755982988,0,-1.4797261,1.8996536,-0.48628482,-0.4425033,-0.464329,1.4977347,0.5529138,-1.4185427,0.8977032,-0.6971624,-0.046801455,-0.20302425,1.2523135,2.0484953
0.1,-0.1,0.7999999999999999,0.5235987755982988,0.5235987755982988,0,-1.3341514,1.8744345,-0.45818117,-0.41232803,-0.45433933,1.4773196,0.536409,-1.3803035,0.9217014,-0.50937194,0.032757744,0.5030098,1.2016392,0.6384894
0.1,-0.1,0.7999999999999999,0.5235987755982988,0.5235987755982988,0,-1.392441,1.8461858,-0.4466662,-0.37555203,-0.4524992,1.5332593,0.47487628,-1.3580047,1.0809674,1.1874679,-0.013035526,0.1451593,1.1002132,0.17970257
0.1,-0.1,0.7999999999999999,0.5235987755982988,0.5235987755982988,0,-1.3085396,1.8601147,-0.4375054,-0.4574915,-0.43427026,1.5009128,0.4778642,-1.4072624,0.8831781,1.425571,0.012409804,-0.6409245,1.0378146,0.55304664
0.1,-0.1,0.7999999999999999,0.5235987755982988,0.5235987755982988,0,-1.3658355,1.8856574,-0.45044458,-0.4075887,-0.4607824,1.532906,0.5710059,-1.4332627,1.0218116,-0.4645152,-0.037990693,-0.24411216,1.1461623,1.1378609
0.1,-0.1,0.7999999999999999,0.5235987755982988,0.5235987755982988,0,-1.244539,1.8625314,-0.48168394,-0.42965326,-0.46700975,1.5257115,0.42962658,-1.3966213,0.6201731,1.1095935,-0.05499522,-0.06865222,1.1141454,-0.20638724
0.1,-0.1,0.7999999999999999,0.5235987755982988,0.5235987755982988,0,-1.3974046,1.8745537,-0.45256755,-0.39054683,-0.47131503,1.5117376,0.528965,-1.4193186,1.0473671,-0.5853396,0.12076223,-0.5888566,1.1551944,-0.018879918
0.1,-0.1,0.7999999999999999,0.5235987755982988,0.5235987755982988,0,-1.3918684,1.8474854,-0.4665077,-0.35605103,-0.4873469,1.5253632,0.55573946,-1.376413,0.6953775,-1.4571592,-0.07061879,-0.2634147,0.9401067,-0.44588554
0.1,-0.1,0.7999999999999999,0.5235987755982988,0.5235987755982988,0,-1.0573938,1.8699478,-0.47082216,-0.32242763,-0.41607106,1.5493326,0.5219596,-1.3879241,1.0480335,0.5244229,-0.108889624,0.007960574,1.1643524,0.23902759
0.1,-0.1,0.7999999999999999,0.5235987755982988,0.5235987755982988,0,-1.3337381,1.859305,-0.4691411,-0.3806854,-0.4360105,1.5103256,0.499753,-1.4266156,0.921588,0.20686458,0.071598604,-0.60313517,1.0514492,-0.21954145
0.1,-0.1,0.7999999999999999,0.5235987755982988,0.5235987755982988,0,-1.3610708,1.8548764,-0.43541047,-0.39946625,-0.48689413,1.5262561,0.62780756,-1.39494,1.2555308,0.20555164,-0.050063297,-0.28908,1.1450396,0.22160615
0.1,-0.1,0.7999999999999999,0.5235987755982988,0.5235987755982988,0,-1.5320649,1.8755033,-0.474964,-0.5629591,-0.4639969,1.5236672,0.49512038,-1.4026356,1.1062278,0.52777475,0.05750137,-0.11603879,1.1644478,0.29564953
0.1,-0.1,0.7999999999999999,0.5235987755982988,0.5235987755982988,0,-1.3723195,1.866157,-0.4549464,-0.3926395,-0.40468326,1.5311801,0.55658364,-1.3784083,0.87988657,-1.4543325,-0.041460726,0.09116403,1.1476877,-0.49871898
0.1,-0.1,0.7999999999999999,0.5235987755982988,0.5235987755982988,0,-1.2561764,1.8676063,-0.45210695,-0.38076714,-0.43118396,1.5310142,0.57234097,-1.3781674,0.74560374,1.0286441,0.010655252,-0.01006896,1.2329314,-0.15917046
0.1,-0.1,0.7999999999999999,0.5235987755982988,0.5235987755982988,0,-1.1906967,1.8601775,-0.47171852,-0.3290036,-0.42928758,1.5293291,0.53300947,-1.4197301,0.9572486,-0.4983814,-0.004691986,-0.005761734,1.1522427,-0.58126825
0.1,-0.1,0.7999999999999999,0.5235987755982988,0.5235987755982988,0,-1.4071351,1.8833405,-0.47043177,-0.47118247,-0.44057506,1.4967196,0.60691434,-1.3727809,0.9603274,1.0524101,0.067053035,-0.019598706,1.1885282,1.3507632
0.1,-0.1,0.7999999999999999,0.5235987755982988,0.5235987755982988,0,-1.1749467,1.8543674,-0.4606682,-0.41543406,-0.43046826,1.487458,0.47033897,-1.3747871,0.62557346,-0.6568925,-0.021313338,-0.3053007,0.97616947,-0.49706107
0.1,-0.1,0.7999999999999999,0.5235987755982988,0.5235987755982988,0,-1.2591044,1.8597257,-0.48480183,-0.533058,-0.44108856,1.5208178,0.5903239,-1.3858185,0.8356106,-1.9371682,-0.07970093,-0.42600894,1.2545743,-0.3063695
0.1,-0.1,0.7999999999999999,0.5235987755982988,0.5235987755982988,0,-1.4072307,1.860989,-0.43593654,-0.52391577,-0.42907664,1.5081677,0.5721761,-1.3963083,1.0641576,-2.7650077,0.037416246,-0.36832082,1.1454082,0.43111974
0.1,-0.1,0.7999999999999999,0.5235987755982988,0.5235987755982988,0,-1.3683225,1.8938,-0.4422184,-0.40220544,-0.4715097,1.5035998,0.57511777,-1.3887169,0.92121196,0.26168653,0.100678176,-0.28179127,1.1206777,-0.44780228
0.1,-0.1,0.7999999999999999,0.5235987755982988,0.5235987755982988,0,-1.2015136,1.8617107,-0.4706333,-0.45215034,-0.46111363,1.5225352,0.50004697,-1.3837986,1.0346574,0.72021496,-0.052976787,-0.0544858,1.1009095,1.3161024
0.1,-0.1,0.7999999999999999,0.5235987755982988,0.5235987755982988,0,-1.1678196,1.8636487,-0.4719521,-0.37284648,-0.42273235,1.497902,0.62074006,-1.3927062,0.8931139,1.4019563,-0.030942405,-0.63118315,1.0308537,0.38708797
0.1,-0.1,0.7999999999999999,0.5235987755982988,0.5235987755982988,0,-1.3390397,1.8637528,-0.46338847,-0.410127,-0.44825232,1.5076331,0.5533954,-1.403094,0.6335639,-1.5889075,0.11255101,-0.555598,1.1634439,0.98148054
0.1,-0.1,0.7999999999999999,0.5235987755982988,0.5235987755982988,0,-1.4138137,1.8621932,-0.45259467,-0.30441076,-0.47434258,1.5117232,0.506237,-1.4163704,0.61814016,1.4736096,-0.04247792,-0.02015265,0.9490438,1.0143347
0.1,-0.1,0.7999999999999999,0.5235987755982988,0.5235987755982988,0,-1.3507192,1.880792,-0.4355624,-0.38333303,-0.43659994,1.515462,0.5557929,-1.3767785,0.6884674,0.29907084,0.0383284,-0.060210347,0.9319674,1.0855716
0.1,-0.1,0.7999999999999999,0.5235987755982988,0.5235987755982988,0,-1.3369647,1.8523221,-0.44911656,-0.42713487,-0.4490029,1.4703557,0.6080896,-1.3915199,1.2715826,0.65218174,-0.014820979,-0.25628704,1.1351386,-0.20158987
0.1,-0.1,0.7999999999999999,0.5235987755982988,0.5235987755982988,0,-1.1500348,1.868111,-0.43970034,-0.36036208,-0.43291748,1.4903666,0.5058186,-1.4442391,0.6857035,0.58881795,0.09330201,-0.4909846,1.0471455,0.5660455
0.1,-0.1,0.7999999999999999,0.5235987755982988,0.5235987755982988,0,-1.2374115,1.8816137,-0.44242594,-0.21077524,-0.44965962,1.4946518,0.5266948,-1.382808,0.7543436,1.0363669,0.14834598,-0.13537942,1.1097835,-0.1978044
0.1,-0.1,0.7999999999999999,0.5235987755982988,0.5235987755982988,0,-1.3411599,1.880953,-0.44731662,-0.4615291,-0.46363434,1.523191,0.4471477,-1.38725,0.9120687,0.3115952,0.097373016,-0.27611274,0.91006786,0.7169566
0.1,-0.1,0.7999999999999999,0.5235987755982988,0.5235987755982988,0,-1.345886,1.8769387,-0.4778435,-0.40327168,-0.48191684,1.500601,0.5405102,-1.3558238,0.7593498,-0.6293244,0.07482559,-0.144163,1.2461321,-0.13469528
0.1,-0.1,0.7999999999999999,0.5235987755982988,0.5235987755982988,0,-1.3436937,1.8963958,-0.44699642,-0.4123741,-0.44336686,1.5162638,0.45910442,-1.4236144,1.1321113,-0.71818966,0.05127367,-0.2980367,1.0609521,0.15945454
0.1,-0.1,0.7999999999999999,0.5235987755982988,0.5235987755982988,0,-1.3967152,1.8575287,-0.4597528,-0.39963827,-0.44798785,1.5257014,0.57920325,-1.4027025,0.76020503,2.9380546,0.01542346,-0.2945675,1.0382229,0.45994574
0.1,-0.1,0.7999999999999999,0.5235987755982988,0.5235987755982988,0,-1.2582309,1.8621932,-0.4270439,-0.46350926,-0.43199268,1.5269088,0.5640022,-1.4318974,0.83553004,-1.0419887,0.08172719,0.21682861,1.1026858,0.24792972
0.1,-0.1,0.7999999999999999,0.5235987755982988,0.5235987755982988,0,-1.3509496,1.8468527,-0.44831723,-0.3863055,-0.42552063,1.5491893,0.6699794,-1.4005473,0.9164499,-0.30248734,0.13410288,-0.29013115,1.0800604,0.1581824
0.1,-0.1,0.7999999999999999,0.5235987755982988,0.5235987755982988,0,-1.2280185,1.8963051,-0.44655758,-0.37842068,-0.45858225,1.5175775,0.47232404,-1.4080085,1.0062549,0.7163497,-0.000736083,-0.17222393,0.9985994,0.048047416
0.1,-0.1,0.7999999999999999,0.5235987755982988,0.5235987755982988,0,-1.3781594,1.8871351,-0.45450345,-0.30194148,-0.48532933,1.517168,0.5631211,-1.3586553,0.6959009,-0.396432,0.09519338,-0.4436557,1.1367133,0.4414587
0.1,-0.1,0.7999999999999999,0.5235987755982988,0.5235987755982988,0,-1.3424423,1.8559211,-0.4565402,-0.37655094,-0.4584718,1.536018,0.54205257,-1.3839402,0.9583828,-2.9273086,0.15191506,-0.3097095,1.2388932,1.1325346
0.1,-0.1,0.7999999999999999,0.5235987755982988,0.5235987755982988,0,-1.3795286,1.860081,-0.4699767,-0.39649165,-0.45400542,1.5156609,0.46253094,-1.4118916,0.82920533,0.6282865,-0.038222633,-0.10743483,1.368894,0.16048494
0.1,-0.1,0.7999999999999999,0.5235987755982988,0.5235987755982988,0,-1.3162674,1.88017,-0.47103307,-0.37792695,-0.47955912,1.5345623,0.61064965,-1.3560337,0.93694925,-0.03597412,0.10596132,-0.0914011,1.074,-0.063176736
0.1,-0.1,0.7999999999999999,0.5235987755982988,0.5235987755982988,0,-1.3195851,1.8722893,-0.4443122,-0.43069497,-0.47480056,1.5091615,0.53274065,-1.388418,0.8466381,-0.97017986,0.0887558,-0.35384396,1.0047976,-0.46912947
0.1,-0.1,0.7999999999999999,0.5235987755982988,0.5235987755982988,0,-1.3583583,1.8464427,-0.43946818,-0.32600147,-0.47721466,1.5451671,0.5811999,-1.404281,0.5081984,-1.1804445,0.04313405,-0.34177798,1.1803439,-1.0269809
0.1,-0.1,0.7999999999999999,0.5235987755982988,0.5235987755982988,0,-1.403264,1.8945124,-0.46939218,-0.48421407,-0.43197122,1.4606558,0.530001,-1.3996598,1.0954067,1.5796977,0.04603721,-0.25406092,1.0694752,1.6585865
0.1,-0.1,0.7999999999999999,0.5235987755982988,0.5235987755982988,0,-1.3745917,1.8694907,-0.43876836,-0.3738154,-0.45243528,1.4903531,0.43028474,-1.3992544,0.6565576,-0.42257592,0.009502808,0.022954524,1.0346025,0.5012766
0.1,-0.1,0.7999999999999999,0.5235987755982988,0.5235987755982988,0,-1.3752688,1.8651754,-0.46816522,-0.37878704,-0.41085052,1.5236568,0.47172463,-1.3733307,0.7169429,0.76798624,0.0788183,-0.14039332,1.0163195,0.95798916
0.1,-0.1,0.7999999999999999,0.5235987755982988,0.5235987755982988,0,-1.4903536,1.8556513,-0.45614722,-0.40018684,-0.45496064,1.4884416,0.5568018,-1.3767842,0.6723252,0.97803473,0.029941738,-0.14459482,1.0345321,0.31054035
0.1,-0.1,0.7999999999999999,0.5235987755982988,0.5235987755982988,0,-1.466328,1.8669864,-0.4603044,-0.4887715,-0.42622137,1.5134192,0.38646796,-1.4110137,0.944786,0.61096275,0.013314934,-0.26609823,1.0797595,-0.20417267
0.1,-0.1,0.7999999999999999,0.5235987755982988,0.5235987755982988,0,-1.3758428,1.8574198,-0.467093,-0.29068032,-0.43385077,1.4958357,0.60139483,-1.3987758,1.0614519,-1.0575814,0.03529657,0.023199592,0.98002994,-0.6343631
0.1,-0.1,0.7999999999999999,0.5235987755982988,0.5235987755982988,0,-1.3998919,1.8368506,-0.45081687,-0.34949237,-0.4471994,1.4872215,0.4084343,-1.3671803,0.9728296,0.7445416,0.19269733,-0.43168706,0.9665762,1.1032618
0.1,-0.1,0.7999999999999999,0.5235987755982988,0.5235987755982988,0,-1.3583465,1.8558943,-0.45451644,-0.3594846,-0.4682883,1.5384527,0.6769527,-1.4001219,0.8321493,1.2635897,0.021250395,-0.18820135,1.0275638,0.058483433
0.1,-0.1,0.7999999999999999,0.5235987755982988,0.5235987755982988,0,-1.478145,1.8719443,-0.4760649,-0.4820926,-0.42485586,1.5161405,0.47405007,-1.3799949,0.88319194,2.2673724,0.015123803,-0.5750467,1.1224911,-1.8155769
0.1,-0.1,0.7999999999999999,0.5235987755982988,0.5235987755982988,0,-1.4298824,1.8966652,-0.4542403,-0.43062395,-0.43957442,1.5119578,0.5001511,-1.338427,1.1370046,0.94911146,0.072415575,-0.2214115,1.0096,-0.5766971
0.1,-0.1,0.7999999999999999,0.5235987755982988,0.5235987755982988,0,-1.4695626,1.8636734,-0.44632173,-0.4425722,-0.49823534,1.5055166,0.5064133,-1.4066929,0.8240767,2.3265347,-0.05497589,-0.11212972,0.88700193,0.375914
0.1,-0.1,0.7999999999999999,0.5235987755982988,0.5235987755982988,0,-1.3443873,1.8621066,-0.46365285,-0.31303835,-0.43907458,1.529692,0.49196586,-1.3914073,0.8186561,-0.41645637,0.18637201,-0.06594593,1.2602246,-0.4852252
0.1,-0.1,0.7999999999999999,0.5235987755982988,0.5235987755982988,0,-1.3397988,1.8518386,-0.47003952,-0.3050335,-0.44817713,1.5134029,0.54872763,-1.4269112,1.0855284,-1.114134,-0.0050709387,-0.30591553,1.0209643,1.030539
0.1,-0.1,0.7999999999999999,0.5235987755982988,0.5235987755982988,0,-1.2617542,1.8548751,-0.45015267,-0.37221548,-0.47564858,1.5108093,0.58720034,-1.4154042,0.9732167,-0.07761267,0.08302249,0.04885336,0.98967135,0.8694104
0.1,-0.1,0.7999999999999999,0.5235987755982988,0.5235987755982988,0,-1.3541377,1.8543484,-0.44475684,-0.3152643,-0.44759342,1.53401,0.600105,-1.4156713,0.9140453,0.7430101,-0.0012576157,-0.43842426,1.1055024,0.9880128
0.1,-0.1,0.7999999999999999,0.5235987755982988,0.5235987755982988,0,-1.364484,1.8567505,-0.44639143,-0.3717172,-0.4564689,1.5315808,0.48478243,-1.3857261,0.97309566,0.28883892,0.090914354,-0.3118033,1.0772467,0.1986183
0.1,-0.1,0.7999999999999999,0.5235987755982988,0.5235987755982988,0,-1.1454058,1.8790193,-0.4443206,-0.25204352,-0.44790986,1.5207777,0.5693318,-1.4324278,0.8073694,0.99718904,-0.057393126,-0.32080442,1.097792,0.1471096
0.1,-0.1,0.7999999999999999,0.5235987755982988,0.5235987755982988,0,-1.3564639,1.8825144,-0.45238888,-0.45208803,-0.44218087,1.5309772,0.51033574,-1.3605083,0.6881922,0.34270847,0.003398454,0.236765,1.1311588,-0.4737467
0.1,-0.1,0.7999999999999999,0.5235987755982988,0.5235987755982988,0,-1.2178215,1.8815519,-0.44151142,-0.19908495,-0.48448312,1.5339451,0.5893864,-1.3967258,0.75422615,1.2884384,-0.08760116,-0.2943174,1.0879079,-0.17920011
0.1,-0.1,0.7999999999999999,0.5235987755982988,0.5235987755982988,0,-1.2528617,1.8771094,-0.46730718,-0.30678323,-0.44868615,1.5522679,0.5795846,-1.3541955,1.1067977,1.33195,0.060474936,-0.22056459,1.2677459,1.3849303
0.1,-0.1,0.7999999999999999,0.5235987755982988,0.5235987755982988,0,-1.4148569,1.8884431,-0.46514174,-0.28624874,-0.4909957,1.5501363,0.45995393,-1.3932971,0.96397597,0.49641135,-0.039630067,-0.19902526,1.1132723,0.8819861
0.1,-0.1,0.7999999999999999,0.5235987755982988,0.5235987755982988,0,-1.2881125,1.8396125,-0.4564561,-0.33439353,-0.46230438,1.5100056,0.55998063,-1.3989195,0.78604454,-0.45362514,-0.06429016,0.0045999507,1.139565,2.1008954
0.1,-0.1,0.7999999999999999,0.5235987755982988,0.5235987755982988,0,-1.4146395,1.8402615,-0.4721989,-0.41022894,-0.49427557,1.4883525,0.58875704,-1.3911184,0.78453195,0.44874692,0.03831649,0.09172998,1.0570939,0.299393
0.1,-0.1,0.7999999999999999,0.5235987755982988,0.5235987755982988,0,-1.2996325,1.8720698,-0.45845434,-0.35531536,-0.46069315,1.5674126,0.5068943,-1.4128925,0.9332659,0.55734706,0.10799254,-0.15330751,1.1157663,0.64171374
0.1,-0.1,0.7999999999999999,0.5235987755982988,0.5235987755982988,0,-1.3450432,1.8552222,-0.45083156,-0.3710594,-0.46947476,1.5449483,0.50867075,-1.4192057,0.7158199,-1.5644715,-0.0614561,-0.87999177,1.0234239,0.04291604
0.1,-0.1,0.7999999999999999,0.5235987755982988,0.5235987755982988,0,-1.2913098,1.8304498,-0.4587541,-0.30236217,-0.4775866,1.5101743,0.57359266,-1.3735155,0.8769543,0.19035849,0.026898235,-0.32138774,1.069563,-0.6694571
0.1,-0.1,0.7999999999999999,0.5235987755982988,0.5235987755982988,0,-1.4023211,1.8322802,-0.44582418,-0.3933292,-0.43090743,1.4770058,0.6542144,-1.4046798,0.8659899,0.053751934,-0.07009511,-0.37997884,1.1118147,0.7314444
0.1,-0.1,0.7999999999999999,0.5235987755982988,0.5235987755982988,0,-1.4550123,1.8644195,-0.45751396,-0.448446,-0.4298094,1.5167347,0.4915291,-1.428214,1.008576,-0.0002152191,0.07144295,-0.20751175,1.1632568,-0.3007355
0.1,-0.1,0.7999999999999999,0.5235987755982988,0.5235987755982988,0,-1.4940616,1.8525798,-0.42783073,-0.34164461,-0.43722388,1.5131894,0.5746927,-1.3805099,0.97624004,0.93775773,0.030718109,-0.36812735,0.94701046,-0.26035064
0.1,-0.1,0.7999999999999999,0.5235987755982988,0.5235987755982988,0,-1.326906,1.8731796,-0.45804697,-0.35086566,-0.44374332,1.4948776,0.4675279,-1.4475504,0.9624312,0.74875224,-0.012274304,-0.48981285,1.1440969,0.37875134
0.1,-0.1,0.7999999999999999,0.5235987755982988,0.5235987755982988,0,-1.4038184,1.9022655,-0.450265,-0.21593493,-0.4499924,1.513582,0.6913525,-1.4180309,1.2273065,-0.17414097,-0.13829823,0.15741377,1.0359102,0.07398428
0.1,-0.1,0.7999999999999999,0.5235987755982988,0.5235987755982988,0,-1.4446272,1.8973105,-0.43531102,-0.38308084,-0.44083983,1.5169907,0.54354066,-1.4008216,0.7148047,0.6528339,-0.024190154,-0.117714174,1.1979637,-0.20251824
0.1,-0.1,0.7999999999999999,0.5235987755982988,0.5235987755982988,0,-1.3604532,1.8640305,-0.4552535,-0.35175422,-0.44349194,1.5194576,0.5320589,-1.4265074,0.86623937,1.620786,-0.027235454,-0.14773718,1.2020168,-0.48510644
0.1,-0.1,0.7999999999999999,0.5235987755982988,0.5235987755982988,0,-1.3689637,1.866499,-0.4502797,-0.47839588,-0.47902322,1.48946,0.5680605,-1.4140157,0.95948184,1.3035176,0.091276646,-0.22941183,1.1672459,-0.34970582
0.1,-0.1,0.7999999999999999,0.5235987755982988,0.5235987755982988,0,-1.457636,1.8839037,-0.45370346,-0.4086816,-0.46879235,1.5037568,0.42648512,-1.3860662,1.03106,0.5064726,0.063821875,-0.016232848,1.1460559,-0.112432614
0.1,-0.1,0.7999999999999999,0.5235987755982988,0.5235987755982988,0,-1.3401858,1.8379991,-0.4594369,-0.31498092,-0.45097128,1.509976,0.48541918,-1.4207267,0.9735691,0.4168116,-0.069219425,0.14873572,0.8886459,-0.2126957
0.1,-0.1,0.7999999999999999,0.5235987755982988,0.5235987755982988,0,-1.3404181,1.8502157,-0.46758533,-0.4036617,-0.4510324,1.5319712,0.4717308,-1.392524,1.0157219,-1.025837,-0.023902884,0.15099742,1.0208114,-0.48394987
0.1,-0.1,0.7999999999999999,0.5235987755982988,0.5235987755982988,0,-1.4144276,1.861204,-0.43931946,-0.41237545,-0.4672905,1.5196034,0.35994127,-1.3881207,0.98053885,-0.22224799,0.035957057,-0.6642977,1.1626242,1.068281
0.1,-0.1,0.7999999999999999,0.5235987755982988,0.5235987755982988,0,-1.225542,1.8702978,-0.45424506,-0.37605038,-0.44646928,1.526181,0.6175647,-1.3797967,0.7304568,-1.6904855,0.012138439,-0.15838294,1.1409128,-1.1889733
0.1,-0.1,0.7999999999999999,0.5235987755982988,0.5235987755982988,0,-1.2415794,1.8543311,-0.45153794,-0.3555283,-0.43315578,1.5405756,0.59226525,-1.3925551,1.0562749,-0.42062423,0.042566724,-0.3885362,1.0252196,0.45508286
0.1,-0.1,0.7999999999999999,0.5235987755982988,0.5235987755982988,0,-1.296582,1.8818218,-0.47115192,-0.39502987,-0.499562,1.5232033,0.5588173,-1.3572083,0.8370789,-0.573933,0.06145508,0.05042256,1.1254301,1.3695425
0.1,-0.1,0.7999999999999999,0.5235987755982988,0.5235987755982988,0,-1.2702457,1.8914579,-0.44941807,-0.36483774,-0.43808535,1.4948121,0.49838632,-1.4143746,0.7303691,0.8997471,0.115711465,-0.16996169,1.1758513,1.2219894
0.1,-0.1,0.7999999999999999,0.5235987755982988,0.5235987755982988,0,-1.1855749,1.8671099,-0.4736309,-0.5377266,-0.46572238,1.512519,0.5777335,-1.4105177,0.8509973,0.36208442,-0.003764289,-0.032052953,1.0097319,-0.32105434
0.1,-0.1,0.7999999999999999,0.5235987755982988,0.5235987755982988,0,-1.241095,1.8623105,-0.4790763,-0.35936892,-0.46148026,1.5533184,0.5085929,-1.3864667,0.8217667,0.7388856,0.0027130926,-0.081705816,1.0224426,-0.12338015
0.1,-0.1,0.7999999999999999,0.5235987755982988,0.5235987755982988,0,-1.2982583,1.8369603,-0.4392919,-0.27095994,-0.4682226,1.5445166,0.5322382,-1.383107,0.71525866,-0.43860254,-0.040037207,-0.20944858,1.1625183,0.2898097
0.1,-0.1,0.7999999999999999,0.5235987755982988,0.5235987755982988,0,-1.2743468,1.8645767,-0.43280402,-0.36378622,-0.4308778,1.5039755,0.4983876,-1.3722064,1.1960952,-0.5227534,0.01635995,-0.22967663,1.1958493,0.11930224
0.1,-0.1,0.7999999999999999,0.5235987755982988,0.5235987755982988,0,-1.1733509,1.8726372,-0.46040013,-0.45455226,-0.42171246,1.4851229,0.51297396,-1.4160923,0.8165991,-2.18581,0.03188383,-0.0652514,0.9782328,1.4603633
0.1,-0.1,0.7999999999999999,0.5235987755982988,0.5235987755982988,0,-1.3054913,1.8791958,-0.4514953,-0.37576795,-0.477117,1.5114855,0.60194945,-1.3670322,0.7760125,0.6153231,-0.042464547,-0.055385243,1.0418912,0.4231074
0.1,-0.1,0.7999999999999999,0.5235987755982988,0.5235987755982988,0,-1.2660152,1.8817565,-0.48248768,-0.35358745,-0.43761456,1.5033944,0.58147705,-1.4278665,1.0712028,-0.8503243,-0.007897139,-0.41557652,1.0892452,-0.50341433
0.1,-0.1,0.7999999999999999,0.5235987755982988,0.5235987755982988,0,-1.3861244,1.8523331,-0.4522186,-0.32278723,-0.3794884,1.5182599,0.5960696,-1.3669438,0.98210055,-0.2825026,0.046815142,-0.211617,1.019749,-1.3776538
0.1,-0.1,0.7999999999999999,0.5235987755982988,0.5235987755982988,0,-1.3567399,1.8472896,-0.47399274,-0.29227844,-0.45161393,1.5052725,0.57267135,-1.4050568,0.7907724,1.3334424,0.01571721,-0.28184417,1.1260622,-0.051556192
0.1,-0.1,0.7999999999999999,0.5235987755982988,0.5235987755982988,0,-1.3904546,1.8764992,-0.4514178,-0.3063426,-0.4448281,1.5065802,0.6147876,-1.380308,1.0288471,0.9198873,0.009465904,-0.41003954,0.9783278,0.26004866
0.1,-0.1,0.7999999999999999,0.5235987755982988,0.5235987755982988,0,-1.2564038,1.8561136,-0.4559134,-0.33678314,-0.48357034,1.5483679,0.4987079,-1.3893822,0.6726697,0.17342825,-0.035103127,-0.58219534,0.95903474,-0.08096667
0.1,-0.1,0.7999999999999999,0.5235987755982988,0.5235987755982988,0,-1.3455743,1.8710691,-0.44554922,-0.288288,-0.45110485,1.5244482,0.5206691,-1.421845,0.92883307,0.75714433,0.07529527,-0.32894376,1.1866997,1.1467515
0.1,-0.1,0.7999999999999999,0.5235987755982988,0.5235987755982988,0,-1.2901008,1.8727952,-0.45069748,-0.44129375,-0.43543226,1.483903,0.52482665,-1.4177988,0.802349,-0.20108503,0.01917496,-0.6195487,1.1312759,0.22813597
0.1,-0.1,0.7999999999999999,0.5235987755982988,0.5235987755982988,0,-1.2941602,1.8669739,-0.46908632,-0.27999339,-0.44739562,1.5435599,0.54564357,-1.3710915,0.8045442,-0.8091543,0.024862599,-0.19810349,1.1804997,-1.1012148
0.1,-0.1,0.7999999999999999,0.5235987755982988,0.5235987755982988,0,-1.3033634,1.844027,-0.45030627,-0.30579486,-0.4053195,1.5195526,0.4625012,-1.359599,0.9270239,1.170381,0.010740958,-0.6017857,1.1018189,0.22298811
0.1,-0.1,0.7999999999999999,0.5235987755982988,0.5235987755982988,0,-1.3840356,1.8761904,-0.45041332,-0.33797798,-0.45669264,1.5027676,0.434362,-1.4332501,1.1627331,-0.631205,0.04505388,-0.08132664,1.0188978,0.028241875
0.1,-0.1,0.7999999999999999,0.5235987755982988,0.5235987755982988,0,-1.3376291,1.896264,-0.46083146,-0.41598424,-0.44823727,1.518397,0.5332823,-1.4294918,0.878769,-0.27131853,-0.0020288168,-0.21920933,0.97484785,1.3607554
0.1,-0.1,0.7999999999999999,0.5235987755982988,0.5235987755982988,0,-1.393005,1.8671938,-0.47562298,-0.40966225,-0.47543612,1.5143406,0.4622522,-1.3743523,0.9245032,0.4857081,-0.007617391,-0.0018482289,1.0192982,-0.26742756
0.1,-0.1,0.7999999999999999,0.5235987755982988,0.5235987755982988,0,-1.4344724,1.8705002,-0.43856135,-0.37709972,-0.39078125,1.5155114,0.5043563,-1.4079694,1.0032966,-0.040485345,0.031074824,-0.14745554,1.1174265,0.7744724
0.1,-0.1,0.7999999999999999,0.5235987755982988,0.5235987755982988,0,-1.3474594,1.8720222,-0.45634446,-0.38371596,-0.4347194,1.5330904,0.5673789,-1.4249513,0.41944924,0.9430895,-0.05440659,0.09906486,1.1216888,0.20304534
0.1,-0.1,0.7999999999999999,0.5235987755982988,0.5235987755982988,0,-1.3050259,1.8297745,-0.45817262,-0.3060766,-0.47427362,1.4885736,0.5452817,-1.3998675,0.9041952,-0.31820565,0.083448045,-0.20249291,1.1427159,-0.75477606
0.1,-0.1,0.7999999999999999,0.5235987755982988,0.5235987755982988,0,-1.2300541,1.8525488,-0.45138115,-0.4628605,-0.43762538,1.4922061,0.57984275,-1.4052981,0.84126705,-0.08369442,-0.014766711,-0.10275864,1.2005254,-0.6085607
0.1,-0.1,0.7999999999999999,0.5235987755982988,0.5235987755982988,0,-1.3432586,1.8426849,-0.46100622,-0.31641382,-0.44482502,1.5277504,0.6427089,-1.3945491,0.92050505,-0.32759878,0.1264079,0.068130165,1.1435602,1.072248
0.1,-0.1,0.7999999999999999,0.5235987755982988,0.5235987755982988,0,-1.2778436,1.8558463,-0.4737141,-0.28021118,-0.48077706,1.5465381,0.5054572,-1.391886,0.7988742,0.1333203,-0.09607381,-0.12317471,1.0756744,0.74342936
0.1,-0.1,0.7999999999999999,0.5235987755982988,0.5235987755982988,0,-1.4723071,1.861435,-0.43511373,-0.30872458,-0.42909247,1.5157604,0.5542063,-1.3648664,0.8858655,0.45054343,0.09969219,-0.05603605,1.0829707,0.012582506
0.1,-0.1,0.7999999999999999,0.5235987755982988,0.5235987755982988,0,-1.4547328,1.8637755,-0.448322,-0.3363245,-0.45090604,1.4995522,0.6242711,-1.3775262,0.89801186,0.85383886,0.023423892,0.20336351,1.0017576,-0.36258313
0.1,-0.1,0.7999999999999999,0.5235987755982988,0.5235987755982988,0,-1.5388405,1.896874,-0.45875752,-0.40280628,-0.43053955,1.5142623,0.52703744,-1.3831924,1.0910358,1.0670898,-0.04121488,-0.4466245,1.1031216,0.18738227
0.1,-0.1,0.7999999999999999,0.5235987755982988,0.5235987755982988,0,-1.334519,1.8360012,-0.4713499,-0.38105527,-0.43066132,1.4840447,0.5367498,-1.4124675,0.718071,0.25032058,-0.03290714,-0.024614898,1.1229146,1.216054
0.1,-0.1,0.7999999999999999,0.5235987755982988,0.5235987755982988,0,-1.2674502,1.8684276,-0.44650558,-0.34631208,-0.4458118,1.5327761,0.4540803,-1.3960899,0.9267081,-2.453992,-0.016696397,-0.34790033,1.0056655,-0.27715635
0.1,-0.1,0.7999999999999999,0.5235987755982988,0.5235987755982988,0,-1.246166,1.8517069,-0.44273916,-0.33646333,-0.4646661,1.5112858,0.48213455,-1.3910531,0.7702881,-1.2368177,0.054861866,-0.18781482,1.096338,-0.5699234
0.1,-0.1,0.7999999999999999,0.5235987755982988,0.5235987755982988,0,-1.2976241,1.8593493,-0.457272,-0.37828022,-0.46797544,1.5073814,0.5755525,-1.4316764,1.1171299,-0.18903829,0.03983252,-0.2041395,1.1580193,0.2349896
0.1,-0.1,0.7999999999999999,0.5235987755982988,0.5235987755982988,0,-1.3413658,1.8653196,-0.45426452,-0.24445234,-0.38823107,1.5252223,0.45758405,-1.3873378,0.8271543,-0.059740257,-0.11658331,-0.019074673,1.1235441,0.81288576
0.1,-0.1,0.7999999999999999,0.5235987755982988,0.5235987755982988,0,-1.4783146,1.8672502,-0.46717975,-0.2995919,-0.48697287,1.4990956,0.44821814,-1.4221234,0.54275,1.2314472,-0.07187582,-0.032360546,1.1413457,-0.49121416
0.1,-0.1,0.7999999999999999,0.5235987755982988,0.5235987755982988,0,-1.1583165,1.8795666,-0.46968222,-0.35224214,-0.42951185,1.538255,0.54911894,-1.3909901,0.8271588,2.6911173,0.09619036,-0.13499382,1.108612,-0.52151775
0.1,-0.1,0.7999999999999999,0.5235987755982988,0.5235987755982988,0,-1.3489076,1.8602378,-0.45795226,-0.31058353,-0.45146075,1.4914521,0.5963641,-1.3761989,0.8683238,-0.21534367,0.040832065,0.16798694,0.9495072,1.3191689
0.1,-0.1,0.7999999999999999,0.5235987755982988,0.5235987755982988,0,-1.4301714,1.84927,-0.4514451,-0.34107623,-0.45150867,1.5216926,0.6014771,-1.3718998,0.61645937,0.6344751,-0.049564697,-0.5258454,0.9932108,0.60411894
0.1,-0.1,0.7999999999999999,0.5235987755982988,0.5235987755982988,0,-1.3900114,1.8998072,-0.44024244,-0.22105955,-0.4604548,1.4781581,0.47449148,-1.4011556,0.7036039,-0.730695,0.005461218,0.23785615,1.0615934,-0.24727316
0.1,-0.1,0.7999999999999999,0.5235987755982988,0.5235987755982988,0,-1.4870291,1.8604919,-0.4584861,-0.3656035,-0.42401233,1.5375758,0.53368676,-1.4467368,0.8219768,1.1650347,0.06382289,-0.10958581,1.0156354,0.7991809
0.1,-0.1,0.7999999999999999,0.5235987755982988,0.5235987755982988,0,-1.4451872,1.8791229,-0.45689812,-0.33432004,-0.44961494,1.5216975,0.6001186,-1.4278234,0.88933694,-0.81726366,0.052470062,-0.3472246,1.1625229,0.13321693
0.1,-0.1,0.7999999999999999,0.5235987755982988,0.5235987755982988,0,-1.3499528,1.8568957,-0.46091393,-0.34030256,-0.45751864,1.4806004,0.52368027,-1.3830012,0.8226405,2.034116,0.06089946,-0.29188457,1.1508205,0.5122841
0.1,-0.1,0.7999999999999999,0.5235987755982988,0.5235987755982988,0,-1.4363059,1.8995273,-0.45393565,-0.41647327,-0.50285274,1.5235124,0.6150809,-1.4209265,1.0056933,0.5763678,0.07814974,-0.30541193,0.98573226,0.78275126
0.1,-0.1,0.7999999999999999,0.5235987755982988,0.5235987755982988,0,-1.345184,1.8734479,-0.4527999,-0.29730833,-0.47322044,1.5223,0.38828474,-1.3972427,1.0121742,-0.84861976,-0.021316303,-0.09290126,1.2087475,-0.33414242
0.1,-0.1,0.7999999999999999,0.5235987755982988,0.5235987755982988,0,-1.3491518,1.8476162,-0.4593805,-0.28978452,-0.43727422,1.5113139,0.5236742,-1.4004401,1.2115602,1.4241799,0.06665033,-0.22808917,1.0119301,0.012333683
0.1,-0.1,0.7999999999999999,0.5235987755982988,0.5235987755982988,0,-1.3511082,1.8651365,-0.45674488,-0.3005766,-0.46158952,1.4945078,0.5126734,-1.3965504,0.71282876,-0.25331435,0.024793345,-0.26993927,1.1530828,1.3976574
0.1,-0.1,0.7999999999999999,0.5235987755982988,0.5235987755982988,0,-1.3440883,1.8697121,-0.4437132,-0.34033385,-0.4426326,1.535583,0.5019845,-1.3814452,1.0260139,-1.7115656,-0.080634944,-0.32294828,1.0883695,0.0465287
0.1,-0.1,0.7999999999999999,0.5235987755982988,0.5235987755982988,0,-1.2827514,1.8722196,-0.4617024,-0.35390672,-0.40268865,1.5040053,0.5116007,-1.3753598,0.86125416,-0.6891128,-0.02356362,-0.30158338,1.1417059,-0.2155883
0.1,-0.1,0.7999999999999999,0.5235987755982988,0.5235987755982988,0,-1.3321471,1.8618916,-0.45434907,-0.42278814,-0.43881288,1.5298976,0.57544905,-1.4068742,0.7324565,1.3628025,0.07682247,0.015046728,1.2055122,-0.79966813
0.1,-0.1,0.7999999999999999,0.5235987755982988,0.5235987755982988,0,-1.5199964,1.8579441,-0.48397398,-0.32955015,-0.46059135,1.5010362,0.5464133,-1.3898274,0.99418676,-0.58812124,0.045455463,-0.54120505,0.8622701,0.3513737
0.1,-0.1,0.7999999999999999,0.5235987755982988,0.5235987755982988,0,-1.1659269,1.8531561,-0.45667785,-0.227947,-0.47842258,1.5252723,0.4945871,-1.3963667,0.9749313,-0.21029107,-0.09576596,-0.5468314,1.0380881,1.2050371
0.1,-0.1,0.7999999999999999,0.5235987755982988,0.5235987755982988,0,-1.2892894,1.8644855,-0.4519822,-0.2850692,-0.44334087,1.5010306,0.5356481,-1.4034737,1.1320729,-1.4186474,0.11567608,-0.42738032,1.0961057,0.018700939
