sanky1234/BimanualDexCatch/isaacgymenvs/cem_results/football_pose_0.1_0.0_0.8999999999999999_0.0_0.5235987755982988_0_2025-05-26.csv
x,y,z,roll,pitch,yaw,robot1/joint1,robot1/joint2,robot1/joint3,robot1/joint4,robot1/joint5,robot1/joint6,robot1/joint7,robot2/joint1,robot2/joint2,robot2/joint3,robot2/joint4,robot2/joint5,robot2/joint6,robot2/joint7
0.1,0.0,0.8999999999999999,0.0,0.5235987755982988,0,-1.639299,1.2436119,-0.5810238,0.26500055,-0.0741742,1.4253895,-0.5778861,0.9085936,-1.6260794,-0.15794306,-0.10305958,-0.07204981,1.2445128,1.1034935
0.1,0.0,0.8999999999999999,0.0,0.5235987755982988,0,-1.638242,1.2430084,-0.5785274,0.26347038,-0.064695016,1.424856,-0.5067941,1.1312336,-1.6546633,-0.2486267,-0.11318327,-0.018802477,1.1291901,0.21707985
0.1,0.0,0.8999999999999999,0.0,0.5235987755982988,0,-1.6392632,1.2412483,-0.5786733,0.2645155,-0.06653709,1.4264578,-0.65629214,0.94496113,-1.6875582,-0.12868053,-0.10293741,-0.04199894,1.2437046,0.5186488
0.1,0.0,0.8999999999999999,0.0,0.5235987755982988,0,-1.6388878,1.2434785,-0.5791612,0.265219,-0.07293336,1.4248844,-0.51645917,0.8508121,-1.6255604,0.0753847,-0.12674482,0.041849572,1.2475563,0.79800034
0.1,0.0,0.8999999999999999,0.0,0.5235987755982988,0,-1.6389496,1.2418532,-0.5786821,0.26510158,-0.07724727,1.4273361,-0.49960762,0.866487,-1.6749158,-0.343862,-0.09351362,-0.12994206,1.1489224,0.9070981
0.1,0.0,0.8999999999999999,0.0,0.5235987755982988,0,-1.6382805,1.2446334,-0.5791173,0.2685645,-0.06317457,1.4273335,-0.58123326,0.89375794,-1.6450624,-0.24485001,-0.109611146,0.03620035,1.1743529,0.872524
0.1,0.0,0.8999999999999999,0.0,0.5235987755982988,0,-1.6397003,1.2430223,-0.5797986,0.26756486,-0.07341211,1.4262568,-0.5472083,1.0041066,-1.6941535,0.08440362,-0.06604844,-0.15915243,1.2185726,1.5315924
0.1,0.0,0.8999999999999999,0.0,0.5235987755982988,0,-1.6386186,1.2428555,-0.5805027,0.26867428,-0.06733158,1.4236819,-0.4860244,1.0039921,-1.6655589,0.12460252,-0.08700009,0.036101922,1.259292,-0.69525254
0.1,0.0,0.8999999999999999,0.0,0.5235987755982988,0,-1.6385634,1.2435243,-0.5797546,0.2670025,-0.06956114,1.426799,-0.59954286,0.99792564,-1.6782677,-0.29783252,-0.07078443,0.06614674,1.2114148,-0.33913782
0.1,0.0,0.8999999999999999,0.0,0.5235987755982988,0,-1.6392078,1.2424756,-0.58000827,0.26267332,-0.069980234,1.431084,-0.70177555,0.8952266,-1.6546285,0.27734077,-0.06393697,0.1846802,1.1506313,1.0168849
0.1,0.0,0.8999999999999999,0.0,0.5235987755982988,0,-1.6381207,1.2429152,-0.57860804,0.26508233,-0.07175802,1.4238241,-0.47401246,0.76143706,-1.7067362,-0.18732904,-0.09689418,-0.027582081,1.2671685,1.143128
0.1,0.0,0.8999999999999999,0.0,0.5235987755982988,0,-1.6384363,1.2438884,-0.5789907,0.26300094,-0.0732696,1.4289677,-0.49378225,1.0049291,-1.6146171,-0.015227137,-0.08473852,-0.07685305,1.2252624,0.14686534
0.1,0.0,0.8999999999999999,0.0,0.5235987755982988,0,-1.6372104,1.243142,-0.57681197,0.26566607,-0.07619893,1.4273349,-0.5748379,1.0601977,-1.64862,-0.13520887,-0.071490295,0.2090573,1.2514869,0.08715375
0.1,0.0,0.8999999999999999,0.0,0.5235987755982988,0,-1.6386862,1.2435622,-0.58009905,0.26618862,-0.06676102,1.4234062,-0.5141007,0.95435566,-1.7293551,-0.30412173,-0.060028825,-0.026029054,1.1448632,0.723764
0.1,0.0,0.8999999999999999,0.0,0.5235987755982988,0,-1.6385334,1.2433605,-0.5811396,0.26467475,-0.07436566,1.4306322,-0.46642512,0.6932929,-1.705114,-0.097834,-0.100997016,-0.046906102,1.1956079,0.32416615
0.1,0.0,0.8999999999999999,0.0,0.5235987755982988,0,-1.6402072,1.2443845,-0.5803665,0.2634011,-0.067435734,1.4270836,-0.52810115,0.9051318,-1.663337,-0.31979692,-0.12681127,-0.08074403,1.2119364,0.37409174
0.1,0.0,0.8999999999999999,0.0,0.5235987755982988,0,-1.6389451,1.2430927,-0.5796467,0.25851542,-0.072029114,1.4271734,-0.5797273,0.9792147,-1.6466575,0.16614473,-0.12680884,-0.014874262,1.2003069,0.16419524
0.1,0.0,0.8999999999999999,0.0,0.5235987755982988,0,-1.638314,1.2438713,-0.5812994,0.2626756,-0.06752244,1.4284236,-0.55872494,0.89344525,-1.6436216,0.4572162,-0.0849177,-0.08004547,1.1560817,1.1136211
0.1,0.0,0.8999999999999999,0.0,0.5235987755982988,0,-1.6384965,1.2430375,-0.5792587,0.26357195,-0.07824069,1.4282521,-0.6595542,0.8693633,-1.6426936,0.5433119,-0.08597181,-0.03191066,1.1687602,-0.21128142
0.1,0.0,0.8999999999999999,0.0,0.5235987755982988,0,-1.6393901,1.2429613,-0.5792201,0.26461193,-0.0644101,1.4255881,-0.5529525,1.12003,-1.6201673,0.4064863,-0.06517079,0.037719402,1.1982714,0.5938808
0.1,0.0,0.8999999999999999,0.0,0.5235987755982988,0,-1.6372836,1.2431813,-0.5777119,0.26373267,-0.07304101,1.4239405,-0.63699955,0.892938,-1.660441,-0.12734929,-0.039789215,0.038144298,1.1780328,0.5440325
0.1,0.0,0.8999999999999999,0.0,0.5235987755982988,0,-1.6376156,1.2428392,-0.5779056,0.26420203,-0.072165765,1.425567,-0.60191476,1.0043918,-1.6777663,0.33286604,-0.11939175,-0.15090238,1.1944416,0.9098478
0.1,0.0,0.8999999999999999,0.0,0.5235987755982988,0,-1.639149,1.2423587,-0.58053774,0.26215374,-0.07062499,1.4260454,-0.5874812,0.8201041,-1.7031125,-0.33041725,-0.114347585,-0.109694906,1.1256465,-0.21897049
0.1,0.0,0.8999999999999999,0.0,0.5235987755982988,0,-1.638269,1.2440113,-0.5814465,0.26444948,-0.06833749,1.4289349,-0.587367,0.837509,-1.7039633,0.25223196,-0.1311856,0.14372978,1.1649034,0.19225313
0.1,0.0,0.8999999999999999,0.0,0.5235987755982988,0,-1.6381334,1.2446245,-0.5802897,0.2632029,-0.07110254,1.4236066,-0.510418,0.6988624,-1.6303018,0.3696259,-0.11269568,0.052982185,1.2422078,0.69486344
0.1,0.0,0.8999999999999999,0.0,0.5235987755982988,0,-1.6402256,1.2426293,-0.5782496,0.2645521,-0.06756905,1.4260553,-0.6427496,0.8405337,-1.6187332,0.3048233,-0.11797766,-0.1790773,1.2647538,0.65679
0.1,0.0,0.8999999999999999,0.0,0.5235987755982988,0,-1.639608,1.242779,-0.57971394,0.26475665,-0.06907669,1.4268472,-0.5502611,0.8631817,-1.638165,0.010077946,-0.046940852,0.014508882,1.1888651,0.7540268
0.1,0.0,0.8999999999999999,0.0,0.5235987755982988,0,-1.6381645,1.2436948,-0.5796635,0.26465845,-0.065612465,1.4243225,-0.430455,0.8308202,-1.6528946,-0.6041324,-0.08147798,-0.09775233,1.261954,1.0474855
0.1,0.0,0.8999999999999999,0.0,0.5235987755982988,0,-1.6383255,1.2434323,-0.5799113,0.26646748,-0.0728272,1.4244219,-0.52410805,0.88694364,-1.6665841,0.22154292,-0.1349845,-0.13063203,1.2230134,1.1903042
0.1,0.0,0.8999999999999999,0.0,0.5235987755982988,0,-1.6384754,1.2434763,-0.57773715,0.2657767,-0.06846504,1.4241755,-0.47149277,0.87364066,-1.6371113,0.56593484,-0.0744449,0.0113882935,1.2120594,1.3375745
0.1,0.0,0.8999999999999999,0.0,0.5235987755982988,0,-1.639354,1.241561,-0.5797398,0.2653103,-0.06802788,1.4302074,-0.46161905,0.8110991,-1.6845977,0.14284496,-0.070833854,-0.03644066,1.2436295,0.74032694
0.1,0.0,0.8999999999999999,0.0,0.5235987755982988,0,-1.6384475,1.242878,-0.57998013,0.2632325,-0.06300494,1.4268026,-0.47114918,0.69522446,-1.7319262,0.37753096,-0.088255055,0.074526966,1.2517278,0.9708941
0.1,0.0,0.8999999999999999,0.0,0.5235987755982988,0,-1.6386561,1.2436677,-0.57816,0.26170382,-0.07503998,1.4277705,-0.5173997,1.252863,-1.6932216,-0.24825397,-0.10732804,0.21422671,1.2072428,1.2726471
0.1,0.0,0.8999999999999999,0.0,0.5235987755982988,0,-1.6376432,1.242423,-0.5796239,0.26369968,-0.069265135,1.4281203,-0.5725022,1.2038566,-1.6756797,-0.12638958,-0.099929705,-0.048983853,1.2311612,-0.39692408
0.1,0.0,0.8999999999999999,0.0,0.5235987755982988,0,-1.6387473,1.2436723,-0.5781074,0.26741585,-0.06873342,1.4250687,-0.44562548,1.0560396,-1.66773,-0.58965546,-0.08389681,-0.073899046,1.2910109,0.48820585
0.1,0.0,0.8999999999999999,0.0,0.5235987755982988,0,-1.638547,1.2438259,-0.5784634,0.2652051,-0.07169115,1.4270972,-0.59023434,1.0163965,-1.6281383,-0.010868873,-0.07857891,-0.019928157,1.2199239,0.6692673
0.1,0.0,0.8999999999999999,0.0,0.5235987755982988,0,-1.6397204,1.2431743,-0.58068377,0.26741034,-0.066196956,1.426307,-0.52625895,0.84810495,-1.6855875,0.41830435,-0.10884349,0.020462524,1.2275271,0.288078
0.1,0.0,0.8999999999999999,0.0,0.5235987755982988,0,-1.6384465,1.243154,-0.5796176,0.26660067,-0.06754393,1.4219853,-0.5412942,0.8723165,-1.6821617,-0.37275785,-0.09128146,0.032590084,1.2002404,0.49436152
0.1,0.0,0.8999999999999999,0.0,0.5235987755982988,0,-1.6392235,1.2433662,-0.58076584,0.2616126,-0.06559304,1.4218919,-0.5222241,1.0115108,-1.710632,0.3873625,-0.091343045,-0.008156062,1.2589056,1.2824239
0.1,0.0,0.8999999999999999,0.0,0.5235987755982988,0,-1.6394972,1.2425652,-0.5792777,0.26432914,-0.06508402,1.4271386,-0.52691126,0.6607483,-1.6686112,0.1282688,-0.104096584,0.00768723,1.2345754,-0.014556214
0.1,0.0,0.8999999999999999,0.0,0.5235987755982988,0,-1.6389544,1.2431728,-0.58109945,0.26288438,-0.076334506,1.4216671,-0.5955081,0.85562605,-1.6713094,-0.026026636,-0.12287025,0.024685455,1.1576246,0.6281892
0.1,0.0,0.8999999999999999,0.0,0.5235987755982988,0,-1.6387664,1.2445401,-0.57873666,0.26352975,-0.065184645,1.432017,-0.4788706,0.76483625,-1.636435,0.03994054,-0.055366807,0.16277781,1.1910758,-0.23940411
0.1,0.0,0.8999999999999999,0.0,0.5235987755982988,0,-1.639315,1.2437279,-0.579903,0.26695055,-0.07372544,1.4251161,-0.3791598,0.9215239,-1.6662148,0.4285861,-0.061124157,0.024970116,1.2188427,0.7428571
0.1,0.0,0.8999999999999999,0.0,0.5235987755982988,0,-1.6392828,1.2440022,-0.5790829,0.26458713,-0.06965526,1.4265538,-0.6451092,0.96225256,-1.5924314,-0.20199779,-0.07818064,0.010574736,1.23692,0.53503895
0.1,0.0,0.8999999999999999,0.0,0.5235987755982988,0,-1.6399415,1.2433915,-0.5801786,0.26100418,-0.075286925,1.421827,-0.58434623,0.9497644,-1.6634572,0.19098075,-0.059201956,-0.0057162354,1.1623174,0.26013902
0.1,0.0,0.8999999999999999,0.0,0.5235987755982988,0,-1.6392719,1.2430147,-0.5805025,0.2594745,-0.071849324,1.430482,-0.4754988,0.9726193,-1.6240368,0.5836621,-0.061913658,0.055478957,1.2167236,-0.09903932
0.1,0.0,0.8999999999999999,0.0,0.5235987755982988,0,-1.6396809,1.2422094,-0.5798037,0.26268744,-0.0673592,1.4260906,-0.6374937,0.7622524,-1.6266402,-0.16378783,-0.073856436,-0.08914332,1.219917,0.75914454
0.1,0.0,0.8999999999999999,0.0,0.5235987755982988,0,-1.6393629,1.2437742,-0.5783372,0.26539537,-0.06704639,1.4243506,-0.6382765,0.85293263,-1.6212397,-0.41123244,-0.09130361,-0.04012286,1.2200571,0.77647203
0.1,0.0,0.8999999999999999,0.0,0.5235987755982988,0,-1.6386265,1.2435056,-0.57904273,0.2638847,-0.07069053,1.4271438,-0.629187,0.71234065,-1.6614084,0.31067273,-0.07821581,-0.0017031895,1.2155641,0.44363716
0.1,0.0,0.8999999999999999,0.0,0.5235987755982988,0,-1.6387823,1.2437376,-0.5787109,0.26196173,-0.07278732,1.4267182,-0.6046297,0.9660415,-1.6857948,-0.6577738,-0.08499938,-0.013145412,1.1676491,0.7985177
0.1,0.0,0.8999999999999999,0.0,0.5235987755982988,0,-1.6390488,1.2434899,-0.57891506,0.26300317,-0.068307064,1.4232074,-0.5431072,0.95727295,-1.6877178,-0.34543493,-0.041094575,0.14276807,1.1795882,0.5784993
0.1,0.0,0.8999999999999999,0.0,0.5235987755982988,0,-1.638894,1.2436448,-0.5817783,0.2627043,-0.071709946,1.4291818,-0.45258838,0.84558505,-1.647571,-0.6230247,-0.044536833,-0.1303825,1.188609,0.1991086
0.1,0.0,0.8999999999999999,0.0,0.5235987755982988,0,-1.6393666,1.2440131,-0.57985306,0.26459202,-0.066392235,1.4281188,-0.39844608,0.889785,-1.6022973,0.118252575,-0.08326536,-0.05854596,1.2463775,0.6256995
0.1,0.0,0.8999999999999999,0.0,0.5235987755982988,0,-1.6395618,1.2435268,-0.5794904,0.26373324,-0.064298674,1.4269321,-0.34604123,0.89649934,-1.6421301,-0.6038823,-0.10795822,-0.0023385794,1.2377207,0.86193746
0.1,0.0,0.8999999999999999,0.0,0.5235987755982988,0,-1.6398615,1.2413013,-0.5792151,0.26607642,-0.067309394,1.426048,-0.6734206,0.8453836,-1.6986576,0.3078964,-0.09412458,0.025601357,1.1681213,-1.083459
0.1,0.0,0.8999999999999999,0.0,0.5235987755982988,0,-1.6389688,1.2430408,-0.57827497,0.2655035,-0.06893376,1.4248124,-0.5137229,0.7281153,-1.6368546,0.075752355,-0.11145118,-0.034142673,1.232239,0.6120668
0.1,0.0,0.8999999999999999,0.0,0.5235987755982988,0,-1.6378161,1.2441998,-0.5806713,0.26226813,-0.0660627,1.4257894,-0.63051987,0.59809387,-1.7353576,-0.630831,-0.067164,0.04071096,1.2184935,0.66354924
0.1,0.0,0.8999999999999999,0.0,0.5235987755982988,0,-1.6377048,1.2437546,-0.5791406,0.26436278,-0.06812367,1.4298223,-0.69808763,0.8898015,-1.6605227,0.14962271,-0.049731128,0.049156476,1.1519574,1.1253372
0.1,0.0,0.8999999999999999,0.0,0.5235987755982988,0,-1.6389028,1.2432578,-0.57855994,0.26339653,-0.07256559,1.4293585,-0.40929428,0.91842574,-1.677961,-0.81688774,-0.0939435,-0.10895851,1.2128255,1.0301194
0.1,0.0,0.8999999999999999,0.0,0.5235987755982988,0,-1.6384001,1.2442542,-0.5793887,0.26501146,-0.06775023,1.4255071,-0.57372487,1.0911014,-1.6337241,-0.7261736,-0.08058999,-0.007004106,1.2009678,-0.19521667
0.1,0.0,0.8999999999999999,0.0,0.5235987755982988,0,-1.6388439,1.2427652,-0.58119476,0.26133844,-0.06990452,1.4275432,-0.5593278,0.94914114,-1.6928993,-0.55398816,-0.088382095,-0.027531257,1.2326454,0.19948795
0.1,0.0,0.8999999999999999,0.0,0.5235987755982988,0,-1.6396844,1.2433048,-0.5778806,0.26834992,-0.058494076,1.4281955,-0.50099605,0.8830661,-1.6950471,0.37883022,-0.06477215,-0.22215016,1.1557839,0.4112302
0.1,0.0,0.8999999999999999,0.0,0.5235987755982988,0,-1.6389633,1.2428682,-0.5784948,0.26211458,-0.0741141,1.4257221,-0.64552236,1.0021178,-1.6436878,0.10411673,-0.06259755,-0.038995754,1.1520194,0.7499854
0.1,0.0,0.8999999999999999,0.0,0.5235987755982988,0,-1.6395252,1.2420541,-0.5792146,0.26297888,-0.06362491,1.4222826,-0.6013307,0.7819254,-1.7072682,-0.534068,-0.08892087,-0.10888331,1.1555566,1.5964836
0.1,0.0,0.8999999999999999,0.0,0.5235987755982988,0,-1.6389844,1.243308,-0.57946855,0.2636471,-0.06731515,1.4265357,-0.4157802,0.89403623,-1.6575053,0.28124392,-0.06899779,-0.043387122,1.1932795,-0.26979235
0.1,0.0,0.8999999999999999,0.0,0.5235987755982988,0,-1.6382343,1.2427971,-0.5797515,0.26450413,-0.063411675,1.426016,-0.43419993,0.92027223,-1.703703,-0.34223884,-0.028964344,0.008105727,1.1680248,1.2808815
0.1,0.0,0.8999999999999999,0.0,0.5235987755982988,0,-1.638252,1.2435889,-0.5792461,0.26371574,-0.06926012,1.4255245,-0.45819864,0.6813892,-1.6592543,-0.26610416,-0.0900239,0.043341707,1.1819494,0.90831125
0.1,0.0,0.8999999999999999,0.0,0.5235987755982988,0,-1.6382827,1.2429124,-0.5798943,0.26236233,-0.07232012,1.4283662,-0.6083881,1.0781884,-1.7000262,0.2821284,-0.094607465,-0.067084014,1.1879561,0.63200635
0.1,0.0,0.8999999999999999,0.0,0.5235987755982988,0,-1.6390977,1.2435406,-0.58022916,0.26558006,-0.0680074,1.4287891,-0.37450707,0.90764517,-1.6620597,0.022044597,-0.06883464,-0.15442865,1.2151304,1.0442197
0.1,0.0,0.8999999999999999,0.0,0.5235987755982988,0,-1.6372724,1.2436897,-0.5811125,0.2629287,-0.07170689,1.4273133,-0.53958035,0.7299664,-1.6758184,-0.20486684,-0.091493286,-0.07304666,1.2471793,0.898236
0.1,0.0,0.8999999999999999,0.0,0.5235987755982988,0,-1.6391098,1.2433771,-0.5789051,0.26454836,-0.069574334,1.4286705,-0.7367095,0.93704027,-1.6831037,-0.08858037,-0.044184156,-0.18037128,1.2113732,0.40938297
0.1,0.0,0.8999999999999999,0.0,0.5235987755982988,0,-1.6396858,1.2432644,-0.58132964,0.2597168,-0.071159676,1.4275441,-0.5823652,0.6888526,-1.6859808,0.8963593,-0.07000111,0.041861612,1.2112978,0.44807705
0.1,0.0,0.8999999999999999,0.0,0.5235987755982988,0,-1.638593,1.2423507,-0.58025724,0.2623418,-0.06917593,1.4259119,-0.47944716,1.0693996,-1.6761477,0.14192607,-0.074129984,0.0074030226,1.1843233,-0.51931846
0.1,0.0,0.8999999999999999,0.0,0.5235987755982988,0,-1.6382312,1.244011,-0.5795163,0.26655775,-0.078321144,1.4276494,-0.6734831,0.7695462,-1.6470239,-0.10767945,-0.101807065,-0.04140311,1.2080971,0.908588
0.1,0.0,0.8999999999999999,0.0,0.5235987755982988,0,-1.6371534,1.2433091,-0.5797455,0.2640057,-0.06391462,1.4249014,-0.5119022,0.8689068,-1.7088572,0.045062006,-0.09983995,0.09525391,1.2479925,-0.17826551
0.1,0.0,0.8999999999999999,0.0,0.5235987755982988,0,-1.6391848,1.2438443,-0.5787847,0.26455054,-0.06401142,1.426437,-0.6316121,0.80739963,-1.6344317,0.4527085,-0.072234266,-0.08407307,1.2353872,0.56474906
0.1,0.0,0.8999999999999999,0.0,0.5235987755982988,0,-1.6381613,1.2436657,-0.5807081,0.2611396,-0.072319396,1.4258938,-0.49227968,0.8074506,-1.651152,0.18370488,-0.05184839,0.043330893,1.2116668,-0.7932092
0.1,0.0,0.8999999999999999,0.0,0.5235987755982988,0,-1.6388645,1.2423835,-0.58123624,0.26474336,-0.06899942,1.4240679,-0.56409764,1.0021642,-1.7350179,0.1187686,-0.07068218,-0.0009920598,1.1340867,0.0016142059
0.1,0.0,0.8999999999999999,0.0,0.5235987755982988,0,-1.6394693,1.2445077,-0.5796827,0.2661625,-0.07017332,1.4249096,-0.39658004,0.8484379,-1.6709042,-0.9383606,-0.041306622,-0.09495144,1.2818636,0.49715346
0.1,0.0,0.8999999999999999,0.0,0.5235987755982988,0,-1.6387434,1.2427115,-0.5823239,0.2612229,-0.06918587,1.425292,-0.47748983,0.8198731,-1.7037652,-0.015618023,-0.07589425,0.040403266,1.1723217,0.14891025
0.1,0.0,0.8999999999999999,0.0,0.5235987755982988,0,-1.6396924,1.244029,-0.5771666,0.26426828,-0.071600355,1.4225272,-0.44741374,0.9089872,-1.6435118,0.6579422,-0.07218966,-0.31313628,1.2046224,0.4789767
0.1,0.0,0.8999999999999999,0.0,0.5235987755982988,0,-1.6386706,1.2433556,-0.5804467,0.2655226,-0.06322833,1.4290991,-0.49037707,0.8229165,-1.671044,-0.20236453,-0.075786024,-0.15674178,1.2363346,0.12760909
0.1,0.0,0.8999999999999999,0.0,0.5235987755982988,0,-1.639026,1.2439114,-0.5775313,0.26278126,-0.07011604,1.4253918,-0.66046417,0.8378785,-1.6969594,-0.07438978,-0.08414595,0.089413054,1.1907456,0.3075033
0.1,0.0,0.8999999999999999,0.0,0.5235987755982988,0,-1.6394968,1.2442508,-0.5806784,0.2615717,-0.06981654,1.4271593,-0.6867788,0.9584761,-1.6333102,0.031018138,-0.057401348,0.06804618,1.2635036,0.9268371
0.1,0.0,0.8999999999999999,0.0,0.5235987755982988,0,-1.6391072,1.244592,-0.5789879,0.26695484,-0.07133676,1.4266446,-0.37186185,1.1236122,-1.6339561,-0.26242095,-0.12749858,-0.07397,1.2358029,-0.061505288
0.1,0.0,0.8999999999999999,0.0,0.5235987755982988,0,-1.6386653,1.2441636,-0.5790981,0.2643043,-0.0730369,1.4299293,-0.58834743,0.8949018,-1.6576349,0.10863142,-0.004623268,-0.055125445,1.1720668,0.8922424
0.1,0.0,0.8999999999999999,0.0,0.5235987755982988,0,-1.6383276,1.2430614,-0.58005106,0.26317504,-0.072329916,1.4264294,-0.5915336,0.81246996,-1.6537902,0.022732401,-0.09569303,0.032265067,1.1912669,0.6045004
0.1,0.0,0.8999999999999999,0.0,0.5235987755982988,0,-1.638266,1.2442558,-0.5782704,0.2628341,-0.06931642,1.4281578,-0.44444644,0.92131436,-1.6744174,-0.348333,-0.06921188,0.01817961,1.182119,0.028215928
0.1,0.0,0.8999999999999999,0.0,0.5235987755982988,0,-1.6398606,1.2436786,-0.5789307,0.26173875,-0.0684252,1.425713,-0.41406587,0.7710005,-1.670047,-0.87690115,-0.11112365,-0.07964955,1.2834414,0.1604161
0.1,0.0,0.8999999999999999,0.0,0.5235987755982988,0,-1.6383843,1.2428063,-0.5783251,0.26757526,-0.07281132,1.4267011,-0.6538329,0.8481597,-1.6871209,-0.335853,-0.07141096,0.038874112,1.2228874,0.08984104
0.1,0.0,0.8999999999999999,0.0,0.5235987755982988,0,-1.6383989,1.2447499,-0.57988864,0.26302734,-0.066175096,1.4245677,-0.5064669,0.8723916,-1.6557609,-0.0037769726,-0.1380698,0.055473994,1.2049543,0.48630497
0.1,0.0,0.8999999999999999,0.0,0.5235987755982988,0,-1.637916,1.2438498,-0.57942325,0.2643972,-0.06849744,1.4273847,-0.44685286,0.81353444,-1.633574,-0.41283777,-0.07564315,0.081136085,1.1109136,1.210389
0.1,0.0,0.8999999999999999,0.0,0.5235987755982988,0,-1.6387933,1.243844,-0.581553,0.25983945,-0.06804273,1.4272604,-0.44853994,0.84738284,-1.6584524,-0.36369497,-0.07007976,0.04940188,1.2391946,0.52183914
0.1,0.0,0.8999999999999999,0.0,0.5235987755982988,0,-1.638799,1.2440464,-0.5800604,0.26642025,-0.060259074,1.4274427,-0.5366302,0.6752952,-1.7330477,-0.498235,-0.06298691,-0.1451384,1.2242987,0.07326323
0.1,0.0,0.8999999999999999,0.0,0.5235987755982988,0,-1.6378429,1.2447006,-0.5788736,0.26225805,-0.06643462,1.4289045,-0.6472785,0.9713106,-1.6629647,-0.24921088,-0.077853546,-0.035852257,1.2226056,0.4660113
0.1,0.0,0.8999999999999999,0.0,0.5235987755982988,0,-1.6382102,1.2446017,-0.5791579,0.26291695,-0.07099954,1.4259133,-0.6787179,0.99373454,-1.7035893,0.46985576,-0.081155695,-0.043420486,1.1785592,0.36653176
0.1,0.0,0.8999999999999999,0.0,0.5235987755982988,0,-1.6378167,1.2430451,-0.5809209,0.26259944,-0.07015385,1.4275216,-0.55941033,0.97126067,-1.6851735,0.016669052,-0.105579875,-0.059281766,1.1875044,0.52224886
0.1,0.0,0.8999999999999999,0.0,0.5235987755982988,0,-1.6377696,1.2436732,-0.5809654,0.26219413,-0.073899895,1.4272306,-0.5307647,0.9343528,-1.712958,-0.29060543,-0.110184416,0.101617366,1.2367436,0.89424604
0.1,0.0,0.8999999999999999,0.0,0.5235987755982988,0,-1.638081,1.2443963,-0.58071417,0.26426235,-0.066071816,1.427987,-0.7089297,0.8977511,-1.6626147,-0.35229674,-0.09600115,-0.08607814,1.2027671,0.50483954
0.1,0.0,0.8999999999999999,0.0,0.5235987755982988,0,-1.6389178,1.244116,-0.5803573,0.26610246,-0.06849265,1.4257648,-0.67321634,0.96307844,-1.6962514,0.22205447,-0.11922765,-0.08725604,1.2319744,-0.49959633
0.1,0.0,0.8999999999999999,0.0,0.5235987755982988,0,-1.6393824,1.243036,-0.57742876,0.26666406,-0.07410763,1.4265796,-0.527136,0.59718513,-1.6522629,-0.1922457,-0.08665489,-0.12601471,1.2373936,0.7751158
0.1,0.0,0.8999999999999999,0.0,0.5235987755982988,0,-1.6389711,1.2445855,-0.5788176,0.265686,-0.067625225,1.424524,-0.6488781,0.6116491,-1.6574194,-0.76354265,-0.10973532,0.037975594,1.1972669,0.3895443
0.1,0.0,0.8999999999999999,0.0,0.5235987755982988,0,-1.6384138,1.2437279,-0.5809495,0.2640688,-0.06492589,1.4272307,-0.62517446,0.8921499,-1.7040232,-0.21801344,-0.026257187,-0.0478285,1.1849935,0.58615613
0.1,0.0,0.8999999999999999,0.0,0.5235987755982988,0,-1.638752,1.2434361,-0.58207345,0.25992972,-0.072167456,1.430009,-0.6948535,0.70815396,-1.651433,0.048345882,-0.0959072,-0.18770446,1.2018738,0.6094418
0.1,0.0,0.8999999999999999,0.0,0.5235987755982988,0,-1.6387596,1.243636,-0.57998043,0.26322868,-0.068305045,1.4300302,-0.42805156,0.86419886,-1.6416231,-0.072233915,-0.08109803,0.020960199,1.238082,1.455397
0.1,0.0,0.8999999999999999,0.0,0.5235987755982988,0,-1.6395462,1.2435409,-0.57891077,0.26728204,-0.07075772,1.4257386,-0.6165035,1.158318,-1.6750426,-0.6816484,-0.094121784,0.1362651,1.16874,-0.17878984
0.1,0.0,0.8999999999999999,0.0,0.5235987755982988,0,-1.6393468,1.2434491,-0.57940626,0.26407886,-0.07093321,1.4258206,-0.5303328,0.95863664,-1.672515,-0.23882045,-0.06936552,-0.05658936,1.204127,1.1196442
0.1,0.0,0.8999999999999999,0.0,0.5235987755982988,0,-1.6400971,1.2439961,-0.5788864,0.2655581,-0.06992996,1.4279217,-0.44828817,0.85372764,-1.6340266,-0.05576659,-0.09811894,-0.0020496403,1.1842439,0.68801564
0.1,0.0,0.8999999999999999,0.0,0.5235987755982988,0,-1.6389909,1.2445996,-0.5787757,0.2615214,-0.074597485,1.4287993,-0.6308264,0.78280115,-1.6401173,0.5353199,-0.085389026,0.10301827,1.1954173,-0.12801306
0.1,0.0,0.8999999999999999,0.0,0.5235987755982988,0,-1.6403381,1.2436717,-0.58120805,0.2607844,-0.06838624,1.4278814,-0.48184592,0.58045083,-1.7317281,0.9743622,-0.13547854,0.15369187,1.2244861,0.077574685
0.1,0.0,0.8999999999999999,0.0,0.5235987755982988,0,-1.6387682,1.2434317,-0.57648885,0.2639666,-0.0768412,1.4279889,-0.58346,0.79095143,-1.6563151,0.0014042004,-0.06860809,0.031304326,1.1953379,0.91637987
0.1,0.0,0.8999999999999999,0.0,0.5235987755982988,0,-1.6395856,1.2429007,-0.57951176,0.2628503,-0.066996284,1.4272588,-0.59713507,0.8967938,-1.6538428,0.055779785,-0.096246436,-0.009255817,1.2480719,0.87670547
0.1,0.0,0.8999999999999999,0.0,0.5235987755982988,0,-1.639167,1.243321,-0.57763994,0.26523283,-0.07728661,1.4273775,-0.5211612,0.73630154,-1.6814234,0.1725323,-0.11755608,-0.20565957,1.1775949,0.67214644
0.1,0.0,0.8999999999999999,0.0,0.5235987755982988,0,-1.6391345,1.2435808,-0.5793544,0.26265335,-0.06767759,1.4268582,-0.70076454,0.7582356,-1.6827519,-0.3891109,-0.051809262,-0.057248484,1.1861616,0.6802137
0.1,0.0,0.8999999999999999,0.0,0.5235987755982988,0,-1.6395015,1.2444192,-0.5798914,0.2663678,-0.07016069,1.4287215,-0.5393545,1.072029,-1.6522771,-0.3370122,-0.078433506,-0.04746792,1.2371765,-0.64791286
0.1,0.0,0.8999999999999999,0.0,0.5235987755982988,0,-1.6373988,1.243917,-0.57957554,0.26152757,-0.06942796,1.4263875,-0.5836685,1.181017,-1.678235,-0.3730988,-0.06095747,0.023239454,1.1618143,0.4147304
0.1,0.0,0.8999999999999999,0.0,0.5235987755982988,0,-1.639143,1.2443559,-0.57937294,0.2668388,-0.06951634,1.4250953,-0.5330532,0.88977253,-1.6884673,0.5386641,-0.09740151,-0.006884003,1.2382715,0.38910297
0.1,0.0,0.8999999999999999,0.0,0.5235987755982988,0,-1.6383508,1.2428747,-0.5788602,0.26410428,-0.07106186,1.4261906,-0.4686048,0.5923544,-1.6997447,0.37078932,-0.07738022,0.072539315,1.2349072,1.2633561
0.1,0.0,0.8999999999999999,0.0,0.5235987755982988,0,-1.6383494,1.2455943,-0.57981557,0.2650709,-0.068041906,1.4278382,-0.66103286,0.6214547,-1.625567,-0.2618548,-0.07870374,0.0035435786,1.2026446,1.1532604
0.1,0.0,0.8999999999999999,0.0,0.5235987755982988,0,-1.6401774,1.2435644,-0.57928383,0.26398227,-0.064884424,1.424978,-0.5796324,0.9467881,-1.6471473,0.07405427,-0.084773175,-9.8363904e-05,1.1915324,-0.21159218
0.1,0.0,0.8999999999999999,0.0,0.5235987755982988,0,-1.6391475,1.2427504,-0.5794176,0.2627304,-0.06535779,1.4268243,-0.5652521,0.91071904,-1.6937368,-0.11528153,-0.070525005,-0.009601702,1.2194916,-0.52878207
0.1,0.0,0.8999999999999999,0.0,0.5235987755982988,0,-1.6397635,1.2436024,-0.5791381,0.26641205,-0.06864148,1.4277563,-0.52119356,1.0652846,-1.680829,-0.013251737,-0.07057554,0.023101976,1.1662745,1.2887741
0.1,0.0,0.8999999999999999,0.0,0.5235987755982988,0,-1.638849,1.2437347,-0.58090085,0.26478678,-0.07123494,1.4261887,-0.56902903,0.796414,-1.7141439,-0.39499936,-0.101108015,-0.05352851,1.2243456,-0.14663613
0.1,0.0,0.8999999999999999,0.0,0.5235987755982988,0,-1.638989,1.244201,-0.5801183,0.2612028,-0.06765361,1.4258248,-0.52493614,0.8685461,-1.6671709,-0.5000273,-0.05320609,-0.03237367,1.2163815,0.67263937
0.1,0.0,0.8999999999999999,0.0,0.5235987755982988,0,-1.6375694,1.2441735,-0.57939297,0.26171678,-0.07533405,1.427618,-0.5247068,0.90103185,-1.6687826,0.03133293,-0.07056211,-0.0805219,1.1790792,-0.0183145
0.1,0.0,0.8999999999999999,0.0,0.5235987755982988,0,-1.6402463,1.2443036,-0.5801881,0.26391593,-0.075516075,1.4264292,-0.45989963,0.8211878,-1.6659403,0.22680293,-0.09119083,-0.09482734,1.1366757,1.9675841
0.1,0.0,0.8999999999999999,0.0,0.5235987755982988,0,-1.638684,1.2434599,-0.5791842,0.26476833,-0.064711794,1.4257745,-0.48662063,1.0607907,-1.6885381,-0.016104927,-0.11589423,0.018534087,1.1581151,0.03763039
0.1,0.0,0.8999999999999999,0.0,0.5235987755982988,0,-1.6393524,1.2426125,-0.5794661,0.26551992,-0.06592188,1.4233164,-0.55167216,1.1238524,-1.6768765,-0.22712436,-0.072044395,0.008962681,1.2105638,-0.17585053
0.1,0.0,0.8999999999999999,0.0,0.5235987755982988,0,-1.639646,1.243516,-0.58005476,0.2640088,-0.07072542,1.4286262,-0.53898007,1.0379138,-1.682511,-0.5178681,-0.089203835,-0.08775782,1.213423,0.11918612
0.1,0.0,0.8999999999999999,0.0,0.5235987755982988,0,-1.6387548,1.2436632,-0.57896525,0.2647213,-0.0679923,1.4256008,-0.48618472,0.97001874,-1.6533531,-0.023437608,-0.08550353,-0.09463554,1.133143,0.61478233
0.1,0.0,0.8999999999999999,0.0,0.5235987755982988,0,-1.6385158,1.2440315,-0.57949686,0.26391265,-0.078158416,1.4259349,-0.48828915,1.0213062,-1.665366,-0.21907027,-0.08803397,-0.08677527,1.2217525,0.6988664
0.1,0.0,0.8999999999999999,0.0,0.5235987755982988,0,-1.6388845,1.2432791,-0.5785521,0.26127508,-0.0711244,1.4270337,-0.6379034,0.5978071,-1.6581112,-0.12607206,-0.107010104,0.18118113,1.1860706,0.3444095
0.1,0.0,0.8999999999999999,0.0,0.5235987755982988,0,-1.6400105,1.2440932,-0.57954425,0.26255807,-0.07096122,1.4264294,-0.4275908,0.8656696,-1.6309861,0.11010431,-0.058494374,-0.09438895,1.2563757,0.83291423
0.1,0.0,0.8999999999999999,0.0,0.5235987755982988,0,-1.6394736,1.2442901,-0.57909936,0.26232427,-0.06348096,1.4284084,-0.52518773,1.0447959,-1.6810025,0.24878605,-0.03768015,-0.02621114,1.2710683,1.1751832
0.1,0.0,0.8999999999999999,0.0,0.5235987755982988,0,-1.6380228,1.244097,-0.5808481,0.25999305,-0.073216476,1.4270111,-0.5830437,1.0419397,-1.7097384,-0.20808652,-0.094657205,0.12249961,1.2175335,1.0042552
0.1,0.0,0.8999999999999999,0.0,0.5235987755982988,0,-1.6392595,1.2431159,-0.5786919,0.26332828,-0.066009015,1.4283124,-0.62179035,0.7993433,-1.6549524,-0.13664985,-0.12892118,-0.13954447,1.2041942,-0.42240834
0.1,0.0,0.8999999999999999,0.0,0.5235987755982988,0,-1.6379787,1.2437901,-0.58021694,0.26420686,-0.06541712,1.4273977,-0.7105103,0.84289205,-1.6930037,0.12019231,-0.090081915,0.07454516,1.1971358,0.768694
0.1,0.0,0.8999999999999999,0.0,0.5235987755982988,0,-1.6391476,1.2438207,-0.57825184,0.26555827,-0.06967672,1.4245636,-0.63384676,0.8220636,-1.6722051,0.18209106,-0.11591323,0.13777523,1.2173359,0.37061173
0.1,0.0,0.8999999999999999,0.0,0.5235987755982988,0,-1.6390654,1.2442428,-0.5807443,0.26581115,-0.06966337,1.4280808,-0.55431175,0.7962892,-1.6860216,0.16524696,-0.08318294,-0.064370565,1.2233903,0.0759961
0.1,0.0,0.8999999999999999,0.0,0.5235987755982988,0,-1.6403267,1.2425982,-0.5781794,0.26442966,-0.06688078,1.4234976,-0.46420768,0.76046705,-1.6779529,-0.27017632,-0.06277799,0.031724606,1.1777985,0.773473
0.1,0.0,0.8999999999999999,0.0,0.5235987755982988,0,-1.6390872,1.2446953,-0.5782236,0.2647338,-0.06702421,1.4289812,-0.7526949,0.73490024,-1.6949117,-0.26572704,-0.09768975,-0.018837469,1.2098626,0.16024338
0.1,0.0,0.8999999999999999,0.0,0.5235987755982988,0,-1.6394763,1.2433708,-0.58142537,0.26307094,-0.06958113,1.4286194,-0.6336543,1.0270137,-1.7306948,-0.09538615,-0.098188415,-0.100706786,1.2112541,1.3337365
0.1,0.0,0.8999999999999999,0.0,0.5235987755982988,0,-1.6378874,1.2433213,-0.5797949,0.26082554,-0.069713615,1.4243666,-0.56637686,0.971099,-1.6636677,-0.31813878,-0.0882832,-0.058616083,1.2143239,-0.054271363
0.1,0.0,0.8999999999999999,0.0,0.5235987755982988,0,-1.6393145,1.2438073,-0.58009475,0.26449436,-0.06846617,1.4265876,-0.5752002,0.95388114,-1.6920255,0.061248068,-0.105545975,-0.08523928,1.2807845,0.8420422
0.1,0.0,0.8999999999999999,0.0,0.5235987755982988,0,-1.6399823,1.2442192,-0.57923037,0.2656743,-0.072784744,1.4253951,-0.5463301,0.9392438,-1.6521883,0.052061945,-0.07679202,-0.052367985,1.237993,1.0979025
0.1,0.0,0.8999999999999999,0.0,0.5235987755982988,0,-1.6385883,1.244366,-0.5801639,0.26471245,-0.069932364,1.4254602,-0.61726254,0.84719265,-1.6806816,0.14318646,-0.08865645,0.029016057,1.2730972,1.1453153
0.1,0.0,0.8999999999999999,0.0,0.5235987755982988,0,-1.6391169,1.2436789,-0.5791507,0.26375148,-0.06716472,1.4315175,-0.52729374,0.957156,-1.7298138,0.28887245,-0.1290076,0.017077165,1.233078,0.78981817
0.1,0.0,0.8999999999999999,0.0,0.5235987755982988,0,-1.638104,1.24345,-0.5797959,0.2599515,-0.072404586,1.4256136,-0.4848389,1.0612273,-1.6872466,0.088043384,-0.11969631,-0.0612357,1.23954,0.519406
0.1,0.0,0.8999999999999999,0.0,0.5235987755982988,0,-1.6393889,1.2425237,-0.57904667,0.2628047,-0.07158005,1.4288036,-0.4875914,1.0329022,-1.647672,0.22605067,-0.09969096,0.006659253,1.2003207,0.057848576
0.1,0.0,0.8999999999999999,0.0,0.5235987755982988,0,-1.6404676,1.2428534,-0.5805363,0.2657022,-0.07589136,1.4272382,-0.53229517,1.1309288,-1.7348554,-0.35481593,-0.044437718,0.15273872,1.1335397,0.5419042
0.1,0.0,0.8999999999999999,0.0,0.5235987755982988,0,-1.6399562,1.244125,-0.58109635,0.26228967,-0.076721855,1.4262288,-0.46211085,0.82817787,-1.6952491,-0.08340718,-0.13268176,0.031692244,1.2023661,1.3121043
0.1,0.0,0.8999999999999999,0.0,0.5235987755982988,0,-1.6396452,1.2443072,-0.5792551,0.2641978,-0.06829607,1.4279196,-0.63224816,1.0257657,-1.6495535,0.065950245,-0.08103393,-0.09681083,1.1586545,-0.25900334
0.1,0.0,0.8999999999999999,0.0,0.5235987755982988,0,-1.6395471,1.2440395,-0.57894963,0.26506394,-0.07139569,1.4252056,-0.4948083,0.8975672,-1.6580343,0.26419625,-0.04746499,0.013260289,1.2209202,0.17853184
0.1,0.0,0.8999999999999999,0.0,0.5235987755982988,0,-1.6402473,1.2437979,-0.57842034,0.26450622,-0.073730975,1.4244456,-0.46766007,0.7336799,-1.6825675,0.68724644,-0.10132706,-0.0042367247,1.1927215,-0.7133284
0.1,0.0,0.8999999999999999,0.0,0.5235987755982988,0,-1.638945,1.2439524,-0.5772946,0.2614645,-0.07198965,1.4280037,-0.5536871,0.8406982,-1.73315,0.3646666,-0.09854541,-0.028163422,1.180146,0.96221197
0.1,0.0,0.8999999999999999,0.0,0.5235987755982988,0,-1.6408225,1.2439502,-0.5795548,0.26635796,-0.06462691,1.4253491,-0.53843594,1.1372918,-1.6734121,-0.038660705,-0.06635189,-0.065447934,1.2319384,0.7857783
0.1,0.0,0.8999999999999999,0.0,0.5235987755982988,0,-1.6402301,1.2437376,-0.5787728,0.26411957,-0.069975466,1.4229015,-0.6361678,0.86186785,-1.6996688,0.3813854,-0.03772054,0.011860066,1.1880112,0.3447699
0.1,0.0,0.8999999999999999,0.0,0.5235987755982988,0,-1.6387801,1.2446358,-0.5812335,0.26504993,-0.07340135,1.4237033,-0.55884403,1.016084,-1.6862899,-0.04820086,-0.09829509,0.12770998,1.3082746,0.22358483
0.1,0.0,0.8999999999999999,0.0,0.5235987755982988,0,-1.638941,1.2444134,-0.57957715,0.26404566,-0.06671044,1.4243426,-0.73896945,1.0097562,-1.6887522,0.051065687,-0.11002041,0.0845691,1.240591,0.56556696
0.1,0.0,0.8999999999999999,0.0,0.5235987755982988,0,-1.6386493,1.2444814,-0.5782113,0.2647977,-0.07176219,1.4282739,-0.50470555,0.7667967,-1.6746485,0.23926347,-0.07266662,-0.117649145,1.216832,0.3776354
0.1,0.0,0.8999999999999999,0.0,0.5235987755982988,0,-1.6409982,1.2451537,-0.57934487,0.2622116,-0.07018896,1.4245625,-0.55974907,0.8058323,-1.6819983,-0.13937707,-0.078015655,0.026639452,1.18308,-0.68453395
0.1,0.0,0.8999999999999999,0.0,0.5235987755982988,0,-1.6391535,1.2429041,-0.5777482,0.26153985,-0.067129724,1.4221187,-0.38929817,0.9912563,-1.6513991,0.7175613,-0.017743558,0.05724069,1.1879828,1.283006
0.1,0.0,0.8999999999999999,0.0,0.5235987755982988,0,-1.6399703,1.2423809,-0.5807456,0.26583704,-0.06483633,1.4255815,-0.5365956,1.0192653,-1.6933652,-0.5127458,-0.06529274,0.07266717,1.1918058,1.4597477
0.1,0.0,0.8999999999999999,0.0,0.5235987755982988,0,-1.6393571,1.2437445,-0.5791806,0.26608843,-0.065195024,1.4257582,-0.50531876,0.87024105,-1.6366854,-0.13076875,-0.076901816,-0.012653972,1.3007369,0.59890026
0.1,0.0,0.8999999999999999,0.0,0.5235987755982988,0,-1.6389205,1.24328,-0.58052,0.26138327,-0.069246545,1.4257905,-0.6080246,0.60179543,-1.6752149,0.38998005,-0.10338113,-0.0831418,1.0796185,0.47014606
0.1,0.0,0.8999999999999999,0.0,0.5235987755982988,0,-1.637748,1.2426811,-0.57873726,0.26200312,-0.070814066,1.4267843,-0.62268484,0.7710285,-1.6502514,0.23096898,-0.0949031,0.16907772,1.2314423,0.8395323
0.1,0.0,0.8999999999999999,0.0,0.5235987755982988,0,-1.6393003,1.2435097,-0.58119535,0.25923222,-0.06962718,1.4315153,-0.4839977,0.943097,-1.6675235,-0.6795129,-0.0928203,0.12854631,1.1506382,0.40837234
0.1,0.0,0.8999999999999999,0.0,0.5235987755982988,0,-1.6389825,1.2439318,-0.579962,0.2627063,-0.07083221,1.4247776,-0.69192696,0.81697744,-1.689343,0.28372735,-0.10704579,-0.06786365,1.1737486,1.012158
0.1,0.0,0.8999999999999999,0.0,0.5235987755982988,0,-1.638968,1.2452382,-0.5786164,0.26337093,-0.06738297,1.4287469,-0.6308615,0.6809681,-1.6493638,-0.501228,-0.10557271,0.008043036,1.1502875,0.17894912
0.1,0.0,0.8999999999999999,0.0,0.5235987755982988,0,-1.6384884,1.241625,-0.58093864,0.2642209,-0.068511814,1.4265624,-0.60409427,0.7636054,-1.6846399,-0.7954905,-0.08997545,0.06358326,1.2188708,0.36386606
0.1,0.0,0.8999999999999999,0.0,0.5235987755982988,0,-1.637738,1.2436796,-0.57938015,0.26488876,-0.07224841,1.4290859,-0.53702027,1.0691161,-1.6892314,0.88152003,-0.11316068,-0.1800355,1.1623372,-0.1271712
0.1,0.0,0.8999999999999999,0.0,0.5235987755982988,0,-1.6402187,1.2425319,-0.58138514,0.26652116,-0.07183647,1.425878,-0.68089515,0.7691328,-1.6264212,-0.50664395,-0.08531673,-0.15118562,1.1978645,-0.19942561
0.1,0.0,0.8999999999999999,0.0,0.5235987755982988,0,-1.6396941,1.2440584,-0.5803058,0.26633584,-0.073059924,1.4258056,-0.4983853,0.7339857,-1.6981179,-0.49688828,-0.10376299,0.23378105,1.1691922,0.88228875
0.1,0.0,0.8999999999999999,0.0,0.5235987755982988,0,-1.6375215,1.2439892,-0.57936305,0.26467025,-0.06630512,1.429711,-0.55039436,0.822169,-1.7080902,-0.39691952,-0.07149454,-0.10358251,1.2013165,-0.042802747
0.1,0.0,0.8999999999999999,0.0,0.5235987755982988,0,-1.6379585,1.243603,-0.5808319,0.26299724,-0.068781346,1.4247313,-0.5451617,0.76237124,-1.6568246,-0.12215757,-0.08389573,-0.10952762,1.193247,1.2205374
0.1,0.0,0.8999999999999999,0.0,0.5235987755982988,0,-1.6375259,1.2442844,-0.57845676,0.26670238,-0.070062704,1.4282128,-0.5994496,1.0045694,-1.6553293,0.12674232,-0.084576406,-0.003537259,1.1973089,0.49940893
0.1,0.0,0.8999999999999999,0.0,0.5235987755982988,0,-1.6386788,1.2441462,-0.58031213,0.26213038,-0.06454449,1.4227139,-0.55067235,0.70670366,-1.6547066,0.12996933,-0.059083574,-0.00425464,1.2498091,0.6566211
0.1,0.0,0.8999999999999999,0.0,0.5235987755982988,0,-1.6387748,1.2430617,-0.57973623,0.25914508,-0.06630581,1.4257963,-0.6162894,0.7816062,-1.674078,-0.72802705,-0.08753813,-0.050774146,1.181972,0.6327765
0.1,0.0,0.8999999999999999,0.0,0.5235987755982988,0,-1.6384467,1.2436854,-0.57864726,0.26244646,-0.065137036,1.424118,-0.34687153,0.899432,-1.670265,-0.4026134,-0.08947506,0.13169044,1.1970125,-0.0722702
0.1,0.0,0.8999999999999999,0.0,0.5235987755982988,0,-1.638261,1.2433604,-0.57881445,0.26094484,-0.07423073,1.4220155,-0.5819915,0.81080353,-1.6973587,-0.42051464,-0.08923969,-0.034879148,1.2114534,1.2798759
0.1,0.0,0.8999999999999999,0.0,0.5235987755982988,0,-1.6397625,1.2425748,-0.5804353,0.265772,-0.07039019,1.4250029,-0.36436906,0.9658806,-1.6624621,0.6115222,-0.06607365,-0.03072345,1.2401013,0.35629717
0.1,0.0,0.8999999999999999,0.0,0.5235987755982988,0,-1.6382439,1.2428474,-0.5799297,0.2610913,-0.07066139,1.4244304,-0.7275773,0.92862964,-1.6671679,-0.10624098,-0.11615791,0.020688655,1.2098504,-0.22418804
0.1,0.0,0.8999999999999999,0.0,0.5235987755982988,0,-1.6379657,1.244003,-0.5808271,0.26187527,-0.073539436,1.4267187,-0.59993976,0.84462225,-1.6300157,0.13263659,-0.15065439,0.016821433,1.1469791,1.2149172
0.1,0.0,0.8999999999999999,0.0,0.5235987755982988,0,-1.6388872,1.2440991,-0.5793183,0.2645575,-0.07487865,1.4255582,-0.4568852,0.98338336,-1.7122991,0.4855794,-0.09739694,0.061147466,1.2081872,-0.21595718
0.1,0.0,0.8999999999999999,0.0,0.5235987755982988,0,-1.6377534,1.2427951,-0.5780864,0.26187092,-0.06987239,1.4281574,-0.8424025,1.0210444,-1.6419452,-0.6310484,-0.115483955,-0.12298478,1.219874,-0.14589433
0.1,0.0,0.8999999999999999,0.0,0.5235987755982988,0,-1.6391218,1.243673,-0.57873327,0.26640573,-0.07110803,1.4261079,-0.5358489,1.169132,-1.6500037,-0.09318801,-0.07406383,-0.007851029,1.2679961,1.0728937
0.1,0.0,0.8999999999999999,0.0,0.5235987755982988,0,-1.6374891,1.2420384,-0.58068717,0.26400295,-0.06864549,1.427875,-0.5081822,0.872413,-1.6368215,-0.39566112,-0.03444385,0.02694567,1.1128299,0.48627257
0.1,0.0,0.8999999999999999,0.0,0.5235987755982988,0,-1.6388015,1.2431203,-0.5805309,0.26503596,-0.06927594,1.4263537,-0.79315215,0.81066054,-1.6395594,-0.54137796,-0.05966463,0.12033085,1.1732262,0.49167964
0.1,0.0,0.8999999999999999,0.0,0.5235987755982988,0,-1.6382333,1.2426115,-0.5791326,0.26192847,-0.069325715,1.4266084,-0.56740093,1.0433711,-1.6743597,-0.48430008,-0.09948321,0.1126126,1.2251707,1.5667669
0.1,0.0,0.8999999999999999,0.0,0.5235987755982988,0,-1.637821,1.2426077,-0.5805565,0.26572523,-0.065552436,1.4264867,-0.45659366,1.0318549,-1.636005,-0.36299238,-0.053162534,-0.0041329423,1.1536642,0.25089133
0.1,0.0,0.8999999999999999,0.0,0.5235987755982988,0,-1.6379548,1.2428825,-0.5788541,0.26845312,-0.066620514,1.423365,-0.61547744,0.8920643,-1.6498613,0.3321778,-0.116678245,-0.18845177,1.2338744,0.34846443
0.1,0.0,0.8999999999999999,0.0,0.5235987755982988,0,-1.638152,1.244537,-0.57773596,0.2655725,-0.06436125,1.4271362,-0.42270824,1.0499516,-1.6507052,0.3723856,-0.07736703,-0.033654187,1.2541956,0.88699394
0.1,0.0,0.8999999999999999,0.0,0.5235987755982988,0,-1.6390592,1.2430794,-0.5812692,0.26224375,-0.06815727,1.4233805,-0.43456423,0.79640967,-1.6200875,-0.39143664,-0.09125892,-0.059946828,1.1983644,0.35927466
0.1,0.0,0.8999999999999999,0.0,0.5235987755982988,0,-1.6393107,1.2436324,-0.5789976,0.26552075,-0.07040908,1.4241507,-0.54912215,0.8869292,-1.6580986,0.29111883,-0.12663221,0.011529331,1.172077,1.1757381
0.1,0.0,0.8999999999999999,0.0,0.5235987755982988,0,-1.6385809,1.2435793,-0.5806268,0.2663103,-0.07436794,1.4243096,-0.41259056,0.93082523,-1.6417476,0.86250097,-0.07167176,0.12324819,1.1285948,1.5012804
0.1,0.0,0.8999999999999999,0.0,0.5235987755982988,0,-1.6381283,1.2425057,-0.5799285,0.26730734,-0.071017,1.4273292,-0.57432365,0.8970389,-1.5960454,-0.070783764,-0.052558187,0.055048726,1.1800575,0.45351255
0.1,0.0,0.8999999999999999,0.0,0.5235987755982988,0,-1.6375629,1.2440417,-0.58150625,0.25950187,-0.073305905,1.427625,-0.5404895,1.0926316,-1.6855537,0.32157502,-0.072569184,-0.062208142,1.1876116,1.1276925
0.1,0.0,0.8999999999999999,0.0,0.5235987755982988,0,-1.6373873,1.2438184,-0.5798847,0.26875877,-0.06492068,1.4279807,-0.49578243,0.7824116,-1.6227282,-0.33286506,-0.1065198,0.0893145,1.2699844,1.0748721
0.1,0.0,0.8999999999999999,0.0,0.5235987755982988,0,-1.6384255,1.2440926,-0.5789756,0.26740146,-0.06684718,1.423731,-0.5405488,0.71041816,-1.6649128,-0.04708762,-0.09476967,0.11920061,1.1233413,-0.041191094
0.1,0.0,0.8999999999999999,0.0,0.5235987755982988,0,-1.6389483,1.2442603,-0.5784008,0.26393074,-0.06646114,1.4256544,-0.52159095,0.68747866,-1.6305308,-0.17248932,-0.08932793,0.055794287,1.2753037,0.6211534
0.1,0.0,0.8999999999999999,0.0,0.5235987755982988,0,-1.6379812,1.2437793,-0.57802415,0.2633833,-0.066778705,1.4277709,-0.50757504,0.7897365,-1.5993972,0.11090241,-0.04149602,-0.0965352,1.180691,0.37912795
0.1,0.0,0.8999999999999999,0.0,0.5235987755982988,0,-1.6382933,1.2429127,-0.57945657,0.26507083,-0.06961537,1.4257164,-0.66678846,0.88603926,-1.6203556,-0.28247002,-0.092901416,0.083471335,1.1681608,0.097570844
0.1,0.0,0.8999999999999999,0.0,0.5235987755982988,0,-1.6377162,1.2426642,-0.5808197,0.26469147,-0.062449787,1.4267945,-0.6328368,1.0408047,-1.6354195,-0.20905413,-0.09031305,-0.001978939,1.2047694,0.39860833
0.1,0.0,0.8999999999999999,0.0,0.5235987755982988,0,-1.639586,1.2411418,-0.57907087,0.26315868,-0.06793341,1.4290469,-0.55626667,0.91933143,-1.652905,0.26429296,-0.090327315,0.07626845,1.2663869,-0.1318852
0.1,0.0,0.8999999999999999,0.0,0.5235987755982988,0,-1.6375241,1.2425121,-0.5813758,0.26191416,-0.06662568,1.4257319,-0.6120233,1.0881388,-1.6993133,-0.056212734,-0.11585071,0.10590677,1.219613,0.25375664
0.1,0.0,0.8999999999999999,0.0,0.5235987755982988,0,-1.6384865,1.2419487,-0.5814451,0.26358038,-0.071687005,1.424984,-0.52184135,0.9727841,-1.6250423,0.22947438,-0.0775588,-0.055415396,1.2541504,0.2085458
0.1,0.0,0.8999999999999999,0.0,0.5235987755982988,0,-1.6377007,1.2423095,-0.5789032,0.2664939,-0.06131555,1.424236,-0.6340163,0.78591996,-1.6708531,-0.27723336,-0.09124296,0.047109954,1.1691612,0.83867216
0.1,0.0,0.8999999999999999,0.0,0.5235987755982988,0,-1.6385369,1.2433637,-0.57875043,0.26600048,-0.06613648,1.4264683,-0.3994109,1.157427,-1.6466153,-1.062293,-0.08971008,0.07796279,1.2437505,0.07380729
0.1,0.0,0.8999999999999999,0.0,0.5235987755982988,0,-1.637421,1.2441424,-0.5795476,0.26718864,-0.08010924,1.4282206,-0.6512449,0.87711596,-1.6544558,-0.70199734,-0.104921415,0.05177246,1.1701508,1.962321
0.1,0.0,0.8999999999999999,0.0,0.5235987755982988,0,-1.638637,1.2426497,-0.5801507,0.26672214,-0.06336805,1.4287765,-0.4584186,0.80079854,-1.6605909,-0.08619972,-0.12160839,0.07869063,1.185885,0.44078368
0.1,0.0,0.8999999999999999,0.0,0.5235987755982988,0,-1.6399688,1.2420404,-0.5797463,0.26755565,-0.074175805,1.4238997,-0.4846602,0.7567773,-1.666947,-0.3877773,-0.115407296,0.13371754,1.0874621,0.83701146
0.1,0.0,0.8999999999999999,0.0,0.5235987755982988,0,-1.6379822,1.2431352,-0.57961375,0.26566604,-0.065304205,1.428636,-0.39223102,0.8052663,-1.6426647,0.44136646,-0.05482587,0.11598713,1.1500888,0.13257322
0.1,0.0,0.8999999999999999,0.0,0.5235987755982988,0,-1.6377733,1.2435853,-0.58046556,0.26603672,-0.07535721,1.4241723,-0.44843856,1.1516203,-1.6496351,-0.1627291,-0.044486854,0.030804494,1.2073685,0.487452
0.1,0.0,0.8999999999999999,0.0,0.5235987755982988,0,-1.6398245,1.2430124,-0.58018816,0.26404363,-0.067886576,1.4255167,-0.6648913,0.89723253,-1.6591489,-0.46841615,-0.09982092,-0.11411045,1.1457219,0.45562956
0.1,0.0,0.8999999999999999,0.0,0.5235987755982988,0,-1.6383504,1.244174,-0.57943004,0.26293018,-0.065769196,1.4257029,-0.5969015,1.0203385,-1.666952,0.7299542,-0.10795117,-0.09571558,1.1258067,0.7970719
0.1,0.0,0.8999999999999999,0.0,0.5235987755982988,0,-1.6381538,1.2427049,-0.57914513,0.2681986,-0.074707046,1.42866,-0.7413363,1.0369761,-1.6513348,0.0077177566,-0.070846565,0.06341038,1.1928084,1.0074884
0.1,0.0,0.8999999999999999,0.0,0.5235987755982988,0,-1.637791,1.2441378,-0.5794904,0.26390043,-0.07231715,1.4285184,-0.5781036,0.86789215,-1.6467174,-0.6346479,-0.06954151,0.052116897,1.1842242,-0.21664898
0.1,0.0,0.8999999999999999,0.0,0.5235987755982988,0,-1.638194,1.2434986,-0.5804934,0.26427284,-0.06924144,1.4278195,-0.5850062,0.65715015,-1.6885521,0.8760672,-0.0485074,-0.074705705,1.2124358,0.47835892
0.1,0.0,0.8999999999999999,0.0,0.5235987755982988,0,-1.6402559,1.2444768,-0.5803132,0.2654951,-0.068693824,1.425645,-0.50873864,0.73166025,-1.6398014,0.14943789,-0.06329426,0.10604829,1.2369107,-0.35058847
0.1,0.0,0.8999999999999999,0.0,0.5235987755982988,0,-1.6373987,1.2434872,-0.5814192,0.26413894,-0.06252076,1.426521,-0.66095585,0.8724133,-1.653596,-0.026401691,-0.050190985,-0.03354634,1.2045425,0.6701311
0.1,0.0,0.8999999999999999,0.0,0.5235987755982988,0,-1.6376164,1.243942,-0.58109105,0.26390916,-0.07056127,1.4229249,-0.4867451,1.0940294,-1.660182,0.3572735,-0.088380925,0.027988605,1.1819562,0.30095422
0.1,0.0,0.8999999999999999,0.0,0.5235987755982988,0,-1.6389376,1.2444059,-0.5794304,0.26738706,-0.0688599,1.4263183,-0.5298524,0.8522827,-1.6418293,-0.39648068,-0.102086574,-0.1250692,1.2232507,0.87043774
0.1,0.0,0.8999999999999999,0.0,0.5235987755982988,0,-1.6381865,1.2425109,-0.58002824,0.26575035,-0.073653854,1.423398,-0.6324398,0.8917885,-1.6972984,0.32847363,-0.09050365,-0.09688972,1.2770586,0.6778949
0.1,0.0,0.8999999999999999,0.0,0.5235987755982988,0,-1.63837,1.2423749,-0.5794658,0.26429266,-0.071231775,1.4239902,-0.58459365,0.8815153,-1.6661412,-0.23403513,-0.09978109,-0.12967983,1.231166,-0.08794387
0.1,0.0,0.8999999999999999,0.0,0.5235987755982988,0,-1.6385083,1.2436687,-0.5792349,0.2650008,-0.06967052,1.4301184,-0.56095487,1.1312912,-1.6740868,-0.52151227,-0.090204895,0.057860244,1.2039738,0.6198326
0.1,0.0,0.8999999999999999,0.0,0.5235987755982988,0,-1.6379949,1.2439625,-0.5791292,0.26575738,-0.06592643,1.4265327,-0.5415065,0.8972045,-1.6430016,-0.103885114,-0.088514924,-0.06156114,1.2460566,0.65715563
0.1,0.0,0.8999999999999999,0.0,0.5235987755982988,0,-1.6399331,1.2433585,-0.57611984,0.26792705,-0.06827021,1.4263874,-0.7294474,0.8825822,-1.6069721,-0.06340105,-0.09474717,-0.16784266,1.2119672,-0.24832617
0.1,0.0,0.8999999999999999,0.0,0.5235987755982988,0,-1.6388077,1.243598,-0.5781002,0.2643179,-0.070203155,1.42894,-0.4924764,0.7408387,-1.6585315,-0.1246406,-0.0570354,-0.1231287,1.1280795,0.69282323
0.1,0.0,0.8999999999999999,0.0,0.5235987755982988,0,-1.6392004,1.2428775,-0.58033186,0.2641475,-0.061496526,1.4259589,-0.5489445,0.99698126,-1.6416273,-0.38109565,-0.099660106,-0.08938278,1.2612717,0.111346774
0.1,0.0,0.8999999999999999,0.0,0.5235987755982988,0,-1.6386284,1.2440828,-0.58014154,0.26728186,-0.06402578,1.4272165,-0.64702004,0.932211,-1.6884254,0.10383231,-0.1007838,-0.27614126,1.2138238,-0.23912026
0.1,0.0,0.8999999999999999,0.0,0.5235987755982988,0,-1.6405045,1.2436049,-0.57968885,0.26678687,-0.0676798,1.4237678,-0.5641808,0.95338225,-1.6265179,-0.211999,-0.09349344,-0.027293405,1.2138819,0.10806462
0.1,0.0,0.8999999999999999,0.0,0.5235987755982988,0,-1.6396626,1.2432016,-0.57948714,0.2644807,-0.06896218,1.4260606,-0.44770542,0.80138034,-1.6572006,0.4669301,-0.10550546,0.024829755,1.1593561,0.4620666
0.1,0.0,0.8999999999999999,0.0,0.5235987755982988,0,-1.6390566,1.2444916,-0.5795585,0.26525426,-0.06390489,1.4287716,-0.6804362,0.6869808,-1.6215293,-0.21295945,-0.09220981,-0.0061425227,1.1570047,0.11444803
0.1,0.0,0.8999999999999999,0.0,0.5235987755982988,0,-1.6392224,1.2439309,-0.581278,0.26302147,-0.07494716,1.4267502,-0.505921,0.8674987,-1.6406776,-0.32549715,-0.05648365,0.038893804,1.1986405,0.6372779
0.1,0.0,0.8999999999999999,0.0,0.5235987755982988,0,-1.6379194,1.244208,-0.5783502,0.26193887,-0.07149177,1.4267541,-0.47463125,0.76797926,-1.6680658,-0.2088145,-0.074956894,-0.07173596,1.1447221,0.018120507
0.1,0.0,0.8999999999999999,0.0,0.5235987755982988,0,-1.6383997,1.244075,-0.57936496,0.26273182,-0.076279506,1.4225757,-0.7014928,0.81520754,-1.6776491,0.02150015,-0.085874684,-0.06652024,1.2813585,-0.010049876
0.1,0.0,0.8999999999999999,0.0,0.5235987755982988,0,-1.6403328,1.2436547,-0.5804633,0.26499677,-0.06506346,1.4238577,-0.3713922,0.7687498,-1.6988645,0.11275207,-0.09077325,0.1757484,1.2400132,0.31895903
0.1,0.0,0.8999999999999999,0.0,0.5235987755982988,0,-1.6405988,1.2449336,-0.5790418,0.26571357,-0.069981456,1.426881,-0.43991333,1.1562212,-1.6777041,-0.37931243,-0.0492854,0.0175655,1.2677286,0.64964235
0.1,0.0,0.8999999999999999,0.0,0.5235987755982988,0,-1.6389508,1.2443695,-0.5807263,0.26217467,-0.07045126,1.4269407,-0.5400563,0.8120515,-1.7010616,-0.11785617,-0.09521051,0.06964325,1.2164887,0.51562685
0.1,0.0,0.8999999999999999,0.0,0.5235987755982988,0,-1.6392809,1.2438065,-0.5802587,0.26144612,-0.06719234,1.4237771,-0.49345103,0.640171,-1.6811984,-0.1928046,-0.09789737,0.09724839,1.2711313,0.71605796
0.1,0.0,0.8999999999999999,0.0,0.5235987755982988,0,-1.6398312,1.2442535,-0.57796836,0.2625734,-0.07128837,1.4257258,-0.44378835,1.044208,-1.6756161,-0.34999233,-0.10534076,0.074460305,1.179514,-0.22433665
0.1,0.0,0.8999999999999999,0.0,0.5235987755982988,0,-1.6391013,1.2442583,-0.5799936,0.26270887,-0.06754442,1.427253,-0.48907626,0.8173355,-1.7457567,-0.25961336,-0.043374136,0.057762425,1.1790216,1.1344794
0.1,0.0,0.8999999999999999,0.0,0.5235987755982988,0,-1.6393585,1.2431123,-0.58169967,0.2661323,-0.06922988,1.4267488,-0.59080845,0.8904939,-1.63306,0.5649258,-0.089805864,0.04100674,1.208568,1.5731102
0.1,0.0,0.8999999999999999,0.0,0.5235987755982988,0,-1.6388547,1.2447506,-0.581575,0.26254869,-0.069245175,1.42383,-0.5980825,0.9584763,-1.6359912,-0.27691504,-0.09674938,0.1026687,1.1853791,1.000059
0.1,0.0,0.8999999999999999,0.0,0.5235987755982988,0,-1.6384395,1.242194,-0.5807259,0.26112482,-0.06418409,1.424312,-0.50248784,0.92152905,-1.6496863,-0.63261974,-0.074245594,-0.028955767,1.1912901,0.9841931
0.1,0.0,0.8999999999999999,0.0,0.5235987755982988,0,-1.6371763,1.2423432,-0.5803403,0.26340082,-0.07086188,1.4298677,-0.42826054,1.1271614,-1.6762214,0.091430835,-0.10570949,0.107097365,1.2070717,1.326758
0.1,0.0,0.8999999999999999,0.0,0.5235987755982988,0,-1.6384517,1.2451217,-0.5807279,0.2645947,-0.06525843,1.4261671,-0.637696,0.84685725,-1.5852208,0.36775476,-0.088318124,-0.1388513,1.2196194,-0.44320294
0.1,0.0,0.8999999999999999,0.0,0.5235987755982988,0,-1.6375961,1.2433153,-0.58081853,0.26812154,-0.06829706,1.4286854,-0.7297474,0.9638962,-1.6425743,-0.4291077,-0.09032286,0.11643711,1.1814859,0.52357507
0.1,0.0,0.8999999999999999,0.0,0.5235987755982988,0,-1.6391937,1.2424664,-0.57978845,0.26399493,-0.064388804,1.4272938,-0.5993926,1.141897,-1.6053934,-0.344993,-0.071826234,-0.012986212,1.2404925,1.1229309
0.1,0.0,0.8999999999999999,0.0,0.5235987755982988,0,-1.6373488,1.241744,-0.5817533,0.26377565,-0.07777788,1.4294553,-0.48027673,0.9529378,-1.6980476,0.21546161,-0.09225572,0.00592309,1.2375755,-0.44052616
0.1,0.0,0.8999999999999999,0.0,0.5235987755982988,0,-1.6378361,1.2433478,-0.57825136,0.2684432,-0.068890594,1.4233601,-0.5562075,1.0524703,-1.6429137,-0.054503,-0.05316445,-0.14679524,1.1719451,0.3240699
0.1,0.0,0.8999999999999999,0.0,0.5235987755982988,0,-1.6391448,1.2419039,-0.58071136,0.26500604,-0.07675418,1.4249039,-0.6019061,0.9777448,-1.6822935,0.043243263,-0.08390566,-0.1835557,1.2556258,0.64516044
0.1,0.0,0.8999999999999999,0.0,0.5235987755982988,0,-1.6389662,1.2446634,-0.5786017,0.26379904,-0.07191608,1.4282545,-0.6367823,0.7723847,-1.6631565,0.49158663,-0.10166778,-0.031078847,1.2596961,0.38220656
0.1,0.0,0.8999999999999999,0.0,0.5235987755982988,0,-1.6370101,1.2430587,-0.57877725,0.26203352,-0.07039658,1.4272441,-0.5454792,0.8786597,-1.6759692,-0.07526003,-0.10543621,0.03900814,1.2867808,-0.21591012
0.1,0.0,0.8999999999999999,0.0,0.5235987755982988,0,-1.6376115,1.2451335,-0.5797686,0.26287144,-0.07095784,1.4269688,-0.53448266,1.1658168,-1.6773206,0.08826531,-0.14099671,-0.1535911,1.2277031,0.0673859
0.1,0.0,0.8999999999999999,0.0,0.5235987755982988,0,-1.638979,1.2436218,-0.58073574,0.2610071,-0.07103443,1.4286712,-0.62255305,0.5390611,-1.6985577,0.26977313,-0.12539296,-0.056185823,1.2476441,1.2065431
