sanky1234/BimanualDexCatch/isaacgymenvs/cem_results/football_pose_0.0_0.1_1.0999999999999999_0.5235987755982988_0.0_0_2025-05-26.csv
x,y,z,roll,pitch,yaw,robot1/joint1,robot1/joint2,robot1/joint3,robot1/joint4,robot1/joint5,robot1/joint6,robot1/joint7,robot2/joint1,robot2/joint2,robot2/joint3,robot2/joint4,robot2/joint5,robot2/joint6,robot2/joint7
0.0,0.1,1.0999999999999999,0.5235987755982988,0.0,0,-0.1654822,-0.47507775,-0.54060787,0.21056962,0.2475578,1.3177012,0.7119283,0.9525367,-1.7766578,0.036397368,-0.06667722,0.012058695,1.2401239,-1.9098842
0.0,0.1,1.0999999999999999,0.5235987755982988,0.0,0,-0.16556498,-0.47567636,-0.5407193,0.2171639,0.16345634,1.3071135,0.05387023,0.8905487,-1.7921822,0.08107291,-0.07338256,0.08067262,1.2393048,0.21397749
0.0,0.1,1.0999999999999999,0.5235987755982988,0.0,0,-0.16537262,-0.47473946,-0.5412167,0.21857913,0.22054991,1.366465,-0.17659324,0.90485334,-1.8247225,0.09830171,-0.08770185,0.02659387,1.244134,-0.5550595
0.0,0.1,1.0999999999999999,0.5235987755982988,0.0,0,-0.1653523,-0.47640744,-0.540885,0.21346886,0.21550393,1.2786489,-0.041921247,0.895385,-1.8176543,0.17190757,-0.084105045,0.12065201,1.229819,0.64705586
0.0,0.1,1.0999999999999999,0.5235987755982988,0.0,0,-0.16535258,-0.47619107,-0.5403495,0.21386115,0.3329926,1.3439314,-0.3406286,0.93464935,-1.7717,-0.0016885854,-0.08253155,-0.0594683,1.2663376,0.07958504
0.0,0.1,1.0999999999999999,0.5235987755982988,0.0,0,-0.16534534,-0.47641578,-0.5413873,0.21641569,0.16456887,1.2949389,0.45343384,0.93342125,-1.8171808,0.08366809,-0.06405159,-0.058438167,1.2575312,-0.08612453
0.0,0.1,1.0999999999999999,0.5235987755982988,0.0,0,-0.16546713,-0.47562686,-0.5388144,0.21198799,0.13644305,1.3760525,0.48085204,0.960421,-1.8272666,0.04956395,-0.08777313,0.03024588,1.273436,0.79252553
0.0,0.1,1.0999999999999999,0.5235987755982988,0.0,0,-0.16555166,-0.47595403,-0.53940177,0.21192335,0.243298,1.3436079,1.0164802,0.94177735,-1.8043629,0.1939306,-0.042580973,-0.09970098,1.214824,0.07166926
0.0,0.1,1.0999999999999999,0.5235987755982988,0.0,0,-0.16544361,-0.47556037,-0.5421588,0.21499504,0.17012541,1.2951618,0.5689768,0.92442745,-1.7995591,-0.0035976486,-0.07349353,-0.057270154,1.2840726,-0.34317762
0.0,0.1,1.0999999999999999,0.5235987755982988,0.0,0,-0.1654188,-0.47584176,-0.5426232,0.22147784,0.21808404,1.3061699,0.3204108,0.87852,-1.7920226,0.055223837,-0.069487475,-0.087268494,1.2426754,-0.43961278
0.0,0.1,1.0999999999999999,0.5235987755982988,0.0,0,-0.16549227,-0.47580025,-0.5407738,0.20797332,0.27282414,1.3526753,-0.5850244,0.93762016,-1.813662,0.10961347,-0.059333052,-0.09462178,1.2234066,-1.0271239
0.0,0.1,1.0999999999999999,0.5235987755982988,0.0,0,-0.16529727,-0.4757086,-0.5401856,0.21036473,0.30800784,1.3425565,-0.77335155,0.9409914,-1.8228137,-0.080677345,-0.04946309,-0.14063828,1.1978881,0.41751736
0.0,0.1,1.0999999999999999,0.5235987755982988,0.0,0,-0.16548787,-0.4753609,-0.5390099,0.21929102,0.22670178,1.3515923,0.5185884,0.90905714,-1.7829546,0.045773912,-0.05956475,-0.01297878,1.249698,-0.45980558
0.0,0.1,1.0999999999999999,0.5235987755982988,0.0,0,-0.16575624,-0.4759086,-0.5390274,0.21077259,0.17554353,1.3568048,0.29041517,0.92522174,-1.7930108,0.1641127,-0.124702066,0.03471112,1.2956338,-0.12335144
0.0,0.1,1.0999999999999999,0.5235987755982988,0.0,0,-0.1652955,-0.47599858,-0.54014796,0.21099836,0.1702428,1.3633372,-1.9052297,0.9240603,-1.7835289,0.26337653,-0.05792252,-0.042089727,1.2553833,-1.2666929
0.0,0.1,1.0999999999999999,0.5235987755982988,0.0,0,-0.1657009,-0.4754529,-0.5387703,0.21770142,0.158238,1.3002833,0.52501696,0.90968186,-1.8070798,0.019989194,-0.06282673,0.023844639,1.2813412,-1.4685137
0.0,0.1,1.0999999999999999,0.5235987755982988,0.0,0,-0.16521342,-0.47632432,-0.5407622,0.21203072,0.1488202,1.3482826,-1.3760908,0.8974868,-1.7989795,0.07939695,-0.08751153,-0.0058247903,1.2367799,0.34356898
0.0,0.1,1.0999999999999999,0.5235987755982988,0.0,0,-0.16540793,-0.475636,-0.54162645,0.2136197,0.18582277,1.3069627,-0.24371731,0.92830175,-1.7996937,0.073937446,-0.061654154,0.057861645,1.2652717,-0.26701993
0.0,0.1,1.0999999999999999,0.5235987755982988,0.0,0,-0.16552226,-0.47553563,-0.54007274,0.21520476,0.2351608,1.3534036,-0.24905655,0.9198025,-1.7765752,0.07170583,-0.055888083,-0.0068341475,1.2723428,0.25622627
0.0,0.1,1.0999999999999999,0.5235987755982988,0.0,0,-0.16528226,-0.47605085,-0.54094166,0.21261004,0.22465463,1.3288318,0.68622494,0.92123604,-1.7890902,0.075409375,-0.0822682,0.07365984,1.2580199,0.32596824
0.0,0.1,1.0999999999999999,0.5235987755982988,0.0,0,-0.16539381,-0.47594085,-0.5402816,0.2117678,0.15059462,1.3379567,-0.2630743,0.92124015,-1.783661,-0.016986968,-0.08159084,-0.010763976,1.2405041,0.44905946
0.0,0.1,1.0999999999999999,0.5235987755982988,0.0,0,-0.16512577,-0.4749389,-0.5414721,0.21577398,0.27045652,1.3135895,-1.0755367,0.91670126,-1.8036438,0.061587445,-0.08531556,-0.012151312,1.2488362,0.44002262
0.0,0.1,1.0999999999999999,0.5235987755982988,0.0,0,-0.16584735,-0.4757032,-0.53918225,0.21738617,0.21572046,1.3210539,1.064954,0.93474674,-1.7892197,0.14896417,-0.0410482,0.12886421,1.2269167,-0.36835644
0.0,0.1,1.0999999999999999,0.5235987755982988,0.0,0,-0.16581097,-0.4754382,-0.54002476,0.21277247,0.31872064,1.3188068,0.46189874,0.90943843,-1.8172923,-0.022916505,-0.0607416,-0.01677827,1.2325516,-0.5963789
0.0,0.1,1.0999999999999999,0.5235987755982988,0.0,0,-0.16565466,-0.47599503,-0.54085094,0.21933112,0.19921869,1.3431709,-1.4489886,0.927551,-1.8135438,0.13231213,-0.079321325,-0.017478675,1.2559522,0.8200568
0.0,0.1,1.0999999999999999,0.5235987755982988,0.0,0,-0.16525479,-0.47522017,-0.54046756,0.20818676,0.2227076,1.3858294,-0.21800356,0.90453863,-1.7810895,0.06477156,-0.1120183,-0.06665538,1.2637308,-0.15891689
0.0,0.1,1.0999999999999999,0.5235987755982988,0.0,0,-0.16523753,-0.47502062,-0.5398583,0.20799628,0.20387745,1.3084811,0.22933581,0.87415606,-1.7913872,0.15328145,-0.06511682,-0.03760512,1.2680852,0.26076734
0.0,0.1,1.0999999999999999,0.5235987755982988,0.0,0,-0.16559848,-0.47562268,-0.5391672,0.21367604,0.17885934,1.3324716,-0.7654668,0.9369388,-1.8088562,0.024276536,-0.103734136,0.04264181,1.2217133,-0.62463135
0.0,0.1,1.0999999999999999,0.5235987755982988,0.0,0,-0.16503602,-0.47569707,-0.54119617,0.21495691,0.2716154,1.3672897,0.27713722,0.8993353,-1.8162374,0.0775048,-0.057257466,0.11142342,1.2533879,-0.6516289
0.0,0.1,1.0999999999999999,0.5235987755982988,0.0,0,-0.1656062,-0.47563508,-0.541144,0.21116474,0.1657107,1.3096662,-0.10843402,0.91120607,-1.8226657,0.08374461,-0.090886496,0.069275565,1.2308308,-2.499176
0.0,0.1,1.0999999999999999,0.5235987755982988,0.0,0,-0.16550882,-0.4747576,-0.5398522,0.21079835,0.15738936,1.3613635,-1.3194441,0.9377748,-1.811775,0.14691338,-0.08657159,0.06913417,1.2697886,-0.7829364
0.0,0.1,1.0999999999999999,0.5235987755982988,0.0,0,-0.16520722,-0.475897,-0.54079133,0.2106148,0.33638355,1.3493495,0.2623656,0.8946512,-1.8107332,0.027405435,-0.073770046,-0.008829829,1.2697026,-0.74136215
0.0,0.1,1.0999999999999999,0.5235987755982988,0.0,0,-0.16554771,-0.47546178,-0.5396284,0.21414226,0.23649444,1.3843925,-1.1621395,0.9363678,-1.8065864,-0.012424347,-0.09040125,0.027879063,1.2801099,-1.5793738
0.0,0.1,1.0999999999999999,0.5235987755982988,0.0,0,-0.16502754,-0.4752825,-0.5424501,0.21257178,0.29489884,1.3774178,0.675934,0.8991486,-1.8025827,-0.02560141,-0.07839645,-0.19304329,1.2355858,0.20989488
0.0,0.1,1.0999999999999999,0.5235987755982988,0.0,0,-0.16557719,-0.4755449,-0.54031235,0.20786813,0.27928555,1.3281485,-0.17731944,0.940442,-1.8058771,0.10311846,-0.084198505,-0.037850093,1.2428392,-0.1618387
0.0,0.1,1.0999999999999999,0.5235987755982988,0.0,0,-0.16543771,-0.4759038,-0.5402312,0.21233329,0.24239694,1.3890314,0.36035457,0.9123103,-1.763096,0.06465994,-0.051553924,0.027556801,1.2434212,0.30237037
0.0,0.1,1.0999999999999999,0.5235987755982988,0.0,0,-0.16543321,-0.4756238,-0.5427834,0.2143382,0.32411775,1.338935,0.45951396,0.9247951,-1.7885739,0.07052776,-0.06431336,-0.0050773043,1.2448678,-0.01717782
0.0,0.1,1.0999999999999999,0.5235987755982988,0.0,0,-0.16528615,-0.47587088,-0.5409681,0.21237318,0.26986015,1.3300232,-2.4014995,0.9367963,-1.7880628,-0.060907606,-0.1016099,0.106405504,1.2625794,-0.3551141
0.0,0.1,1.0999999999999999,0.5235987755982988,0.0,0,-0.16523322,-0.47547448,-0.5409904,0.21282366,0.20312428,1.3243942,1.550707,0.9418584,-1.8320569,0.09362616,-0.06979285,-0.14175293,1.2699456,-0.7319333
0.0,0.1,1.0999999999999999,0.5235987755982988,0.0,0,-0.16542983,-0.47555506,-0.5398513,0.20725633,0.18612833,1.3552855,-0.59027135,0.91239476,-1.8127037,-0.005619028,-0.09838901,0.019530278,1.1999687,-0.50587493
0.0,0.1,1.0999999999999999,0.5235987755982988,0.0,0,-0.16554672,-0.47520673,-0.5402999,0.21512693,0.19916579,1.324927,0.24473199,0.88754344,-1.7996951,0.1255509,-0.07317813,0.050334368,1.274584,0.016240269
0.0,0.1,1.0999999999999999,0.5235987755982988,0.0,0,-0.16525288,-0.4754328,-0.5403163,0.21178065,0.28257927,1.3450838,-0.8286585,0.9115942,-1.7947176,0.014281478,-0.06355361,-0.03873749,1.2488159,0.37919334
0.0,0.1,1.0999999999999999,0.5235987755982988,0.0,0,-0.16531992,-0.47564125,-0.5402677,0.21096808,0.15074794,1.2937742,-0.8238207,0.8887425,-1.8264076,0.07814298,-0.075663,0.0050583226,1.2669079,1.1207645
0.0,0.1,1.0999999999999999,0.5235987755982988,0.0,0,-0.16563556,-0.4756015,-0.54121804,0.21189007,0.23916458,1.3512194,-0.1143084,0.9052846,-1.8253301,0.14321251,-0.07083691,0.016704109,1.2536681,0.019291755
0.0,0.1,1.0999999999999999,0.5235987755982988,0.0,0,-0.16538604,-0.47484207,-0.53910184,0.21249771,0.28129995,1.3257289,0.5111252,0.91739887,-1.8032792,0.08449496,-0.07376256,0.026739175,1.2430185,0.2571623
0.0,0.1,1.0999999999999999,0.5235987755982988,0.0,0,-0.1652584,-0.47567517,-0.5400294,0.21322574,0.1933266,1.377945,0.33732185,0.9210711,-1.7933154,0.03318574,-0.06696376,-0.10542462,1.2309883,-0.4366553
0.0,0.1,1.0999999999999999,0.5235987755982988,0.0,0,-0.16528176,-0.47504026,-0.540945,0.21122888,0.20371878,1.3271967,0.45050827,0.8797465,-1.818282,0.10549232,-0.07113073,0.019810876,1.2315015,1.1046104
0.0,0.1,1.0999999999999999,0.5235987755982988,0.0,0,-0.16563652,-0.47531807,-0.53933275,0.21041429,0.24027611,1.3446232,0.7168774,0.91002005,-1.809152,0.1529052,-0.07969224,-0.037828583,1.2566745,-0.7295098
0.0,0.1,1.0999999999999999,0.5235987755982988,0.0,0,-0.16520226,-0.47592434,-0.5403647,0.21216318,0.2443193,1.3300711,0.31941438,0.9279397,-1.7908367,0.1025453,-0.07245417,0.057708833,1.2486085,-0.26004726
0.0,0.1,1.0999999999999999,0.5235987755982988,0.0,0,-0.16504404,-0.47590476,-0.5400966,0.21083567,0.15380362,1.3001546,1.0060349,0.90631324,-1.8345481,0.0018973721,-0.07399582,-0.06807368,1.2647012,-2.1669602
0.0,0.1,1.0999999999999999,0.5235987755982988,0.0,0,-0.16552435,-0.47553366,-0.54130435,0.21241279,0.24574852,1.3239048,0.99190557,0.93052447,-1.8154469,-0.07256129,-0.106779605,0.008926789,1.2482167,0.438937
0.0,0.1,1.0999999999999999,0.5235987755982988,0.0,0,-0.16569622,-0.47493947,-0.53966576,0.21348797,0.15954399,1.4020401,-0.8389504,0.92807364,-1.8084723,0.08987968,-0.0614453,0.044135235,1.233578,-2.073218
0.0,0.1,1.0999999999999999,0.5235987755982988,0.0,0,-0.16552621,-0.4758411,-0.5406818,0.22145973,0.3155011,1.3101468,0.117809154,0.87415624,-1.8157322,-0.08867429,-0.043861624,0.07851919,1.2489977,0.490833
0.0,0.1,1.0999999999999999,0.5235987755982988,0.0,0,-0.16513975,-0.4757524,-0.540935,0.21272337,0.24228017,1.3263016,0.13500644,0.933307,-1.8108371,0.025502749,-0.05685163,0.0855375,1.2407135,-0.2532435
0.0,0.1,1.0999999999999999,0.5235987755982988,0.0,0,-0.16522913,-0.4754903,-0.5417956,0.21650846,0.24611914,1.3746057,-0.30996358,0.9098955,-1.7984148,0.048451632,-0.10834977,-0.058569003,1.2685775,-1.8724692
0.0,0.1,1.0999999999999999,0.5235987755982988,0.0,0,-0.16541049,-0.47581145,-0.54188216,0.22043306,0.29300848,1.4016403,0.120155714,0.905492,-1.8132092,0.089165494,-0.07244002,0.12906964,1.2503456,0.967236
0.0,0.1,1.0999999999999999,0.5235987755982988,0.0,0,-0.1654438,-0.4759975,-0.54128826,0.21125284,0.24844335,1.3484074,-0.39246088,0.89861345,-1.8371887,0.07473061,-0.08847835,0.08357657,1.2251525,-0.68110234
0.0,0.1,1.0999999999999999,0.5235987755982988,0.0,0,-0.16528745,-0.47563154,-0.54126316,0.21321204,0.22758657,1.3213375,-0.080011494,0.9527604,-1.8026547,0.1362249,-0.08286781,-0.09335971,1.2253093,-0.66879594
0.0,0.1,1.0999999999999999,0.5235987755982988,0.0,0,-0.16513404,-0.47589853,-0.54012734,0.21182574,0.29293075,1.3875916,0.16895503,0.9012325,-1.8254187,0.0136769125,-0.08484508,-0.07578933,1.2210717,-0.45763603
0.0,0.1,1.0999999999999999,0.5235987755982988,0.0,0,-0.16512471,-0.47566274,-0.54077375,0.20835388,0.24168754,1.3718013,-0.661752,0.9374388,-1.8026328,0.050707083,-0.08616152,0.09042415,1.2600802,1.2615148
0.0,0.1,1.0999999999999999,0.5235987755982988,0.0,0,-0.16549797,-0.47543195,-0.5414492,0.22377497,0.2230822,1.3441066,0.45252326,0.9649646,-1.8068423,-0.018540315,-0.07502431,-0.006411955,1.2235442,0.5402157
0.0,0.1,1.0999999999999999,0.5235987755982988,0.0,0,-0.16544501,-0.47652018,-0.5411606,0.22313654,0.20872687,1.3651328,0.7249934,0.88779825,-1.8018432,-0.016691035,-0.0731716,-0.06344149,1.2599016,-1.8623738
0.0,0.1,1.0999999999999999,0.5235987755982988,0.0,0,-0.16543584,-0.47571167,-0.53952414,0.20991787,0.21869533,1.3405764,-0.22551754,0.92109674,-1.7788234,0.069745325,-0.08191945,0.0077624214,1.2642701,-0.6040318
0.0,0.1,1.0999999999999999,0.5235987755982988,0.0,0,-0.16566007,-0.4756573,-0.5404203,0.21383384,0.2654232,1.3278334,0.110800885,0.90558916,-1.7816577,0.09476071,-0.0640694,-0.038179036,1.2569208,-0.7440973
0.0,0.1,1.0999999999999999,0.5235987755982988,0.0,0,-0.16523491,-0.47558025,-0.5398304,0.2101528,0.29879576,1.3324523,-0.7983044,0.91486394,-1.7841665,-0.13406828,-0.078830436,0.0070290547,1.2412271,0.17688276
0.0,0.1,1.0999999999999999,0.5235987755982988,0.0,0,-0.16556716,-0.47573507,-0.5396147,0.2110189,0.27955303,1.3475903,-0.03462254,0.9140456,-1.8146242,0.028837824,-0.060533427,-0.0398018,1.2884293,0.11105701
0.0,0.1,1.0999999999999999,0.5235987755982988,0.0,0,-0.16523324,-0.47608495,-0.54147005,0.21685985,0.19026704,1.3068055,-0.40106857,0.90633196,-1.8213847,0.015401166,-0.08229995,-0.08293569,1.2823228,-0.17196932
0.0,0.1,1.0999999999999999,0.5235987755982988,0.0,0,-0.1652962,-0.47477445,-0.54095125,0.21138541,0.22306249,1.3592933,-1.8638592,0.9149989,-1.8192495,0.028114947,-0.10848112,-0.013366503,1.2827065,-0.8061337
0.0,0.1,1.0999999999999999,0.5235987755982988,0.0,0,-0.16548678,-0.47590524,-0.54079854,0.21885554,0.172314,1.3681296,-0.25948292,0.9337242,-1.8043886,0.046665158,-0.089333095,0.03661359,1.2517722,-0.16826677
0.0,0.1,1.0999999999999999,0.5235987755982988,0.0,0,-0.16548626,-0.4755695,-0.54056615,0.21368882,0.23658776,1.3489468,0.034727875,0.95323294,-1.805807,0.15182072,-0.07924961,0.00065041083,1.2618394,1.2544755
0.0,0.1,1.0999999999999999,0.5235987755982988,0.0,0,-0.16559677,-0.47589752,-0.54041314,0.2097496,0.22165588,1.3184054,1.4734745,0.94354904,-1.8248533,0.031181052,-0.085772924,0.023448637,1.235151,-0.042352505
0.0,0.1,1.0999999999999999,0.5235987755982988,0.0,0,-0.16542493,-0.47513214,-0.54046124,0.21324715,0.2372806,1.3785099,-0.13529652,0.96059966,-1.7778558,0.019151725,-0.04883476,0.05485562,1.218793,-0.7824465
0.0,0.1,1.0999999999999999,0.5235987755982988,0.0,0,-0.16549699,-0.47564802,-0.54048663,0.20889561,0.26298764,1.3539134,-1.5988108,0.8984137,-1.8092293,0.081602275,-0.07317436,0.018185753,1.2779028,-0.2259239
0.0,0.1,1.0999999999999999,0.5235987755982988,0.0,0,-0.16543539,-0.4754865,-0.5398919,0.21543394,0.15417975,1.3298388,0.6088823,0.8806671,-1.783219,0.0836741,-0.08352839,-0.06314994,1.2565554,-0.2687472
0.0,0.1,1.0999999999999999,0.5235987755982988,0.0,0,-0.16562942,-0.47607973,-0.5405886,0.21387513,0.2582598,1.3855277,0.6526505,0.9084173,-1.7912433,0.024005309,-0.07860168,0.08397633,1.2041785,0.22309317
0.0,0.1,1.0999999999999999,0.5235987755982988,0.0,0,-0.16539672,-0.4757548,-0.5411604,0.21149962,0.1677463,1.3916706,-0.5143518,0.93481565,-1.8230686,0.009663498,-0.061053894,-0.06447878,1.242432,-1.0858516
0.0,0.1,1.0999999999999999,0.5235987755982988,0.0,0,-0.16531743,-0.4756698,-0.5398861,0.21384934,0.31564087,1.3233893,0.49832472,0.94515383,-1.8195924,0.015448398,-0.08905314,0.09023857,1.2616235,0.77226365
0.0,0.1,1.0999999999999999,0.5235987755982988,0.0,0,-0.16534564,-0.47579327,-0.5414359,0.21375167,0.25726223,1.3248094,-0.056995384,0.9288612,-1.8233879,0.051725492,-0.09051783,-0.0707325,1.2492747,-1.126591
0.0,0.1,1.0999999999999999,0.5235987755982988,0.0,0,-0.16535477,-0.47491422,-0.5401141,0.21069686,0.18862185,1.3501203,-1.0607727,0.92592037,-1.8056707,-0.0030635567,-0.0736048,-0.0461948,1.258644,0.7566469
0.0,0.1,1.0999999999999999,0.5235987755982988,0.0,0,-0.16567577,-0.4754602,-0.5398876,0.21802947,0.27407417,1.3256623,-0.7660672,0.90549576,-1.801885,0.11865078,-0.083353795,0.028955823,1.2473359,-0.65735304
0.0,0.1,1.0999999999999999,0.5235987755982988,0.0,0,-0.16549097,-0.47585252,-0.54074645,0.21709552,0.29251283,1.3451742,-0.39575914,0.90548974,-1.8070645,0.0863252,-0.08468321,0.016993875,1.2653216,0.6053418
0.0,0.1,1.0999999999999999,0.5235987755982988,0.0,0,-0.16543753,-0.4749104,-0.5397384,0.21396728,0.15397485,1.3510904,-0.6914834,0.9480714,-1.8071297,0.1563392,-0.078268856,0.028210027,1.2252235,0.6429321
0.0,0.1,1.0999999999999999,0.5235987755982988,0.0,0,-0.16544041,-0.47523803,-0.53874636,0.20890132,0.19199829,1.390271,-0.32511842,0.9034476,-1.8026406,-0.0691659,-0.07255348,0.15526791,1.2319494,0.977956
0.0,0.1,1.0999999999999999,0.5235987755982988,0.0,0,-0.16519518,-0.47547355,-0.5404324,0.20883888,0.24454623,1.3777514,0.39422238,0.95750666,-1.8270035,0.09908113,-0.08185489,-0.031706758,1.2628574,0.2808375
0.0,0.1,1.0999999999999999,0.5235987755982988,0.0,0,-0.16586225,-0.47562683,-0.53843045,0.21228638,0.19179785,1.3333706,0.11357233,0.9520166,-1.8113501,0.029943954,-0.0675735,-0.1703201,1.2275163,0.28740636
0.0,0.1,1.0999999999999999,0.5235987755982988,0.0,0,-0.16533658,-0.47562286,-0.54097885,0.21673033,0.15891427,1.4000434,-0.021105446,0.92797613,-1.8253436,-0.0018765645,-0.074645706,-0.012866187,1.2212845,0.67686856
0.0,0.1,1.0999999999999999,0.5235987755982988,0.0,0,-0.16558036,-0.47571543,-0.5400373,0.21034935,0.2549489,1.3390661,0.31556267,0.93530905,-1.8115128,0.1581141,-0.08032008,0.009667187,1.2281572,-0.22198817
0.0,0.1,1.0999999999999999,0.5235987755982988,0.0,0,-0.16563801,-0.47609657,-0.53964686,0.21365745,0.23713079,1.3798087,-0.23856875,0.9685532,-1.7771047,0.028552635,-0.10977888,0.0028873333,1.2719859,0.12183033
0.0,0.1,1.0999999999999999,0.5235987755982988,0.0,0,-0.1655384,-0.47542334,-0.5399738,0.2130768,0.18063788,1.3441746,-0.058898993,0.9400079,-1.8171715,0.124454364,-0.10251061,0.097872846,1.2194415,1.4655707
0.0,0.1,1.0999999999999999,0.5235987755982988,0.0,0,-0.16540919,-0.47495082,-0.54106814,0.21602626,0.21436532,1.3977439,0.28243804,0.9518442,-1.780889,0.14520754,-0.08167561,0.10158118,1.243123,0.2323199
0.0,0.1,1.0999999999999999,0.5235987755982988,0.0,0,-0.16582114,-0.47552398,-0.53956354,0.21210201,0.34307155,1.359264,-0.83351237,0.8908031,-1.8005105,0.10724408,-0.069731295,0.048040375,1.2432654,0.16914803
0.0,0.1,1.0999999999999999,0.5235987755982988,0.0,0,-0.165649,-0.475929,-0.5391708,0.21416141,0.21068972,1.3812255,-0.28288454,0.94560784,-1.7866302,0.06676495,-0.099724695,-0.024052218,1.2587166,-1.0138007
0.0,0.1,1.0999999999999999,0.5235987755982988,0.0,0,-0.16560318,-0.47552976,-0.5404756,0.21544293,0.22026032,1.3530738,0.5260588,0.9404009,-1.8088893,0.034899004,-0.07488292,-0.063985534,1.2449121,-0.27973232
0.0,0.1,1.0999999999999999,0.5235987755982988,0.0,0,-0.16558447,-0.47533813,-0.53914535,0.21334074,0.31338966,1.3406092,-0.14354008,0.91797715,-1.8088789,-0.014193749,-0.06782,0.066967525,1.2562953,0.5869259
0.0,0.1,1.0999999999999999,0.5235987755982988,0.0,0,-0.16560549,-0.47502553,-0.53935194,0.21758229,0.25185153,1.3411602,0.59705305,0.92859125,-1.8078997,0.012614579,-0.06572951,0.031011853,1.2749933,-1.6586854
0.0,0.1,1.0999999999999999,0.5235987755982988,0.0,0,-0.16545936,-0.47547102,-0.54202336,0.22045204,0.31224895,1.3105778,0.5554196,0.9571427,-1.7913563,0.046991866,-0.08744039,-0.017589508,1.2388169,0.27139544
0.0,0.1,1.0999999999999999,0.5235987755982988,0.0,0,-0.16535157,-0.47539878,-0.5407657,0.21466357,0.2384095,1.3561735,-0.065903574,0.919638,-1.8281435,0.12889868,-0.07801893,0.036231045,1.2806573,0.27605096
0.0,0.1,1.0999999999999999,0.5235987755982988,0.0,0,-0.16550827,-0.47574067,-0.5418986,0.21313004,0.27868828,1.3626128,-0.9794407,0.9359854,-1.8220962,-0.04761115,-0.07927409,-0.014358757,1.2544678,0.23197572
0.0,0.1,1.0999999999999999,0.5235987755982988,0.0,0,-0.16532555,-0.47556168,-0.5406499,0.21194924,0.25109234,1.3426336,-0.11164817,0.916477,-1.8091793,0.10629457,-0.07075931,-0.06100328,1.2354792,-0.21441242
0.0,0.1,1.0999999999999999,0.5235987755982988,0.0,0,-0.16589393,-0.47604293,-0.5427214,0.20506008,0.18998618,1.3602762,1.549074,0.97056776,-1.7936481,0.08121465,-0.06801277,-0.01548598,1.28363,0.5092964
0.0,0.1,1.0999999999999999,0.5235987755982988,0.0,0,-0.16539256,-0.4756982,-0.5394547,0.21206653,0.18391064,1.3726349,-0.32917324,0.9379991,-1.8199216,0.065506406,-0.097889416,-0.027579999,1.2446512,2.0924788
0.0,0.1,1.0999999999999999,0.5235987755982988,0.0,0,-0.16553825,-0.47606164,-0.5393803,0.21430849,0.20379356,1.3586502,0.71320605,0.93037677,-1.818538,0.04487495,-0.07289527,0.11219332,1.2606521,0.92820626
0.0,0.1,1.0999999999999999,0.5235987755982988,0.0,0,-0.16556469,-0.4746059,-0.540619,0.21708831,0.35009316,1.3899969,-0.6808806,0.9151444,-1.8130639,0.11279855,-0.06700464,-0.065050945,1.2584752,0.19904631
0.0,0.1,1.0999999999999999,0.5235987755982988,0.0,0,-0.16550338,-0.4749298,-0.5410969,0.21847005,0.24546774,1.3966979,-0.929107,0.9048784,-1.7824154,0.006106192,-0.088168375,0.04644262,1.2538446,-1.2427986
0.0,0.1,1.0999999999999999,0.5235987755982988,0.0,0,-0.16550498,-0.47531345,-0.5424873,0.21969731,0.22697596,1.3994936,-0.27371842,0.91463035,-1.7924857,0.12324569,-0.089120634,-0.026004687,1.2359316,-0.54942405
0.0,0.1,1.0999999999999999,0.5235987755982988,0.0,0,-0.16557275,-0.47537583,-0.54161114,0.21924002,0.30435663,1.3259835,0.009809546,0.9327884,-1.8164021,-0.03916627,-0.08718004,0.07840478,1.271953,-0.7196554
0.0,0.1,1.0999999999999999,0.5235987755982988,0.0,0,-0.16556817,-0.47517976,-0.54140794,0.22318304,0.26678842,1.338777,-0.6869219,0.95884037,-1.8334037,0.13012508,-0.06927953,0.03710733,1.1980817,-0.6267223
0.0,0.1,1.0999999999999999,0.5235987755982988,0.0,0,-0.1654598,-0.47472653,-0.53979844,0.21433721,0.25603446,1.3942691,0.8548621,0.9611718,-1.8113679,0.13371293,-0.077293016,0.07721067,1.2420893,0.38745755
0.0,0.1,1.0999999999999999,0.5235987755982988,0.0,0,-0.16583866,-0.47494784,-0.5391034,0.21105683,0.32474554,1.3720455,-0.90505886,0.94331795,-1.8335291,0.11467932,-0.07113228,0.024369618,1.2206182,-0.9564532
0.0,0.1,1.0999999999999999,0.5235987755982988,0.0,0,-0.16549538,-0.475617,-0.5404978,0.21202332,0.25894374,1.3638092,-0.54745907,0.9326233,-1.8050148,0.01624712,-0.08586342,0.013568726,1.2971288,0.3526295
0.0,0.1,1.0999999999999999,0.5235987755982988,0.0,0,-0.16545278,-0.47512642,-0.5412485,0.21681586,0.21748577,1.383562,-1.5871505,0.9381015,-1.8132161,0.003732152,-0.078991205,0.08514492,1.2700461,-0.9601807
0.0,0.1,1.0999999999999999,0.5235987755982988,0.0,0,-0.16566043,-0.47600806,-0.54062134,0.21670884,0.19810523,1.3494511,0.0776924,0.91787964,-1.8369392,0.09504154,-0.059661847,-0.020797092,1.2157018,-0.63681364
0.0,0.1,1.0999999999999999,0.5235987755982988,0.0,0,-0.16534796,-0.47583982,-0.53917205,0.21356243,0.33603543,1.3930221,-0.29937378,0.9169305,-1.8107581,0.17256756,-0.07301969,-0.00869755,1.2701132,0.10564124
0.0,0.1,1.0999999999999999,0.5235987755982988,0.0,0,-0.1657178,-0.4753823,-0.53832823,0.21371488,0.21241921,1.3731914,0.37934333,0.9216427,-1.7854594,0.08346847,-0.079140745,0.17343657,1.2791167,-0.78348434
0.0,0.1,1.0999999999999999,0.5235987755982988,0.0,0,-0.16526851,-0.47629344,-0.54053015,0.21430239,0.19967626,1.3678336,-0.33891934,0.9020221,-1.8257247,0.08400422,-0.07997106,0.004179235,1.2499702,0.19181001
0.0,0.1,1.0999999999999999,0.5235987755982988,0.0,0,-0.1653343,-0.4754053,-0.54094523,0.2171418,0.22149473,1.3521633,-0.34490225,0.9442858,-1.80598,0.039520152,-0.06931049,-0.055872362,1.2634614,0.2178583
0.0,0.1,1.0999999999999999,0.5235987755982988,0.0,0,-0.1656171,-0.47533366,-0.5401553,0.21380511,0.20164445,1.3684304,-0.48605606,0.90771776,-1.8084159,0.078865804,-0.094409816,-0.02875514,1.2346388,0.017703721
0.0,0.1,1.0999999999999999,0.5235987755982988,0.0,0,-0.16569437,-0.4750466,-0.53904575,0.2138406,0.21389747,1.3229282,0.18908502,0.907708,-1.7942946,-0.0070682145,-0.06421871,-0.021818707,1.2233515,-0.14877836
0.0,0.1,1.0999999999999999,0.5235987755982988,0.0,0,-0.16553548,-0.47600478,-0.5386633,0.21266152,0.21798548,1.3269025,-0.0051744906,0.93003076,-1.8450139,-0.054123715,-0.0768848,0.0844232,1.2226505,-1.0214361
0.0,0.1,1.0999999999999999,0.5235987755982988,0.0,0,-0.16541222,-0.47562644,-0.5387401,0.21112765,0.22296025,1.3222218,-0.2015873,0.94616365,-1.8181318,0.025165614,-0.07989068,0.07328337,1.2961307,-0.13743591
0.0,0.1,1.0999999999999999,0.5235987755982988,0.0,0,-0.16549546,-0.47535306,-0.54015344,0.21569555,0.20389165,1.3732214,-0.71553934,0.93202007,-1.8022326,0.06285815,-0.09292813,-0.1003787,1.2659659,0.49600676
0.0,0.1,1.0999999999999999,0.5235987755982988,0.0,0,-0.16573106,-0.4758089,-0.5386729,0.21220261,0.1840945,1.3891522,-0.42040694,0.9139289,-1.7943157,-0.00011383447,-0.098509625,-0.012866191,1.2745109,-0.5495896
0.0,0.1,1.0999999999999999,0.5235987755982988,0.0,0,-0.16575181,-0.47537562,-0.53817385,0.21440238,0.2134283,1.3367159,-0.13706261,0.9326112,-1.7826258,0.06791143,-0.09982194,0.04544504,1.2586062,-1.5298083
0.0,0.1,1.0999999999999999,0.5235987755982988,0.0,0,-0.16542698,-0.47439885,-0.5405898,0.21234803,0.18778569,1.3863317,-1.2095349,0.93534774,-1.7785473,0.029625649,-0.06428608,0.02843974,1.2430173,-0.99676985
0.0,0.1,1.0999999999999999,0.5235987755982988,0.0,0,-0.16558483,-0.4757655,-0.5396297,0.21581724,0.24632546,1.3704044,-0.9059036,0.8941416,-1.8160579,-0.063267365,-0.08639901,0.014378954,1.2602857,-1.4660171
0.0,0.1,1.0999999999999999,0.5235987755982988,0.0,0,-0.16541435,-0.47551572,-0.540305,0.21967806,0.29156744,1.3746237,-0.88701296,0.93369037,-1.819872,0.13128744,-0.088635325,-0.021075562,1.2392739,-1.3964684
0.0,0.1,1.0999999999999999,0.5235987755982988,0.0,0,-0.16581444,-0.47501898,-0.5385739,0.21146408,0.24927223,1.3598368,-0.37542862,0.9498502,-1.7992069,-0.055416327,-0.09504808,-0.015021357,1.2678989,-1.9504148
0.0,0.1,1.0999999999999999,0.5235987755982988,0.0,0,-0.16583702,-0.475577,-0.54197764,0.20773868,0.20026554,1.3645811,-0.3151371,0.88949734,-1.7885723,0.14378272,-0.07641106,-0.0066562486,1.2539908,-1.2277619
0.0,0.1,1.0999999999999999,0.5235987755982988,0.0,0,-0.16578509,-0.4751661,-0.5392478,0.21481517,0.24308191,1.3836527,-0.3787142,0.90229946,-1.8252007,0.0038156065,-0.07385231,0.0387652,1.2245163,-1.3271888
0.0,0.1,1.0999999999999999,0.5235987755982988,0.0,0,-0.16568208,-0.47508892,-0.5398957,0.2144745,0.20099798,1.3514068,0.22108664,0.90769225,-1.8256503,0.025784923,-0.079209045,0.012067516,1.1998402,-1.1656611
0.0,0.1,1.0999999999999999,0.5235987755982988,0.0,0,-0.16524537,-0.47485837,-0.54013664,0.21691132,0.2574753,1.3749655,-0.066718996,0.88431597,-1.8276035,0.019343236,-0.072214484,0.068491,1.2535673,-1.5293294
0.0,0.1,1.0999999999999999,0.5235987755982988,0.0,0,-0.16576524,-0.47517538,-0.53760856,0.21288814,0.21627986,1.3707467,-1.3609,0.94954485,-1.810775,-0.061224557,-0.08618344,0.023097718,1.2441334,-0.6034178
0.0,0.1,1.0999999999999999,0.5235987755982988,0.0,0,-0.16575885,-0.47538254,-0.53887045,0.22164164,0.24656302,1.3780907,-1.2750559,0.92612803,-1.7851497,0.100046024,-0.08968612,0.07755001,1.2411591,-0.14357558
0.0,0.1,1.0999999999999999,0.5235987755982988,0.0,0,-0.16529018,-0.4763369,-0.5420537,0.21634746,0.16936275,1.3760003,-0.88206,0.9370704,-1.8140444,0.055563368,-0.08900229,0.11902103,1.2973882,-0.8979671
0.0,0.1,1.0999999999999999,0.5235987755982988,0.0,0,-0.16524927,-0.4760182,-0.53994274,0.2184467,0.28344372,1.2991145,-0.53492564,0.89395,-1.8260705,-0.0036935387,-0.06010872,-0.04728642,1.2331835,-0.19088359
0.0,0.1,1.0999999999999999,0.5235987755982988,0.0,0,-0.1654283,-0.4751584,-0.5411946,0.21354873,0.22857954,1.3528411,-1.0203642,0.94997275,-1.8059058,-0.011209446,-0.0607067,0.14396642,1.2656498,-0.8616278
0.0,0.1,1.0999999999999999,0.5235987755982988,0.0,0,-0.1654011,-0.47514734,-0.53995055,0.21808167,0.25483704,1.3251933,-0.023421103,0.9113286,-1.8035828,0.1913508,-0.07894477,0.049057674,1.2784221,-0.3226553
0.0,0.1,1.0999999999999999,0.5235987755982988,0.0,0,-0.16489474,-0.4746173,-0.53921825,0.21214423,0.12901784,1.3380315,-0.04624657,0.8981664,-1.8089268,0.010669284,-0.09008338,0.013264267,1.268858,0.37727177
0.0,0.1,1.0999999999999999,0.5235987755982988,0.0,0,-0.16529676,-0.47599998,-0.53974634,0.21569662,0.23769438,1.3553051,-0.7572739,0.9304935,-1.7937553,0.08656684,-0.078347914,-0.0710164,1.226282,0.49378526
0.0,0.1,1.0999999999999999,0.5235987755982988,0.0,0,-0.16567704,-0.4756789,-0.5396701,0.22315079,0.27169022,1.3676974,1.1576654,0.8668371,-1.8228571,0.099287674,-0.08100869,-0.012593399,1.2225229,0.54656166
0.0,0.1,1.0999999999999999,0.5235987755982988,0.0,0,-0.16506898,-0.4757089,-0.5411425,0.21507291,0.20798513,1.3078967,0.8543761,0.8653873,-1.8267499,0.014573852,-0.10529476,0.035784226,1.2237259,0.4267975
0.0,0.1,1.0999999999999999,0.5235987755982988,0.0,0,-0.16522154,-0.4750497,-0.5395655,0.21386313,0.36479735,1.3559719,-0.84808946,0.9100577,-1.798241,0.16568643,-0.06697358,0.14277615,1.2524898,-0.9025776
0.0,0.1,1.0999999999999999,0.5235987755982988,0.0,0,-0.16541362,-0.4756271,-0.53900033,0.21051927,0.2635947,1.3361716,0.73228776,0.93279994,-1.7844555,0.037891857,-0.037480142,-0.06016957,1.2342731,0.3363697
0.0,0.1,1.0999999999999999,0.5235987755982988,0.0,0,-0.16551696,-0.47523054,-0.53961253,0.21824412,0.18954414,1.3698498,0.07151819,0.86199075,-1.8135873,0.07327261,-0.078144096,-0.024805032,1.2667297,-0.17156897
0.0,0.1,1.0999999999999999,0.5235987755982988,0.0,0,-0.16543499,-0.476324,-0.53864086,0.20994405,0.27235866,1.3322028,1.0695028,0.936573,-1.7833728,0.016911423,-0.118550025,0.0004922017,1.2913399,-0.80547714
0.0,0.1,1.0999999999999999,0.5235987755982988,0.0,0,-0.16520724,-0.47630858,-0.53984666,0.21518922,0.24487948,1.3182272,0.4191845,0.8956049,-1.8003396,0.04903401,-0.050629757,0.09760513,1.2755883,-0.29455724
0.0,0.1,1.0999999999999999,0.5235987755982988,0.0,0,-0.16521357,-0.47517842,-0.53986436,0.21130909,0.32077107,1.3420913,-0.01882933,0.8936769,-1.7859875,0.10233625,-0.08727988,-0.0009074999,1.229444,1.2339476
0.0,0.1,1.0999999999999999,0.5235987755982988,0.0,0,-0.16521229,-0.47589904,-0.54106176,0.21468812,0.25629932,1.3157648,-1.8539009,0.9457502,-1.8102888,-0.0017890019,-0.09143377,-0.016734242,1.2545998,-0.520298
0.0,0.1,1.0999999999999999,0.5235987755982988,0.0,0,-0.16518465,-0.47570276,-0.5389327,0.21198139,0.25787216,1.3116429,1.2280178,0.9257297,-1.8012784,0.12619835,-0.04776656,0.009195784,1.2240855,0.29517373
0.0,0.1,1.0999999999999999,0.5235987755982988,0.0,0,-0.16545586,-0.47608468,-0.540133,0.21841985,0.24454454,1.3646564,0.44254166,0.87797433,-1.8127931,0.116641246,-0.060912017,-0.06972636,1.2645766,0.2047326
0.0,0.1,1.0999999999999999,0.5235987755982988,0.0,0,-0.16518809,-0.47565585,-0.53903663,0.21083272,0.2179501,1.3070625,-0.35933405,0.9338434,-1.8153195,0.025427071,-0.062096033,-0.07756067,1.2399511,-0.4990051
0.0,0.1,1.0999999999999999,0.5235987755982988,0.0,0,-0.16512235,-0.47538435,-0.5399905,0.20944919,0.22834855,1.3240907,0.64493245,0.9075475,-1.8035799,0.12596974,-0.08299606,0.0447575,1.2306192,-0.5687913
0.0,0.1,1.0999999999999999,0.5235987755982988,0.0,0,-0.16542393,-0.47553283,-0.53893787,0.21013263,0.27156132,1.3452002,-1.0168868,0.94002664,-1.8019106,0.01694722,-0.07835491,-0.15851492,1.26336,-0.4935275
0.0,0.1,1.0999999999999999,0.5235987755982988,0.0,0,-0.1651214,-0.47591895,-0.53951687,0.21000165,0.22814685,1.3711802,0.091298565,0.9308466,-1.8286741,0.040743947,-0.07679624,0.0041975393,1.2615131,-0.0884637
0.0,0.1,1.0999999999999999,0.5235987755982988,0.0,0,-0.16497995,-0.475027,-0.5410783,0.20789422,0.26750633,1.3695514,0.7398017,0.92775476,-1.7989602,-0.040763266,-0.10000172,0.060025062,1.2618986,-0.44212893
0.0,0.1,1.0999999999999999,0.5235987755982988,0.0,0,-0.1654745,-0.47574413,-0.53817123,0.21627788,0.2428079,1.3602536,1.8583188,0.9056056,-1.7935867,0.113095336,-0.08103412,-0.05872743,1.2679319,-1.3652357
0.0,0.1,1.0999999999999999,0.5235987755982988,0.0,0,-0.16536467,-0.4765318,-0.538497,0.21275751,0.30576396,1.3459164,-0.42495033,0.91402924,-1.7984807,-0.027437408,-0.09777297,0.015872698,1.2453243,-0.8296748
0.0,0.1,1.0999999999999999,0.5235987755982988,0.0,0,-0.16531627,-0.47604412,-0.5403238,0.21368304,0.24021946,1.3514578,1.7591805,0.91235465,-1.8069385,0.16136578,-0.0900318,0.058319304,1.2610979,-0.9328319
0.0,0.1,1.0999999999999999,0.5235987755982988,0.0,0,-0.1651781,-0.47566193,-0.54094726,0.21554561,0.321241,1.3107122,0.24090053,0.93611795,-1.814892,0.0438165,-0.05593503,0.012146221,1.2365234,0.35915577
0.0,0.1,1.0999999999999999,0.5235987755982988,0.0,0,-0.1650448,-0.4756883,-0.53977346,0.214694,0.31461188,1.3753632,-0.44605577,0.9347644,-1.8195,-0.0056623775,-0.08130045,0.016197668,1.2865864,0.196129
0.0,0.1,1.0999999999999999,0.5235987755982988,0.0,0,-0.16529989,-0.4759176,-0.5403637,0.21935873,0.37286294,1.4166117,-1.1483566,0.9165264,-1.8116263,0.10850843,-0.09428005,-0.007287185,1.2393308,1.8496426
0.0,0.1,1.0999999999999999,0.5235987755982988,0.0,0,-0.1651653,-0.4754621,-0.5395132,0.21055664,0.2966892,1.3923976,0.11049568,0.9247754,-1.7997445,0.1734065,-0.050072346,0.08685838,1.2490501,-1.7217871
0.0,0.1,1.0999999999999999,0.5235987755982988,0.0,0,-0.1651226,-0.4761852,-0.54089326,0.21707211,0.30951902,1.3178269,0.56128496,0.9158839,-1.8122215,0.020979855,-0.09023861,-0.0073385565,1.2625518,-0.09370108
0.0,0.1,1.0999999999999999,0.5235987755982988,0.0,0,-0.16510001,-0.47539458,-0.53994614,0.21495461,0.22722082,1.36635,-0.21192443,0.9133447,-1.7842623,0.15974298,-0.066283025,0.040222876,1.2761103,0.5792785
0.0,0.1,1.0999999999999999,0.5235987755982988,0.0,0,-0.16530152,-0.47558928,-0.54114217,0.22316724,0.21075198,1.307189,0.6566869,0.9318257,-1.8027534,0.00086297817,-0.09391792,0.06781212,1.2554384,-0.07254253
0.0,0.1,1.0999999999999999,0.5235987755982988,0.0,0,-0.16519408,-0.47560906,-0.5396068,0.21069017,0.24128352,1.3768789,0.15253092,0.94969183,-1.7944535,0.12128989,-0.09220391,-0.018761184,1.2420126,-0.15260366
0.0,0.1,1.0999999999999999,0.5235987755982988,0.0,0,-0.16537125,-0.47605044,-0.540248,0.22030722,0.20357767,1.3057373,-0.6943952,0.86833596,-1.7898289,0.006872657,-0.05914128,-0.042959478,1.2217462,-1.4328814
0.0,0.1,1.0999999999999999,0.5235987755982988,0.0,0,-0.16531925,-0.47470993,-0.53860855,0.2189017,0.17655866,1.3832252,0.25192496,0.90219027,-1.7920231,0.1102117,-0.09663652,0.099096455,1.249842,-0.5666253
0.0,0.1,1.0999999999999999,0.5235987755982988,0.0,0,-0.16504721,-0.47501776,-0.540633,0.21506518,0.2735953,1.407451,0.9998178,0.9179906,-1.8072153,-0.12338724,-0.08163732,-0.07616976,1.2406675,0.34810802
0.0,0.1,1.0999999999999999,0.5235987755982988,0.0,0,-0.16520451,-0.47604743,-0.5394209,0.2124688,0.18913233,1.330974,0.5694728,0.99485475,-1.8438342,-0.045317765,-0.09663061,0.05663208,1.2692077,0.28900242
0.0,0.1,1.0999999999999999,0.5235987755982988,0.0,0,-0.16540258,-0.47518107,-0.5396514,0.20752807,0.2705245,1.3769689,-1.0654585,0.93040705,-1.7987629,0.064698495,-0.08211046,0.054308407,1.2265843,-0.9360866
0.0,0.1,1.0999999999999999,0.5235987755982988,0.0,0,-0.1653645,-0.47572243,-0.53970575,0.21380286,0.191568,1.318613,-0.20616746,0.9558911,-1.8088502,-0.10853249,-0.08951323,-0.0010888274,1.2479229,1.0158242
0.0,0.1,1.0999999999999999,0.5235987755982988,0.0,0,-0.1651121,-0.47531322,-0.54002106,0.21024323,0.20752038,1.4060576,0.09612152,0.9354381,-1.7955378,0.069630675,-0.0863268,-0.02161483,1.2923772,-0.6760357
0.0,0.1,1.0999999999999999,0.5235987755982988,0.0,0,-0.1653826,-0.47512934,-0.5393079,0.21847677,0.26642928,1.3642092,0.5936753,0.9513433,-1.8124624,0.1291339,-0.07664331,-0.010774432,1.2491637,-0.16040123
0.0,0.1,1.0999999999999999,0.5235987755982988,0.0,0,-0.16522624,-0.47569418,-0.53902274,0.21381095,0.2322755,1.387233,-0.8281575,0.898244,-1.8302426,-0.0036461193,-0.05726843,0.047615074,1.2396106,0.78286934
0.0,0.1,1.0999999999999999,0.5235987755982988,0.0,0,-0.16547371,-0.47498006,-0.5397194,0.22117779,0.17060348,1.3363426,0.07968356,0.9097763,-1.7892689,-0.023259794,-0.078598335,-0.087962985,1.2047602,-0.5085262
0.0,0.1,1.0999999999999999,0.5235987755982988,0.0,0,-0.16526696,-0.47509593,-0.53745764,0.208626,0.23261058,1.2976913,0.90185153,0.9228984,-1.7997538,-0.12228456,-0.08684804,0.041525934,1.2104007,0.78546256
0.0,0.1,1.0999999999999999,0.5235987755982988,0.0,0,-0.1646709,-0.47517836,-0.5394262,0.2087714,0.26064855,1.3160962,-0.09847834,0.9447183,-1.8270017,0.1274327,-0.070369326,-0.0027723622,1.2456698,-0.028927933
0.0,0.1,1.0999999999999999,0.5235987755982988,0.0,0,-0.16540861,-0.475745,-0.5395829,0.21781723,0.10838476,1.3007171,0.0946216,0.94729304,-1.7820435,0.030100873,-0.07967862,0.013734808,1.2298107,0.21911392
0.0,0.1,1.0999999999999999,0.5235987755982988,0.0,0,-0.16525352,-0.47491735,-0.5405677,0.21439862,0.21426445,1.3200575,-1.0476213,0.92761314,-1.8201823,0.070425995,-0.0833779,0.12479162,1.250611,-0.6281823
0.0,0.1,1.0999999999999999,0.5235987755982988,0.0,0,-0.16533846,-0.4750729,-0.5429201,0.20727597,0.16062447,1.3483928,1.0369136,0.9086589,-1.7840823,0.12784575,-0.09817904,0.07988073,1.2488163,-0.29752892
0.0,0.1,1.0999999999999999,0.5235987755982988,0.0,0,-0.16514142,-0.4752666,-0.54126006,0.22009392,0.27680016,1.3722762,-0.32655406,0.9547184,-1.8138813,0.0027621181,-0.10191419,0.10619385,1.2156112,0.35109305
0.0,0.1,1.0999999999999999,0.5235987755982988,0.0,0,-0.16540085,-0.47573087,-0.53930783,0.21398269,0.15996455,1.3018601,-0.549374,0.8948311,-1.7770522,-0.01513734,-0.049532082,-0.09446201,1.2560732,-1.3620073
0.0,0.1,1.0999999999999999,0.5235987755982988,0.0,0,-0.16507457,-0.4746637,-0.54137576,0.21113726,0.19081114,1.3349112,-0.1689321,0.9556215,-1.7927885,0.19120258,-0.0806195,0.06299157,1.2609994,0.041970477
0.0,0.1,1.0999999999999999,0.5235987755982988,0.0,0,-0.16467208,-0.4758721,-0.5392598,0.20960493,0.13153246,1.3323946,0.47044352,0.90906316,-1.7877024,-0.011098846,-0.06893995,-0.031018367,1.2312955,-0.010144689
0.0,0.1,1.0999999999999999,0.5235987755982988,0.0,0,-0.16479163,-0.4756387,-0.54145694,0.20381588,0.33567384,1.3429203,0.31322268,0.933559,-1.7909071,0.121707104,-0.06800392,-0.04610257,1.2316737,0.2550968
0.0,0.1,1.0999999999999999,0.5235987755982988,0.0,0,-0.16502926,-0.475217,-0.53875846,0.21118711,0.29718265,1.3357482,0.3491238,0.9365553,-1.8140017,0.090064675,-0.054344885,-0.06542792,1.2739323,-0.24536625
0.0,0.1,1.0999999999999999,0.5235987755982988,0.0,0,-0.16546045,-0.4750466,-0.5376223,0.21303469,0.1454002,1.389216,-0.6995772,0.9085788,-1.8081142,0.10366027,-0.07888602,0.05159192,1.2429367,-0.24231489
0.0,0.1,1.0999999999999999,0.5235987755982988,0.0,0,-0.16517998,-0.47571775,-0.5408504,0.21952279,0.19893408,1.328965,0.45462292,0.94429046,-1.81394,0.12014228,-0.06493143,0.1109037,1.2709674,0.71511734
0.0,0.1,1.0999999999999999,0.5235987755982988,0.0,0,-0.1650779,-0.4758661,-0.53905565,0.2170747,0.27122757,1.3565798,-0.41755947,0.9430599,-1.816403,-0.0106262565,-0.07779537,0.031885702,1.212468,0.48812667
0.0,0.1,1.0999999999999999,0.5235987755982988,0.0,0,-0.16482928,-0.47669908,-0.5413633,0.21276757,0.24201804,1.3635389,0.48811078,0.90265894,-1.8279538,-0.048843645,-0.05292478,-0.022093339,1.2234815,-0.13564393
0.0,0.1,1.0999999999999999,0.5235987755982988,0.0,0,-0.16561705,-0.4749925,-0.5401127,0.21608303,0.21902035,1.3797065,-1.0764561,0.89752746,-1.822447,0.0993479,-0.094386,0.041222353,1.2445008,-0.4780959
0.0,0.1,1.0999999999999999,0.5235987755982988,0.0,0,-0.16544974,-0.4752015,-0.54215807,0.21105684,0.15800771,1.3494047,0.8922518,0.9432209,-1.7786372,0.049754288,-0.10193289,0.043047354,1.2587173,-0.46908897
0.0,0.1,1.0999999999999999,0.5235987755982988,0.0,0,-0.1649283,-0.47594744,-0.5399121,0.21798545,0.223087,1.3327143,0.37587526,0.93225414,-1.7966079,0.08662944,-0.08403776,0.020649621,1.290974,0.07312123
0.0,0.1,1.0999999999999999,0.5235987755982988,0.0,0,-0.16541347,-0.47564605,-0.53921336,0.21908237,0.20284887,1.4107765,-0.70106804,0.9696469,-1.7995147,0.10145244,-0.10871515,-0.07715719,1.2405066,-0.58704317
0.0,0.1,1.0999999999999999,0.5235987755982988,0.0,0,-0.16526805,-0.4753184,-0.541043,0.21245304,0.14270562,1.3703914,0.1731422,0.95038545,-1.810884,0.13118488,-0.07595911,0.006095634,1.2499543,0.62493175
0.0,0.1,1.0999999999999999,0.5235987755982988,0.0,0,-0.16504063,-0.4754321,-0.5397595,0.21434864,0.25475952,1.3528397,0.80581594,0.91250694,-1.8248204,-0.036196034,-0.10366513,-0.05582401,1.2817314,0.099568024
0.0,0.1,1.0999999999999999,0.5235987755982988,0.0,0,-0.1653968,-0.47560853,-0.53946954,0.21602151,0.16118175,1.3527502,-0.2291073,0.9074484,-1.8000925,0.012239282,-0.09170311,0.10945138,1.2772263,-0.53329957
0.0,0.1,1.0999999999999999,0.5235987755982988,0.0,0,-0.16525407,-0.47513884,-0.5394685,0.21540754,0.17065392,1.362062,-0.42162004,0.93538076,-1.7978431,0.105555244,-0.059893753,0.058486,1.2822425,-1.3848603
0.0,0.1,1.0999999999999999,0.5235987755982988,0.0,0,-0.16564807,-0.4762431,-0.5418007,0.21831156,0.3435594,1.3368744,0.037900977,0.91015625,-1.8090822,0.1557874,-0.09211924,0.0010093238,1.2639699,-1.4305725
0.0,0.1,1.0999999999999999,0.5235987755982988,0.0,0,-0.16512503,-0.47585493,-0.5403474,0.21443297,0.23685749,1.3359379,-0.345442,0.91579133,-1.8304561,0.10977028,-0.12152059,0.052482888,1.2159253,-0.15108433
0.0,0.1,1.0999999999999999,0.5235987755982988,0.0,0,-0.16541944,-0.47535706,-0.5422197,0.20981948,0.16466172,1.3382105,-0.49706447,0.9538107,-1.7961377,0.034310855,-0.054611,0.08538334,1.2362009,-0.16663443
0.0,0.1,1.0999999999999999,0.5235987755982988,0.0,0,-0.1649868,-0.47581482,-0.53925025,0.21457726,0.16149653,1.3493872,0.38626012,0.9101967,-1.7941657,-0.1114344,-0.071266994,0.13778114,1.2392147,1.0350654
0.0,0.1,1.0999999999999999,0.5235987755982988,0.0,0,-0.1659251,-0.47592813,-0.54199994,0.220672,0.22852033,1.3433642,-0.23843327,0.92262095,-1.7984124,0.11792704,-0.0711929,0.05946389,1.2510737,-1.3354118
0.0,0.1,1.0999999999999999,0.5235987755982988,0.0,0,-0.16505253,-0.47584647,-0.54089457,0.2169988,0.19122475,1.3162348,-0.035564452,0.9239952,-1.7896115,0.072906524,-0.0857255,0.055859156,1.2404431,-0.06238761
0.0,0.1,1.0999999999999999,0.5235987755982988,0.0,0,-0.16494128,-0.47548503,-0.5384998,0.22071952,0.34209278,1.3244805,1.5715153,0.8945208,-1.8503127,-0.055219054,-0.07830047,0.03588395,1.2762398,-0.8596651
0.0,0.1,1.0999999999999999,0.5235987755982988,0.0,0,-0.1657489,-0.47523162,-0.54114175,0.21522677,0.1292381,1.339439,-0.82072407,0.94479865,-1.8009472,0.029795721,-0.068009704,-0.04118561,1.2260746,-0.81061506
0.0,0.1,1.0999999999999999,0.5235987755982988,0.0,0,-0.16521503,-0.47586444,-0.5394299,0.21633165,0.23997907,1.2943373,-0.7254315,0.95385236,-1.7912356,-0.002153183,-0.08724777,0.04169967,1.3042829,0.10874256
0.0,0.1,1.0999999999999999,0.5235987755982988,0.0,0,-0.16516668,-0.47590545,-0.5396597,0.21344301,0.1475903,1.3347225,0.41355208,0.94967407,-1.8048811,0.11312653,-0.039327145,-0.15084161,1.281172,-1.0495405
0.0,0.1,1.0999999999999999,0.5235987755982988,0.0,0,-0.16515805,-0.47546968,-0.5393726,0.21735175,0.28378707,1.360513,-0.24759208,0.94484884,-1.8389745,0.08348708,-0.090748936,0.08252441,1.2242284,-0.07927301
0.0,0.1,1.0999999999999999,0.5235987755982988,0.0,0,-0.16543274,-0.47568676,-0.53725857,0.21059276,0.28385076,1.3524821,-1.1140386,0.9016907,-1.8004931,0.06986226,-0.078075185,0.14626189,1.2990643,-0.62981355
0.0,0.1,1.0999999999999999,0.5235987755982988,0.0,0,-0.16529639,-0.47599274,-0.5415946,0.21605535,0.2580804,1.3921533,-0.5977943,0.94253385,-1.793298,0.0029950019,-0.08998667,0.07309409,1.2116202,0.32525238
0.0,0.1,1.0999999999999999,0.5235987755982988,0.0,0,-0.16541335,-0.47549814,-0.53865325,0.21355036,0.173773,1.41675,0.28232536,0.89825565,-1.8093315,0.08606826,-0.050666157,0.18236613,1.2635597,1.0528623
0.0,0.1,1.0999999999999999,0.5235987755982988,0.0,0,-0.16534416,-0.4764014,-0.5393931,0.2111358,0.29724997,1.3738056,-0.31264964,0.9360796,-1.8258685,0.12816207,-0.0780526,0.036791388,1.246188,0.75885737
0.0,0.1,1.0999999999999999,0.5235987755982988,0.0,0,-0.16522081,-0.47597614,-0.53897816,0.21509261,0.17877968,1.3794737,-1.0718633,0.9027521,-1.7942245,-0.07922873,-0.08088792,-0.010454766,1.2712027,-1.2564282
0.0,0.1,1.0999999999999999,0.5235987755982988,0.0,0,-0.16512862,-0.47620332,-0.5418359,0.21567968,0.22314,1.3610821,0.41885915,0.9593879,-1.7878851,0.03662705,-0.08568171,-0.0032586008,1.2252362,-0.8948512
0.0,0.1,1.0999999999999999,0.5235987755982988,0.0,0,-0.16557194,-0.4754548,-0.5403518,0.21714875,0.18054834,1.3369693,-0.6298636,0.9368966,-1.8202989,-0.024418714,-0.06220854,0.014705239,1.2544314,0.64761305
0.0,0.1,1.0999999999999999,0.5235987755982988,0.0,0,-0.1651192,-0.47581702,-0.5404286,0.21959183,0.29627463,1.3651147,-0.69201326,0.90729964,-1.7644079,0.061754312,-0.09331284,0.020542705,1.2816156,-1.4837477
0.0,0.1,1.0999999999999999,0.5235987755982988,0.0,0,-0.16530506,-0.47520614,-0.5378208,0.21694893,0.24643792,1.3376079,-0.12306187,0.8987797,-1.8174262,-0.07695206,-0.07169649,-0.06989701,1.2386305,-1.6351764
0.0,0.1,1.0999999999999999,0.5235987755982988,0.0,0,-0.16554458,-0.47630242,-0.53892726,0.21903202,0.2166516,1.3392766,-0.5144832,0.9285534,-1.780227,0.045667086,-0.087673835,0.03046028,1.2052368,-0.34275872
0.0,0.1,1.0999999999999999,0.5235987755982988,0.0,0,-0.16520214,-0.4752395,-0.53963226,0.21192311,0.14908457,1.3444662,-1.2215688,0.91641164,-1.8217252,-0.04220635,-0.09232036,0.01360677,1.2354553,-0.7332756
0.0,0.1,1.0999999999999999,0.5235987755982988,0.0,0,-0.16490787,-0.4758772,-0.5386834,0.2192276,0.19357012,1.2971612,0.91945004,0.94998467,-1.79181,0.09911338,-0.07640908,0.06610468,1.2047771,-0.05593709
0.0,0.1,1.0999999999999999,0.5235987755982988,0.0,0,-0.1653967,-0.4757889,-0.541137,0.20585506,0.26199856,1.3229363,-0.4680037,0.91837156,-1.8178171,0.111213185,-0.1013473,0.05409721,1.2474201,-0.7994088
0.0,0.1,1.0999999999999999,0.5235987755982988,0.0,0,-0.16520366,-0.4757829,-0.53819335,0.21144485,0.26784456,1.3212318,-0.81147116,0.92275053,-1.8090674,0.0022550784,-0.07785945,0.028441675,1.2828574,-0.13726702
0.0,0.1,1.0999999999999999,0.5235987755982988,0.0,0,-0.1657671,-0.47536656,-0.53666526,0.21718624,0.21227296,1.2837608,0.90246844,0.90170765,-1.8258349,0.018405497,-0.11319373,0.10047235,1.2346296,-1.040206
0.0,0.1,1.0999999999999999,0.5235987755982988,0.0,0,-0.16522492,-0.4755146,-0.54059595,0.2133914,0.13641259,1.317822,-0.23890366,0.90718865,-1.8182474,0.108895704,-0.05940451,-0.053223193,1.2293557,-0.6173248
0.0,0.1,1.0999999999999999,0.5235987755982988,0.0,0,-0.16547571,-0.4757868,-0.54229546,0.21605173,0.19654612,1.3239257,0.081253946,0.8887902,-1.7927382,-0.050581314,-0.11011327,-0.019433478,1.2339035,1.5628566
0.0,0.1,1.0999999999999999,0.5235987755982988,0.0,0,-0.16568461,-0.47615108,-0.54157597,0.2119663,0.14144628,1.3675547,-0.42689267,0.89993566,-1.8142203,0.08599617,-0.08933818,-0.026023867,1.2710091,-0.90371525
0.0,0.1,1.0999999999999999,0.5235987755982988,0.0,0,-0.16508475,-0.47557798,-0.54060614,0.21538527,0.2878529,1.3904821,0.19012272,0.9073052,-1.8494049,0.048565842,-0.06456427,-0.034599647,1.2524667,-0.29768237
0.0,0.1,1.0999999999999999,0.5235987755982988,0.0,0,-0.16566652,-0.47534192,-0.5409698,0.21183772,0.17890972,1.332645,-0.3667917,0.8993044,-1.7965671,0.020570695,-0.069327876,0.0741022,1.2551408,-1.1539849
0.0,0.1,1.0999999999999999,0.5235987755982988,0.0,0,-0.16495875,-0.47586215,-0.5397452,0.21752639,0.21543966,1.3334844,-0.23562011,0.94302046,-1.8104,0.06856041,-0.10202964,0.15290953,1.2574466,0.93417317
0.0,0.1,1.0999999999999999,0.5235987755982988,0.0,0,-0.1656714,-0.4752723,-0.53727424,0.21624236,0.30334175,1.3577399,-0.49771735,0.8850458,-1.8162014,0.058173936,-0.06169491,0.0076584136,1.2538418,0.0133089945
0.0,0.1,1.0999999999999999,0.5235987755982988,0.0,0,-0.16575736,-0.47601438,-0.53693014,0.21507008,0.14691056,1.3147883,0.09675013,0.93929595,-1.7839063,0.03171158,-0.06991773,0.0060520344,1.2779155,0.38132903
0.0,0.1,1.0999999999999999,0.5235987755982988,0.0,0,-0.165638,-0.47570148,-0.54265803,0.2123229,0.3237872,1.3612497,-0.60986316,0.9429013,-1.7889112,0.014577647,-0.08581852,0.10926015,1.2768792,0.99139196
0.0,0.1,1.0999999999999999,0.5235987755982988,0.0,0,-0.16599129,-0.47558436,-0.5414498,0.21707685,0.29417455,1.3716373,0.29973063,0.92081726,-1.7927425,0.049090527,-0.081471056,-0.02797594,1.2477319,-1.0471867
0.0,0.1,1.0999999999999999,0.5235987755982988,0.0,0,-0.16556315,-0.47554272,-0.53871197,0.2154623,0.24018441,1.3201547,0.48468292,0.90808696,-1.783024,0.031647284,-0.082600094,-0.031555124,1.2253859,-0.6398068
0.0,0.1,1.0999999999999999,0.5235987755982988,0.0,0,-0.16493718,-0.47550115,-0.5416045,0.20624948,0.2834781,1.3877844,-0.47374612,0.9273882,-1.8303266,0.026396584,-0.07420096,0.067122556,1.2592384,0.15252224
0.0,0.1,1.0999999999999999,0.5235987755982988,0.0,0,-0.16462117,-0.47544876,-0.53955704,0.2184376,0.2641248,1.3460778,-0.8327647,0.9199717,-1.8014429,0.074140266,-0.062245995,-0.008342992,1.2607341,0.1381554
0.0,0.1,1.0999999999999999,0.5235987755982988,0.0,0,-0.16487859,-0.47546986,-0.5399502,0.21935633,0.3509591,1.3640766,-1.0407718,0.90731245,-1.7960917,0.13340648,-0.058063593,0.056321245,1.2493763,-0.40103588
0.0,0.1,1.0999999999999999,0.5235987755982988,0.0,0,-0.16526389,-0.4758598,-0.5387902,0.21019475,0.24959886,1.339372,-1.5489906,0.89855295,-1.8091849,0.18194315,-0.08072316,0.031094143,1.2084002,-0.38799763
0.0,0.1,1.0999999999999999,0.5235987755982988,0.0,0,-0.16533382,-0.47566813,-0.5387386,0.2209362,0.21181566,1.3578426,-0.40860218,0.90662116,-1.7992096,-0.079242066,-0.058700603,0.005152049,1.2589016,0.12138057
0.0,0.1,1.0999999999999999,0.5235987755982988,0.0,0,-0.16525273,-0.47503823,-0.5410531,0.21110927,0.3195303,1.3307296,-0.16511275,0.9289024,-1.77139,-0.019412527,-0.077220306,0.0021333727,1.2474262,0.88218135
0.0,0.1,1.0999999999999999,0.5235987755982988,0.0,0,-0.16551213,-0.47536775,-0.53953284,0.21383874,0.21379888,1.3665948,0.23837964,0.9159679,-1.8254151,0.18690334,-0.099367715,-0.11748932,1.240137,0.37597495
0.0,0.1,1.0999999999999999,0.5235987755982988,0.0,0,-0.16561016,-0.47537622,-0.5402327,0.21633022,0.1258069,1.391609,0.350197,0.925802,-1.7979904,0.16010752,-0.08533486,0.04600674,1.2848457,0.44046253
0.0,0.1,1.0999999999999999,0.5235987755982988,0.0,0,-0.16537078,-0.47592047,-0.5396202,0.209936,0.21775046,1.3621203,-0.0135441525,0.9496277,-1.8122897,-0.031676665,-0.09242151,-0.08345924,1.2247125,-0.7846061
0.0,0.1,1.0999999999999999,0.5235987755982988,0.0,0,-0.16596566,-0.4759131,-0.5393928,0.21230143,0.27964512,1.3081193,0.67731804,0.9162077,-1.7717642,0.05875274,-0.07025342,-0.027805798,1.2571537,0.15217288
0.0,0.1,1.0999999999999999,0.5235987755982988,0.0,0,-0.16549319,-0.47480008,-0.5389501,0.22124752,0.24868053,1.3812333,3.3593235e-05,0.9428712,-1.8110205,0.15244293,-0.07080121,-0.17013198,1.2492125,-0.22363396
0.0,0.1,1.0999999999999999,0.5235987755982988,0.0,0,-0.16534978,-0.47550055,-0.5402242,0.21224532,0.2232157,1.4080812,1.280072,0.9005963,-1.7970035,0.07656573,-0.05372052,0.10479128,1.2242277,-0.1601759
0.0,0.1,1.0999999999999999,0.5235987755982988,0.0,0,-0.16556346,-0.47489014,-0.5394573,0.21462558,0.20712622,1.3737426,0.33545795,0.9558106,-1.7950556,0.011876506,-0.10002529,-0.07751189,1.2240397,1.2958566
0.0,0.1,1.0999999999999999,0.5235987755982988,0.0,0,-0.16543198,-0.47526765,-0.538966,0.21661569,0.23519588,1.3563002,0.22448203,0.94125164,-1.8122759,0.04761602,-0.09585907,-0.02107406,1.2196478,1.3001266
0.0,0.1,1.0999999999999999,0.5235987755982988,0.0,0,-0.16591924,-0.47555396,-0.5393227,0.21650349,0.15779367,1.3222144,0.40261206,0.8801136,-1.796251,0.09583731,-0.06904855,0.05610492,1.2699398,1.2825063
0.0,0.1,1.0999999999999999,0.5235987755982988,0.0,0,-0.16514276,-0.47561225,-0.541126,0.22051282,0.3100802,1.411196,0.51203346,0.9199893,-1.8054688,0.120471306,-0.05657148,0.04610107,1.2401687,1.0153432
0.0,0.1,1.0999999999999999,0.5235987755982988,0.0,0,-0.1656603,-0.4754826,-0.5403019,0.21904555,0.18469432,1.3431753,0.9220225,0.89379895,-1.8128626,0.06988358,-0.05392564,-0.033061605,1.284971,-0.036998563
0.0,0.1,1.0999999999999999,0.5235987755982988,0.0,0,-0.1650978,-0.47554693,-0.54028153,0.21069504,0.30354992,1.2911366,0.032415986,0.9616618,-1.8126225,0.0957417,-0.09015621,-0.08008649,1.2556008,-0.012041136
0.0,0.1,1.0999999999999999,0.5235987755982988,0.0,0,-0.16506203,-0.47532117,-0.5387545,0.20594324,0.2533851,1.3685871,0.5618316,0.8485957,-1.795443,0.044626296,-0.055245843,0.08708091,1.235303,-0.9761266
0.0,0.1,1.0999999999999999,0.5235987755982988,0.0,0,-0.16569912,-0.4758636,-0.54236764,0.21076716,0.12756248,1.3650124,-0.6605211,0.9361228,-1.8040898,0.03358715,-0.10571859,-0.04762326,1.2280586,0.33721158
