sanky1234/BimanualDexCatch/isaacgymenvs/cem_results/football_pose_0.1_-0.1_0.8999999999999999_0.0_-0.5235987755982988_0_2025-05-26.csv
x,y,z,roll,pitch,yaw,robot1/joint1,robot1/joint2,robot1/joint3,robot1/joint4,robot1/joint5,robot1/joint6,robot1/joint7,robot2/joint1,robot2/joint2,robot2/joint3,robot2/joint4,robot2/joint5,robot2/joint6,robot2/joint7
0.1,-0.1,0.8999999999999999,0.0,-0.5235987755982988,0,-2.0021882,1.0060828,-1.081804,0.101101324,-0.026413688,1.3903079,-1.8190377,-0.23926584,1.3483568,0.101587236,-0.03547001,0.131224,1.0262835,-0.4751986
0.1,-0.1,0.8999999999999999,0.0,-0.5235987755982988,0,-2.0352318,1.0685787,-1.0883769,0.11297622,0.087203555,1.2094414,-2.0491416,-0.24829198,1.3005271,0.2586239,-0.06000377,0.14668642,0.96493244,-0.36204582
0.1,-0.1,0.8999999999999999,0.0,-0.5235987755982988,0,-2.0077868,1.1081631,-1.0847598,0.097504005,-0.009845085,1.2456739,-2.1103964,-0.23757583,1.3261219,0.17593506,0.06490031,0.2258058,1.0193924,-0.49673688
0.1,-0.1,0.8999999999999999,0.0,-0.5235987755982988,0,-2.0113442,1.0701942,-1.1213381,0.14602695,0.006755717,1.2587318,-2.0063803,-0.25028163,1.5719436,-0.2948951,-0.035795767,0.054322552,1.1493334,-0.4355937
0.1,-0.1,0.8999999999999999,0.0,-0.5235987755982988,0,-2.0129313,1.0542635,-1.0749831,0.010380037,0.083840914,1.3059192,-2.0021882,-0.24798535,1.332398,0.27519438,-0.092817545,0.07569305,1.1090783,-0.7740071
0.1,-0.1,0.8999999999999999,0.0,-0.5235987755982988,0,-1.9961989,1.0650594,-1.0900229,0.026574904,0.07876987,1.3488989,-1.9592401,-0.2489421,1.0454245,-0.14502095,0.042337023,0.3637925,1.1454442,0.48013264
0.1,-0.1,0.8999999999999999,0.0,-0.5235987755982988,0,-2.0274584,0.9739079,-1.0818384,0.20080869,0.0262827,1.3261299,-1.9259064,-0.23098978,1.3074363,-0.2869719,-0.033872247,0.10866962,1.0325059,0.2640881
0.1,-0.1,0.8999999999999999,0.0,-0.5235987755982988,0,-2.0219798,1.085487,-1.0715774,0.11904851,-0.06554713,1.3044273,-1.9627866,-0.24172497,1.4262818,0.24805279,-0.01360154,0.24961792,1.1544199,0.17003876
0.1,-0.1,0.8999999999999999,0.0,-0.5235987755982988,0,-2.0556931,1.100138,-1.0754184,0.13692328,-0.04108395,1.2385815,-1.8320483,-0.2464889,1.3478025,-0.43944505,-0.014165222,-0.010586334,1.0563707,-0.77462906
0.1,-0.1,0.8999999999999999,0.0,-0.5235987755982988,0,-2.0484512,1.0949197,-1.1009687,0.15353914,0.032962285,1.1921195,-1.8154961,-0.24060358,1.1285163,-0.03081093,-0.046262626,0.25410396,1.0393888,-0.13225184
0.1,-0.1,0.8999999999999999,0.0,-0.5235987755982988,0,-2.0337682,1.0373569,-1.0897055,0.16325279,-0.0009203895,1.2189376,-2.0215697,-0.2562825,1.1821208,-0.1849081,-0.086723305,0.5150947,1.1000353,-0.43916088
0.1,-0.1,0.8999999999999999,0.0,-0.5235987755982988,0,-2.0398703,1.1211748,-1.0818838,0.1123735,0.07667554,1.2212824,-2.047257,-0.2399198,1.7022613,-0.7232661,-0.13374661,0.20454694,1.0596647,-0.12786819
0.1,-0.1,0.8999999999999999,0.0,-0.5235987755982988,0,-2.019571,0.9842452,-1.0569905,0.14539136,0.002798559,1.253318,-1.8139073,-0.2530508,1.576687,-0.03959905,0.0071899677,-0.43807173,1.0862623,-0.6812211
0.1,-0.1,0.8999999999999999,0.0,-0.5235987755982988,0,-2.0207582,0.99052054,-1.1270765,0.114833415,-0.026584063,1.314693,-1.863416,-0.2385614,1.6670545,0.28031877,-0.015838051,0.11063012,1.0198926,-0.2745073
0.1,-0.1,0.8999999999999999,0.0,-0.5235987755982988,0,-1.9974436,0.9896059,-1.1127722,0.18970652,0.012945295,1.3044908,-1.796882,-0.25387523,0.97973347,-0.63414323,-0.15865982,0.16179182,1.0929573,-0.01822081
0.1,-0.1,0.8999999999999999,0.0,-0.5235987755982988,0,-2.036913,1.0030826,-1.0727526,0.14968236,0.024758201,1.3198042,-2.041325,-0.24005917,1.489893,-0.04106651,-0.031685334,0.12860708,1.2196968,-0.44148904
0.1,-0.1,0.8999999999999999,0.0,-0.5235987755982988,0,-2.015224,1.0655261,-1.1049299,0.13957158,-0.010405665,1.2392042,-2.0905519,-0.23716015,1.6198939,-0.17056876,0.020751636,0.21425723,1.1195244,-0.89440453
0.1,-0.1,0.8999999999999999,0.0,-0.5235987755982988,0,-2.0305576,1.0973989,-1.0454394,0.061040066,0.06295136,1.2430758,-2.1327262,-0.2434262,1.1185275,-1.0262623,-0.08026186,0.008248026,1.0194478,-0.5723075
0.1,-0.1,0.8999999999999999,0.0,-0.5235987755982988,0,-2.017607,0.97671473,-1.097104,0.2110683,-0.011427063,1.2520256,-1.9656814,-0.23659776,1.3376992,-0.30535376,0.11398463,0.3691625,0.9079661,0.27187562
0.1,-0.1,0.8999999999999999,0.0,-0.5235987755982988,0,-2.0438945,1.0290729,-1.0803696,0.12644945,0.044628564,1.2945925,-2.1061947,-0.24442552,1.4939761,-0.07888112,-0.07000257,-0.41167462,1.0496985,0.054722
0.1,-0.1,0.8999999999999999,0.0,-0.5235987755982988,0,-2.033836,0.9707212,-1.0726316,0.20086524,-0.0062390915,1.2367758,-1.7805486,-0.24834521,1.1078268,-0.42620423,-0.04117259,0.20646441,1.0598543,-0.33462435
0.1,-0.1,0.8999999999999999,0.0,-0.5235987755982988,0,-2.0202575,0.9709957,-1.1065,0.15263093,-0.0119702695,1.3231171,-1.6659092,-0.24833377,1.3432554,-0.1532283,-0.26193428,0.5397975,1.0654693,-0.89614123
0.1,-0.1,0.8999999999999999,0.0,-0.5235987755982988,0,-2.048945,0.9993166,-1.0690807,0.049494192,-0.0045334143,1.3371136,-2.2431433,-0.23795445,1.3516086,0.107423685,0.010608064,0.31361616,1.0633503,-0.1961915
0.1,-0.1,0.8999999999999999,0.0,-0.5235987755982988,0,-1.9956907,1.1039729,-1.0616493,0.09334859,-0.09310379,1.2790313,-2.0699358,-0.2472709,1.3704991,-0.39026338,0.012338695,0.21273819,1.2119808,-0.3461364
0.1,-0.1,0.8999999999999999,0.0,-0.5235987755982988,0,-2.0011601,0.992614,-1.0390056,0.05709606,-0.071900494,1.2358835,-1.9765705,-0.2558748,1.2325274,-0.15458864,0.06749309,0.4429866,1.0905179,0.613503
0.1,-0.1,0.8999999999999999,0.0,-0.5235987755982988,0,-2.0348663,1.0981241,-1.0999085,0.13984971,0.03686335,1.1788338,-2.1923766,-0.24065049,1.2718883,-0.22812302,0.10506321,-0.38548043,1.0448557,-2.7465e-05
0.1,-0.1,0.8999999999999999,0.0,-0.5235987755982988,0,-2.034305,1.1101587,-1.068899,0.035962816,-0.0149526065,1.3149205,-2.022534,-0.25056005,1.4428642,0.13497992,-0.02855267,-0.05188756,0.9827007,0.26709774
0.1,-0.1,0.8999999999999999,0.0,-0.5235987755982988,0,-2.0165565,0.91505235,-1.0302256,0.10791597,0.07190955,1.2467715,-1.848156,-0.2525948,1.4336461,-0.15386625,-0.03975836,0.0057061156,1.0591419,-0.25286037
0.1,-0.1,0.8999999999999999,0.0,-0.5235987755982988,0,-2.0495868,1.0045471,-1.0893208,0.07732336,-0.036391255,1.2251178,-2.0706775,-0.24379571,1.5371809,-0.20267361,-0.015212192,0.08673963,1.0080304,-0.476533
0.1,-0.1,0.8999999999999999,0.0,-0.5235987755982988,0,-1.9906706,1.0228212,-1.153377,0.20409518,0.05038386,1.1745971,-2.0297093,-0.24806938,1.3955613,0.3597254,-0.21818674,0.12497247,1.1048454,0.12762174
0.1,-0.1,0.8999999999999999,0.0,-0.5235987755982988,0,-2.0312467,1.0234807,-1.0634123,0.09530517,0.01306644,1.1627778,-2.0602455,-0.25773123,1.2642381,0.62852126,0.0076956637,-0.16854806,1.0262669,-0.02389145
0.1,-0.1,0.8999999999999999,0.0,-0.5235987755982988,0,-2.0045388,1.0371698,-1.1027635,0.17030497,0.064316034,1.3629959,-1.8237625,-0.23088093,1.2503034,-0.5411633,0.0635451,0.004174017,1.0604798,-0.80903447
0.1,-0.1,0.8999999999999999,0.0,-0.5235987755982988,0,-2.005911,1.0141853,-1.123506,0.20630692,0.08879751,1.3074659,-1.9065287,-0.26530895,1.3618946,-0.30329782,-0.09658641,0.033796724,1.0373169,0.08343627
0.1,-0.1,0.8999999999999999,0.0,-0.5235987755982988,0,-2.0316727,1.0217586,-1.0872062,0.03817331,0.0014424878,1.4121062,-2.0056942,-0.23969851,1.3230227,0.27895766,-0.04425952,0.41391772,1.0459929,-0.37664154
0.1,-0.1,0.8999999999999999,0.0,-0.5235987755982988,0,-2.0356035,1.0371479,-1.1109077,0.10624317,0.062408067,1.3602836,-1.9249398,-0.24169725,1.0587034,-0.070848964,-0.12093627,0.38781047,1.1469504,0.20885794
0.1,-0.1,0.8999999999999999,0.0,-0.5235987755982988,0,-2.0292373,1.0226451,-1.1031713,0.15971564,0.06035724,1.2068142,-1.943418,-0.23285475,1.5146958,0.08095099,-0.19075511,-0.42852765,1.0694828,-0.3030741
0.1,-0.1,0.8999999999999999,0.0,-0.5235987755982988,0,-2.011734,1.0244495,-1.1255966,0.12971912,0.12958214,1.1782392,-2.0664427,-0.24558505,1.091961,-0.5716619,-0.18371893,0.06520702,1.0037187,0.06960719
0.1,-0.1,0.8999999999999999,0.0,-0.5235987755982988,0,-2.0119436,1.010384,-1.0582423,0.18115571,0.00622698,1.151267,-1.7632115,-0.24534969,1.2986157,0.22378168,-0.10682388,-0.033936772,1.0933306,0.07282409
0.1,-0.1,0.8999999999999999,0.0,-0.5235987755982988,0,-2.030281,1.1249198,-1.1252033,0.19484049,0.045860484,1.2324529,-2.0015733,-0.24418895,1.4864553,0.7900998,0.0961308,0.4138171,1.0376929,-0.611378
0.1,-0.1,0.8999999999999999,0.0,-0.5235987755982988,0,-2.023386,1.0459065,-1.1653122,0.067888126,0.028876757,1.4816697,-1.980698,-0.24583846,1.0743159,-0.32727972,-0.058611203,-0.23945142,1.0993263,-0.48763692
0.1,-0.1,0.8999999999999999,0.0,-0.5235987755982988,0,-2.0125136,1.102645,-1.0871296,0.15739742,0.0344098,1.1909267,-1.9961826,-0.23862217,1.2717992,0.68900776,-0.11110307,0.12748548,1.1093132,1.0296887
0.1,-0.1,0.8999999999999999,0.0,-0.5235987755982988,0,-2.0174167,1.0189484,-1.0618757,0.12246186,0.050544083,1.2987474,-1.9441495,-0.24012241,1.0297763,-0.52642936,-0.039434183,-0.14617774,1.0955614,0.14706255
0.1,-0.1,0.8999999999999999,0.0,-0.5235987755982988,0,-2.0234306,1.0238848,-1.1004665,0.08989651,-0.018433489,1.1965125,-2.2691414,-0.24339928,1.494635,-0.16992359,-0.051511507,0.09400827,1.0480182,0.32545412
0.1,-0.1,0.8999999999999999,0.0,-0.5235987755982988,0,-2.0243938,0.99766743,-1.0406339,0.09899985,0.033284053,1.1644622,-2.0408525,-0.24628104,1.3559047,-0.08351165,-0.12523513,-0.12941077,0.9606738,-0.60593474
0.1,-0.1,0.8999999999999999,0.0,-0.5235987755982988,0,-2.0436478,1.0554599,-1.1411376,0.08130215,-0.004011161,1.2448674,-2.0730307,-0.2508113,1.6064659,-0.5517594,-0.001712164,0.43452978,1.2246294,-0.15321366
0.1,-0.1,0.8999999999999999,0.0,-0.5235987755982988,0,-1.9984292,0.9891519,-1.072157,0.16783111,0.06498657,1.2356802,-2.0712101,-0.2494167,1.2207613,0.17694813,0.051998433,-0.036042284,1.162089,-0.85582787
0.1,-0.1,0.8999999999999999,0.0,-0.5235987755982988,0,-2.045498,1.0176584,-1.0737413,0.066237725,0.038422704,1.1957959,-2.5093267,-0.24656071,1.2367488,0.23575911,-0.08403587,0.357705,1.1819509,-0.4413038
0.1,-0.1,0.8999999999999999,0.0,-0.5235987755982988,0,-2.0342216,1.0320003,-1.128801,0.091756806,-0.023113245,1.2597053,-2.3283408,-0.23651841,1.2508299,0.33101353,0.022404307,0.006962091,1.088854,-0.7924431
0.1,-0.1,0.8999999999999999,0.0,-0.5235987755982988,0,-2.0205853,1.1178561,-1.1357652,0.13756785,0.025617927,1.1133729,-2.0107656,-0.24366502,1.2851332,0.12557271,0.02338879,-0.12822318,1.0537989,-0.6119319
0.1,-0.1,0.8999999999999999,0.0,-0.5235987755982988,0,-1.9966323,1.0156319,-1.092275,0.10887868,-0.028593333,1.1355168,-2.2752697,-0.23836726,1.4702166,0.28490043,0.020876694,0.1256906,1.095514,-0.34615472
0.1,-0.1,0.8999999999999999,0.0,-0.5235987755982988,0,-2.0276105,1.0171151,-1.0698258,0.0822604,0.078960285,1.205354,-1.9443175,-0.24301712,1.3403648,0.2774781,-0.06864614,0.3648196,0.9562466,-0.2901781
0.1,-0.1,0.8999999999999999,0.0,-0.5235987755982988,0,-2.0147595,0.9954178,-1.148361,0.2078143,0.057955764,1.2337035,-1.7898433,-0.24717055,1.3565439,0.01821191,-0.10638833,0.15948834,1.0777978,-0.2548107
0.1,-0.1,0.8999999999999999,0.0,-0.5235987755982988,0,-2.0341823,1.0173845,-1.0709864,0.095995106,-0.06130344,1.3200015,-2.2121673,-0.24074237,1.3023419,-0.07545596,-0.057791304,-0.010577383,1.1120955,0.68711644
0.1,-0.1,0.8999999999999999,0.0,-0.5235987755982988,0,-2.0444615,1.0207089,-1.0956438,0.12249659,0.023371499,1.3219806,-2.0050728,-0.24795347,1.3985578,0.07786044,-0.050363433,0.42071566,0.98127455,0.08901577
0.1,-0.1,0.8999999999999999,0.0,-0.5235987755982988,0,-2.0147502,0.99742395,-1.0938671,0.15501174,0.07225904,1.2503707,-2.0939784,-0.2396062,1.5115366,0.25522724,0.08834257,0.18363976,1.1385037,-0.13370444
0.1,-0.1,0.8999999999999999,0.0,-0.5235987755982988,0,-2.0306013,1.0142726,-1.094138,0.14302579,-0.0003645182,1.3343898,-2.0733862,-0.24391079,1.6179676,0.35451436,0.06691692,-0.0642269,1.1859914,0.46772388
0.1,-0.1,0.8999999999999999,0.0,-0.5235987755982988,0,-2.0289812,1.0578082,-1.0987263,0.16545077,0.0529251,1.215351,-1.722869,-0.24957092,1.3468114,-0.17779206,0.14453845,0.2319979,1.1302028,0.35018304
0.1,-0.1,0.8999999999999999,0.0,-0.5235987755982988,0,-2.0135155,1.0262065,-1.0946835,0.08236727,0.07066237,1.2128643,-1.9826142,-0.24524476,1.3978974,0.13216309,-0.02242261,0.05468676,0.9815401,-0.5527759
0.1,-0.1,0.8999999999999999,0.0,-0.5235987755982988,0,-2.0158322,1.0090345,-1.0636108,0.14716344,-0.085536815,1.2505862,-1.9736118,-0.2454235,1.3473204,0.05954296,-0.005850038,0.14022148,1.1402812,-0.047750585
0.1,-0.1,0.8999999999999999,0.0,-0.5235987755982988,0,-2.0223663,1.005006,-1.0958556,0.14686216,0.0022883283,1.3425949,-2.179687,-0.24060838,1.3155364,-0.16963571,0.007209448,0.3952437,1.0688273,-0.21125844
0.1,-0.1,0.8999999999999999,0.0,-0.5235987755982988,0,-2.0232947,1.0500183,-1.0793595,0.11414371,-0.036860257,1.3211173,-1.9609665,-0.24223495,1.3063291,-0.7344825,0.043551303,0.050470773,1.1169592,-1.0145109
0.1,-0.1,0.8999999999999999,0.0,-0.5235987755982988,0,-2.0458398,1.0563098,-1.1219573,0.080161236,0.029219031,1.1670355,-1.9786834,-0.26066267,1.4936613,-0.03234563,0.022986373,-0.01562853,1.093977,-1.2360573
0.1,-0.1,0.8999999999999999,0.0,-0.5235987755982988,0,-2.0186937,1.0049777,-1.0988925,0.09095245,0.020097844,1.1631418,-2.0420182,-0.24024853,1.5267462,0.13026012,0.02257843,-0.06327877,1.0260845,-0.19536269
0.1,-0.1,0.8999999999999999,0.0,-0.5235987755982988,0,-2.0460558,1.0398097,-1.1099889,0.074314184,-0.07230419,1.3020883,-2.148236,-0.26137835,1.1620487,0.37286082,-0.13116467,0.027309524,1.1585131,-0.28632948
0.1,-0.1,0.8999999999999999,0.0,-0.5235987755982988,0,-2.0237162,1.0180401,-1.0781268,0.13775833,-0.007205096,1.2846867,-2.0858862,-0.24461187,1.2246431,0.07753243,-0.10045182,0.2590007,0.93922037,-0.44114795
0.1,-0.1,0.8999999999999999,0.0,-0.5235987755982988,0,-2.0106432,1.069727,-1.0610595,0.11603785,-0.11838641,1.1690114,-1.9482981,-0.24473433,1.5926324,0.0029705586,0.039918657,0.384478,1.0812486,-0.13405739
0.1,-0.1,0.8999999999999999,0.0,-0.5235987755982988,0,-2.0305464,1.0878687,-1.10291,0.093865916,-0.048596326,1.3524201,-1.9221274,-0.24126308,1.4186355,-0.28701955,-0.023011731,-0.080624275,1.017349,0.15660824
0.1,-0.1,0.8999999999999999,0.0,-0.5235987755982988,0,-2.0156517,1.0284011,-1.0783876,0.12499561,0.048366264,1.198102,-2.252704,-0.2601851,1.2368203,0.0052095563,0.09134168,-0.2395305,1.033492,-0.25504866
0.1,-0.1,0.8999999999999999,0.0,-0.5235987755982988,0,-2.0215118,1.0285479,-1.1091835,0.13712363,0.08005416,1.2985212,-1.8914871,-0.2580989,1.0611528,0.030695327,-0.1794076,0.54316384,1.017571,-0.44031757
0.1,-0.1,0.8999999999999999,0.0,-0.5235987755982988,0,-2.0083907,1.040988,-1.0820845,0.11819028,0.07226278,1.4114488,-2.1107912,-0.24710657,1.4854513,-0.5046057,-0.07720027,0.4074851,1.0914177,0.124454156
0.1,-0.1,0.8999999999999999,0.0,-0.5235987755982988,0,-2.0265973,1.0418532,-1.068672,0.081474386,-0.005305637,1.116296,-2.2382884,-0.24858467,1.3788135,-0.1017659,0.021282561,0.09751839,1.2151725,-0.2442791
0.1,-0.1,0.8999999999999999,0.0,-0.5235987755982988,0,-2.0063262,1.0572599,-1.13016,0.13504146,-0.06593456,1.3010792,-2.1079428,-0.2470684,1.2248242,0.17684835,0.041635063,-0.022740625,1.1693329,-0.54289085
0.1,-0.1,0.8999999999999999,0.0,-0.5235987755982988,0,-2.0249834,1.1464914,-1.067501,0.11792877,-0.02682908,1.3244505,-1.9174958,-0.2452681,1.3787982,-0.22093827,-0.13295233,-0.33008143,1.036496,0.00029314045
0.1,-0.1,0.8999999999999999,0.0,-0.5235987755982988,0,-1.9932128,1.0310884,-1.0978186,0.13197418,0.06012615,1.2844111,-2.0741942,-0.24780425,1.2718902,0.9508623,-0.00950856,-0.1470639,0.99553585,0.17511567
0.1,-0.1,0.8999999999999999,0.0,-0.5235987755982988,0,-2.0207403,1.0940509,-1.1275344,0.1527001,-0.028022049,1.2551023,-2.129525,-0.23994583,1.2405959,-0.34041888,-0.15587968,0.32490882,1.0510995,0.7276615
0.1,-0.1,0.8999999999999999,0.0,-0.5235987755982988,0,-1.9972453,1.0441247,-1.0574142,0.25367406,0.057871148,1.2930826,-1.9995642,-0.23926987,1.5095196,-0.07577934,0.010579997,-0.026065113,1.1973145,-0.048636235
0.1,-0.1,0.8999999999999999,0.0,-0.5235987755982988,0,-2.0026085,1.0828775,-1.0666181,0.076576516,0.055181596,1.2143683,-2.2619054,-0.23556317,1.3355844,0.23565832,-0.08576298,0.10054851,1.1712418,0.0018146568
0.1,-0.1,0.8999999999999999,0.0,-0.5235987755982988,0,-2.022672,1.0238543,-1.0466553,0.15037,-0.01950159,1.2629404,-2.1793647,-0.23852083,1.7046864,0.1919533,-0.054437056,-0.09912344,1.0544833,-0.6705186
0.1,-0.1,0.8999999999999999,0.0,-0.5235987755982988,0,-2.034622,1.0320866,-1.0691974,0.07648551,0.08020533,1.3059311,-1.9616028,-0.23717688,1.4926158,-0.53245515,-0.026396872,-0.3460536,0.9388784,0.27993459
0.1,-0.1,0.8999999999999999,0.0,-0.5235987755982988,0,-2.0272863,1.0917289,-1.0704125,0.06517442,0.022103459,1.3651544,-2.0221603,-0.25710076,1.1639721,-0.16479401,-0.060989182,0.2130755,1.0956054,0.51718354
0.1,-0.1,0.8999999999999999,0.0,-0.5235987755982988,0,-2.0002997,1.0096409,-1.0418003,0.0076616793,0.09063931,1.2316248,-1.8400055,-0.24694438,1.4981508,0.06906089,-0.18186574,0.20425443,1.0888764,0.17821942
0.1,-0.1,0.8999999999999999,0.0,-0.5235987755982988,0,-2.0235589,1.00745,-1.065507,0.05534772,0.0739074,1.2916503,-2.0242906,-0.25507227,1.1939491,-0.14633295,-0.025516333,0.04992683,1.1498152,-0.06826834
0.1,-0.1,0.8999999999999999,0.0,-0.5235987755982988,0,-1.9871087,1.0401844,-1.1178209,0.18946218,-0.07965235,1.2998123,-2.1646838,-0.24830823,1.5273404,-0.106955074,0.011488932,-0.14103562,1.1311911,-0.103159554
0.1,-0.1,0.8999999999999999,0.0,-0.5235987755982988,0,-2.0159137,1.0623786,-1.1204587,0.12690358,-0.0005001693,1.3985925,-2.0788805,-0.25544724,1.3942759,0.1524594,0.0096778795,0.34050313,1.0138689,-0.40788195
0.1,-0.1,0.8999999999999999,0.0,-0.5235987755982988,0,-2.028988,1.0529706,-1.114304,0.1075434,-0.011312608,1.3886937,-2.1042764,-0.24584664,0.9901118,-0.25948146,-0.20637977,-0.099059395,1.0539185,-0.28822893
0.1,-0.1,0.8999999999999999,0.0,-0.5235987755982988,0,-2.0170405,0.99955857,-1.0671496,0.23665427,0.049785737,1.2979735,-1.993692,-0.24936725,1.4718801,-0.39143986,-0.059637405,-0.0148614,1.0530958,-0.44973642
0.1,-0.1,0.8999999999999999,0.0,-0.5235987755982988,0,-2.017381,0.9320845,-1.0779794,0.29027894,-0.106727384,1.2903353,-2.122679,-0.2437117,1.451825,0.36628452,0.020385595,0.2625997,1.1193854,-0.119107336
0.1,-0.1,0.8999999999999999,0.0,-0.5235987755982988,0,-1.9989349,1.040702,-1.0366032,0.06288106,0.03757192,1.3025565,-2.1348884,-0.24199244,1.0726795,-0.04858012,-0.07931477,0.205536,1.1145562,0.03925591
0.1,-0.1,0.8999999999999999,0.0,-0.5235987755982988,0,-2.0289493,0.97564673,-1.1075355,0.15597472,0.08856123,1.3037446,-2.024453,-0.23952024,1.4918044,0.24962509,-0.04181451,-0.42913353,1.1487172,-0.34943274
0.1,-0.1,0.8999999999999999,0.0,-0.5235987755982988,0,-2.0245972,1.0261115,-1.1087364,0.112389326,0.0833479,1.3568478,-2.1048856,-0.24904467,1.5300113,0.07386359,-0.10622004,0.044680323,0.90113586,0.5706684
0.1,-0.1,0.8999999999999999,0.0,-0.5235987755982988,0,-2.0267134,1.0116166,-1.0281903,0.0962736,0.08214759,1.3379881,-2.0876372,-0.24728517,1.4243848,-0.21662003,-0.0057626837,-0.4045295,1.0179757,-0.31030092
0.1,-0.1,0.8999999999999999,0.0,-0.5235987755982988,0,-2.0125172,0.9624687,-1.0378228,0.14644827,-0.01966938,1.28101,-2.060336,-0.25170514,1.5100175,0.14444,-0.047034543,0.2887558,1.0844417,0.5132741
0.1,-0.1,0.8999999999999999,0.0,-0.5235987755982988,0,-1.9971676,0.99858457,-1.069237,0.22857937,0.0029689572,1.3264743,-2.188194,-0.24967422,1.2444371,0.22864303,-0.0680404,0.27378425,0.9366375,0.03961367
0.1,-0.1,0.8999999999999999,0.0,-0.5235987755982988,0,-2.0220027,1.0502474,-1.1421235,0.09813277,0.050024845,1.3633502,-2.1067343,-0.23315793,0.95436364,-0.48595428,-0.07833269,-0.22469014,1.0024056,-0.26280895
0.1,-0.1,0.8999999999999999,0.0,-0.5235987755982988,0,-2.0176916,1.0518959,-1.0616302,0.082436055,-0.005378691,1.2431043,-2.1908903,-0.24643259,1.2392362,0.63203394,-0.035831217,-0.21079935,1.0976095,0.03877404
0.1,-0.1,0.8999999999999999,0.0,-0.5235987755982988,0,-2.04882,1.0461173,-1.0508484,0.07268452,0.05390976,1.3288201,-2.020942,-0.24234802,1.4619617,0.085849,0.09123954,-0.09288522,1.1102113,-0.96047264
0.1,-0.1,0.8999999999999999,0.0,-0.5235987755982988,0,-2.0071433,1.0210906,-1.0559719,0.15027827,-0.061557733,1.285812,-2.1890016,-0.24724862,1.1489192,-0.1579801,0.013413181,0.22291176,1.0277513,-0.058909073
0.1,-0.1,0.8999999999999999,0.0,-0.5235987755982988,0,-2.048026,1.0877675,-1.1104574,0.11504725,0.07992219,1.2253115,-2.4199805,-0.23655957,1.6643112,0.89977247,0.057141896,-0.40233997,1.0436183,-0.5523267
0.1,-0.1,0.8999999999999999,0.0,-0.5235987755982988,0,-2.0316927,1.0815874,-1.0860139,0.062011935,-0.013857944,1.3662515,-1.9985151,-0.24943683,1.464688,0.41388357,-0.0099279145,-0.009454635,1.148981,-0.38141474
0.1,-0.1,0.8999999999999999,0.0,-0.5235987755982988,0,-2.047119,1.0011312,-1.0572959,0.18597454,0.05192084,1.3810953,-2.010379,-0.25120574,1.2112938,0.08659473,-0.060707413,-0.27583492,1.1347106,-0.21822979
0.1,-0.1,0.8999999999999999,0.0,-0.5235987755982988,0,-2.0020225,0.9865827,-1.0963619,0.16785511,-0.0044461917,1.298745,-1.9083825,-0.24832158,1.225829,-0.41365075,0.00940326,0.46055284,1.1838802,-0.89377993
0.1,-0.1,0.8999999999999999,0.0,-0.5235987755982988,0,-2.0270338,1.0626211,-1.1332903,0.10508321,0.11236881,1.342649,-2.0074809,-0.24906763,1.1648785,0.2025388,-0.07429734,0.086740784,1.0974089,-0.17788133
0.1,-0.1,0.8999999999999999,0.0,-0.5235987755982988,0,-2.0092385,0.99045366,-1.0716187,0.14320153,0.049590096,1.3081309,-2.251416,-0.24658045,1.2667589,0.38638178,-0.056207165,0.10282329,1.089152,0.82659584
0.1,-0.1,0.8999999999999999,0.0,-0.5235987755982988,0,-2.0271502,1.0915318,-1.0667776,0.10302865,0.0143619515,1.3199084,-2.1166422,-0.25499222,1.3645521,0.25016472,-0.15932402,-0.05503444,1.1268731,0.400612
0.1,-0.1,0.8999999999999999,0.0,-0.5235987755982988,0,-1.994933,1.0590636,-1.1620405,0.18705982,0.07479561,1.2830517,-2.2877123,-0.23798609,1.4161441,0.1940775,-0.029831197,0.26200125,1.1206036,0.21451426
0.1,-0.1,0.8999999999999999,0.0,-0.5235987755982988,0,-1.9996845,1.0688,-1.066525,0.09202335,0.05091454,1.1745315,-2.1696799,-0.24809402,1.0356076,-0.11754956,0.20438229,0.011622634,0.9170117,0.29598075
0.1,-0.1,0.8999999999999999,0.0,-0.5235987755982988,0,-2.0168357,0.97717,-1.0320864,0.060624342,-0.037416115,1.4027932,-1.8643038,-0.24349882,1.4102238,0.4969995,-0.1296566,0.21911174,1.1537971,-0.35945678
0.1,-0.1,0.8999999999999999,0.0,-0.5235987755982988,0,-2.0276632,0.98557305,-1.0711373,0.1535978,0.059546966,1.212119,-2.069642,-0.23955174,1.408454,0.64739436,0.05292751,0.01566849,1.1369812,-0.384345
0.1,-0.1,0.8999999999999999,0.0,-0.5235987755982988,0,-2.0029504,0.9800662,-1.0420083,0.07721604,0.11377396,1.2552364,-2.051563,-0.24882181,1.290714,-0.5388106,0.009922044,0.13763863,1.1250331,0.20889485
0.1,-0.1,0.8999999999999999,0.0,-0.5235987755982988,0,-2.0175037,1.0573454,-1.0519934,0.111401595,-0.08934308,1.3366976,-2.114879,-0.24660894,1.4484215,0.13384405,-0.16557102,-0.17301086,0.9866912,0.03858882
0.1,-0.1,0.8999999999999999,0.0,-0.5235987755982988,0,-2.0133753,1.0447725,-1.0466422,0.07325106,-0.03657901,1.2792027,-2.1236231,-0.26116407,1.2651911,-0.36566725,-0.02590018,-0.19816886,1.0992975,-0.1731789
0.1,-0.1,0.8999999999999999,0.0,-0.5235987755982988,0,-2.035907,1.0925913,-1.1434342,0.1483149,0.037531905,1.3380342,-1.7988195,-0.24429134,1.6620828,0.12874825,-0.043130867,-0.19574308,1.0278914,-0.79509515
0.1,-0.1,0.8999999999999999,0.0,-0.5235987755982988,0,-2.005363,1.0053171,-1.0227424,0.10108525,-0.013141261,1.3401316,-2.1491282,-0.24147488,1.2034765,0.41274345,-0.07627959,0.38130966,1.0933223,0.79187936
0.1,-0.1,0.8999999999999999,0.0,-0.5235987755982988,0,-1.9896683,1.0330446,-1.0727096,0.076686956,0.12702501,1.2486345,-2.1126442,-0.2501658,1.1847761,0.032764602,0.0028235873,-0.07333602,1.0257306,-0.37027544
0.1,-0.1,0.8999999999999999,0.0,-0.5235987755982988,0,-2.0330193,1.0140312,-1.1296233,0.21686666,0.097989134,1.2688175,-2.2486784,-0.25687844,1.3207271,-0.40895712,-0.08045998,0.4576013,1.1227602,0.31413934
0.1,-0.1,0.8999999999999999,0.0,-0.5235987755982988,0,-2.037403,1.0607849,-1.1218933,0.23949103,0.06308973,1.3187833,-2.0512033,-0.25150535,1.2858531,0.084482856,-0.069182254,0.016152773,1.0804067,-0.14145085
0.1,-0.1,0.8999999999999999,0.0,-0.5235987755982988,0,-2.0487733,1.0940855,-1.0921481,0.072196804,0.03523007,1.3196611,-2.2793167,-0.25847405,1.5988132,0.2121202,-0.030461142,0.3240353,1.1995002,0.3472596
0.1,-0.1,0.8999999999999999,0.0,-0.5235987755982988,0,-2.0076518,1.0663801,-1.1209167,0.11630913,0.005095818,1.3242043,-2.1580472,-0.2553232,1.3889587,0.33007398,-0.013260078,0.27436185,1.1589643,-0.3859073
0.1,-0.1,0.8999999999999999,0.0,-0.5235987755982988,0,-2.0414743,0.96746325,-1.0830209,0.27823153,-0.017390314,1.0492833,-2.1813512,-0.24993554,1.2551333,-0.16397639,0.19805627,0.09680582,1.1486361,0.017771669
0.1,-0.1,0.8999999999999999,0.0,-0.5235987755982988,0,-1.9984078,1.0103823,-1.0552915,0.14175655,-0.024505805,1.1875426,-2.3356018,-0.25011858,1.2344551,-0.06212639,0.065204576,-0.26087314,1.2070059,-0.04543492
0.1,-0.1,0.8999999999999999,0.0,-0.5235987755982988,0,-2.0018075,1.0395594,-1.087012,0.14002962,-0.0023520058,1.2249192,-2.1718857,-0.2472354,1.0895618,0.0137573965,0.004600559,0.02504222,1.067017,-0.6506544
0.1,-0.1,0.8999999999999999,0.0,-0.5235987755982988,0,-2.015669,1.0539348,-1.0774719,0.0940294,-0.021037873,1.2826627,-2.2139418,-0.24404769,1.1248877,-0.11636539,-0.016046746,0.17182413,1.0044581,0.18383388
0.1,-0.1,0.8999999999999999,0.0,-0.5235987755982988,0,-1.9999475,1.0491692,-1.0812588,0.14704137,-0.021526465,1.3062667,-2.0782006,-0.24608062,1.3839169,-0.042745903,0.1088378,-0.037171222,1.0617564,0.32592154
0.1,-0.1,0.8999999999999999,0.0,-0.5235987755982988,0,-2.027683,1.0899334,-1.1085528,0.13550986,-0.039831292,1.2900324,-2.357927,-0.26343265,1.386586,0.35555744,0.08802091,0.21990255,0.9708825,-0.033430703
0.1,-0.1,0.8999999999999999,0.0,-0.5235987755982988,0,-2.0215852,1.0097437,-1.1035987,0.14571166,0.07644524,1.2770602,-2.2890193,-0.22880308,1.3694811,0.22843233,0.08826449,0.32226634,1.03675,-0.71535826
0.1,-0.1,0.8999999999999999,0.0,-0.5235987755982988,0,-2.0108988,0.99181914,-1.0787098,0.13701037,0.10418509,1.2710367,-2.1448934,-0.24456024,1.2833191,0.46055627,0.08217248,0.08384585,1.0411372,-0.40449446
0.1,-0.1,0.8999999999999999,0.0,-0.5235987755982988,0,-2.0236063,1.0487845,-1.054809,0.09765168,0.023293063,1.2789131,-2.113465,-0.25841656,1.2267514,-0.03464189,-0.08884244,0.23895432,1.14925,0.15858963
0.1,-0.1,0.8999999999999999,0.0,-0.5235987755982988,0,-2.0374887,0.9938696,-1.0518771,0.124721415,0.087175004,1.1944748,-2.1261253,-0.23850037,1.2973024,0.1272894,-0.04427575,0.22586966,1.0876667,-0.5042373
0.1,-0.1,0.8999999999999999,0.0,-0.5235987755982988,0,-2.0224535,1.0803361,-1.1124016,0.14089575,0.04846008,1.2555137,-2.2677226,-0.2511042,1.3153198,-0.059293285,0.001874047,0.17871879,1.1363921,0.29322165
0.1,-0.1,0.8999999999999999,0.0,-0.5235987755982988,0,-2.0017724,1.0677171,-1.166696,0.123511575,0.11856471,1.3514695,-2.14365,-0.2590897,1.3011235,0.3135323,-0.09521682,-0.17179629,1.1044207,-0.61281
0.1,-0.1,0.8999999999999999,0.0,-0.5235987755982988,0,-2.0324686,1.0483084,-1.1936736,0.23440933,0.11892091,1.2144843,-2.3168046,-0.2509351,1.3392646,0.29274297,-0.022501377,0.081135206,1.1466109,-0.3530663
0.1,-0.1,0.8999999999999999,0.0,-0.5235987755982988,0,-2.0133727,1.0774683,-1.1062843,0.13908519,-0.0018208118,1.2004304,-2.2484655,-0.24739906,1.3540004,-0.34367627,0.07357618,0.031155024,1.0459176,-0.6140726
0.1,-0.1,0.8999999999999999,0.0,-0.5235987755982988,0,-2.0345614,1.0443931,-1.0587167,0.10265173,0.0774764,1.1452246,-2.2559483,-0.24567448,1.0380962,-0.043616053,0.12841707,-0.05154213,0.9468609,0.12752798
0.1,-0.1,0.8999999999999999,0.0,-0.5235987755982988,0,-2.033307,1.0319036,-1.0586575,0.09839798,-0.008894087,1.3797395,-2.0344572,-0.24041875,1.3429258,-0.68119174,-0.09950333,0.12990823,1.2385515,0.24592634
0.1,-0.1,0.8999999999999999,0.0,-0.5235987755982988,0,-2.0177407,1.0192815,-1.0533478,0.09273185,0.0021746706,1.2796972,-2.2359831,-0.24519923,1.1458461,0.30538496,-0.13870019,-0.39119694,1.1483632,0.11667966
0.1,-0.1,0.8999999999999999,0.0,-0.5235987755982988,0,-1.9961225,1.0764029,-1.0966905,0.12687404,-0.058356877,1.2367945,-2.2373495,-0.2413939,1.4345595,0.3926195,0.040143803,-0.40454543,1.0651475,-0.9844675
0.1,-0.1,0.8999999999999999,0.0,-0.5235987755982988,0,-2.019133,1.0478053,-1.0681554,0.086989366,0.0624018,1.2845985,-2.1077013,-0.2445989,1.1446121,-0.10974481,-0.013618152,0.11151141,1.120464,-0.25258127
0.1,-0.1,0.8999999999999999,0.0,-0.5235987755982988,0,-1.9997879,1.0255561,-1.0613284,0.13123369,-0.015815234,1.4012514,-2.2197511,-0.2540201,1.1680301,-0.5953703,-0.0019047714,-0.24551038,1.1214103,0.027988715
0.1,-0.1,0.8999999999999999,0.0,-0.5235987755982988,0,-2.055838,1.0508723,-1.0977169,0.16691162,0.07319606,1.1682693,-2.1744251,-0.23646729,1.188745,0.6662476,-0.06836373,-0.21938205,1.0084015,-0.24885355
0.1,-0.1,0.8999999999999999,0.0,-0.5235987755982988,0,-2.0033174,0.9675636,-1.0364904,0.12078426,0.012578766,1.1990705,-2.094617,-0.25286204,1.2505468,-0.13255844,-0.03700241,0.31323662,0.98094314,-0.4544354
0.1,-0.1,0.8999999999999999,0.0,-0.5235987755982988,0,-2.0143726,1.0482576,-1.060384,0.06631147,0.053804282,1.2225993,-2.4025881,-0.24037032,1.216487,-0.2604873,-0.15278539,0.42005652,1.1925248,0.5247935
0.1,-0.1,0.8999999999999999,0.0,-0.5235987755982988,0,-2.0177505,1.0178906,-1.0863585,0.09560701,0.021317769,1.3561502,-2.0898294,-0.24634644,1.1965814,-0.09687509,-0.07726692,-0.05826716,1.0977814,-0.09135801
0.1,-0.1,0.8999999999999999,0.0,-0.5235987755982988,0,-2.030331,1.0288242,-1.0801188,0.16009596,-0.049312655,1.3131088,-2.1037629,-0.24300204,1.535429,-0.3888413,-0.08957792,0.5686571,1.0680207,-0.79936105
0.1,-0.1,0.8999999999999999,0.0,-0.5235987755982988,0,-2.0412986,1.0171037,-1.064525,0.16084576,-0.04517535,1.2131379,-2.1030571,-0.24173045,1.2267215,0.5933299,-0.10539094,0.027056005,1.1244345,-0.1599672
0.1,-0.1,0.8999999999999999,0.0,-0.5235987755982988,0,-2.0106924,1.0671977,-1.124921,0.176874,-0.029745953,1.2252334,-2.3467767,-0.23720573,1.3123523,0.08289177,0.08919196,-0.3516972,1.2112056,0.30023202
0.1,-0.1,0.8999999999999999,0.0,-0.5235987755982988,0,-2.0323248,1.0477322,-1.1067804,0.14782394,0.010217754,1.3353584,-2.173758,-0.2551793,1.6269498,0.16277768,0.07643743,0.26112142,0.9960645,0.40638015
0.1,-0.1,0.8999999999999999,0.0,-0.5235987755982988,0,-2.0400388,1.0147012,-1.1137897,0.16111171,0.066797815,1.2911823,-2.1624265,-0.25979355,1.0694107,-0.2981686,0.028725404,0.24817954,1.1912291,0.30531204
0.1,-0.1,0.8999999999999999,0.0,-0.5235987755982988,0,-2.0299275,1.0459195,-1.0838901,0.15987372,0.006539611,1.2042056,-2.419997,-0.2427437,1.4390962,-0.29491553,-0.09763906,0.29903945,1.1350158,0.1070963
0.1,-0.1,0.8999999999999999,0.0,-0.5235987755982988,0,-1.9859444,1.1095992,-1.126605,0.115947194,-0.018253498,1.2352301,-2.0897334,-0.24603896,1.2858291,-0.12936072,-0.032424256,0.14782259,1.0539801,-0.10182158
0.1,-0.1,0.8999999999999999,0.0,-0.5235987755982988,0,-2.0418372,1.0033067,-1.0816909,0.09961439,0.11406279,1.298688,-2.139517,-0.2404123,1.2469763,-0.1789385,-0.0377703,-0.08618512,1.0453652,0.016288415
0.1,-0.1,0.8999999999999999,0.0,-0.5235987755982988,0,-2.0371132,1.00763,-1.103279,0.15749115,0.036675435,1.401076,-1.9511818,-0.24898937,1.079578,0.30363655,-0.13803725,0.25006986,1.0508716,-1.326814
0.1,-0.1,0.8999999999999999,0.0,-0.5235987755982988,0,-2.053353,1.0369315,-1.0803471,0.10728451,0.01441836,1.3936433,-2.0014787,-0.24148409,1.2116861,-0.39113697,-0.12191615,-0.06055292,1.063526,-0.4868327
0.1,-0.1,0.8999999999999999,0.0,-0.5235987755982988,0,-2.0059133,1.060701,-1.1015742,0.076209724,0.030766837,1.3327092,-2.0843918,-0.24425353,1.3707434,0.38703063,-0.08457641,0.0931214,1.0952233,-0.28447947
0.1,-0.1,0.8999999999999999,0.0,-0.5235987755982988,0,-2.0424142,1.0616335,-1.0548018,0.13509583,-0.06690122,1.2410378,-2.0056949,-0.24639547,1.4544382,-0.8179379,0.095751956,0.17055076,1.0807385,0.32207018
0.1,-0.1,0.8999999999999999,0.0,-0.5235987755982988,0,-2.0269833,1.0524814,-1.0787361,0.06099983,0.025531804,1.3588108,-2.1458738,-0.25264376,1.2698826,0.66410446,-0.07464233,-0.27565888,1.0546635,-0.26589024
0.1,-0.1,0.8999999999999999,0.0,-0.5235987755982988,0,-2.0408432,1.0442797,-1.0660596,0.100385815,0.037701838,1.2831345,-2.2495937,-0.24771725,1.0617504,0.26591772,0.1407745,0.17065085,1.117172,0.16716884
0.1,-0.1,0.8999999999999999,0.0,-0.5235987755982988,0,-2.035476,1.0224168,-1.0519391,0.07495748,0.07855075,1.2223762,-2.304662,-0.2357932,1.4121274,-0.24287005,0.029101184,-0.5100949,1.1403592,-0.9526623
0.1,-0.1,0.8999999999999999,0.0,-0.5235987755982988,0,-2.017225,1.1208062,-1.0700011,0.05013068,-0.0236711,1.2243441,-2.3329856,-0.24820292,1.3169271,-0.3650449,-0.093027845,0.23323333,1.0219226,-0.10504682
0.1,-0.1,0.8999999999999999,0.0,-0.5235987755982988,0,-2.0279388,1.0820532,-1.1007221,0.11495762,0.055870194,1.2198619,-2.413591,-0.24471685,1.2116956,0.018872624,0.022813786,0.26134834,1.0196995,0.15600722
0.1,-0.1,0.8999999999999999,0.0,-0.5235987755982988,0,-2.044033,1.0399739,-1.0605967,0.093101844,0.02838596,1.2332363,-1.923934,-0.24303544,1.3397113,0.12979604,-0.012664457,0.40869477,1.1163687,-0.8940924
0.1,-0.1,0.8999999999999999,0.0,-0.5235987755982988,0,-1.9960495,1.0128736,-1.0473244,0.10910754,-0.014591947,1.1464504,-2.2177618,-0.24848132,1.199116,-0.13342823,-0.043602582,-0.0029993786,1.1184232,0.13672525
0.1,-0.1,0.8999999999999999,0.0,-0.5235987755982988,0,-2.0524113,1.083999,-1.0835338,0.12212441,0.038103145,1.1644237,-2.4592216,-0.24684852,1.4243946,-0.102628835,-0.05415013,-0.4027766,1.1052929,0.3538189
0.1,-0.1,0.8999999999999999,0.0,-0.5235987755982988,0,-2.0169942,1.0145582,-1.0745215,0.1399659,-0.018147824,1.2755443,-2.1491184,-0.24685097,1.5501517,-0.050126344,-0.1597467,0.3894574,1.1067241,-0.9674055
0.1,-0.1,0.8999999999999999,0.0,-0.5235987755982988,0,-2.0168493,1.0822369,-1.070719,0.122904696,-0.116022505,1.2722253,-2.1212556,-0.24936077,1.3357688,0.19852963,0.06692701,-0.044017263,1.1383598,-0.21673474
0.1,-0.1,0.8999999999999999,0.0,-0.5235987755982988,0,-2.0156324,0.9865193,-1.0590736,0.18117166,-0.08586591,1.250543,-2.3405569,-0.2511834,1.2900474,0.02762105,-0.05749947,-0.072277255,1.1120588,-0.15190038
0.1,-0.1,0.8999999999999999,0.0,-0.5235987755982988,0,-2.031801,1.026127,-1.0500969,0.110661924,0.008925429,1.3639866,-2.256207,-0.24696295,1.114163,0.0292401,-0.09615782,0.081733465,0.95840913,0.10830542
0.1,-0.1,0.8999999999999999,0.0,-0.5235987755982988,0,-2.029604,1.0543084,-1.0690145,0.038615197,0.00059811573,1.5205674,-2.1143992,-0.24467611,1.2041271,-0.31577095,-0.07275785,0.055446804,1.1032871,-0.89222616
0.1,-0.1,0.8999999999999999,0.0,-0.5235987755982988,0,-2.020195,1.0820343,-1.0821813,0.08798089,-0.01689749,1.3907735,-2.17603,-0.24124202,1.8806351,0.43954682,0.12476945,0.09502359,1.1313858,-0.1281719
0.1,-0.1,0.8999999999999999,0.0,-0.5235987755982988,0,-2.0328636,1.0282433,-1.0705588,0.1289461,-0.018470267,1.3494506,-1.9169663,-0.23579419,1.2060543,0.33605218,0.06404056,0.027132189,1.088608,-0.76084495
0.1,-0.1,0.8999999999999999,0.0,-0.5235987755982988,0,-2.0433245,1.0470203,-1.049993,0.092203505,0.02330209,1.1966214,-2.094551,-0.24854013,1.2696054,-0.5007673,0.037384097,0.18739417,1.0810165,0.3050577
0.1,-0.1,0.8999999999999999,0.0,-0.5235987755982988,0,-2.0346088,1.0951096,-1.1125203,0.09978219,0.027823657,1.3129317,-1.9312426,-0.23789272,1.1720469,-0.1499825,-0.029738516,0.29207075,1.0048838,0.007917386
0.1,-0.1,0.8999999999999999,0.0,-0.5235987755982988,0,-2.0199919,1.103842,-1.031462,0.060472433,0.029330034,1.2170326,-2.2312293,-0.24080136,1.4771148,0.09947647,0.11884811,0.19584553,1.1041436,-0.48872086
0.1,-0.1,0.8999999999999999,0.0,-0.5235987755982988,0,-2.017245,1.1158341,-1.0875001,0.06994174,0.0058294963,1.2972274,-2.390294,-0.24602225,1.3056884,0.21743044,0.026775265,0.19648677,1.2317946,-0.031134345
0.1,-0.1,0.8999999999999999,0.0,-0.5235987755982988,0,-2.0290027,1.0364932,-1.0098149,0.05128896,-0.008053838,1.247211,-2.2007225,-0.25047833,0.95576596,-0.73232615,0.028014004,0.13761443,1.1462965,-0.6876823
0.1,-0.1,0.8999999999999999,0.0,-0.5235987755982988,0,-2.0132766,1.0490587,-1.0479102,0.1084181,0.051678184,1.1731058,-2.1243513,-0.23928647,1.5930609,-0.4535938,0.052387033,0.319402,1.1368326,-0.18543741
0.1,-0.1,0.8999999999999999,0.0,-0.5235987755982988,0,-2.0413692,0.9708414,-1.0257272,0.16177659,0.027369978,1.28888,-1.8139534,-0.23701517,1.2785543,-0.60187966,-0.075671956,0.1145416,1.0091448,-0.587355
0.1,-0.1,0.8999999999999999,0.0,-0.5235987755982988,0,-2.0798507,1.0778366,-1.0676839,0.1624615,0.011126927,1.1856718,-2.4270492,-0.24471495,1.3564262,0.06303844,-0.071681224,-0.1247115,1.0087235,0.45045263
0.1,-0.1,0.8999999999999999,0.0,-0.5235987755982988,0,-2.0317738,1.0511571,-1.0536699,0.114232406,-0.026033506,1.2864387,-2.3651128,-0.24125135,1.187122,-0.14875935,-0.14139396,-0.10343015,1.1583186,-0.49632362
0.1,-0.1,0.8999999999999999,0.0,-0.5235987755982988,0,-2.0278933,0.9778354,-1.0752093,0.19213153,-0.025777591,1.3367085,-2.2528214,-0.23788333,1.0783297,0.053583536,-0.06425896,0.17893222,1.0155113,-0.1061712
0.1,-0.1,0.8999999999999999,0.0,-0.5235987755982988,0,-2.037968,1.0425321,-1.0200068,-0.006387799,0.067974485,1.3991022,-1.97338,-0.2438966,1.3594136,-0.054621797,-0.00062763185,0.21008642,1.178059,0.4333252
0.1,-0.1,0.8999999999999999,0.0,-0.5235987755982988,0,-2.0027022,0.9616451,-1.0588026,0.1861054,-0.042465348,1.3584301,-1.9280734,-0.2369837,1.3556619,-0.27272496,-0.038474675,0.037172597,1.0793293,-0.30251008
0.1,-0.1,0.8999999999999999,0.0,-0.5235987755982988,0,-2.0041177,1.0297222,-1.0798407,0.20787384,-0.08327747,1.2445914,-1.9547715,-0.23815526,1.3620094,0.103680596,-0.00016260399,0.04858659,1.0711958,-0.17087598
0.1,-0.1,0.8999999999999999,0.0,-0.5235987755982988,0,-2.017017,1.0593706,-1.0639569,0.104238465,0.024787242,1.2295967,-2.418131,-0.2382221,1.2630023,-0.272497,0.022511594,-0.18571573,1.1512688,-0.41906363
0.1,-0.1,0.8999999999999999,0.0,-0.5235987755982988,0,-2.0263643,0.973756,-1.070521,0.13625117,-0.024374202,1.4672536,-1.9288815,-0.24121894,1.4763789,-0.07063157,0.013627635,0.2814233,1.0950079,-0.07039905
0.1,-0.1,0.8999999999999999,0.0,-0.5235987755982988,0,-2.0121994,0.99043924,-1.0661529,0.20586857,-0.044087946,1.3168894,-2.16733,-0.2473665,1.3205483,0.17259969,0.17842004,0.26139683,1.155052,0.31017342
0.1,-0.1,0.8999999999999999,0.0,-0.5235987755982988,0,-2.0482497,1.0960628,-1.0628216,0.042631675,0.007851505,1.3476328,-2.3373446,-0.24786001,1.3934697,0.04404195,0.08744133,-0.0051363837,1.1125847,0.73415035
0.1,-0.1,0.8999999999999999,0.0,-0.5235987755982988,0,-2.0335438,0.9869701,-1.0596869,0.1692681,-0.043960907,1.2512251,-2.2008026,-0.23729561,1.4249918,0.74147373,-0.051352497,0.5186421,1.1244886,-0.39131758
0.1,-0.1,0.8999999999999999,0.0,-0.5235987755982988,0,-2.043343,0.99519736,-1.0660603,0.076866314,0.03810722,1.3233234,-2.1129675,-0.24452098,1.2021694,0.103705846,0.12535127,0.43825114,1.1216073,0.10320345
0.1,-0.1,0.8999999999999999,0.0,-0.5235987755982988,0,-2.0400333,0.94622785,-1.0590547,0.17021972,0.035362214,1.2501799,-2.1024752,-0.25095743,1.2285769,-0.08722025,0.016404256,-0.10389292,1.0689338,0.068317115
0.1,-0.1,0.8999999999999999,0.0,-0.5235987755982988,0,-2.0412388,1.0122739,-1.0643892,0.12851511,0.06350366,1.1971092,-2.6050637,-0.24365917,1.0128682,0.24281876,-0.04427513,-0.1494249,1.0048249,0.006706525
0.1,-0.1,0.8999999999999999,0.0,-0.5235987755982988,0,-2.0492308,1.0493582,-1.1152222,0.13334048,0.07172523,1.4220109,-1.9141449,-0.24783432,1.5871953,0.030992212,-0.06835811,-0.015169395,1.0458531,-0.4585032
0.1,-0.1,0.8999999999999999,0.0,-0.5235987755982988,0,-2.0491157,0.9913337,-1.0952162,0.0848253,-0.038305037,1.2927995,-2.4544487,-0.255429,1.2406217,0.7288929,-0.05608429,0.037188254,1.1297394,0.39229393
0.1,-0.1,0.8999999999999999,0.0,-0.5235987755982988,0,-2.0170214,1.0258768,-1.0528272,0.071649246,0.0023637516,1.3615302,-2.067643,-0.24465257,1.7240541,0.1805122,0.1146685,0.19942904,1.0302902,-1.0598407
0.1,-0.1,0.8999999999999999,0.0,-0.5235987755982988,0,-2.0064347,1.053755,-1.0924735,0.06610156,0.107574426,1.4534101,-2.0873988,-0.24316777,1.2193955,0.13224141,0.011767246,-0.0018660919,1.1752313,-0.22720663
0.1,-0.1,0.8999999999999999,0.0,-0.5235987755982988,0,-2.003066,1.0675777,-1.0804036,0.12442366,-0.11213339,1.3800642,-2.1055086,-0.25406328,1.220639,-0.54872847,-0.10368781,0.2540983,0.9678108,-0.27979755
0.1,-0.1,0.8999999999999999,0.0,-0.5235987755982988,0,-2.0290284,1.0083795,-1.076666,0.11715305,0.017598381,1.183433,-2.11312,-0.24229832,1.1511321,-0.19810066,-0.07241364,0.15593074,1.0922507,-0.39376745
0.1,-0.1,0.8999999999999999,0.0,-0.5235987755982988,0,-2.0066218,0.9628742,-1.1066622,0.19672954,0.039988715,1.1650348,-2.3725948,-0.25270906,1.3182037,0.09599224,-0.020635646,0.119003855,1.1331564,-0.030598931
0.1,-0.1,0.8999999999999999,0.0,-0.5235987755982988,0,-2.023959,0.9791128,-1.0866824,0.16982311,0.032458317,1.3150477,-2.2743628,-0.25902933,1.2852174,0.0020395764,-0.22801208,-0.1265201,1.0828403,-0.55967355
0.1,-0.1,0.8999999999999999,0.0,-0.5235987755982988,0,-2.016828,1.0100996,-1.141447,0.20868397,0.002651439,1.3508406,-2.134658,-0.2583787,1.2842572,-0.26086605,-0.05026468,0.19460303,0.86572033,0.6626716
0.1,-0.1,0.8999999999999999,0.0,-0.5235987755982988,0,-2.018422,0.99297094,-1.0390544,0.16364485,-0.041851357,1.2384171,-2.224678,-0.24739653,1.282209,-0.12444849,-0.11234615,0.08227709,1.1951162,-0.338589
0.1,-0.1,0.8999999999999999,0.0,-0.5235987755982988,0,-2.001597,1.0196302,-1.0993826,0.13671163,0.01356491,1.3990698,-2.0066712,-0.25541788,1.207109,0.47486073,0.007829637,-0.03215724,1.014661,-0.07196919
0.1,-0.1,0.8999999999999999,0.0,-0.5235987755982988,0,-2.012417,1.0234774,-1.0686322,0.1362202,-0.008872046,1.3968937,-2.1948645,-0.24326338,1.2364784,-0.15166207,0.047579728,-0.4529125,0.9950456,0.34702453
0.1,-0.1,0.8999999999999999,0.0,-0.5235987755982988,0,-2.0218308,1.0146297,-1.0771197,0.21078031,0.009506454,1.3681118,-1.8632214,-0.25361946,1.3023139,-0.29871488,-0.10164875,0.41753724,1.0896577,0.37401238
0.1,-0.1,0.8999999999999999,0.0,-0.5235987755982988,0,-2.0130525,1.0091344,-1.0744418,0.14708912,-0.06551343,1.1368806,-1.8918355,-0.24530211,1.4285004,0.20339304,0.08147622,-0.11146955,1.098772,0.29230738
0.1,-0.1,0.8999999999999999,0.0,-0.5235987755982988,0,-2.0485504,1.0092479,-1.0643387,0.11483537,-0.025714736,1.3128909,-2.061632,-0.25082377,1.1207122,-0.17934862,-0.027846662,0.12358071,1.02428,-0.10937041
0.1,-0.1,0.8999999999999999,0.0,-0.5235987755982988,0,-2.0132668,1.093576,-1.0774661,0.101880066,-0.06227955,1.3245867,-2.4733393,-0.2545683,1.1642277,0.25076982,-0.042592067,-0.021737866,0.9890618,0.94064987
0.1,-0.1,0.8999999999999999,0.0,-0.5235987755982988,0,-2.044013,1.0710878,-1.0916407,0.17945728,0.1052067,1.2577415,-2.1380882,-0.23871309,1.0934289,-0.2540236,-0.031739596,0.047112793,1.0315375,-0.6773076
0.1,-0.1,0.8999999999999999,0.0,-0.5235987755982988,0,-2.0482912,1.0460286,-1.1247456,0.076917134,0.060256246,1.3066866,-2.4542542,-0.24331474,1.3916657,-0.20452496,-0.00020941252,0.31438708,1.1810211,0.48210964
0.1,-0.1,0.8999999999999999,0.0,-0.5235987755982988,0,-1.9961207,1.0147904,-1.090507,0.09388537,0.031027624,1.2680188,-2.5520885,-0.23525341,1.2782449,-0.46496958,-0.035097834,-0.33848208,1.0080792,0.24273658
0.1,-0.1,0.8999999999999999,0.0,-0.5235987755982988,0,-2.037376,1.0022722,-1.0894952,0.13951822,-0.0003909054,1.3579789,-2.1586883,-0.23955888,1.2577269,0.34022203,-0.10186711,-0.016942054,1.1171998,-0.3994103
0.1,-0.1,0.8999999999999999,0.0,-0.5235987755982988,0,-2.043332,1.0024115,-1.0988322,0.13709503,-0.0050788145,1.2870959,-2.0580466,-0.2548652,1.1281768,0.23906511,0.110173054,0.61602175,0.9696895,-0.2421762
0.1,-0.1,0.8999999999999999,0.0,-0.5235987755982988,0,-2.0238483,1.0415169,-1.0921559,0.098818325,0.044542667,1.2371302,-2.5243032,-0.25036964,1.551031,0.24258372,0.040024377,0.4116589,1.1077781,-0.50439745
0.1,-0.1,0.8999999999999999,0.0,-0.5235987755982988,0,-2.0241463,1.0582224,-1.0487301,0.13292408,0.007989296,1.34026,-2.2853212,-0.2518198,1.2740113,0.10500913,0.0029693488,0.06623837,1.187174,-0.34202266
0.1,-0.1,0.8999999999999999,0.0,-0.5235987755982988,0,-2.0086546,1.0504987,-1.0801296,0.10416809,0.033415433,1.3820348,-2.270117,-0.24894539,1.3800461,-0.31751654,-0.1149038,-0.4032411,1.0160643,-0.29063046
0.1,-0.1,0.8999999999999999,0.0,-0.5235987755982988,0,-1.993069,1.0071067,-1.0416611,0.09516876,0.036435228,1.1592495,-2.463471,-0.25158733,1.3779339,0.4583122,-0.06468007,0.0620425,1.0645484,0.9277694
0.1,-0.1,0.8999999999999999,0.0,-0.5235987755982988,0,-2.0428755,1.0751629,-1.0383494,0.08563884,-0.04649284,1.3454288,-2.2354891,-0.24718456,1.4005096,0.36147976,-0.083430484,-0.20233695,1.0358565,-0.0014219388
0.1,-0.1,0.8999999999999999,0.0,-0.5235987755982988,0,-2.0196514,1.1020678,-1.0743586,0.048604093,-0.029378947,1.4052178,-2.2540586,-0.237792,1.1722139,0.16260585,-0.035248175,-0.43954355,1.0292555,-0.46518043
0.1,-0.1,0.8999999999999999,0.0,-0.5235987755982988,0,-2.0017896,1.0581428,-1.066428,0.12080919,0.00699547,1.164481,-2.3039408,-0.263962,1.3820903,0.25867712,0.07221737,-0.1393604,1.0617411,-0.2591054
0.1,-0.1,0.8999999999999999,0.0,-0.5235987755982988,0,-2.0082464,1.0970272,-1.1106994,0.1532757,0.009586403,1.2542253,-2.201406,-0.2543434,1.3506484,-0.75273705,0.013355406,-0.25610948,1.00468,-0.3617973
0.1,-0.1,0.8999999999999999,0.0,-0.5235987755982988,0,-2.0098462,1.0902998,-1.1286283,0.09967362,0.0777162,1.2375829,-2.3611739,-0.23679984,1.4296072,-0.060570244,-0.09931531,-0.32429343,1.0843629,-0.18407376
0.1,-0.1,0.8999999999999999,0.0,-0.5235987755982988,0,-1.9791745,1.0355568,-1.1024685,0.12130691,-0.014734072,1.3050334,-2.4579647,-0.23764361,1.3634951,0.35062912,0.007661364,0.15202552,1.1804094,-1.0593069
0.1,-0.1,0.8999999999999999,0.0,-0.5235987755982988,0,-2.0365553,1.107746,-1.0698867,0.07991391,0.027167499,1.3994704,-2.0592666,-0.23974611,1.626406,-0.25351354,0.08181792,0.2973612,1.073031,-0.4583859
0.1,-0.1,0.8999999999999999,0.0,-0.5235987755982988,0,-2.0014415,1.0506754,-1.1797099,0.17819686,0.025439141,1.2950838,-2.1119719,-0.23967732,1.4669324,0.6707004,0.012813437,-0.185926,1.1774712,-0.7951925
0.1,-0.1,0.8999999999999999,0.0,-0.5235987755982988,0,-2.038791,0.9984623,-1.0698178,0.1845346,-0.015561047,1.2747846,-2.0431836,-0.24009018,1.1754432,0.0367179,0.034139268,0.13153267,1.0842316,0.2669685
0.1,-0.1,0.8999999999999999,0.0,-0.5235987755982988,0,-1.9951305,0.9790144,-1.0744019,0.14476754,0.16486445,1.2651691,-2.207659,-0.24880002,1.1516112,0.205633,-0.16125104,0.12773477,1.1090248,-0.141065
0.1,-0.1,0.8999999999999999,0.0,-0.5235987755982988,0,-2.0237575,1.0352452,-1.0608151,0.039067984,0.023354078,1.379319,-2.0637732,-0.24680088,1.106214,-0.114312194,-0.19819684,-0.068127625,1.0005,0.17219459
0.1,-0.1,0.8999999999999999,0.0,-0.5235987755982988,0,-2.0237155,1.0484695,-1.1135315,0.15859285,0.012441588,1.3109106,-2.1139367,-0.23997319,1.154616,0.24637203,0.102975495,0.38002834,0.9655745,-0.3154988
0.1,-0.1,0.8999999999999999,0.0,-0.5235987755982988,0,-2.0141072,1.0302068,-1.0799772,0.08407651,-0.012508126,1.3470645,-1.9363672,-0.24284852,1.454577,-0.5794644,-0.101160616,-0.122083865,1.0748398,0.029821156
0.1,-0.1,0.8999999999999999,0.0,-0.5235987755982988,0,-2.0211217,1.0181028,-1.0838399,0.13493206,-0.0040068175,1.3027291,-2.049067,-0.24622442,1.5491476,-0.0030998266,0.067326955,-0.048712563,0.95774,-0.13186619
0.1,-0.1,0.8999999999999999,0.0,-0.5235987755982988,0,-2.0333655,1.0064509,-1.0815986,0.13516772,0.01108011,1.2817678,-2.1258304,-0.2592508,1.2730459,-0.1842031,-8.369333e-05,-0.1378618,1.2546595,-0.27134335
0.1,-0.1,0.8999999999999999,0.0,-0.5235987755982988,0,-2.0072782,1.0123208,-1.072794,0.13006054,0.002534008,1.2396555,-2.2348542,-0.24496569,1.5083253,-0.009551673,-0.098784685,-0.036437318,1.0949361,-0.58089393
0.1,-0.1,0.8999999999999999,0.0,-0.5235987755982988,0,-2.0177531,0.9876189,-1.0498996,0.087756276,-0.053805258,1.2915171,-2.0714257,-0.25016868,1.4623271,-0.48464242,-0.087108254,-0.19864571,1.152569,0.020244675
0.1,-0.1,0.8999999999999999,0.0,-0.5235987755982988,0,-2.027715,0.9626594,-1.1342206,0.16898122,-0.01657146,1.2820532,-2.1799796,-0.25755048,1.0586779,-0.3872045,0.059767336,-0.20592856,1.1342423,-0.25564274
0.1,-0.1,0.8999999999999999,0.0,-0.5235987755982988,0,-2.0177555,1.0271375,-1.0000516,0.08471063,-0.06342307,1.281109,-2.3541749,-0.24321617,0.9489761,0.016212137,0.038745336,0.03436425,1.1435065,-0.51469547
0.1,-0.1,0.8999999999999999,0.0,-0.5235987755982988,0,-2.0227609,0.9952345,-1.0519669,0.19203584,0.010302785,1.405325,-1.9615232,-0.25305495,1.4108069,-0.44150913,0.13614066,-0.39787915,1.0609069,0.21148543
0.1,-0.1,0.8999999999999999,0.0,-0.5235987755982988,0,-2.0351925,1.0036315,-1.0623456,0.112702034,0.05910099,1.3351663,-2.0468361,-0.24760315,1.2983912,0.36279535,-0.030170253,0.2304358,1.0877277,-0.45082387
0.1,-0.1,0.8999999999999999,0.0,-0.5235987755982988,0,-2.0426939,1.0543482,-1.0181793,0.09089731,0.1255053,1.1168523,-1.8675402,-0.24109718,1.543515,0.1363504,-0.1444422,-0.3889558,1.1748378,0.1061179
0.1,-0.1,0.8999999999999999,0.0,-0.5235987755982988,0,-2.0171425,0.94717103,-1.0446332,0.16763505,-0.033259135,1.192266,-2.0617108,-0.24812399,1.2219839,-0.47808412,0.067622654,-0.112999134,1.010284,0.23043378
0.1,-0.1,0.8999999999999999,0.0,-0.5235987755982988,0,-2.0091572,0.9716943,-1.0856951,0.18253873,-0.035565082,1.2380085,-2.0342672,-0.241811,1.1459355,-0.07983814,0.01016418,-0.21447295,1.2242423,-0.60937965
0.1,-0.1,0.8999999999999999,0.0,-0.5235987755982988,0,-2.0120122,1.0753474,-1.0533624,0.11127151,0.053860635,1.4634067,-2.0515087,-0.23405601,1.1555407,-0.5849218,0.07492296,0.049948357,1.0648297,0.4367352
0.1,-0.1,0.8999999999999999,0.0,-0.5235987755982988,0,-2.0187871,1.0101699,-1.077731,0.15209544,0.022760343,1.2371215,-1.6911963,-0.24821885,1.3423743,0.35614422,-0.06524056,0.06957951,1.1003028,0.001655208
0.1,-0.1,0.8999999999999999,0.0,-0.5235987755982988,0,-2.0204306,0.93568593,-1.0795358,0.20095691,0.09761375,1.2359864,-2.2892544,-0.23365933,1.165447,-0.3861122,-0.3467177,0.10089653,1.1086869,-0.09278418
0.1,-0.1,0.8999999999999999,0.0,-0.5235987755982988,0,-2.000903,0.9845225,-1.0976076,0.18400238,0.065239,1.2814534,-2.280002,-0.24503215,1.322954,-0.26993278,0.03237357,-0.035457376,1.0737556,-0.05810625
0.1,-0.1,0.8999999999999999,0.0,-0.5235987755982988,0,-2.010236,0.9786876,-1.1141201,0.19387612,-0.021266581,1.2808629,-2.411322,-0.25331107,1.3540095,0.017545426,0.101132244,0.08956956,1.0617913,-0.38489237
0.1,-0.1,0.8999999999999999,0.0,-0.5235987755982988,0,-2.0342686,1.0284532,-1.0715033,0.041550454,-0.052340843,1.0965507,-1.9438009,-0.2501777,1.3478845,-0.016456055,0.027689712,-0.01142467,1.0146188,-0.92905325
0.1,-0.1,0.8999999999999999,0.0,-0.5235987755982988,0,-2.0035694,1.0018731,-1.0490904,0.185142,0.07380806,1.2411697,-1.9071515,-0.23944789,1.1896005,0.14674553,0.06808442,0.0041053314,1.0146247,-0.2548813
0.1,-0.1,0.8999999999999999,0.0,-0.5235987755982988,0,-2.032821,1.0635895,-1.0511132,0.14659408,0.029846229,1.2138686,-2.036264,-0.24785802,1.1351498,0.15213943,0.020961871,-0.015719213,1.1784239,0.3314296
0.1,-0.1,0.8999999999999999,0.0,-0.5235987755982988,0,-2.0286436,1.048506,-1.0183733,0.10181714,0.04701035,1.2019516,-1.8028408,-0.25658107,1.2558657,-0.16482586,0.03077229,-0.045534812,1.084778,-0.4832152
0.1,-0.1,0.8999999999999999,0.0,-0.5235987755982988,0,-2.018225,1.0021106,-1.058655,0.048128292,0.12580185,1.4324169,-2.2639961,-0.2552203,1.2855697,-0.043127682,0.0461274,-0.12753817,0.9985019,-0.3767033
0.1,-0.1,0.8999999999999999,0.0,-0.5235987755982988,0,-2.0232291,0.9971921,-1.0458628,0.058210805,0.14381936,1.2856954,-1.6442214,-0.25640306,1.3243669,-0.5598823,-0.06521001,-0.22543734,1.0894072,-0.5172674
0.1,-0.1,0.8999999999999999,0.0,-0.5235987755982988,0,-2.0073807,0.92996055,-0.9960308,0.14438473,0.10782995,1.3610293,-1.7656168,-0.24121174,1.3849586,-0.12854633,-0.08331224,0.35417932,1.0573726,-0.39639094
0.1,-0.1,0.8999999999999999,0.0,-0.5235987755982988,0,-2.0206754,1.0210433,-1.0420014,0.11048174,0.037759747,1.2223057,-1.9192033,-0.23954673,1.3177078,0.6936493,-0.09802655,0.08151301,1.0538111,0.037375458
0.1,-0.1,0.8999999999999999,0.0,-0.5235987755982988,0,-2.0250964,1.0291429,-1.0683373,0.23124959,0.08428215,1.126275,-2.128843,-0.2564066,1.2437688,0.16676067,-0.06444917,0.088041626,1.0876741,-0.32745793
0.1,-0.1,0.8999999999999999,0.0,-0.5235987755982988,0,-2.0050802,1.0562502,-1.029025,0.18672973,0.054633874,1.1907785,-2.729154,-0.2382866,1.444718,-0.06337653,-0.14906548,-0.16723873,1.1214088,-0.40419498
0.1,-0.1,0.8999999999999999,0.0,-0.5235987755982988,0,-2.0333254,0.9717165,-1.0287317,0.17455502,0.096383035,1.3197936,-1.9871838,-0.24474536,1.4756645,0.12188682,0.0018812795,-0.44756606,1.0500128,-0.7298829
0.1,-0.1,0.8999999999999999,0.0,-0.5235987755982988,0,-1.9987278,1.071384,-1.0315725,0.15505241,0.054299377,1.3743405,-2.0765338,-0.24681121,1.4454405,-0.40111414,0.11590021,0.08940281,1.0472373,-0.32998246
