sanky1234/BimanualDexCatch/isaacgymenvs/cem_results/football_pose_-0.2_-0.2_0.6_-0.34906585039886584_-0.5235987755982988_-0.5235987755982988.csv
x,y,z,roll,pitch,yaw,robot1/joint1,robot1/joint2,robot1/joint3,robot1/joint4,robot1/joint5,robot1/joint6,robot1/joint7,robot2/joint1,robot2/joint2,robot2/joint3,robot2/joint4,robot2/joint5,robot2/joint6,robot2/joint7
-0.2,-0.2,0.6,-0.34906585039886584,-0.5235987755982988,-0.5235987755982988,1.268705,1.447108,0.21923219,0.376375,0.86069757,0.570017,-0.20164642,-0.4678793,1.3116113,-0.38860202,-0.5797232,0.13686047,1.1068614,-0.9818607
-0.2,-0.2,0.6,-0.34906585039886584,-0.5235987755982988,-0.5235987755982988,1.2316641,1.4360458,0.23204993,0.3658336,0.710897,0.59110343,-0.19481856,-0.45596066,1.3052973,-0.40341657,-0.5723297,0.14336623,1.1029932,-0.9709097
-0.2,-0.2,0.6,-0.34906585039886584,-0.5235987755982988,-0.5235987755982988,1.2636956,1.4435678,0.22515988,0.37339413,0.6235931,0.58523035,-0.14140783,-0.4560238,1.3110176,-0.38221982,-0.56199247,0.13961132,1.1036056,-1.0275022
-0.2,-0.2,0.6,-0.34906585039886584,-0.5235987755982988,-0.5235987755982988,1.2566726,1.4330295,0.20465961,0.37447956,0.7023139,0.58199996,-0.17538552,-0.45464677,1.3132347,-0.39055416,-0.5790186,0.15768866,1.1124139,-1.0217725
-0.2,-0.2,0.6,-0.34906585039886584,-0.5235987755982988,-0.5235987755982988,1.2707744,1.4429547,0.20297284,0.37003607,0.67411506,0.57788306,-0.08156931,-0.456292,1.3151438,-0.39749783,-0.5740503,0.15314619,1.0936342,-1.0003695
-0.2,-0.2,0.6,-0.34906585039886584,-0.5235987755982988,-0.5235987755982988,1.2421796,1.4367714,0.21455991,0.37136966,0.58608586,0.5881291,-0.19183394,-0.4675216,1.3094755,-0.38559347,-0.5717797,0.14938588,1.0931631,-0.9391214
-0.2,-0.2,0.6,-0.34906585039886584,-0.5235987755982988,-0.5235987755982988,1.2472991,1.4344994,0.20551568,0.37091017,0.70734864,0.5859836,-0.2259165,-0.46078867,1.3170639,-0.41723922,-0.589388,0.17072564,1.0933377,-0.9326008
-0.2,-0.2,0.6,-0.34906585039886584,-0.5235987755982988,-0.5235987755982988,1.261468,1.4260527,0.22058606,0.36783037,0.6007634,0.58166933,-0.13391416,-0.47276378,1.3178842,-0.39686924,-0.5734143,0.17521486,1.0983446,-1.0221641
-0.2,-0.2,0.6,-0.34906585039886584,-0.5235987755982988,-0.5235987755982988,1.2393292,1.441847,0.21708918,0.38515836,0.71602654,0.5732321,-0.11446592,-0.45461342,1.3126591,-0.38785043,-0.5604854,0.12912582,1.0933785,-0.9161945
-0.2,-0.2,0.6,-0.34906585039886584,-0.5235987755982988,-0.5235987755982988,1.2599447,1.4353429,0.22924224,0.382292,0.63953763,0.5764993,-0.23394056,-0.46123356,1.3132119,-0.40594068,-0.57122195,0.16039953,1.0980873,-1.0380658
-0.2,-0.2,0.6,-0.34906585039886584,-0.5235987755982988,-0.5235987755982988,1.23084,1.4387364,0.22606407,0.37063372,0.6965131,0.5769251,-0.14208913,-0.44839117,1.314584,-0.41235986,-0.56239843,0.17410313,1.0918429,-0.99349946
-0.2,-0.2,0.6,-0.34906585039886584,-0.5235987755982988,-0.5235987755982988,1.2095509,1.4364974,0.2315387,0.36795527,0.56475383,0.57483864,-0.12405305,-0.43944812,1.3199396,-0.4072705,-0.5626756,0.12869094,1.0997697,-0.90355647
-0.2,-0.2,0.6,-0.34906585039886584,-0.5235987755982988,-0.5235987755982988,1.2371328,1.4280858,0.23085074,0.37404224,0.72657037,0.57304233,-0.1556242,-0.47258586,1.3169045,-0.42044497,-0.57874835,0.16332956,1.0855061,-0.95295995
-0.2,-0.2,0.6,-0.34906585039886584,-0.5235987755982988,-0.5235987755982988,1.238727,1.4275496,0.24736995,0.3670066,0.62712586,0.5887378,-0.22319217,-0.46031287,1.3086619,-0.40264893,-0.5554271,0.17366278,1.0905113,-0.97636014
-0.2,-0.2,0.6,-0.34906585039886584,-0.5235987755982988,-0.5235987755982988,1.2580065,1.439315,0.24862485,0.36480173,0.8019139,0.5747395,-0.21724133,-0.46845224,1.3152109,-0.4025114,-0.5806758,0.15188965,1.095491,-0.9200192
-0.2,-0.2,0.6,-0.34906585039886584,-0.5235987755982988,-0.5235987755982988,1.2675979,1.425511,0.21695976,0.37111208,0.76586765,0.58007896,-0.16905949,-0.45590952,1.31035,-0.40845522,-0.57435054,0.12395069,1.0953146,-0.9043128
-0.2,-0.2,0.6,-0.34906585039886584,-0.5235987755982988,-0.5235987755982988,1.28636,1.4486613,0.22939602,0.36831337,0.5776266,0.5875949,-0.1746788,-0.47438106,1.3152114,-0.40380558,-0.57432663,0.16826192,1.1115389,-0.9496409
-0.2,-0.2,0.6,-0.34906585039886584,-0.5235987755982988,-0.5235987755982988,1.2436063,1.4367168,0.23717703,0.3614998,0.7351751,0.5767002,-0.16951439,-0.4512576,1.3210732,-0.39956775,-0.5767399,0.15799457,1.0891794,-0.96376085
-0.2,-0.2,0.6,-0.34906585039886584,-0.5235987755982988,-0.5235987755982988,1.2504545,1.4369055,0.22481778,0.3686649,0.7814724,0.5768753,-0.24056467,-0.45928022,1.3174111,-0.3934361,-0.5822623,0.13926688,1.0923148,-0.9683043
-0.2,-0.2,0.6,-0.34906585039886584,-0.5235987755982988,-0.5235987755982988,1.2394645,1.4467596,0.22507247,0.37239107,0.66856223,0.5733652,-0.25832874,-0.4600472,1.3154474,-0.38849774,-0.5833251,0.1645432,1.0947914,-1.1007338
-0.2,-0.2,0.6,-0.34906585039886584,-0.5235987755982988,-0.5235987755982988,1.2495029,1.4311539,0.22563753,0.36313158,0.7133381,0.57468593,-0.09316431,-0.4686566,1.3146911,-0.3926698,-0.5687754,0.16429824,1.0818173,-1.088598
-0.2,-0.2,0.6,-0.34906585039886584,-0.5235987755982988,-0.5235987755982988,1.2420543,1.4467266,0.216032,0.36591744,0.79721546,0.5747385,-0.18375146,-0.4529395,1.3007926,-0.4034474,-0.57414246,0.13959846,1.0973119,-0.8745875
-0.2,-0.2,0.6,-0.34906585039886584,-0.5235987755982988,-0.5235987755982988,1.2201825,1.4533674,0.22454037,0.37315747,0.6614844,0.5729868,-0.14607014,-0.47197872,1.3053817,-0.3913573,-0.5736048,0.14804296,1.0927691,-0.96839404
-0.2,-0.2,0.6,-0.34906585039886584,-0.5235987755982988,-0.5235987755982988,1.2679605,1.4427185,0.24108402,0.36127162,0.7041027,0.57729274,-0.14204729,-0.46469298,1.3303152,-0.39485204,-0.5727412,0.15425137,1.0936744,-1.0018193
-0.2,-0.2,0.6,-0.34906585039886584,-0.5235987755982988,-0.5235987755982988,1.245515,1.428284,0.2306895,0.3667953,0.66950417,0.5706735,-0.08430098,-0.46191657,1.31792,-0.3905542,-0.570721,0.14167486,1.0947883,-0.96672934
-0.2,-0.2,0.6,-0.34906585039886584,-0.5235987755982988,-0.5235987755982988,1.2713518,1.4447545,0.22985709,0.37201262,0.6413965,0.57192427,-0.21175656,-0.48108104,1.3038125,-0.41512862,-0.57839715,0.16667143,1.1023536,-0.8964814
-0.2,-0.2,0.6,-0.34906585039886584,-0.5235987755982988,-0.5235987755982988,1.2140409,1.4408407,0.22860456,0.38038266,0.7942954,0.5836744,-0.24731408,-0.45563313,1.3218857,-0.38692564,-0.5716223,0.11337197,1.0865352,-0.95146286
-0.2,-0.2,0.6,-0.34906585039886584,-0.5235987755982988,-0.5235987755982988,1.2377646,1.4194927,0.2331843,0.36815453,0.7445269,0.5749491,-0.11734385,-0.46343413,1.3144001,-0.3980403,-0.5770232,0.13287504,1.0800315,-1.0500748
-0.2,-0.2,0.6,-0.34906585039886584,-0.5235987755982988,-0.5235987755982988,1.2404419,1.4153256,0.22881792,0.37475714,0.68858063,0.59415215,-0.13247481,-0.46164352,1.3150978,-0.39807212,-0.5717532,0.1478953,1.1104378,-0.95891356
-0.2,-0.2,0.6,-0.34906585039886584,-0.5235987755982988,-0.5235987755982988,1.2274414,1.4369763,0.22526987,0.3631275,0.75541663,0.5855896,-0.20964277,-0.45005012,1.3256372,-0.41112557,-0.58046603,0.17649584,1.104419,-0.9343976
-0.2,-0.2,0.6,-0.34906585039886584,-0.5235987755982988,-0.5235987755982988,1.2268775,1.424216,0.20653641,0.38400298,0.6571305,0.57604486,-0.20748223,-0.4506237,1.3064749,-0.3917536,-0.5803726,0.14082025,1.0958014,-1.0132208
-0.2,-0.2,0.6,-0.34906585039886584,-0.5235987755982988,-0.5235987755982988,1.2412102,1.426266,0.2338445,0.3795553,0.5258569,0.58351606,-0.1509536,-0.47140187,1.3204852,-0.41074944,-0.577017,0.15940848,1.0978329,-1.0322223
-0.2,-0.2,0.6,-0.34906585039886584,-0.5235987755982988,-0.5235987755982988,1.262098,1.4289777,0.22158854,0.383722,0.6732882,0.58116317,-0.18996796,-0.48043406,1.3115163,-0.39504904,-0.56863356,0.1413838,1.1020514,-0.8889247
-0.2,-0.2,0.6,-0.34906585039886584,-0.5235987755982988,-0.5235987755982988,1.2659686,1.4294327,0.22013938,0.36759534,0.6390375,0.5775361,-0.12293293,-0.45278156,1.3200992,-0.38864625,-0.57230246,0.15852527,1.1104563,-0.8587087
-0.2,-0.2,0.6,-0.34906585039886584,-0.5235987755982988,-0.5235987755982988,1.2403353,1.4359748,0.22083403,0.37940738,0.7238668,0.580152,-0.25062463,-0.4573754,1.3206204,-0.40511802,-0.5720324,0.15361935,1.1018533,-0.9157093
-0.2,-0.2,0.6,-0.34906585039886584,-0.5235987755982988,-0.5235987755982988,1.2301493,1.4282337,0.22069407,0.38367808,0.5747395,0.5809248,-0.26061606,-0.46296018,1.3132864,-0.40141994,-0.5682609,0.19346663,1.0969638,-0.99889845
-0.2,-0.2,0.6,-0.34906585039886584,-0.5235987755982988,-0.5235987755982988,1.2376704,1.4184117,0.19024894,0.37824792,0.8139327,0.5806329,-0.09664883,-0.45839402,1.3056059,-0.39697757,-0.5760497,0.14654821,1.1041487,-0.89673805
-0.2,-0.2,0.6,-0.34906585039886584,-0.5235987755982988,-0.5235987755982988,1.2569585,1.4283216,0.22652474,0.37281632,0.7528397,0.5692964,-0.15078928,-0.45794442,1.2977583,-0.3813201,-0.56050855,0.15733242,1.1041657,-0.95017576
-0.2,-0.2,0.6,-0.34906585039886584,-0.5235987755982988,-0.5235987755982988,1.2307171,1.4290462,0.22373812,0.38088065,0.7046084,0.5703682,-0.1728436,-0.45928574,1.321683,-0.38760248,-0.5779846,0.15333553,1.1040931,-1.001863
-0.2,-0.2,0.6,-0.34906585039886584,-0.5235987755982988,-0.5235987755982988,1.2740915,1.4284903,0.2325494,0.36541015,0.73903817,0.5673387,-0.13798293,-0.45963156,1.3124136,-0.39915597,-0.57552373,0.19050734,1.1026276,-1.0391166
-0.2,-0.2,0.6,-0.34906585039886584,-0.5235987755982988,-0.5235987755982988,1.2415175,1.4249896,0.24987118,0.3684497,0.6847828,0.5774007,-0.18543018,-0.4583633,1.307335,-0.40684688,-0.5724837,0.16635928,1.1013885,-0.95673585
-0.2,-0.2,0.6,-0.34906585039886584,-0.5235987755982988,-0.5235987755982988,1.2586256,1.4200069,0.23646457,0.3733496,0.88595575,0.57959247,-0.1802309,-0.46879873,1.3305743,-0.39649826,-0.57144654,0.16412567,1.089225,-1.0116893
-0.2,-0.2,0.6,-0.34906585039886584,-0.5235987755982988,-0.5235987755982988,1.2530966,1.4244677,0.2003098,0.37853488,0.7941386,0.5761631,-0.099325374,-0.45135066,1.3219991,-0.39374733,-0.5780696,0.16234764,1.1004003,-1.0394552
-0.2,-0.2,0.6,-0.34906585039886584,-0.5235987755982988,-0.5235987755982988,1.2454636,1.4279165,0.2220571,0.36974868,0.7203154,0.5797622,-0.14326423,-0.4513186,1.3101159,-0.4010922,-0.5657071,0.16583097,1.0995446,-0.99671805
-0.2,-0.2,0.6,-0.34906585039886584,-0.5235987755982988,-0.5235987755982988,1.2729238,1.4207602,0.23435669,0.36713776,0.68741703,0.5709317,-0.22254205,-0.45748332,1.311199,-0.38749307,-0.5745965,0.15079704,1.0953077,-0.92556244
-0.2,-0.2,0.6,-0.34906585039886584,-0.5235987755982988,-0.5235987755982988,1.2586244,1.4536759,0.20547636,0.37314063,0.7335776,0.59185565,-0.20564096,-0.4612798,1.3260341,-0.40316996,-0.56842077,0.14602862,1.0940636,-0.980757
-0.2,-0.2,0.6,-0.34906585039886584,-0.5235987755982988,-0.5235987755982988,1.232699,1.4459101,0.2329613,0.37702924,0.71106255,0.5700613,-0.2464031,-0.47635823,1.3106081,-0.39330915,-0.5741157,0.1628924,1.0947754,-0.9696598
-0.2,-0.2,0.6,-0.34906585039886584,-0.5235987755982988,-0.5235987755982988,1.2598313,1.4331475,0.22291906,0.36996138,0.7644373,0.571413,-0.1591759,-0.46693364,1.3131052,-0.3932747,-0.561098,0.16442631,1.0990043,-0.9090259
-0.2,-0.2,0.6,-0.34906585039886584,-0.5235987755982988,-0.5235987755982988,1.2686168,1.4281267,0.22816688,0.3786938,0.68301445,0.5827096,-0.17883575,-0.45467228,1.3247174,-0.41022277,-0.57969856,0.12383878,1.100314,-0.9503425
-0.2,-0.2,0.6,-0.34906585039886584,-0.5235987755982988,-0.5235987755982988,1.2471335,1.4214675,0.23978874,0.36904898,0.7760103,0.5792948,-0.19317427,-0.4737797,1.3218572,-0.40739337,-0.5830669,0.15170534,1.0980153,-0.8626714
-0.2,-0.2,0.6,-0.34906585039886584,-0.5235987755982988,-0.5235987755982988,1.2064244,1.4406184,0.22886342,0.37699768,0.68885577,0.5750215,-0.1945739,-0.45483744,1.3235805,-0.4057133,-0.5758631,0.1501885,1.0914795,-0.97363937
-0.2,-0.2,0.6,-0.34906585039886584,-0.5235987755982988,-0.5235987755982988,1.2735312,1.4305431,0.23209146,0.3697613,0.73428446,0.57268226,-0.1981509,-0.46005777,1.3083271,-0.38845086,-0.57101387,0.12785938,1.0945839,-0.9540997
-0.2,-0.2,0.6,-0.34906585039886584,-0.5235987755982988,-0.5235987755982988,1.2352586,1.4319354,0.23086406,0.37547123,0.61069643,0.5593365,-0.16951576,-0.46257314,1.3176293,-0.39755708,-0.5794206,0.17944047,1.0958413,-0.95004267
-0.2,-0.2,0.6,-0.34906585039886584,-0.5235987755982988,-0.5235987755982988,1.2125969,1.4227252,0.22067155,0.37366837,0.6635696,0.5884638,-0.13929027,-0.467778,1.3282735,-0.3804014,-0.56718403,0.1644115,1.0986377,-0.96293586
-0.2,-0.2,0.6,-0.34906585039886584,-0.5235987755982988,-0.5235987755982988,1.2342985,1.4435601,0.21453808,0.36736816,0.70323265,0.56746364,-0.112500206,-0.45996028,1.3205194,-0.38256285,-0.5677984,0.14504057,1.085277,-0.88605946
-0.2,-0.2,0.6,-0.34906585039886584,-0.5235987755982988,-0.5235987755982988,1.2052704,1.4555199,0.24374479,0.3709497,0.634608,0.5673649,-0.15474357,-0.4584836,1.3128675,-0.40782285,-0.5715306,0.15797746,1.094038,-0.9276563
-0.2,-0.2,0.6,-0.34906585039886584,-0.5235987755982988,-0.5235987755982988,1.258954,1.4303352,0.2354074,0.38785473,0.67332816,0.5754954,-0.1909152,-0.46444684,1.3200985,-0.41563895,-0.5738094,0.14144523,1.0970412,-0.9809898
-0.2,-0.2,0.6,-0.34906585039886584,-0.5235987755982988,-0.5235987755982988,1.2332783,1.4190929,0.22704588,0.37072262,0.72218543,0.5830952,-0.14675878,-0.46097466,1.3044957,-0.40688613,-0.5737656,0.16240685,1.0890737,-1.0937483
-0.2,-0.2,0.6,-0.34906585039886584,-0.5235987755982988,-0.5235987755982988,1.2392468,1.446256,0.22851309,0.37909564,0.6825577,0.5687385,-0.24030812,-0.4605825,1.3103431,-0.39110234,-0.5719914,0.142132,1.1084585,-0.91340005
-0.2,-0.2,0.6,-0.34906585039886584,-0.5235987755982988,-0.5235987755982988,1.2199317,1.4432479,0.21415472,0.3770836,0.72258854,0.5801043,-0.17037655,-0.46845597,1.2972057,-0.39391696,-0.56406724,0.15105651,1.0831825,-1.0304062
-0.2,-0.2,0.6,-0.34906585039886584,-0.5235987755982988,-0.5235987755982988,1.2482682,1.4343207,0.2138895,0.3760457,0.7433509,0.5825676,-0.21549936,-0.45169106,1.3051572,-0.40205482,-0.57035244,0.15040298,1.0957386,-1.0600227
-0.2,-0.2,0.6,-0.34906585039886584,-0.5235987755982988,-0.5235987755982988,1.2433703,1.423561,0.24475206,0.38240713,0.6623834,0.57007253,-0.20893784,-0.45352793,1.3120605,-0.40219945,-0.570383,0.17900172,1.1188802,-0.9679779
-0.2,-0.2,0.6,-0.34906585039886584,-0.5235987755982988,-0.5235987755982988,1.254609,1.4218637,0.22487555,0.38499606,0.7364084,0.5653601,-0.202685,-0.46018425,1.3220056,-0.3952669,-0.56853217,0.17037916,1.1001657,-1.0495499
-0.2,-0.2,0.6,-0.34906585039886584,-0.5235987755982988,-0.5235987755982988,1.2245902,1.4406145,0.21598166,0.37208068,0.6953358,0.5748864,-0.13713649,-0.4825184,1.3000677,-0.40384054,-0.5818664,0.16200894,1.0962409,-0.95075434
-0.2,-0.2,0.6,-0.34906585039886584,-0.5235987755982988,-0.5235987755982988,1.2271428,1.4197378,0.23381291,0.37050435,0.67737216,0.57325894,-0.17782493,-0.45021933,1.3210168,-0.397427,-0.56467575,0.19424807,1.0924299,-1.0243875
-0.2,-0.2,0.6,-0.34906585039886584,-0.5235987755982988,-0.5235987755982988,1.2435546,1.4369514,0.2098383,0.36694375,0.6860005,0.5740679,-0.13280393,-0.4544525,1.3281393,-0.40294,-0.5749331,0.18364039,1.1033822,-0.89834756
-0.2,-0.2,0.6,-0.34906585039886584,-0.5235987755982988,-0.5235987755982988,1.2444338,1.4289743,0.22839285,0.3687555,0.7225129,0.56591725,-0.1033511,-0.44902715,1.3139464,-0.40930986,-0.5726841,0.13884299,1.0875952,-1.0041547
-0.2,-0.2,0.6,-0.34906585039886584,-0.5235987755982988,-0.5235987755982988,1.257656,1.4400885,0.22268824,0.36947045,0.84176904,0.58540374,-0.21619031,-0.46187362,1.3110685,-0.39872015,-0.56356716,0.17398742,1.099859,-0.93944114
-0.2,-0.2,0.6,-0.34906585039886584,-0.5235987755982988,-0.5235987755982988,1.2658073,1.4419514,0.21189103,0.3601633,0.77142024,0.5751202,-0.13685708,-0.47823983,1.3069215,-0.37271124,-0.5745444,0.1630993,1.0894268,-0.99094373
-0.2,-0.2,0.6,-0.34906585039886584,-0.5235987755982988,-0.5235987755982988,1.237464,1.4358654,0.2248702,0.37300068,0.5921788,0.57549375,-0.1954841,-0.46086112,1.3151859,-0.4002798,-0.5786813,0.13306145,1.0957797,-0.9530858
-0.2,-0.2,0.6,-0.34906585039886584,-0.5235987755982988,-0.5235987755982988,1.2373022,1.4180183,0.22151117,0.3708092,0.58995247,0.5820164,-0.22810116,-0.4618055,1.3057829,-0.39497927,-0.56595933,0.17098555,1.0951712,-1.0494444
-0.2,-0.2,0.6,-0.34906585039886584,-0.5235987755982988,-0.5235987755982988,1.2329375,1.4390953,0.22436164,0.38131517,0.68765366,0.57279783,-0.25872433,-0.4557851,1.3072278,-0.4153528,-0.5761726,0.17407382,1.0949637,-1.079467
-0.2,-0.2,0.6,-0.34906585039886584,-0.5235987755982988,-0.5235987755982988,1.2151206,1.4114742,0.24805543,0.38068038,0.7773854,0.57473963,-0.22240078,-0.4544125,1.3081509,-0.3922074,-0.5759763,0.12602203,1.1038659,-0.94124323
-0.2,-0.2,0.6,-0.34906585039886584,-0.5235987755982988,-0.5235987755982988,1.2553065,1.4322067,0.22217599,0.3712469,0.7257203,0.568524,-0.17030022,-0.45668694,1.3055505,-0.37909976,-0.5845296,0.12454771,1.1096672,-1.0034052
-0.2,-0.2,0.6,-0.34906585039886584,-0.5235987755982988,-0.5235987755982988,1.27593,1.4399402,0.24275304,0.35933438,0.6487785,0.568401,-0.22501153,-0.47257993,1.3159499,-0.39042398,-0.5831783,0.16848607,1.1028866,-0.9276815
-0.2,-0.2,0.6,-0.34906585039886584,-0.5235987755982988,-0.5235987755982988,1.2382078,1.4241244,0.23442577,0.365926,0.65989304,0.57903624,-0.113005504,-0.46955556,1.3052725,-0.40099826,-0.5663267,0.1750997,1.0860553,-0.9691987
-0.2,-0.2,0.6,-0.34906585039886584,-0.5235987755982988,-0.5235987755982988,1.2199851,1.4525845,0.20807417,0.380789,0.74244916,0.574894,-0.11070565,-0.45281726,1.3236077,-0.40284732,-0.5609954,0.15087922,1.0922709,-0.86885935
-0.2,-0.2,0.6,-0.34906585039886584,-0.5235987755982988,-0.5235987755982988,1.2451713,1.4296116,0.23132013,0.3770309,0.57997435,0.5705628,-0.24621253,-0.46167904,1.3093337,-0.3974755,-0.5725473,0.15888287,1.107187,-0.9275536
-0.2,-0.2,0.6,-0.34906585039886584,-0.5235987755982988,-0.5235987755982988,1.2472976,1.4394974,0.22759825,0.3657536,0.73438966,0.5779346,-0.1851043,-0.46974176,1.3152246,-0.40207958,-0.56814814,0.16601785,1.0978768,-0.937694
-0.2,-0.2,0.6,-0.34906585039886584,-0.5235987755982988,-0.5235987755982988,1.226883,1.4319698,0.21751274,0.36732042,0.7490457,0.56957036,-0.07405621,-0.46356308,1.316024,-0.41142192,-0.5726071,0.1567096,1.0850708,-0.90364385
-0.2,-0.2,0.6,-0.34906585039886584,-0.5235987755982988,-0.5235987755982988,1.2365193,1.4333342,0.22580864,0.37544942,0.74722254,0.57824224,-0.19782256,-0.4507927,1.3117923,-0.3896473,-0.5588048,0.12949947,1.0845828,-0.9529737
-0.2,-0.2,0.6,-0.34906585039886584,-0.5235987755982988,-0.5235987755982988,1.2647717,1.4289659,0.21697462,0.3654243,0.82582074,0.5854822,-0.16982238,-0.458393,1.3188431,-0.39716342,-0.57648057,0.15027374,1.0958475,-0.95231694
-0.2,-0.2,0.6,-0.34906585039886584,-0.5235987755982988,-0.5235987755982988,1.2312527,1.4194962,0.22558948,0.3708167,0.7329546,0.5831565,-0.11809443,-0.4505614,1.3247144,-0.4011971,-0.5688777,0.16141146,1.1036009,-0.8443166
-0.2,-0.2,0.6,-0.34906585039886584,-0.5235987755982988,-0.5235987755982988,1.2647953,1.4385413,0.22219783,0.36741593,0.7072855,0.5626252,-0.11508762,-0.4473527,1.320835,-0.39390123,-0.5641926,0.14117543,1.0902776,-0.89690584
-0.2,-0.2,0.6,-0.34906585039886584,-0.5235987755982988,-0.5235987755982988,1.2626557,1.4283181,0.2230312,0.37469044,0.7480954,0.5746313,-0.18840644,-0.4505555,1.3143705,-0.40679002,-0.5645806,0.17619376,1.0966657,-0.9786515
-0.2,-0.2,0.6,-0.34906585039886584,-0.5235987755982988,-0.5235987755982988,1.2179501,1.4367476,0.22834897,0.3755175,0.6978355,0.5713376,-0.17147481,-0.46394047,1.3055774,-0.40186912,-0.5719088,0.14552313,1.1045761,-0.9246965
-0.2,-0.2,0.6,-0.34906585039886584,-0.5235987755982988,-0.5235987755982988,1.2069976,1.4483124,0.21793762,0.3768457,0.7475229,0.5851949,-0.22256984,-0.45061356,1.3051711,-0.40263572,-0.5722063,0.16212736,1.1027188,-1.0262302
-0.2,-0.2,0.6,-0.34906585039886584,-0.5235987755982988,-0.5235987755982988,1.2302254,1.4266425,0.22657536,0.37411255,0.6819105,0.59424645,-0.1879562,-0.46325687,1.3153694,-0.42333597,-0.578014,0.17066115,1.0935633,-0.9195747
-0.2,-0.2,0.6,-0.34906585039886584,-0.5235987755982988,-0.5235987755982988,1.2539557,1.4245538,0.21936335,0.39075103,0.7236086,0.575283,-0.21796039,-0.46107754,1.3077556,-0.40470654,-0.5678934,0.1509417,1.0966353,-1.0455952
-0.2,-0.2,0.6,-0.34906585039886584,-0.5235987755982988,-0.5235987755982988,1.237733,1.4378904,0.21655913,0.3739814,0.69959724,0.5706133,-0.15476544,-0.44496018,1.3066809,-0.41738063,-0.56606454,0.15384519,1.0974611,-0.9133618
-0.2,-0.2,0.6,-0.34906585039886584,-0.5235987755982988,-0.5235987755982988,1.2523415,1.4297173,0.22129756,0.3730135,0.72363305,0.57091135,-0.18432727,-0.4573766,1.3054048,-0.40662965,-0.57426745,0.15657279,1.0924541,-0.9991743
-0.2,-0.2,0.6,-0.34906585039886584,-0.5235987755982988,-0.5235987755982988,1.2628803,1.4179199,0.2505962,0.37800282,0.7359163,0.57093805,-0.27427116,-0.47458568,1.2922769,-0.40122417,-0.56974095,0.16889587,1.0961014,-0.98441297
-0.2,-0.2,0.6,-0.34906585039886584,-0.5235987755982988,-0.5235987755982988,1.2279788,1.4276737,0.2250382,0.3761872,0.6246416,0.56214505,-0.07472831,-0.46213937,1.306497,-0.3882256,-0.5653281,0.14537364,1.0858445,-0.90017295
-0.2,-0.2,0.6,-0.34906585039886584,-0.5235987755982988,-0.5235987755982988,1.263015,1.4211715,0.21749853,0.36744866,0.6456372,0.5754537,-0.10262063,-0.44828567,1.3065231,-0.3968427,-0.55891985,0.14361134,1.0961612,-0.90541905
-0.2,-0.2,0.6,-0.34906585039886584,-0.5235987755982988,-0.5235987755982988,1.240763,1.4268104,0.22512266,0.37768242,0.7473196,0.57522386,-0.15314032,-0.45740741,1.3244014,-0.3936306,-0.57679623,0.15041752,1.1016986,-1.0036091
-0.2,-0.2,0.6,-0.34906585039886584,-0.5235987755982988,-0.5235987755982988,1.1995153,1.4327003,0.22440438,0.3742805,0.6449446,0.5756787,-0.08764768,-0.45830774,1.30803,-0.38421732,-0.564317,0.13519423,1.0903658,-0.9763151
-0.2,-0.2,0.6,-0.34906585039886584,-0.5235987755982988,-0.5235987755982988,1.2517672,1.4230682,0.20854601,0.36954522,0.6318713,0.59804976,-0.19552948,-0.44680378,1.3222437,-0.41778967,-0.5674678,0.18980367,1.0967431,-0.8960071
-0.2,-0.2,0.6,-0.34906585039886584,-0.5235987755982988,-0.5235987755982988,1.2528869,1.4369934,0.21948527,0.36791644,0.66072726,0.5790043,-0.23940483,-0.4582855,1.3124348,-0.4050945,-0.5791559,0.15786041,1.0910659,-1.0056825
-0.2,-0.2,0.6,-0.34906585039886584,-0.5235987755982988,-0.5235987755982988,1.2614954,1.422202,0.24710138,0.3758058,0.7204608,0.5764982,-0.26612478,-0.4597988,1.3135765,-0.38543528,-0.57192695,0.13903807,1.0969338,-0.9226678
-0.2,-0.2,0.6,-0.34906585039886584,-0.5235987755982988,-0.5235987755982988,1.2638429,1.42248,0.20843744,0.37226245,0.63151354,0.58025134,-0.14344262,-0.45538747,1.3165818,-0.38451514,-0.5735322,0.13959841,1.0984775,-1.0176364
-0.2,-0.2,0.6,-0.34906585039886584,-0.5235987755982988,-0.5235987755982988,1.2678853,1.4379653,0.23891337,0.36882478,0.65475744,0.56958884,-0.20255888,-0.45293328,1.3089684,-0.3991803,-0.56519616,0.16198894,1.0900276,-0.9608928
-0.2,-0.2,0.6,-0.34906585039886584,-0.5235987755982988,-0.5235987755982988,1.2309638,1.4224458,0.23601013,0.37786332,0.6578299,0.5750706,-0.23001045,-0.46554315,1.31367,-0.3882606,-0.5803519,0.15506732,1.1078572,-0.9930303
-0.2,-0.2,0.6,-0.34906585039886584,-0.5235987755982988,-0.5235987755982988,1.2339553,1.4301422,0.23783128,0.37164122,0.714077,0.5647962,-0.15045859,-0.4481827,1.3184788,-0.40022784,-0.5684428,0.14565656,1.0861654,-1.0204619
-0.2,-0.2,0.6,-0.34906585039886584,-0.5235987755982988,-0.5235987755982988,1.2374429,1.432229,0.2100075,0.37381464,0.60841197,0.5874989,-0.27867436,-0.4479406,1.32323,-0.40715048,-0.5770429,0.15978606,1.1013404,-0.97443175
-0.2,-0.2,0.6,-0.34906585039886584,-0.5235987755982988,-0.5235987755982988,1.2583313,1.4264545,0.23074172,0.3653458,0.79192966,0.57685757,-0.20141459,-0.47137317,1.3085787,-0.37306952,-0.57523996,0.19028,1.116848,-0.9278028
-0.2,-0.2,0.6,-0.34906585039886584,-0.5235987755982988,-0.5235987755982988,1.2390542,1.4358029,0.22717331,0.36760038,0.73448116,0.5716117,-0.124833554,-0.4510919,1.3145982,-0.3982396,-0.5809098,0.13768147,1.096846,-1.0414871
-0.2,-0.2,0.6,-0.34906585039886584,-0.5235987755982988,-0.5235987755982988,1.2683762,1.4263328,0.22222799,0.37293744,0.7214855,0.5732448,-0.19584824,-0.45536083,1.302008,-0.39479455,-0.57044643,0.123814486,1.0911474,-0.952211
-0.2,-0.2,0.6,-0.34906585039886584,-0.5235987755982988,-0.5235987755982988,1.2606333,1.4327891,0.22687651,0.36852407,0.852613,0.5778523,-0.21280387,-0.48245367,1.3122789,-0.38771042,-0.57029057,0.17127016,1.1050086,-0.89085406
-0.2,-0.2,0.6,-0.34906585039886584,-0.5235987755982988,-0.5235987755982988,1.2107656,1.4487342,0.22717535,0.37929004,0.7356552,0.57186335,-0.14842561,-0.45177892,1.3118113,-0.40744415,-0.5629051,0.14558153,1.0982115,-0.876833
-0.2,-0.2,0.6,-0.34906585039886584,-0.5235987755982988,-0.5235987755982988,1.2267524,1.4340352,0.2580732,0.3578698,0.74248326,0.5833093,-0.18789929,-0.47124258,1.3171588,-0.39101055,-0.5683759,0.16424471,1.10501,-0.8942015
-0.2,-0.2,0.6,-0.34906585039886584,-0.5235987755982988,-0.5235987755982988,1.2556305,1.4371313,0.21140018,0.37253207,0.74400425,0.5698234,-0.07707271,-0.45185718,1.3214582,-0.4026467,-0.56962544,0.16912359,1.0986475,-1.0179431
-0.2,-0.2,0.6,-0.34906585039886584,-0.5235987755982988,-0.5235987755982988,1.2289087,1.4309964,0.2242266,0.3780944,0.75509316,0.5682593,-0.16396008,-0.4576143,1.3129141,-0.40855533,-0.57343656,0.15136208,1.0902575,-0.95714766
-0.2,-0.2,0.6,-0.34906585039886584,-0.5235987755982988,-0.5235987755982988,1.2390226,1.418997,0.2091853,0.37423798,0.72694194,0.5963673,-0.14828795,-0.4471557,1.3099673,-0.4042505,-0.57432383,0.15742749,1.1095127,-1.0230192
-0.2,-0.2,0.6,-0.34906585039886584,-0.5235987755982988,-0.5235987755982988,1.2577586,1.4376378,0.23715322,0.3582544,0.74088204,0.5674889,-0.15713808,-0.44619063,1.315139,-0.407738,-0.55960953,0.16305557,1.0804945,-0.94640124
-0.2,-0.2,0.6,-0.34906585039886584,-0.5235987755982988,-0.5235987755982988,1.2617353,1.431958,0.21680245,0.37405032,0.5075457,0.57927006,-0.21609291,-0.4401036,1.3237152,-0.37665772,-0.564077,0.11460221,1.1076084,-0.8705301
-0.2,-0.2,0.6,-0.34906585039886584,-0.5235987755982988,-0.5235987755982988,1.2573477,1.4317645,0.21973474,0.37045908,0.79047894,0.5757224,-0.115227446,-0.471754,1.3054883,-0.40090057,-0.58345354,0.14459068,1.0982213,-0.98065925
-0.2,-0.2,0.6,-0.34906585039886584,-0.5235987755982988,-0.5235987755982988,1.252727,1.4441391,0.22473194,0.37411323,0.78162974,0.57946676,-0.19355342,-0.45935288,1.31183,-0.40164974,-0.57167894,0.15358229,1.1012379,-0.9505891
-0.2,-0.2,0.6,-0.34906585039886584,-0.5235987755982988,-0.5235987755982988,1.2114766,1.4360378,0.23454912,0.37215614,0.7519703,0.57502425,-0.16542162,-0.45747235,1.3114715,-0.40282845,-0.56957155,0.16416702,1.0995806,-0.91492933
-0.2,-0.2,0.6,-0.34906585039886584,-0.5235987755982988,-0.5235987755982988,1.2403365,1.4297001,0.22002676,0.37125018,0.60838705,0.5834358,-0.19899622,-0.46054187,1.3197559,-0.4070405,-0.5810553,0.13430543,1.0929403,-0.9413934
-0.2,-0.2,0.6,-0.34906585039886584,-0.5235987755982988,-0.5235987755982988,1.2420018,1.4365392,0.22225921,0.37713614,0.6755515,0.57509905,-0.21237901,-0.44094425,1.30302,-0.41101032,-0.562236,0.14428234,1.0992137,-0.93180776
-0.2,-0.2,0.6,-0.34906585039886584,-0.5235987755982988,-0.5235987755982988,1.2482015,1.4229896,0.20941007,0.3726913,0.75589585,0.5775575,-0.15167905,-0.4559042,1.3122492,-0.39861307,-0.5721233,0.17955959,1.0904253,-1.0125986
-0.2,-0.2,0.6,-0.34906585039886584,-0.5235987755982988,-0.5235987755982988,1.2846154,1.4399811,0.22365652,0.36273363,0.7087071,0.5683543,-0.1970794,-0.4764172,1.3229681,-0.4067934,-0.57932466,0.17169099,1.0985856,-0.82910395
-0.2,-0.2,0.6,-0.34906585039886584,-0.5235987755982988,-0.5235987755982988,1.245103,1.4378276,0.24879919,0.3664433,0.6594035,0.5777485,-0.18548879,-0.4711232,1.3115586,-0.38545147,-0.5752555,0.16266644,1.1040841,-1.0055635
-0.2,-0.2,0.6,-0.34906585039886584,-0.5235987755982988,-0.5235987755982988,1.2502445,1.4452503,0.22756799,0.37429756,0.68459916,0.58089757,-0.19754498,-0.46162322,1.312812,-0.4245424,-0.5678286,0.17471057,1.096097,-0.93749213
-0.2,-0.2,0.6,-0.34906585039886584,-0.5235987755982988,-0.5235987755982988,1.2279617,1.4481153,0.23120332,0.36229968,0.70446515,0.57498777,-0.12355331,-0.45439103,1.3109584,-0.40630472,-0.5722552,0.1291546,1.0957397,-0.88712454
-0.2,-0.2,0.6,-0.34906585039886584,-0.5235987755982988,-0.5235987755982988,1.2527672,1.4473857,0.23178798,0.36252168,0.666961,0.5747451,-0.18995753,-0.45535785,1.3104057,-0.3929933,-0.5664713,0.14882141,1.1033247,-0.89234275
-0.2,-0.2,0.6,-0.34906585039886584,-0.5235987755982988,-0.5235987755982988,1.2498488,1.4525212,0.23315887,0.36042997,0.6434142,0.5727013,-0.1681097,-0.46044964,1.3207575,-0.399868,-0.5757308,0.12958078,1.1026727,-0.8854351
-0.2,-0.2,0.6,-0.34906585039886584,-0.5235987755982988,-0.5235987755982988,1.2785919,1.4309733,0.23122741,0.3708106,0.71586764,0.5778636,-0.14801615,-0.44719312,1.3085409,-0.4009055,-0.569893,0.11993089,1.0994596,-0.9907682
-0.2,-0.2,0.6,-0.34906585039886584,-0.5235987755982988,-0.5235987755982988,1.2522454,1.4260393,0.24424545,0.3633166,0.7491246,0.57917905,-0.21852231,-0.45294833,1.3136928,-0.39142352,-0.57886213,0.15561412,1.095763,-1.021934
-0.2,-0.2,0.6,-0.34906585039886584,-0.5235987755982988,-0.5235987755982988,1.2469447,1.4320756,0.22330064,0.3666377,0.7275566,0.5753921,-0.13458103,-0.46839207,1.3164538,-0.38443953,-0.5730275,0.16665779,1.1023234,-0.9685866
-0.2,-0.2,0.6,-0.34906585039886584,-0.5235987755982988,-0.5235987755982988,1.2483782,1.4249299,0.20207845,0.37602696,0.708231,0.5855916,-0.21094745,-0.4623508,1.3034812,-0.39488345,-0.56847626,0.19230847,1.1004504,-0.9647402
-0.2,-0.2,0.6,-0.34906585039886584,-0.5235987755982988,-0.5235987755982988,1.2522006,1.4396944,0.21703538,0.38171348,0.72947294,0.5770665,-0.20136663,-0.46209618,1.3145354,-0.3901904,-0.5715307,0.14994258,1.0935396,-1.0286359
-0.2,-0.2,0.6,-0.34906585039886584,-0.5235987755982988,-0.5235987755982988,1.2528346,1.4265563,0.23514852,0.3660694,0.8056172,0.5795594,-0.21940874,-0.45586953,1.3043071,-0.39809623,-0.56680197,0.17028561,1.0946229,-0.93500024
-0.2,-0.2,0.6,-0.34906585039886584,-0.5235987755982988,-0.5235987755982988,1.1830084,1.4354197,0.2261474,0.37997323,0.7039338,0.579687,-0.16853333,-0.45651984,1.3082275,-0.40076476,-0.57350254,0.15424845,1.0866666,-1.0523
-0.2,-0.2,0.6,-0.34906585039886584,-0.5235987755982988,-0.5235987755982988,1.2369426,1.4396075,0.24670653,0.36049953,0.7455793,0.58452296,-0.1247251,-0.46991667,1.3125402,-0.4033665,-0.56925607,0.13552794,1.0867314,-0.9602879
-0.2,-0.2,0.6,-0.34906585039886584,-0.5235987755982988,-0.5235987755982988,1.2593917,1.4471612,0.2307808,0.3687544,0.68522334,0.58697015,-0.18291593,-0.46876413,1.3152151,-0.40167877,-0.57432777,0.14451636,1.1027075,-0.9405191
-0.2,-0.2,0.6,-0.34906585039886584,-0.5235987755982988,-0.5235987755982988,1.2550659,1.4311508,0.22364892,0.3726293,0.7040335,0.57321846,-0.20633101,-0.43746156,1.3009585,-0.40245962,-0.55859846,0.15525427,1.0897484,-0.93518853
-0.2,-0.2,0.6,-0.34906585039886584,-0.5235987755982988,-0.5235987755982988,1.2363956,1.4310164,0.23314966,0.36731637,0.6163232,0.57681566,-0.16352561,-0.45875394,1.3148764,-0.4041921,-0.5725874,0.14933088,1.0950351,-0.9787053
-0.2,-0.2,0.6,-0.34906585039886584,-0.5235987755982988,-0.5235987755982988,1.2509778,1.430016,0.22379714,0.3819683,0.73992443,0.57833946,-0.20397592,-0.46045044,1.3176901,-0.39641327,-0.5764596,0.12571454,1.0891229,-0.98313093
-0.2,-0.2,0.6,-0.34906585039886584,-0.5235987755982988,-0.5235987755982988,1.2573776,1.4299536,0.22759625,0.37821373,0.7268647,0.57592976,-0.22852686,-0.4683113,1.3109614,-0.39607805,-0.57446474,0.15091988,1.0969245,-0.9355392
-0.2,-0.2,0.6,-0.34906585039886584,-0.5235987755982988,-0.5235987755982988,1.2417014,1.4515554,0.22152758,0.37139693,0.66370595,0.5857329,-0.22182512,-0.46334538,1.3056973,-0.40384626,-0.5676423,0.15796886,1.0988748,-0.92193544
-0.2,-0.2,0.6,-0.34906585039886584,-0.5235987755982988,-0.5235987755982988,1.2319323,1.4368585,0.21139683,0.37031844,0.6922419,0.56580985,-0.087434135,-0.45791474,1.3208582,-0.40392068,-0.5654802,0.1558524,1.09521,-0.91378
-0.2,-0.2,0.6,-0.34906585039886584,-0.5235987755982988,-0.5235987755982988,1.2498015,1.4375175,0.23686509,0.36077842,0.5908129,0.57737374,-0.13924578,-0.45216173,1.3118278,-0.39185154,-0.5594481,0.16138808,1.0938321,-0.9550717
-0.2,-0.2,0.6,-0.34906585039886584,-0.5235987755982988,-0.5235987755982988,1.2449828,1.4586558,0.23156358,0.36639425,0.69722337,0.561244,-0.17675129,-0.44385585,1.3130158,-0.40318874,-0.57056713,0.15246095,1.1058236,-1.0131156
-0.2,-0.2,0.6,-0.34906585039886584,-0.5235987755982988,-0.5235987755982988,1.2390504,1.4264511,0.2141384,0.37171018,0.6489603,0.58386207,-0.16526069,-0.4567655,1.3151051,-0.40434152,-0.5713715,0.1657669,1.103308,-0.9500358
-0.2,-0.2,0.6,-0.34906585039886584,-0.5235987755982988,-0.5235987755982988,1.2626951,1.4456972,0.22145456,0.36259392,0.75755924,0.57924026,-0.17679688,-0.4584036,1.3057516,-0.40614477,-0.5764625,0.12628333,1.0814257,-1.0067323
-0.2,-0.2,0.6,-0.34906585039886584,-0.5235987755982988,-0.5235987755982988,1.2542368,1.4342492,0.22355863,0.3748946,0.77443075,0.56716675,-0.2061598,-0.46282446,1.3109959,-0.41428432,-0.562719,0.1678588,1.0909218,-0.9411863
-0.2,-0.2,0.6,-0.34906585039886584,-0.5235987755982988,-0.5235987755982988,1.2149603,1.416477,0.23836046,0.3622019,0.7375399,0.58078873,-0.10031925,-0.46828502,1.3152175,-0.410989,-0.570943,0.18324195,1.0861423,-0.97588736
-0.2,-0.2,0.6,-0.34906585039886584,-0.5235987755982988,-0.5235987755982988,1.2393688,1.4340515,0.22819774,0.37094465,0.57008046,0.5715468,-0.17725731,-0.45510507,1.3133495,-0.42405415,-0.5676317,0.16243623,1.0899475,-0.8815837
-0.2,-0.2,0.6,-0.34906585039886584,-0.5235987755982988,-0.5235987755982988,1.2674782,1.4367436,0.22791506,0.36908728,0.7433073,0.5870525,-0.19306815,-0.46886864,1.3083931,-0.41069496,-0.57439846,0.16346103,1.1009678,-0.9653297
-0.2,-0.2,0.6,-0.34906585039886584,-0.5235987755982988,-0.5235987755982988,1.2591732,1.4264014,0.2470259,0.37242556,0.7501479,0.5865731,-0.22551246,-0.45817998,1.3111607,-0.395322,-0.5733133,0.13323756,1.0980335,-1.043843
-0.2,-0.2,0.6,-0.34906585039886584,-0.5235987755982988,-0.5235987755982988,1.2460405,1.4241045,0.20139001,0.37509915,0.6662006,0.58308727,-0.16002105,-0.4651928,1.3049046,-0.4015404,-0.58252347,0.119617,1.0972995,-0.8948259
-0.2,-0.2,0.6,-0.34906585039886584,-0.5235987755982988,-0.5235987755982988,1.2436678,1.432366,0.23710328,0.37870458,0.88950694,0.57521784,-0.28444985,-0.47031823,1.3063849,-0.39018065,-0.56525797,0.16219267,1.0919467,-0.889521
-0.2,-0.2,0.6,-0.34906585039886584,-0.5235987755982988,-0.5235987755982988,1.2386764,1.4378432,0.2257482,0.3691339,0.700192,0.57009286,-0.10867048,-0.46039635,1.3044534,-0.3969489,-0.57385284,0.14004867,1.0917447,-1.0253469
-0.2,-0.2,0.6,-0.34906585039886584,-0.5235987755982988,-0.5235987755982988,1.2150406,1.4410603,0.22494188,0.3843896,0.69146127,0.56463134,-0.23614164,-0.45696476,1.3095028,-0.38692057,-0.5805848,0.13930619,1.103075,-1.0292132
-0.2,-0.2,0.6,-0.34906585039886584,-0.5235987755982988,-0.5235987755982988,1.2474991,1.428062,0.22505476,0.37895942,0.7002324,0.56451136,-0.20106216,-0.46075526,1.3163822,-0.38800237,-0.5669433,0.15426865,1.0973523,-0.9156238
-0.2,-0.2,0.6,-0.34906585039886584,-0.5235987755982988,-0.5235987755982988,1.2275413,1.4249341,0.22842605,0.36961696,0.66606474,0.5754975,-0.06845473,-0.46345147,1.3187855,-0.3982808,-0.5646485,0.16655353,1.0865846,-0.9918058
-0.2,-0.2,0.6,-0.34906585039886584,-0.5235987755982988,-0.5235987755982988,1.2688103,1.4225391,0.2428466,0.3703555,0.7806655,0.5656915,-0.22385363,-0.4685282,1.3143162,-0.38945052,-0.5805914,0.15593491,1.1013087,-0.945284
-0.2,-0.2,0.6,-0.34906585039886584,-0.5235987755982988,-0.5235987755982988,1.2465909,1.4472796,0.21334346,0.37318778,0.64584553,0.57656723,-0.21579997,-0.4532931,1.3117294,-0.39018762,-0.56688803,0.1421612,1.0905492,-0.92374
-0.2,-0.2,0.6,-0.34906585039886584,-0.5235987755982988,-0.5235987755982988,1.2346522,1.428712,0.23074625,0.37090117,0.74340934,0.5715876,-0.17625354,-0.46339428,1.3195378,-0.38521886,-0.5746397,0.15667811,1.0979384,-0.954733
-0.2,-0.2,0.6,-0.34906585039886584,-0.5235987755982988,-0.5235987755982988,1.2615898,1.424546,0.21953286,0.37483275,0.7385922,0.57503146,-0.20810673,-0.4654085,1.311612,-0.3769789,-0.57469416,0.15035926,1.0939119,-1.0520539
-0.2,-0.2,0.6,-0.34906585039886584,-0.5235987755982988,-0.5235987755982988,1.2474223,1.4303633,0.21341768,0.37896293,0.7190068,0.58060277,-0.12787066,-0.46878716,1.3166637,-0.3942655,-0.57033855,0.14538157,1.0898256,-1.003881
-0.2,-0.2,0.6,-0.34906585039886584,-0.5235987755982988,-0.5235987755982988,1.222923,1.4155954,0.23108935,0.37414914,0.6650756,0.5826586,-0.20055541,-0.457581,1.3041646,-0.38740134,-0.5698645,0.122651584,1.0921955,-0.9367825
-0.2,-0.2,0.6,-0.34906585039886584,-0.5235987755982988,-0.5235987755982988,1.2637413,1.4373876,0.23449719,0.3560678,0.7372626,0.5843995,-0.15744115,-0.46872637,1.3296502,-0.3901359,-0.5705341,0.161633,1.0974503,-0.9474772
-0.2,-0.2,0.6,-0.34906585039886584,-0.5235987755982988,-0.5235987755982988,1.2524704,1.4325882,0.2461937,0.37524348,0.6455614,0.5713682,-0.15745431,-0.47107095,1.3158704,-0.39104727,-0.5649171,0.12733045,1.0912684,-0.8912001
-0.2,-0.2,0.6,-0.34906585039886584,-0.5235987755982988,-0.5235987755982988,1.2440363,1.4176017,0.23814417,0.3747884,0.7090971,0.575375,-0.16856916,-0.46901938,1.3182415,-0.39780632,-0.5760887,0.18427506,1.1088554,-0.9357327
-0.2,-0.2,0.6,-0.34906585039886584,-0.5235987755982988,-0.5235987755982988,1.2206504,1.4405013,0.21547815,0.3764105,0.7393277,0.5708369,-0.1515808,-0.45264527,1.3034827,-0.3917749,-0.57867706,0.14796087,1.1148919,-0.9394313
-0.2,-0.2,0.6,-0.34906585039886584,-0.5235987755982988,-0.5235987755982988,1.2563865,1.4314322,0.24565895,0.36585325,0.6721969,0.57546854,-0.13365622,-0.46457303,1.3163519,-0.3912064,-0.56817216,0.16160323,1.0978237,-0.9662262
-0.2,-0.2,0.6,-0.34906585039886584,-0.5235987755982988,-0.5235987755982988,1.254702,1.4488889,0.23254195,0.36064938,0.7525295,0.5698357,-0.16473801,-0.44692332,1.3074694,-0.38312754,-0.56311655,0.1298661,1.0891604,-0.97354114
-0.2,-0.2,0.6,-0.34906585039886584,-0.5235987755982988,-0.5235987755982988,1.2560655,1.4361042,0.23226313,0.36476406,0.67187506,0.56924313,-0.15009062,-0.46767586,1.3034667,-0.39351436,-0.5695886,0.16251902,1.099219,-0.9262849
-0.2,-0.2,0.6,-0.34906585039886584,-0.5235987755982988,-0.5235987755982988,1.2182099,1.440991,0.20718098,0.37848234,0.7597011,0.58334434,-0.08285752,-0.4671775,1.3153307,-0.41133276,-0.57975215,0.1606938,1.0946974,-1.0406951
-0.2,-0.2,0.6,-0.34906585039886584,-0.5235987755982988,-0.5235987755982988,1.2346976,1.4187452,0.23132895,0.3707902,0.6806891,0.578385,-0.18664367,-0.4652327,1.3103647,-0.39824983,-0.56269705,0.18131861,1.0970427,-0.9351465
-0.2,-0.2,0.6,-0.34906585039886584,-0.5235987755982988,-0.5235987755982988,1.2248892,1.4233226,0.21710213,0.36766413,0.741323,0.5823563,-0.13236828,-0.4554711,1.3139278,-0.3910242,-0.5671696,0.14898539,1.0957949,-0.96431845
-0.2,-0.2,0.6,-0.34906585039886584,-0.5235987755982988,-0.5235987755982988,1.2194498,1.4261875,0.2207707,0.3645567,0.76986945,0.5974207,-0.1784947,-0.4643616,1.3115985,-0.3954325,-0.56723034,0.16219859,1.0855006,-0.94413304
-0.2,-0.2,0.6,-0.34906585039886584,-0.5235987755982988,-0.5235987755982988,1.2714276,1.4170893,0.23088175,0.36565414,0.69285804,0.58436346,-0.2146278,-0.45590696,1.3232188,-0.39139834,-0.5727328,0.16715333,1.0947125,-0.9668467
-0.2,-0.2,0.6,-0.34906585039886584,-0.5235987755982988,-0.5235987755982988,1.2378674,1.4419979,0.22705194,0.3729856,0.5583367,0.5689054,-0.18057635,-0.47086766,1.307817,-0.39254767,-0.5739636,0.14794958,1.096913,-0.9170696
-0.2,-0.2,0.6,-0.34906585039886584,-0.5235987755982988,-0.5235987755982988,1.2821828,1.4560004,0.22902197,0.3575225,0.66039675,0.5842108,-0.2571054,-0.4542878,1.3139207,-0.41179088,-0.567932,0.1349418,1.0779644,-0.9227253
-0.2,-0.2,0.6,-0.34906585039886584,-0.5235987755982988,-0.5235987755982988,1.2419465,1.4308438,0.21414383,0.37668258,0.69821423,0.5739411,-0.18849404,-0.45708606,1.3057635,-0.38883334,-0.5714666,0.13811752,1.0928087,-1.0191072
-0.2,-0.2,0.6,-0.34906585039886584,-0.5235987755982988,-0.5235987755982988,1.2373686,1.4413931,0.2342795,0.36563495,0.6841975,0.58008116,-0.20953943,-0.46650258,1.3224889,-0.39181998,-0.56129867,0.17798081,1.0903163,-0.8630986
-0.2,-0.2,0.6,-0.34906585039886584,-0.5235987755982988,-0.5235987755982988,1.2447717,1.428484,0.23266026,0.3875461,0.49953747,0.5708425,-0.19672012,-0.46402687,1.3025295,-0.40763077,-0.5604546,0.12981078,1.0995044,-0.9620763
-0.2,-0.2,0.6,-0.34906585039886584,-0.5235987755982988,-0.5235987755982988,1.2552065,1.4261682,0.23955996,0.36643156,0.60109234,0.5685955,-0.17706792,-0.46621206,1.3168865,-0.41209608,-0.56181073,0.1429814,1.1007934,-1.0132427
-0.2,-0.2,0.6,-0.34906585039886584,-0.5235987755982988,-0.5235987755982988,1.2224283,1.4223005,0.24016385,0.38985473,0.62684923,0.5837325,-0.15870978,-0.48527384,1.3160883,-0.39781108,-0.5549841,0.13181412,1.105923,-0.92568034
-0.2,-0.2,0.6,-0.34906585039886584,-0.5235987755982988,-0.5235987755982988,1.2132629,1.4248253,0.22601984,0.3793595,0.73177403,0.57997805,-0.22351113,-0.4733149,1.3100076,-0.4169883,-0.5718356,0.1277953,1.1033934,-0.8633502
-0.2,-0.2,0.6,-0.34906585039886584,-0.5235987755982988,-0.5235987755982988,1.2120267,1.4326473,0.22532326,0.3659068,0.7980904,0.58097076,-0.21360856,-0.46992147,1.3324714,-0.3876167,-0.572355,0.1348496,1.107869,-0.9208282
-0.2,-0.2,0.6,-0.34906585039886584,-0.5235987755982988,-0.5235987755982988,1.2646414,1.4089286,0.21191816,0.38323972,0.6200473,0.5752444,-0.13222761,-0.47031075,1.3217385,-0.39960644,-0.5721923,0.15383999,1.0951917,-0.956001
-0.2,-0.2,0.6,-0.34906585039886584,-0.5235987755982988,-0.5235987755982988,1.2681895,1.4146852,0.22022298,0.38676575,0.76413554,0.56673807,-0.21212448,-0.47152,1.3235359,-0.41506267,-0.56758904,0.16545248,1.0998918,-0.9595002
-0.2,-0.2,0.6,-0.34906585039886584,-0.5235987755982988,-0.5235987755982988,1.2594295,1.434973,0.19633828,0.38278645,0.7260004,0.5753805,-0.13494603,-0.45158803,1.3112916,-0.3895955,-0.5728132,0.15817459,1.0989507,-1.0103806
-0.2,-0.2,0.6,-0.34906585039886584,-0.5235987755982988,-0.5235987755982988,1.2169536,1.4261223,0.21783899,0.40205434,0.77249277,0.571217,-0.22257641,-0.45811325,1.337891,-0.40677467,-0.55859673,0.14588879,1.093544,-1.0063211
-0.2,-0.2,0.6,-0.34906585039886584,-0.5235987755982988,-0.5235987755982988,1.2518228,1.4418907,0.2220563,0.37919936,0.7203828,0.58458924,-0.22416781,-0.47032002,1.3154392,-0.3942464,-0.5696219,0.1270208,1.099376,-1.0258226
-0.2,-0.2,0.6,-0.34906585039886584,-0.5235987755982988,-0.5235987755982988,1.2222123,1.4211767,0.21255495,0.3722128,0.76259166,0.5808953,-0.16520451,-0.46141827,1.3195056,-0.3972307,-0.5758836,0.15197174,1.0895691,-0.9647425
-0.2,-0.2,0.6,-0.34906585039886584,-0.5235987755982988,-0.5235987755982988,1.2267611,1.4262174,0.23666818,0.38468736,0.7537747,0.5717532,-0.19693966,-0.4729574,1.3004392,-0.40006292,-0.56255335,0.14125812,1.1006678,-0.99236083
-0.2,-0.2,0.6,-0.34906585039886584,-0.5235987755982988,-0.5235987755982988,1.2587913,1.4340782,0.22613645,0.37563345,0.69789183,0.57386386,-0.19286975,-0.4549999,1.30565,-0.39546242,-0.5750358,0.117073946,1.0974528,-0.9797734
-0.2,-0.2,0.6,-0.34906585039886584,-0.5235987755982988,-0.5235987755982988,1.2249545,1.4341607,0.22984503,0.37983882,0.7101274,0.5742135,-0.19270377,-0.44788706,1.3144358,-0.38992134,-0.56262803,0.11300391,1.0989276,-0.95991445
-0.2,-0.2,0.6,-0.34906585039886584,-0.5235987755982988,-0.5235987755982988,1.235665,1.4558415,0.20308334,0.3738218,0.6780217,0.58347195,-0.16236895,-0.46198648,1.3198026,-0.41190976,-0.5694021,0.13064244,1.1011935,-0.9157143
-0.2,-0.2,0.6,-0.34906585039886584,-0.5235987755982988,-0.5235987755982988,1.2831898,1.4421977,0.24193646,0.37620893,0.7284069,0.56946194,-0.13356367,-0.45919812,1.3122258,-0.40513945,-0.56758904,0.16112743,1.0991532,-0.9026066
-0.2,-0.2,0.6,-0.34906585039886584,-0.5235987755982988,-0.5235987755982988,1.2267386,1.420334,0.23387578,0.37566027,0.7322404,0.57642835,-0.16867018,-0.47969887,1.3244665,-0.39919898,-0.5726257,0.1323976,1.0966475,-0.9118561
-0.2,-0.2,0.6,-0.34906585039886584,-0.5235987755982988,-0.5235987755982988,1.2298687,1.4318235,0.2402732,0.38805348,0.68560505,0.5735671,-0.21151556,-0.4760573,1.3126363,-0.4190657,-0.56847477,0.1281516,1.0964576,-0.9609636
-0.2,-0.2,0.6,-0.34906585039886584,-0.5235987755982988,-0.5235987755982988,1.2437456,1.4341743,0.25476483,0.3864495,0.6615732,0.5775023,-0.16226465,-0.46870738,1.3117284,-0.42651835,-0.55986863,0.1218748,1.1041028,-0.9382515
-0.2,-0.2,0.6,-0.34906585039886584,-0.5235987755982988,-0.5235987755982988,1.2305198,1.4290136,0.21456787,0.3798777,0.69298434,0.5829493,-0.14676854,-0.46759507,1.3096443,-0.40110314,-0.56284153,0.15318291,1.0947357,-1.0062869
-0.2,-0.2,0.6,-0.34906585039886584,-0.5235987755982988,-0.5235987755982988,1.2538509,1.436628,0.23319922,0.38509685,0.74574035,0.572701,-0.28116685,-0.45857117,1.3147275,-0.39587393,-0.5670941,0.14696513,1.0920689,-1.0080858
-0.2,-0.2,0.6,-0.34906585039886584,-0.5235987755982988,-0.5235987755982988,1.2440696,1.444131,0.22740722,0.3632837,0.7387014,0.5786321,-0.16704544,-0.4614613,1.3209571,-0.3919695,-0.5612983,0.1402671,1.0843631,-0.9740687
-0.2,-0.2,0.6,-0.34906585039886584,-0.5235987755982988,-0.5235987755982988,1.2762618,1.4374423,0.21716076,0.38416484,0.69342494,0.5829069,-0.096376695,-0.4831385,1.3105816,-0.39468452,-0.5544034,0.12590042,1.0920141,-0.9848273
-0.2,-0.2,0.6,-0.34906585039886584,-0.5235987755982988,-0.5235987755982988,1.2018174,1.4330165,0.23396702,0.3783138,0.6747231,0.5787125,-0.1753925,-0.465506,1.3188552,-0.38644102,-0.5639013,0.1315401,1.10168,-0.9310498
-0.2,-0.2,0.6,-0.34906585039886584,-0.5235987755982988,-0.5235987755982988,1.2656814,1.4309884,0.22422822,0.37979716,0.7017624,0.5919446,-0.12463411,-0.47088823,1.3163748,-0.40326622,-0.5644948,0.14962152,1.1044947,-1.0614903
-0.2,-0.2,0.6,-0.34906585039886584,-0.5235987755982988,-0.5235987755982988,1.2544928,1.4467509,0.23388916,0.37919247,0.7835167,0.5804797,-0.13411498,-0.47692782,1.3136435,-0.41467366,-0.5704814,0.1294886,1.1007044,-1.0305094
-0.2,-0.2,0.6,-0.34906585039886584,-0.5235987755982988,-0.5235987755982988,1.2408024,1.4342297,0.25798282,0.38977796,0.6996811,0.57758033,-0.24857344,-0.45882395,1.3334839,-0.42038432,-0.57526153,0.11206728,1.102084,-0.95334345
-0.2,-0.2,0.6,-0.34906585039886584,-0.5235987755982988,-0.5235987755982988,1.2565877,1.4132191,0.24292465,0.3766997,0.76152956,0.5836825,-0.17850702,-0.46734428,1.3246629,-0.43733788,-0.5711189,0.14392954,1.0933006,-0.96811104
-0.2,-0.2,0.6,-0.34906585039886584,-0.5235987755982988,-0.5235987755982988,1.2144452,1.429173,0.22221771,0.4049828,0.75647825,0.5721645,-0.29984808,-0.46218994,1.3088871,-0.39111522,-0.5566231,0.1560741,1.112169,-0.9513109
-0.2,-0.2,0.6,-0.34906585039886584,-0.5235987755982988,-0.5235987755982988,1.2741126,1.4356761,0.2125596,0.3684433,0.7290763,0.5802875,-0.20534988,-0.4624589,1.3201802,-0.4064501,-0.5737714,0.14585882,1.0933864,-0.9740569
-0.2,-0.2,0.6,-0.34906585039886584,-0.5235987755982988,-0.5235987755982988,1.2879231,1.4428729,0.22611083,0.3782185,0.75332826,0.5860133,-0.18009597,-0.45655498,1.3096509,-0.41491252,-0.56461346,0.1406105,1.1066161,-1.0042527
-0.2,-0.2,0.6,-0.34906585039886584,-0.5235987755982988,-0.5235987755982988,1.2666321,1.4553094,0.22774877,0.37541524,0.7705371,0.5856395,-0.15556407,-0.4801399,1.3186163,-0.41877225,-0.5699127,0.15140301,1.1106851,-0.98226607
-0.2,-0.2,0.6,-0.34906585039886584,-0.5235987755982988,-0.5235987755982988,1.2729584,1.4287788,0.21950468,0.36265284,0.7989596,0.57274485,-0.17979006,-0.4834268,1.3258052,-0.3784031,-0.5737958,0.17594877,1.0912399,-0.99530095
-0.2,-0.2,0.6,-0.34906585039886584,-0.5235987755982988,-0.5235987755982988,1.2685915,1.4385291,0.22342312,0.3802013,0.7122285,0.5782482,-0.1360681,-0.4628659,1.3181987,-0.40626276,-0.57336885,0.13922337,1.1153269,-0.9963082
-0.2,-0.2,0.6,-0.34906585039886584,-0.5235987755982988,-0.5235987755982988,1.246745,1.4394827,0.22035249,0.36524054,0.72017527,0.5724402,-0.1671938,-0.46534738,1.3068781,-0.4090078,-0.5693982,0.17025758,1.0980242,-0.98503363
-0.2,-0.2,0.6,-0.34906585039886584,-0.5235987755982988,-0.5235987755982988,1.2516274,1.4413102,0.21926515,0.3742444,0.6996714,0.57305765,-0.1721603,-0.45073697,1.311347,-0.42364162,-0.5629093,0.13749968,1.100082,-0.96470445
-0.2,-0.2,0.6,-0.34906585039886584,-0.5235987755982988,-0.5235987755982988,1.2497544,1.4326175,0.2393737,0.37754545,0.84808075,0.58076024,-0.16181505,-0.4600843,1.314134,-0.39975977,-0.55122936,0.14868645,1.0962565,-1.0159428
-0.2,-0.2,0.6,-0.34906585039886584,-0.5235987755982988,-0.5235987755982988,1.2543727,1.438955,0.2298833,0.37606648,0.7448762,0.5897512,-0.12967765,-0.4668248,1.3213917,-0.40851182,-0.5705663,0.18200946,1.1102874,-1.030313
-0.2,-0.2,0.6,-0.34906585039886584,-0.5235987755982988,-0.5235987755982988,1.2850589,1.4399927,0.24565208,0.37321618,0.7688192,0.56854415,-0.13998415,-0.4699677,1.3079664,-0.4139496,-0.5591747,0.16281079,1.0937662,-1.0293521
-0.2,-0.2,0.6,-0.34906585039886584,-0.5235987755982988,-0.5235987755982988,1.2418188,1.4359295,0.25099763,0.3709942,0.7581066,0.57327074,-0.18567878,-0.4677946,1.3173959,-0.39634702,-0.5663006,0.1734092,1.1158533,-0.97134775
-0.2,-0.2,0.6,-0.34906585039886584,-0.5235987755982988,-0.5235987755982988,1.2445543,1.4420017,0.23102166,0.38535124,0.67337143,0.56953895,-0.2047183,-0.47332737,1.3233669,-0.3837972,-0.5716055,0.159179,1.1024871,-0.9787852
-0.2,-0.2,0.6,-0.34906585039886584,-0.5235987755982988,-0.5235987755982988,1.2471715,1.4397682,0.23202056,0.37945154,0.65520537,0.5769283,-0.11482114,-0.4680569,1.3224813,-0.4106318,-0.58652747,0.16579339,1.102722,-1.0369738
-0.2,-0.2,0.6,-0.34906585039886584,-0.5235987755982988,-0.5235987755982988,1.2823037,1.4208817,0.2407086,0.37429965,0.82011676,0.5785978,-0.15221085,-0.46343133,1.3202777,-0.40150052,-0.5639659,0.1450261,1.1045554,-0.95217866
-0.2,-0.2,0.6,-0.34906585039886584,-0.5235987755982988,-0.5235987755982988,1.2595994,1.4319595,0.24272999,0.38555077,0.6500791,0.5679513,-0.15285727,-0.47608152,1.3154198,-0.39295438,-0.5640411,0.13510007,1.1031244,-0.97807634
-0.2,-0.2,0.6,-0.34906585039886584,-0.5235987755982988,-0.5235987755982988,1.2548915,1.4235883,0.24219388,0.38399154,0.62409496,0.57426876,-0.15079673,-0.45022005,1.3175799,-0.41296634,-0.55515486,0.12658286,1.0940019,-1.0170218
-0.2,-0.2,0.6,-0.34906585039886584,-0.5235987755982988,-0.5235987755982988,1.2585071,1.4401578,0.25183615,0.37427786,0.7671616,0.5875545,-0.17843218,-0.46099594,1.3066316,-0.40013435,-0.5633539,0.13646841,1.1154977,-1.0008754
-0.2,-0.2,0.6,-0.34906585039886584,-0.5235987755982988,-0.5235987755982988,1.2337414,1.4347265,0.23823015,0.37049538,0.6952833,0.5690009,-0.167544,-0.46843565,1.3176532,-0.395135,-0.5657692,0.1575528,1.1127074,-0.95490324
-0.2,-0.2,0.6,-0.34906585039886584,-0.5235987755982988,-0.5235987755982988,1.2521263,1.4294972,0.2508615,0.38495818,0.7865755,0.5689236,-0.2175208,-0.46117213,1.3129117,-0.40125623,-0.5630868,0.16023003,1.1116146,-1.0512186
-0.2,-0.2,0.6,-0.34906585039886584,-0.5235987755982988,-0.5235987755982988,1.2632686,1.4336973,0.22619145,0.38420323,0.730171,0.56828064,-0.27102014,-0.46030816,1.3149136,-0.40464324,-0.569758,0.16306657,1.0986795,-1.029654
-0.2,-0.2,0.6,-0.34906585039886584,-0.5235987755982988,-0.5235987755982988,1.2748634,1.4398054,0.21945915,0.3799387,0.83796936,0.57602733,-0.23191345,-0.47638434,1.31398,-0.38227758,-0.56438494,0.15037969,1.100834,-1.0198464
-0.2,-0.2,0.6,-0.34906585039886584,-0.5235987755982988,-0.5235987755982988,1.2616338,1.4304342,0.22752254,0.37807113,0.7998199,0.58634794,-0.15437351,-0.46925774,1.3219806,-0.4191953,-0.58564997,0.1272971,1.0906122,-1.0442117
-0.2,-0.2,0.6,-0.34906585039886584,-0.5235987755982988,-0.5235987755982988,1.2575336,1.4288911,0.24182597,0.3746083,0.7699891,0.5836717,-0.1596086,-0.4692919,1.3137238,-0.39464086,-0.5657252,0.12783957,1.0948201,-1.0066812
-0.2,-0.2,0.6,-0.34906585039886584,-0.5235987755982988,-0.5235987755982988,1.2449557,1.447796,0.2071617,0.38705245,0.64075124,0.5752025,-0.14625336,-0.47114137,1.3066239,-0.39046413,-0.5625449,0.16492462,1.1025885,-0.93607986
-0.2,-0.2,0.6,-0.34906585039886584,-0.5235987755982988,-0.5235987755982988,1.2183475,1.4425222,0.22488649,0.3898221,0.7038794,0.5715265,-0.09680518,-0.45614302,1.3293927,-0.40932655,-0.5743504,0.1339958,1.1071622,-0.95175123
-0.2,-0.2,0.6,-0.34906585039886584,-0.5235987755982988,-0.5235987755982988,1.2155586,1.4339944,0.22559115,0.38016498,0.7994662,0.5639131,-0.20763631,-0.46028444,1.3220795,-0.40390354,-0.56268764,0.16074811,1.1060578,-0.9039082
-0.2,-0.2,0.6,-0.34906585039886584,-0.5235987755982988,-0.5235987755982988,1.2836956,1.4445419,0.20998047,0.3786337,0.69779754,0.5738862,-0.15434307,-0.44687024,1.3182081,-0.40465412,-0.55994934,0.12256733,1.0942398,-1.0241504
-0.2,-0.2,0.6,-0.34906585039886584,-0.5235987755982988,-0.5235987755982988,1.2434678,1.444053,0.23789473,0.37567383,0.75269884,0.5754675,-0.13796322,-0.46773666,1.3218418,-0.41640034,-0.5667919,0.13634703,1.0867944,-0.9851898
-0.2,-0.2,0.6,-0.34906585039886584,-0.5235987755982988,-0.5235987755982988,1.261222,1.4325625,0.21450599,0.3860812,0.8162726,0.57850355,-0.15862441,-0.45601392,1.3090825,-0.40351692,-0.57146364,0.13154264,1.1064619,-0.9597365
-0.2,-0.2,0.6,-0.34906585039886584,-0.5235987755982988,-0.5235987755982988,1.2246084,1.4267812,0.23557593,0.36882222,0.6942964,0.575073,-0.22711673,-0.4552532,1.3141749,-0.38589868,-0.58095264,0.15629342,1.1061316,-0.9897374
-0.2,-0.2,0.6,-0.34906585039886584,-0.5235987755982988,-0.5235987755982988,1.2396669,1.4404747,0.23047738,0.3844383,0.5902312,0.5807138,-0.1833647,-0.47934088,1.3074296,-0.39374524,-0.5648884,0.14516185,1.103881,-0.9671245
-0.2,-0.2,0.6,-0.34906585039886584,-0.5235987755982988,-0.5235987755982988,1.2660018,1.4250265,0.2396407,0.39094734,0.6800203,0.57916,-0.26987714,-0.45701638,1.3218049,-0.41306582,-0.5731245,0.12036799,1.1040744,-0.9811311
-0.2,-0.2,0.6,-0.34906585039886584,-0.5235987755982988,-0.5235987755982988,1.2651033,1.4449987,0.22542407,0.37391976,0.6876053,0.57718205,-0.10640586,-0.4636299,1.3238796,-0.4096419,-0.568056,0.1286088,1.101756,-0.9545842
-0.2,-0.2,0.6,-0.34906585039886584,-0.5235987755982988,-0.5235987755982988,1.2434638,1.4261959,0.23454948,0.3786551,0.79224455,0.5868625,-0.18986723,-0.46117595,1.3204037,-0.3998218,-0.5631418,0.14666279,1.1043136,-0.9950971
-0.2,-0.2,0.6,-0.34906585039886584,-0.5235987755982988,-0.5235987755982988,1.2729118,1.4434035,0.21937677,0.37920657,0.6897901,0.57844406,-0.13103028,-0.46769345,1.3048329,-0.4017809,-0.56319577,0.15434188,1.1071886,-0.9392095
-0.2,-0.2,0.6,-0.34906585039886584,-0.5235987755982988,-0.5235987755982988,1.2403316,1.4459432,0.2163165,0.3840645,0.77922213,0.58107764,-0.14780825,-0.47346297,1.3081532,-0.4086349,-0.5724245,0.13789235,1.1035675,-1.0013884
-0.2,-0.2,0.6,-0.34906585039886584,-0.5235987755982988,-0.5235987755982988,1.256722,1.436232,0.23974214,0.3833473,0.7170053,0.57892454,-0.21802066,-0.46477583,1.3134967,-0.41172957,-0.56774557,0.14854454,1.1065677,-0.96162575
-0.2,-0.2,0.6,-0.34906585039886584,-0.5235987755982988,-0.5235987755982988,1.2763495,1.4397931,0.21595368,0.37261236,0.7888006,0.5859838,-0.13979687,-0.4798951,1.3217161,-0.41567606,-0.5778704,0.1675956,1.1004541,-1.0217793
-0.2,-0.2,0.6,-0.34906585039886584,-0.5235987755982988,-0.5235987755982988,1.243949,1.4337559,0.2394481,0.37921312,0.73805374,0.58831066,-0.17475122,-0.4625184,1.3125222,-0.38698635,-0.5637606,0.17602538,1.0963241,-1.0592141
-0.2,-0.2,0.6,-0.34906585039886584,-0.5235987755982988,-0.5235987755982988,1.2270366,1.4273181,0.24185488,0.37694862,0.71221596,0.5680025,-0.14324868,-0.47470367,1.3109212,-0.40933993,-0.5690673,0.1835338,1.1058769,-1.0013133
-0.2,-0.2,0.6,-0.34906585039886584,-0.5235987755982988,-0.5235987755982988,1.271972,1.4396114,0.25108922,0.36802864,0.5955965,0.5732793,-0.112881646,-0.46391764,1.3115065,-0.4044714,-0.5731055,0.13355549,1.1027565,-1.0598494
-0.2,-0.2,0.6,-0.34906585039886584,-0.5235987755982988,-0.5235987755982988,1.2473757,1.4240603,0.22414117,0.37861493,0.7879362,0.5798605,-0.12492182,-0.44291273,1.3032888,-0.43592113,-0.5577255,0.13425429,1.0862874,-0.961054
-0.2,-0.2,0.6,-0.34906585039886584,-0.5235987755982988,-0.5235987755982988,1.2701302,1.4397883,0.24597034,0.37716192,0.7423381,0.57936484,-0.21276481,-0.4715476,1.3200442,-0.3914171,-0.56422853,0.16629212,1.1020185,-0.9491771
-0.2,-0.2,0.6,-0.34906585039886584,-0.5235987755982988,-0.5235987755982988,1.2511913,1.4241947,0.2407702,0.3764183,0.75521594,0.58369267,-0.18017927,-0.4688724,1.3145924,-0.40840873,-0.57009274,0.118839495,1.0904844,-1.0130275
-0.2,-0.2,0.6,-0.34906585039886584,-0.5235987755982988,-0.5235987755982988,1.2546453,1.4294732,0.22894324,0.37270376,0.73629415,0.5737944,-0.124008544,-0.44669527,1.3149608,-0.3934772,-0.5490322,0.1312336,1.1033083,-0.99525356
-0.2,-0.2,0.6,-0.34906585039886584,-0.5235987755982988,-0.5235987755982988,1.2803797,1.4370842,0.23913342,0.37649488,0.7835592,0.58783215,-0.23467973,-0.4446134,1.3180641,-0.4087412,-0.557507,0.13553661,1.1012435,-0.98012936
-0.2,-0.2,0.6,-0.34906585039886584,-0.5235987755982988,-0.5235987755982988,1.2673813,1.4383565,0.22171377,0.37598392,0.79177725,0.5839744,-0.15615107,-0.45825696,1.3169137,-0.4096882,-0.5773024,0.16051525,1.1099887,-1.0307386
-0.2,-0.2,0.6,-0.34906585039886584,-0.5235987755982988,-0.5235987755982988,1.2321224,1.4254566,0.26121783,0.36730537,0.7519124,0.57846,-0.17342603,-0.4536051,1.320294,-0.39482373,-0.5779815,0.13712513,1.1016868,-0.96693677
-0.2,-0.2,0.6,-0.34906585039886584,-0.5235987755982988,-0.5235987755982988,1.2463801,1.4374477,0.22185253,0.37240344,0.73378825,0.5817814,-0.17629138,-0.46482813,1.3173306,-0.40124545,-0.57071143,0.14258157,1.1040556,-0.89740473
-0.2,-0.2,0.6,-0.34906585039886584,-0.5235987755982988,-0.5235987755982988,1.2553412,1.4406298,0.22015283,0.3849205,0.6547986,0.5531484,-0.24737394,-0.45044956,1.3122646,-0.40266028,-0.57203734,0.14322887,1.1105902,-0.9242098
-0.2,-0.2,0.6,-0.34906585039886584,-0.5235987755982988,-0.5235987755982988,1.2482026,1.4271222,0.24402876,0.37181088,0.8024172,0.581745,-0.16324419,-0.4619987,1.3142838,-0.40903252,-0.56899405,0.16549152,1.1166521,-0.9316863
-0.2,-0.2,0.6,-0.34906585039886584,-0.5235987755982988,-0.5235987755982988,1.2620507,1.434887,0.21781176,0.38113135,0.7402535,0.5858413,-0.17529516,-0.4659398,1.3151842,-0.3898349,-0.5537834,0.15307608,1.0898856,-0.98321354
-0.2,-0.2,0.6,-0.34906585039886584,-0.5235987755982988,-0.5235987755982988,1.2417995,1.4456524,0.22968261,0.37452987,0.75419354,0.58335423,-0.13677353,-0.4561662,1.317952,-0.39761454,-0.56858164,0.1275525,1.0898184,-0.9982973
-0.2,-0.2,0.6,-0.34906585039886584,-0.5235987755982988,-0.5235987755982988,1.2195516,1.4466742,0.24757122,0.37506557,0.6723827,0.5753235,-0.12479222,-0.47159302,1.3222557,-0.3784779,-0.57367694,0.14336559,1.1015539,-1.0006428
-0.2,-0.2,0.6,-0.34906585039886584,-0.5235987755982988,-0.5235987755982988,1.2632687,1.4341516,0.22993904,0.36916733,0.7974355,0.580691,-0.16720425,-0.4595563,1.3271087,-0.40312168,-0.56822115,0.13560115,1.096775,-1.0848167
-0.2,-0.2,0.6,-0.34906585039886584,-0.5235987755982988,-0.5235987755982988,1.2294949,1.4212074,0.25415397,0.37298188,0.7096591,0.5742037,-0.1266821,-0.46796092,1.3322995,-0.38384122,-0.5682485,0.14261809,1.104308,-1.0177846
-0.2,-0.2,0.6,-0.34906585039886584,-0.5235987755982988,-0.5235987755982988,1.2633996,1.4306453,0.22970566,0.37339938,0.79634804,0.58415794,-0.15127866,-0.45772177,1.3101645,-0.41108826,-0.563218,0.16782355,1.088928,-1.0215772
-0.2,-0.2,0.6,-0.34906585039886584,-0.5235987755982988,-0.5235987755982988,1.2698677,1.4405348,0.19581275,0.38451493,0.7749398,0.5764375,-0.18330471,-0.4676495,1.3264582,-0.41135195,-0.57699156,0.13345537,1.0962591,-0.9468908
-0.2,-0.2,0.6,-0.34906585039886584,-0.5235987755982988,-0.5235987755982988,1.230495,1.4500409,0.2507406,0.37250146,0.7339219,0.58062553,-0.18057235,-0.46673778,1.3160284,-0.39240548,-0.57020146,0.15549247,1.1017071,-0.99194914
-0.2,-0.2,0.6,-0.34906585039886584,-0.5235987755982988,-0.5235987755982988,1.2339506,1.4467041,0.23231062,0.38724113,0.6492555,0.57177776,-0.18603756,-0.48540136,1.3191036,-0.38565353,-0.5581277,0.15408923,1.0873785,-1.0120759
-0.2,-0.2,0.6,-0.34906585039886584,-0.5235987755982988,-0.5235987755982988,1.2478569,1.4301747,0.22804193,0.3787976,0.7460062,0.57479143,-0.21526344,-0.46346396,1.3202745,-0.40453184,-0.56300205,0.16672766,1.0984577,-0.96258706
-0.2,-0.2,0.6,-0.34906585039886584,-0.5235987755982988,-0.5235987755982988,1.247041,1.4276282,0.20835586,0.3895655,0.7275842,0.5831694,-0.14765881,-0.47515017,1.3119467,-0.40507725,-0.5630767,0.1607252,1.1062415,-0.9355166
-0.2,-0.2,0.6,-0.34906585039886584,-0.5235987755982988,-0.5235987755982988,1.2444227,1.4393275,0.24473804,0.37076145,0.7355036,0.57817984,-0.20125219,-0.4678161,1.3162282,-0.4045126,-0.56153566,0.15330684,1.1011103,-0.9673978
-0.2,-0.2,0.6,-0.34906585039886584,-0.5235987755982988,-0.5235987755982988,1.2519562,1.4461304,0.23398545,0.3747625,0.7321847,0.5684159,-0.109089166,-0.4567713,1.3165548,-0.40984342,-0.57094747,0.12728027,1.0889913,-1.0068632
-0.2,-0.2,0.6,-0.34906585039886584,-0.5235987755982988,-0.5235987755982988,1.2782686,1.4360367,0.214862,0.37679887,0.81478196,0.5746886,-0.12545733,-0.46056807,1.3182658,-0.399925,-0.5777657,0.14873616,1.1027858,-1.004823
-0.2,-0.2,0.6,-0.34906585039886584,-0.5235987755982988,-0.5235987755982988,1.2294456,1.4334745,0.23905727,0.3670621,0.8322289,0.58641076,-0.14076872,-0.47435802,1.3233947,-0.40609422,-0.5602405,0.15520515,1.0961083,-0.8776898
-0.2,-0.2,0.6,-0.34906585039886584,-0.5235987755982988,-0.5235987755982988,1.2499793,1.4570237,0.24232635,0.37046596,0.68492234,0.58123475,-0.19756156,-0.4514081,1.3257189,-0.39698222,-0.56798774,0.17858528,1.1018134,-1.052919
-0.2,-0.2,0.6,-0.34906585039886584,-0.5235987755982988,-0.5235987755982988,1.2583594,1.4502459,0.2340834,0.3721669,0.7447101,0.570659,-0.14992581,-0.45669714,1.3197919,-0.4086655,-0.56468344,0.14486828,1.1026312,-0.9520607
-0.2,-0.2,0.6,-0.34906585039886584,-0.5235987755982988,-0.5235987755982988,1.2618089,1.4546874,0.21732903,0.38039398,0.75005513,0.5715128,-0.14614657,-0.45531467,1.3115518,-0.40502748,-0.5623511,0.15016028,1.1005565,-1.0397556
-0.2,-0.2,0.6,-0.34906585039886584,-0.5235987755982988,-0.5235987755982988,1.2361428,1.4488599,0.22966357,0.37782583,0.81254715,0.57613736,-0.17502007,-0.46742755,1.3176793,-0.40959802,-0.5770234,0.17128587,1.1083218,-1.0265888
-0.2,-0.2,0.6,-0.34906585039886584,-0.5235987755982988,-0.5235987755982988,1.2431153,1.4449722,0.24031731,0.37055185,0.7795275,0.5662637,-0.110547334,-0.45122045,1.3035729,-0.39546221,-0.5636571,0.16000807,1.1045468,-1.0959408
-0.2,-0.2,0.6,-0.34906585039886584,-0.5235987755982988,-0.5235987755982988,1.2618442,1.435246,0.23598649,0.36509126,0.79493624,0.5761636,-0.12251582,-0.45586383,1.3107259,-0.4216963,-0.5603242,0.14371562,1.1075093,-0.89418894
-0.2,-0.2,0.6,-0.34906585039886584,-0.5235987755982988,-0.5235987755982988,1.2788135,1.4204098,0.2393865,0.3759516,0.6823853,0.5701931,-0.15427436,-0.46837673,1.3091333,-0.39366555,-0.56306523,0.13910125,1.0918278,-1.0197135
-0.2,-0.2,0.6,-0.34906585039886584,-0.5235987755982988,-0.5235987755982988,1.2230371,1.4312166,0.24542707,0.37665167,0.7104237,0.5706445,-0.14947125,-0.45805025,1.3033321,-0.3934227,-0.55395997,0.14869887,1.0983052,-0.97134113
-0.2,-0.2,0.6,-0.34906585039886584,-0.5235987755982988,-0.5235987755982988,1.201662,1.4520745,0.20749216,0.3924881,0.7572156,0.5834695,-0.25168937,-0.45626402,1.3126014,-0.38649273,-0.5566766,0.14615189,1.0966003,-1.0192153
-0.2,-0.2,0.6,-0.34906585039886584,-0.5235987755982988,-0.5235987755982988,1.2707397,1.4316213,0.19958864,0.37823537,0.70895875,0.5833855,-0.13450661,-0.4612551,1.3103052,-0.39911297,-0.5704347,0.1170466,1.0943561,-0.97801006
-0.2,-0.2,0.6,-0.34906585039886584,-0.5235987755982988,-0.5235987755982988,1.2433872,1.444886,0.23679274,0.3760947,0.7399421,0.5826816,-0.20042095,-0.448898,1.320684,-0.4205006,-0.5611991,0.1586095,1.0819354,-0.9614244
-0.2,-0.2,0.6,-0.34906585039886584,-0.5235987755982988,-0.5235987755982988,1.2251699,1.4482895,0.22969072,0.37805292,0.69577885,0.5702338,-0.09973081,-0.46128264,1.3115393,-0.3808217,-0.55948883,0.15809748,1.0930871,-0.9783639
-0.2,-0.2,0.6,-0.34906585039886584,-0.5235987755982988,-0.5235987755982988,1.2654161,1.4468354,0.22827205,0.37478575,0.7554005,0.5688448,-0.14041284,-0.47231677,1.313986,-0.3883885,-0.56251484,0.13687804,1.0916728,-0.871107
-0.2,-0.2,0.6,-0.34906585039886584,-0.5235987755982988,-0.5235987755982988,1.26258,1.4274576,0.2319802,0.37377033,0.7207492,0.571431,-0.1099932,-0.45627213,1.3172811,-0.4028727,-0.5660938,0.14767043,1.0927346,-0.96859354
-0.2,-0.2,0.6,-0.34906585039886584,-0.5235987755982988,-0.5235987755982988,1.2734863,1.4356831,0.2192082,0.38076296,0.7982151,0.5836728,-0.2295294,-0.45766523,1.3256658,-0.38972658,-0.56564677,0.16129526,1.1035889,-0.9700836
-0.2,-0.2,0.6,-0.34906585039886584,-0.5235987755982988,-0.5235987755982988,1.2482179,1.4334146,0.23452193,0.3696612,0.8081502,0.5883462,-0.22546275,-0.47504243,1.309318,-0.42161477,-0.5626726,0.15203007,1.08272,-0.9777816
-0.2,-0.2,0.6,-0.34906585039886584,-0.5235987755982988,-0.5235987755982988,1.2466632,1.4469347,0.21676168,0.379411,0.7870085,0.58056074,-0.17991239,-0.4659803,1.3180605,-0.38853386,-0.55276895,0.15682366,1.0780301,-1.030851
-0.2,-0.2,0.6,-0.34906585039886584,-0.5235987755982988,-0.5235987755982988,1.2466164,1.4254743,0.23554546,0.3791498,0.7990081,0.5770368,-0.1659401,-0.4642482,1.3099931,-0.39862782,-0.55867016,0.14480254,1.1085646,-1.039069
-0.2,-0.2,0.6,-0.34906585039886584,-0.5235987755982988,-0.5235987755982988,1.2619783,1.4225259,0.23827256,0.3709869,0.754389,0.5730237,-0.13457838,-0.46142596,1.3183489,-0.401737,-0.57639426,0.15461732,1.1025817,-1.058827
-0.2,-0.2,0.6,-0.34906585039886584,-0.5235987755982988,-0.5235987755982988,1.2407699,1.4315901,0.23485953,0.3739185,0.7544348,0.59210354,-0.2137223,-0.46044815,1.306127,-0.41643208,-0.5588627,0.1850481,1.0918902,-0.96920276
-0.2,-0.2,0.6,-0.34906585039886584,-0.5235987755982988,-0.5235987755982988,1.2276797,1.4581821,0.22142422,0.3710665,0.71766627,0.5846923,-0.14135978,-0.47130698,1.3129791,-0.3976475,-0.56742483,0.12607628,1.0922034,-0.8935262
-0.2,-0.2,0.6,-0.34906585039886584,-0.5235987755982988,-0.5235987755982988,1.2285019,1.4391282,0.23064695,0.37941632,0.78583235,0.57564044,-0.1710486,-0.45808506,1.3123828,-0.39876637,-0.56772697,0.17386608,1.1001121,-1.0600488
-0.2,-0.2,0.6,-0.34906585039886584,-0.5235987755982988,-0.5235987755982988,1.2651589,1.4273646,0.24195944,0.3784354,0.76785505,0.5752289,-0.1601864,-0.456866,1.3195587,-0.39761525,-0.5599134,0.1305992,1.1075342,-0.9248298
-0.2,-0.2,0.6,-0.34906585039886584,-0.5235987755982988,-0.5235987755982988,1.2652615,1.4346504,0.21275246,0.37310457,0.79396766,0.57744527,-0.12466809,-0.46957338,1.3284689,-0.39999437,-0.57477444,0.17343892,1.0927663,-0.96910733
-0.2,-0.2,0.6,-0.34906585039886584,-0.5235987755982988,-0.5235987755982988,1.2434341,1.439288,0.23755419,0.3673139,0.8359868,0.5899403,-0.20938094,-0.46306416,1.3100308,-0.3970565,-0.56984913,0.14403982,1.1039227,-0.9282206
-0.2,-0.2,0.6,-0.34906585039886584,-0.5235987755982988,-0.5235987755982988,1.273209,1.446999,0.21229556,0.36853215,0.69922817,0.5740543,-0.077640176,-0.4519154,1.3214856,-0.393741,-0.5671025,0.15435828,1.0951498,-0.99812937
-0.2,-0.2,0.6,-0.34906585039886584,-0.5235987755982988,-0.5235987755982988,1.2251253,1.4408545,0.23330428,0.38668346,0.7232423,0.57489717,-0.26024765,-0.45799184,1.3170795,-0.39416873,-0.5669275,0.13547242,1.0906972,-1.0338864
-0.2,-0.2,0.6,-0.34906585039886584,-0.5235987755982988,-0.5235987755982988,1.2260121,1.4197388,0.24523677,0.3747643,0.7630878,0.57787025,-0.16468383,-0.44896698,1.3169609,-0.39648092,-0.56228447,0.15651098,1.0887607,-0.95227766
-0.2,-0.2,0.6,-0.34906585039886584,-0.5235987755982988,-0.5235987755982988,1.2722527,1.4427955,0.24127579,0.35671455,0.71564007,0.57597303,-0.17072076,-0.46291983,1.3110148,-0.39407995,-0.56981355,0.16407782,1.1102611,-0.9442901
-0.2,-0.2,0.6,-0.34906585039886584,-0.5235987755982988,-0.5235987755982988,1.2331694,1.4390957,0.23926984,0.37051457,0.8205038,0.57632625,-0.169815,-0.45540485,1.320797,-0.38856256,-0.5734223,0.14469215,1.0982021,-0.99160177
-0.2,-0.2,0.6,-0.34906585039886584,-0.5235987755982988,-0.5235987755982988,1.2075111,1.439646,0.22317943,0.38322544,0.82190806,0.5761181,-0.16966099,-0.460565,1.3223367,-0.40823078,-0.55781686,0.16799365,1.0997365,-0.81508905
-0.2,-0.2,0.6,-0.34906585039886584,-0.5235987755982988,-0.5235987755982988,1.271188,1.4337034,0.22589597,0.38037103,0.7332157,0.5602938,-0.1591197,-0.45311695,1.309745,-0.39230117,-0.5618629,0.14636233,1.0977757,-0.93143004
-0.2,-0.2,0.6,-0.34906585039886584,-0.5235987755982988,-0.5235987755982988,1.2655013,1.4311339,0.20438206,0.3795877,0.8411372,0.58404225,-0.18289322,-0.4554916,1.3118516,-0.40961364,-0.5694718,0.16346966,1.0984411,-0.94930667
-0.2,-0.2,0.6,-0.34906585039886584,-0.5235987755982988,-0.5235987755982988,1.2458009,1.4285009,0.22178297,0.39266086,0.6532408,0.5803231,-0.225853,-0.4760656,1.3146633,-0.39041916,-0.56748295,0.17178261,1.1098818,-1.0150273
-0.2,-0.2,0.6,-0.34906585039886584,-0.5235987755982988,-0.5235987755982988,1.2440885,1.4409766,0.24332932,0.36879,0.6270268,0.5842632,-0.2561405,-0.46347663,1.316431,-0.39171797,-0.5737291,0.17211087,1.0989369,-0.95809156
-0.2,-0.2,0.6,-0.34906585039886584,-0.5235987755982988,-0.5235987755982988,1.2243621,1.4432384,0.23843223,0.37577915,0.69817406,0.5762728,-0.2095025,-0.4609424,1.3119072,-0.3939912,-0.55738705,0.13243742,1.0945573,-0.8658356
-0.2,-0.2,0.6,-0.34906585039886584,-0.5235987755982988,-0.5235987755982988,1.2349565,1.4291252,0.21428378,0.37650633,0.8203734,0.5640239,-0.10102889,-0.46439442,1.3084664,-0.41008356,-0.56631464,0.18144615,1.0901285,-0.8978911
-0.2,-0.2,0.6,-0.34906585039886584,-0.5235987755982988,-0.5235987755982988,1.2429647,1.4522296,0.24640237,0.3715988,0.66249686,0.56775725,-0.22062619,-0.4490346,1.3092836,-0.3961442,-0.56635857,0.1799022,1.0938412,-1.017391
-0.2,-0.2,0.6,-0.34906585039886584,-0.5235987755982988,-0.5235987755982988,1.2541772,1.4433426,0.24572635,0.3621681,0.67032546,0.58201915,-0.18476549,-0.45433056,1.308117,-0.40642944,-0.5665844,0.114304654,1.088119,-0.9301262
-0.2,-0.2,0.6,-0.34906585039886584,-0.5235987755982988,-0.5235987755982988,1.2900454,1.4240972,0.21267614,0.3674717,0.6693813,0.5806752,-0.12104823,-0.45875356,1.2990444,-0.38727343,-0.5653548,0.15070923,1.1051153,-1.0240968
-0.2,-0.2,0.6,-0.34906585039886584,-0.5235987755982988,-0.5235987755982988,1.2724475,1.431667,0.22559783,0.36830285,0.7633988,0.5708689,-0.12903817,-0.44026858,1.3087075,-0.4312221,-0.5691371,0.15589383,1.0883236,-1.0052286
-0.2,-0.2,0.6,-0.34906585039886584,-0.5235987755982988,-0.5235987755982988,1.2236049,1.418224,0.23509943,0.38003683,0.7477005,0.5677076,-0.15857752,-0.45875686,1.3143525,-0.40134636,-0.5729206,0.15405782,1.1075448,-0.90364945
-0.2,-0.2,0.6,-0.34906585039886584,-0.5235987755982988,-0.5235987755982988,1.2575746,1.4275305,0.2279941,0.37568003,0.64155626,0.5802305,-0.22449021,-0.45968866,1.3244992,-0.40380225,-0.5701831,0.16668466,1.0967498,-0.99920726
-0.2,-0.2,0.6,-0.34906585039886584,-0.5235987755982988,-0.5235987755982988,1.2330066,1.4325572,0.23712985,0.37096235,0.7432652,0.56775576,-0.12846397,-0.46914187,1.3230901,-0.3892967,-0.57354933,0.14535809,1.1024508,-0.91251475
-0.2,-0.2,0.6,-0.34906585039886584,-0.5235987755982988,-0.5235987755982988,1.2479743,1.4432633,0.23036978,0.3702897,0.8594311,0.5775255,-0.22200553,-0.47391373,1.3269938,-0.39657006,-0.57169473,0.149467,1.0955552,-0.8772762
-0.2,-0.2,0.6,-0.34906585039886584,-0.5235987755982988,-0.5235987755982988,1.260576,1.4373596,0.21824619,0.3696395,0.796346,0.5759745,-0.14255008,-0.44978225,1.3213787,-0.40335175,-0.5729134,0.1620515,1.0953517,-1.0013117
-0.2,-0.2,0.6,-0.34906585039886584,-0.5235987755982988,-0.5235987755982988,1.2535688,1.4237303,0.24325821,0.35784987,0.7838484,0.5789488,-0.2148523,-0.45442876,1.311232,-0.3910569,-0.57352686,0.14756612,1.0935886,-0.9091417
-0.2,-0.2,0.6,-0.34906585039886584,-0.5235987755982988,-0.5235987755982988,1.2556778,1.4333887,0.23626553,0.36741075,0.7862951,0.5740372,-0.16875008,-0.46680668,1.308347,-0.3995989,-0.5785022,0.16569747,1.0955882,-1.0249741
-0.2,-0.2,0.6,-0.34906585039886584,-0.5235987755982988,-0.5235987755982988,1.2154796,1.4243003,0.24624352,0.38019362,0.7911396,0.5699944,-0.20847858,-0.45271048,1.3237342,-0.38818353,-0.57954985,0.15494838,1.0994314,-1.085102
-0.2,-0.2,0.6,-0.34906585039886584,-0.5235987755982988,-0.5235987755982988,1.2550528,1.4138801,0.22475065,0.38069996,0.77973014,0.59192866,-0.17811443,-0.47118348,1.3051479,-0.4066445,-0.5770891,0.10738929,1.0977057,-0.94202
-0.2,-0.2,0.6,-0.34906585039886584,-0.5235987755982988,-0.5235987755982988,1.2350372,1.4310544,0.23327807,0.36682832,0.86554337,0.59481126,-0.21944731,-0.4512983,1.3278081,-0.39452899,-0.5751213,0.14845763,1.0996678,-0.99653095
-0.2,-0.2,0.6,-0.34906585039886584,-0.5235987755982988,-0.5235987755982988,1.2309237,1.4312013,0.22339933,0.3722325,0.75085086,0.59161973,-0.13799281,-0.48068786,1.3087764,-0.38691112,-0.5722622,0.16617477,1.1027846,-1.072605
-0.2,-0.2,0.6,-0.34906585039886584,-0.5235987755982988,-0.5235987755982988,1.254612,1.4453944,0.22588791,0.37764597,0.76271397,0.55918914,-0.17940201,-0.46634609,1.3186793,-0.39695135,-0.5686401,0.16307372,1.1002585,-0.9142248
-0.2,-0.2,0.6,-0.34906585039886584,-0.5235987755982988,-0.5235987755982988,1.2366887,1.4402894,0.2244391,0.36743528,0.73687166,0.57483315,-0.1260601,-0.45695665,1.3110328,-0.38773686,-0.56964684,0.14228345,1.101343,-0.95648354
-0.2,-0.2,0.6,-0.34906585039886584,-0.5235987755982988,-0.5235987755982988,1.2509233,1.4269263,0.21066369,0.37285206,0.75270075,0.5840072,-0.058854673,-0.47682258,1.3098246,-0.4054752,-0.5792266,0.13658129,1.1032665,-0.92880213
-0.2,-0.2,0.6,-0.34906585039886584,-0.5235987755982988,-0.5235987755982988,1.239881,1.445898,0.22448386,0.37139696,0.76281977,0.55980045,-0.09466789,-0.4613997,1.3182417,-0.3986442,-0.57784265,0.16080518,1.1054171,-0.97559536
-0.2,-0.2,0.6,-0.34906585039886584,-0.5235987755982988,-0.5235987755982988,1.2337053,1.4352119,0.22501048,0.3882264,0.64254045,0.57607687,-0.20119435,-0.46441752,1.3123312,-0.40374967,-0.55697817,0.1540844,1.0934465,-0.90939045
-0.2,-0.2,0.6,-0.34906585039886584,-0.5235987755982988,-0.5235987755982988,1.2185572,1.4458936,0.2336687,0.36939636,0.82323176,0.57083535,-0.17231135,-0.4572399,1.309068,-0.3992488,-0.5759804,0.14062968,1.0962188,-0.9729482
-0.2,-0.2,0.6,-0.34906585039886584,-0.5235987755982988,-0.5235987755982988,1.2365302,1.453903,0.22998059,0.37167248,0.8634902,0.57408154,-0.13157696,-0.48071086,1.3035699,-0.40353864,-0.56749547,0.15842089,1.0843174,-1.015798
-0.2,-0.2,0.6,-0.34906585039886584,-0.5235987755982988,-0.5235987755982988,1.2356784,1.4543123,0.22484514,0.3633068,0.80074316,0.5730101,-0.17299792,-0.45947173,1.3104534,-0.4016574,-0.5651623,0.17529671,1.0946602,-0.9110733
-0.2,-0.2,0.6,-0.34906585039886584,-0.5235987755982988,-0.5235987755982988,1.2487147,1.442052,0.2330129,0.36817017,0.7524672,0.58687514,-0.22001326,-0.4540757,1.3216248,-0.3891506,-0.5788156,0.1485702,1.0968957,-0.9523476
-0.2,-0.2,0.6,-0.34906585039886584,-0.5235987755982988,-0.5235987755982988,1.2432045,1.4393001,0.21137232,0.39630538,0.8201255,0.5727662,-0.19859228,-0.46109396,1.3363116,-0.4045679,-0.56210214,0.14248808,1.1060741,-1.0548717
-0.2,-0.2,0.6,-0.34906585039886584,-0.5235987755982988,-0.5235987755982988,1.2665703,1.4342498,0.23165482,0.37018588,0.73384637,0.55851436,-0.27003908,-0.47892788,1.2932651,-0.38654193,-0.5585518,0.17428575,1.1054022,-0.9546941
-0.2,-0.2,0.6,-0.34906585039886584,-0.5235987755982988,-0.5235987755982988,1.2544702,1.4178569,0.21894754,0.3661969,0.7276652,0.57898176,-0.18361054,-0.46155292,1.3161117,-0.39496005,-0.5671138,0.14538592,1.09052,-1.0122219
-0.2,-0.2,0.6,-0.34906585039886584,-0.5235987755982988,-0.5235987755982988,1.2260827,1.4385428,0.20957989,0.3967211,0.6819169,0.57233113,-0.1550483,-0.4584093,1.3163904,-0.42845175,-0.5690706,0.16714047,1.1028146,-0.9401517
-0.2,-0.2,0.6,-0.34906585039886584,-0.5235987755982988,-0.5235987755982988,1.220812,1.437597,0.22164951,0.397441,0.73873615,0.56385064,-0.19411243,-0.46543357,1.3196295,-0.40253076,-0.5572243,0.13249232,1.097026,-1.0447255
-0.2,-0.2,0.6,-0.34906585039886584,-0.5235987755982988,-0.5235987755982988,1.2618074,1.4307564,0.22183867,0.36846507,0.72838116,0.57971114,-0.21467346,-0.46009904,1.3216445,-0.3998382,-0.5705704,0.14121039,1.095576,-0.9660183
-0.2,-0.2,0.6,-0.34906585039886584,-0.5235987755982988,-0.5235987755982988,1.2893094,1.4447818,0.24845833,0.36605048,0.59999317,0.5723623,-0.14827666,-0.4752542,1.3227379,-0.40207815,-0.5717888,0.1519524,1.090128,-0.93152887
-0.2,-0.2,0.6,-0.34906585039886584,-0.5235987755982988,-0.5235987755982988,1.2344774,1.4302229,0.24534932,0.3672114,0.6052955,0.5673724,-0.16028084,-0.47091573,1.3066258,-0.399295,-0.57392037,0.15002526,1.1037219,-0.97635126
-0.2,-0.2,0.6,-0.34906585039886584,-0.5235987755982988,-0.5235987755982988,1.2376971,1.4165081,0.2218518,0.37962902,0.7213424,0.5727276,-0.19355795,-0.46386176,1.3135971,-0.42269,-0.5649485,0.15459938,1.1104138,-0.92641044
-0.2,-0.2,0.6,-0.34906585039886584,-0.5235987755982988,-0.5235987755982988,1.251186,1.4275168,0.24528068,0.3662821,0.7264812,0.5726587,-0.16986483,-0.46479475,1.3208034,-0.4126111,-0.5572975,0.15899606,1.1065683,-0.9758213
-0.2,-0.2,0.6,-0.34906585039886584,-0.5235987755982988,-0.5235987755982988,1.2606272,1.4358723,0.24009219,0.37228352,0.6775455,0.56587565,-0.12556922,-0.47695008,1.3263295,-0.42047712,-0.5673877,0.16303822,1.1115626,-0.9640376
-0.2,-0.2,0.6,-0.34906585039886584,-0.5235987755982988,-0.5235987755982988,1.260087,1.4316045,0.21460743,0.40446308,0.796639,0.565208,-0.19913611,-0.47113982,1.3194544,-0.3967643,-0.55778486,0.14062752,1.1029501,-1.1233586
-0.2,-0.2,0.6,-0.34906585039886584,-0.5235987755982988,-0.5235987755982988,1.2390265,1.4309747,0.23800848,0.38056925,0.6813965,0.57940096,-0.17622057,-0.46557865,1.3178613,-0.39312732,-0.5682097,0.12941898,1.0878352,-1.0662738
-0.2,-0.2,0.6,-0.34906585039886584,-0.5235987755982988,-0.5235987755982988,1.2376702,1.4437366,0.26089013,0.38104922,0.70368063,0.57464755,-0.13622664,-0.4607611,1.302399,-0.40685514,-0.5531897,0.15232903,1.1017873,-1.0426757
-0.2,-0.2,0.6,-0.34906585039886584,-0.5235987755982988,-0.5235987755982988,1.2397292,1.4335144,0.2471909,0.37476167,0.7246892,0.5800578,-0.2086201,-0.46605232,1.311991,-0.396879,-0.56762534,0.14904739,1.1032149,-1.029174
-0.2,-0.2,0.6,-0.34906585039886584,-0.5235987755982988,-0.5235987755982988,1.2406377,1.4443362,0.25055644,0.37228307,0.6750999,0.57986236,-0.15333252,-0.48142627,1.3253623,-0.39762917,-0.5663943,0.14859992,1.1089643,-0.9942891
-0.2,-0.2,0.6,-0.34906585039886584,-0.5235987755982988,-0.5235987755982988,1.2289107,1.4350415,0.25094977,0.37502158,0.66525865,0.58164614,-0.13644256,-0.47457412,1.312353,-0.39387593,-0.56309086,0.15064047,1.0958657,-1.0041928
-0.2,-0.2,0.6,-0.34906585039886584,-0.5235987755982988,-0.5235987755982988,1.2524524,1.4316518,0.22248675,0.3821035,0.7591596,0.5912145,-0.09631364,-0.47277647,1.312767,-0.4077118,-0.5610846,0.13331087,1.0984247,-0.9983618
-0.2,-0.2,0.6,-0.34906585039886584,-0.5235987755982988,-0.5235987755982988,1.2563711,1.4350455,0.22777611,0.37846997,0.72722644,0.5745129,-0.1438625,-0.46663868,1.3113273,-0.41412866,-0.5562269,0.14623825,1.1006935,-1.0283557
-0.2,-0.2,0.6,-0.34906585039886584,-0.5235987755982988,-0.5235987755982988,1.2408973,1.4325839,0.21083933,0.3868452,0.73107564,0.5820713,-0.13908686,-0.46118766,1.3178604,-0.41043612,-0.56456107,0.13929291,1.1012862,-0.9929374
-0.2,-0.2,0.6,-0.34906585039886584,-0.5235987755982988,-0.5235987755982988,1.1981461,1.4513757,0.2410692,0.3783439,0.7660175,0.570958,-0.22872093,-0.46118405,1.2982817,-0.38522515,-0.55608535,0.115625344,1.0949075,-1.0252439
-0.2,-0.2,0.6,-0.34906585039886584,-0.5235987755982988,-0.5235987755982988,1.2638503,1.4483614,0.2289311,0.38622698,0.76053464,0.5729565,-0.16543685,-0.4792707,1.3174644,-0.40259326,-0.57218343,0.12906817,1.1023253,-0.98470116
-0.2,-0.2,0.6,-0.34906585039886584,-0.5235987755982988,-0.5235987755982988,1.247884,1.4309253,0.23775838,0.37965408,0.7922247,0.5764543,-0.15055275,-0.47805288,1.3114717,-0.39843014,-0.55708015,0.12177838,1.0856866,-1.0414215
-0.2,-0.2,0.6,-0.34906585039886584,-0.5235987755982988,-0.5235987755982988,1.2280349,1.4444236,0.2155496,0.38082397,0.70578367,0.57098454,-0.08971165,-0.4470135,1.3289376,-0.40570915,-0.567703,0.1555199,1.1020585,-1.081357
-0.2,-0.2,0.6,-0.34906585039886584,-0.5235987755982988,-0.5235987755982988,1.2434802,1.4334698,0.23226471,0.39781582,0.80172336,0.5828968,-0.15443581,-0.46380594,1.3120081,-0.3993384,-0.5634624,0.14366935,1.1174988,-1.0074505
-0.2,-0.2,0.6,-0.34906585039886584,-0.5235987755982988,-0.5235987755982988,1.2731537,1.4339337,0.22521268,0.38086697,0.7100153,0.57971454,-0.10946394,-0.45786092,1.316027,-0.40180895,-0.5586634,0.13013867,1.0911295,-0.9655064
-0.2,-0.2,0.6,-0.34906585039886584,-0.5235987755982988,-0.5235987755982988,1.2772808,1.4268036,0.22863474,0.38719547,0.75984484,0.5693119,-0.2200532,-0.4745915,1.3156072,-0.40197363,-0.56853974,0.16607702,1.1066561,-0.99921966
-0.2,-0.2,0.6,-0.34906585039886584,-0.5235987755982988,-0.5235987755982988,1.2561423,1.4315007,0.2326126,0.37215808,0.71743315,0.5790569,-0.15211526,-0.4562127,1.3227295,-0.39979696,-0.56574327,0.123986065,1.0984639,-0.9702551
-0.2,-0.2,0.6,-0.34906585039886584,-0.5235987755982988,-0.5235987755982988,1.2634418,1.4354416,0.2208323,0.37744546,0.81999725,0.5828719,-0.11980268,-0.4790598,1.3176899,-0.40823194,-0.5730858,0.14040269,1.0947114,-1.0311918
-0.2,-0.2,0.6,-0.34906585039886584,-0.5235987755982988,-0.5235987755982988,1.2542472,1.4340953,0.23471412,0.37907812,0.805995,0.57997817,-0.15135416,-0.4507604,1.3209132,-0.40819305,-0.5637859,0.14789121,1.1029971,-0.9018768
-0.2,-0.2,0.6,-0.34906585039886584,-0.5235987755982988,-0.5235987755982988,1.2537297,1.426899,0.21594246,0.38649455,0.7477962,0.57331663,-0.18740368,-0.48062256,1.318145,-0.39309123,-0.56102616,0.12342251,1.0962168,-1.0552149
-0.2,-0.2,0.6,-0.34906585039886584,-0.5235987755982988,-0.5235987755982988,1.2807534,1.4542979,0.23431104,0.3715083,0.8230254,0.5677464,-0.16236539,-0.4738834,1.3092773,-0.39065197,-0.5720068,0.138723,1.1078696,-1.0241318
-0.2,-0.2,0.6,-0.34906585039886584,-0.5235987755982988,-0.5235987755982988,1.2616656,1.449637,0.22248808,0.37122643,0.6979838,0.5805973,-0.08775992,-0.44093838,1.3185004,-0.41051054,-0.56272435,0.15505919,1.1116154,-0.97933567
-0.2,-0.2,0.6,-0.34906585039886584,-0.5235987755982988,-0.5235987755982988,1.2850829,1.421124,0.20528731,0.37320438,0.7311062,0.5884329,-0.109737486,-0.45914274,1.319597,-0.3962914,-0.5827577,0.14748272,1.1089787,-0.9919715
-0.2,-0.2,0.6,-0.34906585039886584,-0.5235987755982988,-0.5235987755982988,1.2661649,1.4391955,0.23709987,0.36795062,0.78341144,0.57912236,-0.10965342,-0.4611738,1.313425,-0.39376315,-0.5680881,0.1527826,1.0894824,-1.0055519
-0.2,-0.2,0.6,-0.34906585039886584,-0.5235987755982988,-0.5235987755982988,1.2609336,1.4331264,0.2362575,0.37175593,0.83761644,0.56998634,-0.13683908,-0.454293,1.3094658,-0.3903483,-0.56960106,0.100280665,1.1103792,-0.9370235
-0.2,-0.2,0.6,-0.34906585039886584,-0.5235987755982988,-0.5235987755982988,1.2856845,1.4331747,0.21560672,0.37582698,0.8185527,0.5707668,-0.121668674,-0.47216082,1.3015966,-0.40241218,-0.57696617,0.15655354,1.1065111,-1.0303543
-0.2,-0.2,0.6,-0.34906585039886584,-0.5235987755982988,-0.5235987755982988,1.2476686,1.4433665,0.21138413,0.37358612,0.75374967,0.5952235,-0.12653439,-0.47362262,1.309284,-0.3913961,-0.56139314,0.1449115,1.0976452,-0.88526225
-0.2,-0.2,0.6,-0.34906585039886584,-0.5235987755982988,-0.5235987755982988,1.2358944,1.4399207,0.21286432,0.37515056,0.7040188,0.5812947,-0.097411655,-0.4644639,1.3148446,-0.41589898,-0.5710885,0.16071121,1.0946059,-0.9368381
-0.2,-0.2,0.6,-0.34906585039886584,-0.5235987755982988,-0.5235987755982988,1.2433901,1.4247872,0.21680483,0.38339904,0.8056385,0.5764727,-0.12931636,-0.46085104,1.3208944,-0.4066333,-0.57058555,0.14106557,1.0963283,-0.9841667
-0.2,-0.2,0.6,-0.34906585039886584,-0.5235987755982988,-0.5235987755982988,1.2276058,1.4412415,0.23758213,0.3743631,0.81135064,0.576866,-0.1773338,-0.45707223,1.324408,-0.40857062,-0.5598612,0.14429751,1.0861278,-1.0278622
-0.2,-0.2,0.6,-0.34906585039886584,-0.5235987755982988,-0.5235987755982988,1.2628145,1.4497836,0.2170108,0.36682424,0.7663758,0.5698223,-0.14934042,-0.46081263,1.3129371,-0.39332902,-0.5660564,0.16772039,1.0980483,-1.0321203
-0.2,-0.2,0.6,-0.34906585039886584,-0.5235987755982988,-0.5235987755982988,1.2385057,1.4347059,0.23049589,0.37408167,0.83743817,0.5871484,-0.17977937,-0.46019906,1.3112527,-0.40665162,-0.56791335,0.139439,1.1012249,-0.93890405
-0.2,-0.2,0.6,-0.34906585039886584,-0.5235987755982988,-0.5235987755982988,1.2376157,1.446909,0.22129995,0.38249302,0.8766219,0.57723486,-0.19052218,-0.46792576,1.3237699,-0.37493125,-0.56809336,0.1251614,1.0971338,-0.98568434
-0.2,-0.2,0.6,-0.34906585039886584,-0.5235987755982988,-0.5235987755982988,1.2467248,1.453557,0.21646988,0.37244993,0.7731314,0.58238244,-0.12355767,-0.47760913,1.2994862,-0.38952047,-0.575917,0.14947131,1.1053326,-1.0610623
-0.2,-0.2,0.6,-0.34906585039886584,-0.5235987755982988,-0.5235987755982988,1.249239,1.4455538,0.2509457,0.36457875,0.7705998,0.56658363,-0.12366213,-0.4686943,1.3098793,-0.39797634,-0.5666646,0.12385243,1.0891501,-0.9478484
-0.2,-0.2,0.6,-0.34906585039886584,-0.5235987755982988,-0.5235987755982988,1.2335991,1.4608241,0.21765064,0.37647325,0.7784961,0.5783561,-0.14678414,-0.4561114,1.31674,-0.40788442,-0.5689519,0.14749086,1.0903581,-1.0206448
-0.2,-0.2,0.6,-0.34906585039886584,-0.5235987755982988,-0.5235987755982988,1.2537338,1.4228928,0.21674024,0.38257504,0.82459474,0.5740114,-0.15153503,-0.46524027,1.320253,-0.40001136,-0.57188916,0.16413544,1.0990052,-1.0014185
-0.2,-0.2,0.6,-0.34906585039886584,-0.5235987755982988,-0.5235987755982988,1.1960827,1.4397893,0.23952486,0.3717865,0.77311444,0.57109624,-0.09631646,-0.46483466,1.3118079,-0.3974441,-0.56377065,0.17150629,1.1098682,-0.9883881
-0.2,-0.2,0.6,-0.34906585039886584,-0.5235987755982988,-0.5235987755982988,1.2365698,1.4278668,0.24400008,0.381546,0.82108086,0.57919943,-0.16427551,-0.46225935,1.3058383,-0.39596042,-0.5578342,0.16323653,1.1055119,-0.9915596
-0.2,-0.2,0.6,-0.34906585039886584,-0.5235987755982988,-0.5235987755982988,1.280695,1.4415731,0.20752577,0.37182638,0.7143881,0.5853384,-0.17240135,-0.4628686,1.3214123,-0.4093623,-0.5705994,0.15307428,1.0869079,-1.0279582
-0.2,-0.2,0.6,-0.34906585039886584,-0.5235987755982988,-0.5235987755982988,1.2609785,1.4416497,0.2154385,0.36371312,0.84292924,0.57257015,-0.13649209,-0.4632243,1.3161708,-0.39624104,-0.57655287,0.16535328,1.0933782,-0.9900962
-0.2,-0.2,0.6,-0.34906585039886584,-0.5235987755982988,-0.5235987755982988,1.2481351,1.4435984,0.23521529,0.36653107,0.83396566,0.58452535,-0.1788716,-0.45590162,1.3192098,-0.40088,-0.5675193,0.16548078,1.1002055,-1.010573
-0.2,-0.2,0.6,-0.34906585039886584,-0.5235987755982988,-0.5235987755982988,1.2392594,1.4290745,0.21855903,0.3766279,0.81740516,0.5693905,-0.11911019,-0.45857054,1.3135183,-0.39969808,-0.5646566,0.14831942,1.0951754,-0.9253381
-0.2,-0.2,0.6,-0.34906585039886584,-0.5235987755982988,-0.5235987755982988,1.2716806,1.4170392,0.20940174,0.38091245,0.87745196,0.580116,-0.17553295,-0.4728257,1.3184948,-0.3827193,-0.5665522,0.17172801,1.0967437,-1.040912
-0.2,-0.2,0.6,-0.34906585039886584,-0.5235987755982988,-0.5235987755982988,1.2616998,1.4410421,0.23759045,0.37964472,0.82807004,0.5694618,-0.19557847,-0.4712829,1.3202225,-0.39351577,-0.5677635,0.15117897,1.1082388,-0.9077016
-0.2,-0.2,0.6,-0.34906585039886584,-0.5235987755982988,-0.5235987755982988,1.2346869,1.437524,0.2000842,0.36881855,0.8049655,0.5802799,-0.025577266,-0.46003497,1.3174479,-0.40342158,-0.5721154,0.17675327,1.1061435,-0.92591184
-0.2,-0.2,0.6,-0.34906585039886584,-0.5235987755982988,-0.5235987755982988,1.2337328,1.438338,0.22406806,0.37633914,0.7930698,0.5804106,-0.20745817,-0.45874235,1.3171496,-0.41071558,-0.5674419,0.1638186,1.0968367,-0.9080005
-0.2,-0.2,0.6,-0.34906585039886584,-0.5235987755982988,-0.5235987755982988,1.2651314,1.4299108,0.23597032,0.3740041,0.7913882,0.5633814,-0.16149461,-0.45863217,1.3051994,-0.40852594,-0.56629324,0.17962664,1.1049331,-0.9955127
-0.2,-0.2,0.6,-0.34906585039886584,-0.5235987755982988,-0.5235987755982988,1.2561315,1.4414794,0.24611379,0.36424676,0.7659606,0.5762838,-0.18914627,-0.4544303,1.3188138,-0.41100025,-0.56582326,0.14136042,1.0982285,-0.9403697
-0.2,-0.2,0.6,-0.34906585039886584,-0.5235987755982988,-0.5235987755982988,1.2531077,1.4398639,0.21417977,0.36096922,0.6888812,0.5726622,-0.10945458,-0.45315596,1.3256465,-0.39588058,-0.5779128,0.14004754,1.101606,-0.95199466
-0.2,-0.2,0.6,-0.34906585039886584,-0.5235987755982988,-0.5235987755982988,1.2663314,1.4275118,0.23831545,0.35984382,0.69010437,0.57341385,-0.19202316,-0.47116485,1.3232079,-0.39295238,-0.57623273,0.13039508,1.0948408,-0.97325134
-0.2,-0.2,0.6,-0.34906585039886584,-0.5235987755982988,-0.5235987755982988,1.244013,1.4350384,0.22620331,0.37785062,0.73536307,0.56587726,-0.20814098,-0.46033517,1.327192,-0.4042635,-0.5649167,0.15269352,1.1065378,-0.94016844
-0.2,-0.2,0.6,-0.34906585039886584,-0.5235987755982988,-0.5235987755982988,1.2255733,1.4182175,0.23135805,0.4019441,0.75107634,0.5629159,-0.14598384,-0.46601465,1.3206241,-0.4010102,-0.5632422,0.1294251,1.1086116,-1.124774
-0.2,-0.2,0.6,-0.34906585039886584,-0.5235987755982988,-0.5235987755982988,1.2714958,1.4330604,0.21288449,0.39322272,0.7731744,0.5772444,-0.17724143,-0.49012768,1.3125044,-0.4172455,-0.5684534,0.120586894,1.1124952,-0.9783683
-0.2,-0.2,0.6,-0.34906585039886584,-0.5235987755982988,-0.5235987755982988,1.263731,1.4342924,0.21218294,0.3562872,0.78240454,0.56585056,-0.16962981,-0.4459384,1.3219334,-0.39522955,-0.5695369,0.08885589,1.1020591,-1.0102813
-0.2,-0.2,0.6,-0.34906585039886584,-0.5235987755982988,-0.5235987755982988,1.2262942,1.4341567,0.21651004,0.37865844,0.671226,0.5814064,-0.13781282,-0.45613602,1.3198286,-0.4100225,-0.56748796,0.13188145,1.098659,-1.0031346
-0.2,-0.2,0.6,-0.34906585039886584,-0.5235987755982988,-0.5235987755982988,1.2348248,1.4403989,0.21071213,0.37100407,0.70694906,0.57629734,-0.16520901,-0.46654877,1.3248495,-0.38978353,-0.5721049,0.1241317,1.0948112,-1.0483661
-0.2,-0.2,0.6,-0.34906585039886584,-0.5235987755982988,-0.5235987755982988,1.2572784,1.4253026,0.21602327,0.35979366,0.8256975,0.57193553,-0.16209628,-0.48262656,1.3146464,-0.3957318,-0.5697773,0.1451592,1.0936369,-1.0625777
-0.2,-0.2,0.6,-0.34906585039886584,-0.5235987755982988,-0.5235987755982988,1.2831404,1.4316767,0.21153636,0.3785852,0.66706264,0.56530464,-0.16411321,-0.4554606,1.3147842,-0.39385238,-0.56316614,0.11382568,1.0980887,-1.0241015
-0.2,-0.2,0.6,-0.34906585039886584,-0.5235987755982988,-0.5235987755982988,1.2369275,1.4288274,0.20847286,0.37117338,0.6421321,0.58327466,-0.17447329,-0.45217702,1.3243662,-0.40049794,-0.55955106,0.1553697,1.0915124,-0.9631881
-0.2,-0.2,0.6,-0.34906585039886584,-0.5235987755982988,-0.5235987755982988,1.2629808,1.4503406,0.2326277,0.38465253,0.72214186,0.57928884,-0.23506609,-0.46675387,1.3115177,-0.42841443,-0.5638333,0.13756566,1.1001678,-0.92392343
-0.2,-0.2,0.6,-0.34906585039886584,-0.5235987755982988,-0.5235987755982988,1.2408515,1.4399242,0.21010886,0.38164937,0.728858,0.5770075,-0.14924844,-0.4726991,1.317651,-0.39625776,-0.56965274,0.13893574,1.1046647,-0.99378425
-0.2,-0.2,0.6,-0.34906585039886584,-0.5235987755982988,-0.5235987755982988,1.2501131,1.4389551,0.2348708,0.38476107,0.7556778,0.5722302,-0.17980081,-0.45924067,1.3176527,-0.39862558,-0.5656216,0.16581216,1.0938146,-1.0802504
-0.2,-0.2,0.6,-0.34906585039886584,-0.5235987755982988,-0.5235987755982988,1.2509053,1.4420781,0.2528332,0.38082296,0.78570616,0.57651097,-0.17585881,-0.46463233,1.316747,-0.42028967,-0.560514,0.13617566,1.107988,-0.9682134
-0.2,-0.2,0.6,-0.34906585039886584,-0.5235987755982988,-0.5235987755982988,1.2713592,1.440277,0.2292156,0.37548622,0.7076728,0.5863037,-0.08231848,-0.4791983,1.309429,-0.4101454,-0.56793976,0.12138301,1.0956417,-1.0052226
-0.2,-0.2,0.6,-0.34906585039886584,-0.5235987755982988,-0.5235987755982988,1.263909,1.4301244,0.21151745,0.3719075,0.6478107,0.58544546,-0.07134382,-0.46231568,1.31625,-0.39547768,-0.5691788,0.16037019,1.0987636,-0.9610731
-0.2,-0.2,0.6,-0.34906585039886584,-0.5235987755982988,-0.5235987755982988,1.2782553,1.4332116,0.2107739,0.3894699,0.82573533,0.57732224,-0.105567195,-0.47163215,1.302758,-0.40205696,-0.56389517,0.13738431,1.1133033,-1.0391583
-0.2,-0.2,0.6,-0.34906585039886584,-0.5235987755982988,-0.5235987755982988,1.2213397,1.4279091,0.2173061,0.37468576,0.69892424,0.5787529,-0.15416963,-0.45452636,1.3088096,-0.38525602,-0.56760985,0.14172484,1.1101109,-0.95613414
-0.2,-0.2,0.6,-0.34906585039886584,-0.5235987755982988,-0.5235987755982988,1.2505505,1.429283,0.20190325,0.3826007,0.84850204,0.5739107,-0.15265128,-0.46080083,1.3297155,-0.39684403,-0.56799465,0.15390472,1.1007134,-1.0980035
-0.2,-0.2,0.6,-0.34906585039886584,-0.5235987755982988,-0.5235987755982988,1.2625716,1.4381111,0.24331793,0.3831364,0.81814355,0.5707824,-0.13756263,-0.48023242,1.2992072,-0.41146854,-0.56582916,0.120848805,1.1036689,-1.0361019
-0.2,-0.2,0.6,-0.34906585039886584,-0.5235987755982988,-0.5235987755982988,1.2712635,1.440745,0.2287083,0.38896275,0.80172044,0.57844496,-0.2257498,-0.46614257,1.3093448,-0.4240021,-0.5652991,0.1617716,1.1059835,-0.9190896
-0.2,-0.2,0.6,-0.34906585039886584,-0.5235987755982988,-0.5235987755982988,1.226771,1.4568744,0.24447984,0.36505654,0.73581105,0.58699656,-0.0938442,-0.4635491,1.3116786,-0.40458375,-0.5611414,0.13174362,1.1003838,-0.9643759
-0.2,-0.2,0.6,-0.34906585039886584,-0.5235987755982988,-0.5235987755982988,1.2625972,1.4341158,0.23144522,0.37102535,0.792108,0.57858366,-0.084740624,-0.45162973,1.3161482,-0.40526062,-0.5655313,0.12610562,1.0948545,-1.0185227
-0.2,-0.2,0.6,-0.34906585039886584,-0.5235987755982988,-0.5235987755982988,1.2719027,1.4377149,0.22357664,0.36865082,0.76763415,0.57637763,-0.14631763,-0.4665051,1.323676,-0.4096244,-0.5665888,0.14287265,1.0984184,-0.972744
-0.2,-0.2,0.6,-0.34906585039886584,-0.5235987755982988,-0.5235987755982988,1.2428329,1.4310954,0.23542295,0.36901566,0.8109,0.5906343,-0.12327198,-0.4597822,1.318218,-0.41075015,-0.5709501,0.15482092,1.1082515,-0.9758882
-0.2,-0.2,0.6,-0.34906585039886584,-0.5235987755982988,-0.5235987755982988,1.2011188,1.4388225,0.21544337,0.39047924,0.78339756,0.58147204,-0.2103697,-0.47326085,1.3112588,-0.41837785,-0.567424,0.149674,1.0868974,-1.0198158
-0.2,-0.2,0.6,-0.34906585039886584,-0.5235987755982988,-0.5235987755982988,1.2563177,1.4353255,0.22724573,0.3750231,0.7624073,0.5700065,-0.05601744,-0.4786162,1.3212956,-0.39635187,-0.5654777,0.1669697,1.1047752,-0.9215114
-0.2,-0.2,0.6,-0.34906585039886584,-0.5235987755982988,-0.5235987755982988,1.2836431,1.4347377,0.23911695,0.3702811,0.8522523,0.56994057,-0.1564744,-0.47723454,1.3133426,-0.41311234,-0.57006913,0.13464217,1.0908955,-0.8783236
-0.2,-0.2,0.6,-0.34906585039886584,-0.5235987755982988,-0.5235987755982988,1.2355406,1.4381425,0.23656712,0.37055105,0.74986476,0.5751976,-0.09088435,-0.4743177,1.310004,-0.3971414,-0.5686356,0.13600487,1.0977175,-1.0147799
-0.2,-0.2,0.6,-0.34906585039886584,-0.5235987755982988,-0.5235987755982988,1.2465159,1.4347817,0.22274916,0.377983,0.8670332,0.5909397,-0.1635878,-0.45942846,1.3180969,-0.39104068,-0.570262,0.16050199,1.1024703,-1.0869021
-0.2,-0.2,0.6,-0.34906585039886584,-0.5235987755982988,-0.5235987755982988,1.2200928,1.4413512,0.2447268,0.36651078,0.7381158,0.58076376,-0.0812525,-0.45974615,1.3255602,-0.41595864,-0.57369655,0.1668694,1.1076125,-0.97942144
-0.2,-0.2,0.6,-0.34906585039886584,-0.5235987755982988,-0.5235987755982988,1.2334999,1.4393696,0.22017637,0.3932974,0.8596063,0.5674805,-0.15884502,-0.46752575,1.3166227,-0.4151553,-0.5679271,0.12617075,1.0941261,-0.95622003
-0.2,-0.2,0.6,-0.34906585039886584,-0.5235987755982988,-0.5235987755982988,1.2673464,1.4224124,0.22070609,0.3698349,0.802441,0.5726288,-0.13538398,-0.4606672,1.3246439,-0.40162578,-0.575344,0.14887197,1.1001637,-1.0152398
-0.2,-0.2,0.6,-0.34906585039886584,-0.5235987755982988,-0.5235987755982988,1.2528028,1.4406246,0.23266491,0.3728351,0.8259979,0.5771971,-0.1486196,-0.44674063,1.3126576,-0.39865392,-0.5713606,0.1521732,1.1107256,-1.0439353
-0.2,-0.2,0.6,-0.34906585039886584,-0.5235987755982988,-0.5235987755982988,1.243737,1.4254154,0.22249323,0.3780451,0.78489274,0.56880057,-0.12490635,-0.4623871,1.309889,-0.40310773,-0.5697699,0.17179619,1.1064115,-1.0032682
-0.2,-0.2,0.6,-0.34906585039886584,-0.5235987755982988,-0.5235987755982988,1.2543602,1.4510328,0.20203605,0.36693373,0.7505221,0.5788621,-0.08048992,-0.47224307,1.3097423,-0.39801,-0.56588,0.14643519,1.0929133,-0.98167264
-0.2,-0.2,0.6,-0.34906585039886584,-0.5235987755982988,-0.5235987755982988,1.2526922,1.4334415,0.21482979,0.3706009,0.82847923,0.59132195,-0.13541442,-0.47389257,1.3096776,-0.40353978,-0.5746567,0.1312528,1.1016103,-0.8495141
-0.2,-0.2,0.6,-0.34906585039886584,-0.5235987755982988,-0.5235987755982988,1.2768929,1.4426239,0.20990698,0.37498078,0.8182184,0.5704735,-0.1341949,-0.4457609,1.3089585,-0.40719694,-0.5692084,0.15116438,1.1077844,-0.9455675
-0.2,-0.2,0.6,-0.34906585039886584,-0.5235987755982988,-0.5235987755982988,1.2753054,1.4408356,0.2220844,0.3741773,0.84102976,0.5847937,-0.15201114,-0.4646439,1.3227237,-0.38007507,-0.5751212,0.105966665,1.100457,-0.9439931
-0.2,-0.2,0.6,-0.34906585039886584,-0.5235987755982988,-0.5235987755982988,1.268477,1.4378369,0.21288514,0.36975795,0.7162331,0.570706,-0.06269114,-0.45996356,1.3197943,-0.3952755,-0.56434345,0.15067,1.0923364,-0.8936516
-0.2,-0.2,0.6,-0.34906585039886584,-0.5235987755982988,-0.5235987755982988,1.227947,1.4446667,0.22275716,0.36730257,0.8692309,0.5810897,-0.14490229,-0.46047816,1.320185,-0.39829004,-0.56395817,0.16906394,1.0825781,-0.997565
-0.2,-0.2,0.6,-0.34906585039886584,-0.5235987755982988,-0.5235987755982988,1.2363342,1.4415997,0.22481237,0.37194034,0.7995769,0.588145,-0.11906525,-0.46081236,1.3213459,-0.39497665,-0.5734244,0.11640233,1.1074071,-0.89184415
-0.2,-0.2,0.6,-0.34906585039886584,-0.5235987755982988,-0.5235987755982988,1.2702553,1.4260352,0.22320548,0.36913604,0.8909856,0.5737052,-0.1726543,-0.4661911,1.3060308,-0.3960345,-0.5687678,0.17361467,1.09806,-0.9682592
-0.2,-0.2,0.6,-0.34906585039886584,-0.5235987755982988,-0.5235987755982988,1.2192048,1.4360287,0.22299561,0.3690564,0.8504718,0.58247966,-0.15376715,-0.48852915,1.3212563,-0.39334047,-0.58079743,0.1729073,1.097416,-0.9581458
-0.2,-0.2,0.6,-0.34906585039886584,-0.5235987755982988,-0.5235987755982988,1.2333857,1.438469,0.221978,0.36590067,0.8637606,0.5834858,-0.16392761,-0.45548084,1.3128005,-0.3909134,-0.5713747,0.14902131,1.0998458,-0.9917959
-0.2,-0.2,0.6,-0.34906585039886584,-0.5235987755982988,-0.5235987755982988,1.2796606,1.4325676,0.2293142,0.3713626,0.8214039,0.5683568,-0.14218126,-0.4752498,1.2981563,-0.3880425,-0.55991805,0.15328082,1.0897762,-0.97364056
-0.2,-0.2,0.6,-0.34906585039886584,-0.5235987755982988,-0.5235987755982988,1.2885995,1.4427415,0.22320478,0.3648722,0.5725447,0.5773654,-0.16813369,-0.47629994,1.3106809,-0.40814763,-0.5581702,0.13615066,1.0965964,-1.0440048
