sanky1234/BimanualDexCatch/isaacgymenvs/cem_results/football_pose_-0.2_-0.2_1.1999999999999997_0.0_0.0_0_2025-05-24.csv
x,y,z,roll,pitch,yaw,robot1/joint1,robot1/joint2,robot1/joint3,robot1/joint4,robot1/joint5,robot1/joint6,robot1/joint7,robot2/joint1,robot2/joint2,robot2/joint3,robot2/joint4,robot2/joint5,robot2/joint6,robot2/joint7
-0.2,-0.2,1.1999999999999997,0.0,0.0,0,-0.26005706,1.2816923,0.08779032,-0.10138823,0.18040328,1.212206,0.094092384,-1.5006499,0.4779117,-0.8997975,0.24409635,0.5122635,0.34276265,0.017296601
-0.2,-0.2,1.1999999999999997,0.0,0.0,0,-0.4600029,1.4869398,-0.59094906,-0.14354935,-0.032090608,0.7444303,-0.083019935,-1.4981647,0.47585648,-0.89646757,0.24458265,0.51630944,0.3386735,0.026871763
-0.2,-0.2,1.1999999999999997,0.0,0.0,0,-0.54786307,1.1909804,0.058693662,-0.11735724,-0.5756818,0.7151539,1.0211072,-1.4972601,0.47757122,-0.898914,0.24330229,0.51395285,0.3425579,0.036787793
-0.2,-0.2,1.1999999999999997,0.0,0.0,0,-0.48402554,1.0045997,-0.1412013,0.02315736,0.10924421,0.9229218,2.6702747,-1.4998078,0.4785668,-0.9010766,0.24526466,0.51245475,0.33970737,0.03308618
-0.2,-0.2,1.1999999999999997,0.0,0.0,0,-0.48536098,0.98501676,-0.4161842,0.17387906,0.42305428,1.2982944,-0.51559824,-1.4995294,0.47987816,-0.89923996,0.24598357,0.5276478,0.34186396,0.01758506
-0.2,-0.2,1.1999999999999997,0.0,0.0,0,-0.38864946,1.4835321,0.31260172,0.040988285,-0.08967201,0.7467571,0.9672058,-1.4999262,0.47949624,-0.8981344,0.24588779,0.53217196,0.34022194,0.020072306
-0.2,-0.2,1.1999999999999997,0.0,0.0,0,-0.20327652,1.1431904,0.5990263,0.22180305,-0.18535216,0.924007,0.007720927,-1.4998226,0.47942212,-0.89845306,0.24320099,0.50463176,0.33775425,0.030301174
-0.2,-0.2,1.1999999999999997,0.0,0.0,0,0.123190016,1.251528,-0.33453017,-0.027845059,-0.14379512,0.9981911,1.089433,-1.4982673,0.4749166,-0.89901984,0.24676158,0.5177358,0.3389226,0.022399917
-0.2,-0.2,1.1999999999999997,0.0,0.0,0,-0.31295463,1.4764471,-0.5540553,-0.07034004,0.03486929,0.50889564,0.63678366,-1.5005419,0.4783572,-0.895991,0.243861,0.51980394,0.34046686,0.0117299585
-0.2,-0.2,1.1999999999999997,0.0,0.0,0,-0.0040759807,0.90723556,-0.45017466,0.061698895,-0.06994048,1.057877,1.5334767,-1.4999952,0.4788976,-0.8971426,0.24307337,0.5102713,0.3392993,0.022201747
-0.2,-0.2,1.1999999999999997,0.0,0.0,0,-0.55411446,1.3847411,0.32723886,-0.059995122,0.17500946,0.74677247,0.46818292,-1.498953,0.47842956,-0.90027535,0.24507068,0.5134383,0.33994043,0.010030341
-0.2,-0.2,1.1999999999999997,0.0,0.0,0,0.11232132,1.3691864,-0.2236921,-0.19266364,0.08735293,0.6753375,-0.5125663,-1.498981,0.47848934,-0.9004866,0.24512966,0.5248468,0.33849597,0.033572815
-0.2,-0.2,1.1999999999999997,0.0,0.0,0,-0.22952533,1.1468985,0.1229887,0.08247067,-0.79699606,0.9813105,0.7982371,-1.498305,0.4793757,-0.89788985,0.24509859,0.5349458,0.34055904,0.022548614
-0.2,-0.2,1.1999999999999997,0.0,0.0,0,-0.36025134,1.014094,-0.20806831,-0.04377546,-0.07283759,0.81492037,0.7333166,-1.4980887,0.47845277,-0.9,0.24557662,0.5358864,0.33746982,0.012845166
-0.2,-0.2,1.1999999999999997,0.0,0.0,0,-0.27362272,1.2039051,-1.0593102,0.15996458,0.14337611,0.49625576,0.13108109,-1.4998904,0.47885707,-0.89907247,0.24339649,0.5160468,0.33863467,0.006943136
-0.2,-0.2,1.1999999999999997,0.0,0.0,0,-0.78633034,1.2589294,1.1804137,0.023805052,-0.058640033,0.8142422,1.0958811,-1.4995472,0.48122415,-0.8993072,0.24357158,0.49913007,0.33755568,0.030960929
-0.2,-0.2,1.1999999999999997,0.0,0.0,0,-0.41615534,1.3240601,0.4798098,0.0709966,-0.044609472,0.6827278,2.0199065,-1.4984572,0.48121876,-0.90061927,0.2460945,0.52957577,0.33917195,0.015368673
-0.2,-0.2,1.1999999999999997,0.0,0.0,0,-1.1856763,1.2599994,-0.6274835,-0.083250806,0.04843104,0.4797821,1.7022011,-1.4998783,0.4797315,-0.8980978,0.24393877,0.5210052,0.33944213,0.017985301
-0.2,-0.2,1.1999999999999997,0.0,0.0,0,-0.26733857,1.342759,-0.48563468,0.16730712,0.24276033,0.64795494,1.0229099,-1.500797,0.47809112,-0.9024838,0.24486163,0.5133756,0.34122294,0.02289429
-0.2,-0.2,1.1999999999999997,0.0,0.0,0,-0.51808894,1.0571713,-0.50461346,-0.049211767,0.21461432,0.939884,-0.2579053,-1.4993976,0.47753587,-0.8981079,0.24461292,0.53650576,0.34446025,0.035548173
-0.2,-0.2,1.1999999999999997,0.0,0.0,0,0.07467031,1.5598878,-0.7827999,0.14067546,-0.47794586,1.2286676,0.100074634,-1.5011591,0.4793568,-0.8989981,0.24561387,0.53870046,0.3404221,0.026742266
-0.2,-0.2,1.1999999999999997,0.0,0.0,0,-0.63790464,1.0175775,-0.081573285,0.007654027,-0.09423507,0.85156345,0.4991994,-1.4986314,0.4788744,-0.89878744,0.24527942,0.5105453,0.3382642,0.037467446
-0.2,-0.2,1.1999999999999997,0.0,0.0,0,-0.6120289,1.1729112,-0.08250112,-0.08732369,-0.010314826,0.8164368,0.0060546943,-1.4972379,0.47841918,-0.8997062,0.24738517,0.5222453,0.33973548,-0.0017475303
-0.2,-0.2,1.1999999999999997,0.0,0.0,0,-0.27302963,1.0761607,0.4693167,-0.18193536,-0.09495318,0.5800366,-0.7956367,-1.4986709,0.47790742,-0.8991953,0.2441586,0.5094659,0.3406198,0.043709308
-0.2,-0.2,1.1999999999999997,0.0,0.0,0,-0.7767669,1.1779034,-0.37859845,0.00035707108,0.041803483,0.83797574,-0.26393926,-1.4989761,0.48137352,-0.8979361,0.24407205,0.5135579,0.34231386,0.0022147046
-0.2,-0.2,1.1999999999999997,0.0,0.0,0,-0.8792676,1.3197172,-0.6074373,-0.1900433,0.46015087,0.46572587,0.50213635,-1.4974542,0.4770432,-0.8978954,0.2446934,0.5199805,0.33703804,0.034721304
-0.2,-0.2,1.1999999999999997,0.0,0.0,0,-0.7880756,1.3747865,-0.13359058,0.051769175,0.19065325,0.97810584,0.6119116,-1.4984355,0.4788835,-0.89887947,0.24524525,0.5091616,0.3391486,0.02648375
-0.2,-0.2,1.1999999999999997,0.0,0.0,0,0.033595484,0.9510136,-0.6234818,-0.3495039,-0.078695945,1.0279188,1.1176783,-1.497179,0.4804394,-0.8995816,0.24446851,0.5206518,0.33755216,0.014726841
-0.2,-0.2,1.1999999999999997,0.0,0.0,0,0.3911221,1.1402688,-0.7051791,-0.2004667,0.029101286,1.1489787,0.79577905,-1.4988965,0.48236603,-0.8972302,0.24423163,0.53220457,0.33870128,0.060132153
-0.2,-0.2,1.1999999999999997,0.0,0.0,0,-0.1182894,1.2086682,-0.34558526,-0.2810622,0.041766133,0.7922749,-0.17856759,-1.4982526,0.48176903,-0.90028125,0.24335219,0.5170936,0.34338766,0.024655733
-0.2,-0.2,1.1999999999999997,0.0,0.0,0,0.14270802,1.344976,-0.6163894,-0.039503183,-0.039478306,1.1718242,0.28110784,-1.5002183,0.47834092,-0.8969509,0.24414982,0.5086402,0.34154093,0.026831208
-0.2,-0.2,1.1999999999999997,0.0,0.0,0,-0.6315558,1.1237366,-0.32801238,-0.08635285,-0.4540761,0.8455023,-0.4218902,-1.4966011,0.48115602,-0.8979116,0.24532889,0.5309774,0.33517072,0.030402878
-0.2,-0.2,1.1999999999999997,0.0,0.0,0,-0.060003698,1.3299481,-0.663941,-0.0041214246,-0.42395565,0.63888973,1.2628529,-1.4994036,0.4819181,-0.8989267,0.24447352,0.50180006,0.34091464,0.031714626
-0.2,-0.2,1.1999999999999997,0.0,0.0,0,-0.44025874,1.4056257,-1.3769789,-0.10034179,-0.019942136,0.82814837,1.0527656,-1.4994817,0.48333424,-0.899051,0.24395171,0.51999056,0.3404236,-0.0015909143
-0.2,-0.2,1.1999999999999997,0.0,0.0,0,-0.14505856,1.3336239,-0.37684402,-0.041841753,-0.14240327,1.1078064,0.7581504,-1.4987503,0.4806377,-0.8985534,0.24826343,0.5171894,0.33634266,-0.0045603164
-0.2,-0.2,1.1999999999999997,0.0,0.0,0,-0.2675758,1.3899548,-0.612857,-0.20030062,-0.29593,0.73519164,-0.2970041,-1.498847,0.48075095,-0.89912444,0.24558699,0.5159821,0.33885777,0.023703082
-0.2,-0.2,1.1999999999999997,0.0,0.0,0,0.006072923,1.2806535,-0.6352171,0.09471852,0.0564051,0.78539044,-0.14651138,-1.4985948,0.47671705,-0.8983429,0.24652651,0.5328511,0.342004,0.009456281
-0.2,-0.2,1.1999999999999997,0.0,0.0,0,-0.102339156,1.1465913,0.43879277,-0.12246336,0.42815,0.71381867,1.1470606,-1.4992001,0.4788993,-0.8976542,0.24388905,0.50946337,0.3409548,0.035647225
-0.2,-0.2,1.1999999999999997,0.0,0.0,0,-0.8304557,1.1944432,-1.4505535,-0.1270225,0.1452046,0.7034958,-0.27822602,-1.4982612,0.4778185,-0.8994594,0.24386604,0.5065422,0.3381686,0.031400673
-0.2,-0.2,1.1999999999999997,0.0,0.0,0,0.18566886,1.0241023,-0.8322146,-0.37140787,-0.087225735,1.2267075,0.7028993,-1.4994739,0.47898117,-0.89804333,0.24449699,0.51605684,0.33855972,0.031033795
-0.2,-0.2,1.1999999999999997,0.0,0.0,0,-0.097686075,0.9238648,-0.68777764,-0.13763754,-0.06600994,1.1397191,-0.42900223,-1.4991671,0.47878954,-0.8968507,0.24522817,0.525764,0.33997843,0.025541125
-0.2,-0.2,1.1999999999999997,0.0,0.0,0,0.2584882,1.1132066,-0.6138992,-0.061699808,0.16003552,0.73335063,-0.11928096,-1.4971915,0.47541422,-0.90059066,0.2443933,0.52601707,0.3416995,-0.026698034
-0.2,-0.2,1.1999999999999997,0.0,0.0,0,-0.32405916,1.2517095,0.2651637,0.08064735,-0.040973138,0.6039008,1.9395304,-1.499921,0.47991207,-0.89740515,0.24611923,0.5075935,0.34164017,0.03166453
-0.2,-0.2,1.1999999999999997,0.0,0.0,0,-0.15399496,1.4603078,-0.42016876,-0.1947167,0.05535534,0.67825705,-0.5154756,-1.4974699,0.4793051,-0.9009947,0.2445967,0.5098146,0.3396838,0.011875739
-0.2,-0.2,1.1999999999999997,0.0,0.0,0,0.12801984,1.3443022,-0.736059,-0.24557853,-0.0011211084,0.86694705,1.0571551,-1.4984287,0.47931588,-0.8994412,0.24603784,0.5074692,0.3386687,0.04401018
-0.2,-0.2,1.1999999999999997,0.0,0.0,0,-0.23204452,1.1636046,-1.288545,-0.039353307,0.03689849,0.7779658,0.24685906,-1.4992129,0.47746348,-0.8965006,0.2460364,0.52874,0.3391741,0.011505048
-0.2,-0.2,1.1999999999999997,0.0,0.0,0,-0.21159336,1.1573582,-0.1122672,0.23609483,0.035115764,1.1161968,1.4527769,-1.498193,0.48094064,-0.9002228,0.2448034,0.50586957,0.3408675,0.038481947
-0.2,-0.2,1.1999999999999997,0.0,0.0,0,-0.5497253,1.2068621,-0.30514488,-0.03194095,0.30567122,0.41203147,2.3502572,-1.4984742,0.4784675,-0.89902216,0.24249823,0.5260032,0.34341204,0.042961895
-0.2,-0.2,1.1999999999999997,0.0,0.0,0,-0.69518816,1.2502117,-1.3314743,0.0520545,-0.17432503,0.3959029,0.6060001,-1.4991237,0.4808261,-0.90038586,0.2457749,0.5146337,0.3401008,0.015090663
-0.2,-0.2,1.1999999999999997,0.0,0.0,0,0.0932591,1.6434982,-0.32344764,-0.03526802,0.38799754,0.82866323,1.3479905,-1.4955908,0.47988135,-0.89654166,0.24423985,0.51828575,0.33707094,0.023319496
-0.2,-0.2,1.1999999999999997,0.0,0.0,0,-1.1857626,1.364626,-0.442578,-0.14189072,-0.18252555,0.9563058,-0.027008131,-1.5003767,0.48005983,-0.8990242,0.24195349,0.5106811,0.33825156,0.044586122
-0.2,-0.2,1.1999999999999997,0.0,0.0,0,0.24194707,1.0823921,-0.6071498,-0.12806891,-0.35922343,0.93154806,1.4639361,-1.4987292,0.4792097,-0.8996912,0.24462551,0.51333624,0.339411,0.0049036616
-0.2,-0.2,1.1999999999999997,0.0,0.0,0,-0.41941556,0.9843492,-0.0073147407,0.083129205,-0.055661485,0.41895938,1.0633972,-1.4993937,0.47754073,-0.8983831,0.24514402,0.517868,0.33922654,0.016856985
-0.2,-0.2,1.1999999999999997,0.0,0.0,0,-0.10359983,1.2939115,-0.746144,-0.021733642,0.00939405,1.2600495,-0.6580481,-1.4967111,0.4782269,-0.8973002,0.24540012,0.52442336,0.33898604,0.031521004
-0.2,-0.2,1.1999999999999997,0.0,0.0,0,0.09837683,1.4056695,0.14989635,0.015553492,-0.40353093,1.1628641,1.7422656,-1.5006342,0.4796928,-0.89920807,0.24278729,0.5053391,0.3390196,0.022074254
-0.2,-0.2,1.1999999999999997,0.0,0.0,0,-0.49673113,1.1442385,0.14169398,0.061490882,0.022360634,1.3889782,1.146596,-1.4977704,0.48128313,-0.9017141,0.2446012,0.5273606,0.34037903,0.009188103
-0.2,-0.2,1.1999999999999997,0.0,0.0,0,-0.54651606,1.2286462,-0.308029,0.15240522,0.15818766,0.4365788,1.5173557,-1.4979565,0.47797003,-0.8984851,0.2445782,0.5115298,0.33969554,0.03465152
-0.2,-0.2,1.1999999999999997,0.0,0.0,0,-0.5864274,1.2748028,-0.21590196,0.04281619,-0.6996671,1.0041057,-0.6909683,-1.5005162,0.47872555,-0.9006135,0.24447747,0.49665,0.33872885,0.06500594
-0.2,-0.2,1.1999999999999997,0.0,0.0,0,0.40097365,1.0579706,0.34756368,-0.041837744,0.058307182,1.05985,0.6554966,-1.5016614,0.47879145,-0.8977942,0.24415994,0.5027619,0.33581126,0.012823115
-0.2,-0.2,1.1999999999999997,0.0,0.0,0,-0.43876925,1.4153249,0.3056703,0.14081876,0.173363,0.6515636,1.1997534,-1.497746,0.47510615,-0.8975055,0.24705657,0.534277,0.34095025,0.026381712
-0.2,-0.2,1.1999999999999997,0.0,0.0,0,0.23517033,1.6784137,0.10269036,-0.039516818,-0.35151064,0.5906084,1.1813796,-1.4989861,0.47695798,-0.8985527,0.24380775,0.52026725,0.34143072,0.023937728
-0.2,-0.2,1.1999999999999997,0.0,0.0,0,-0.2722372,1.4344549,-0.5110872,-0.09107983,0.17904615,1.0003119,1.1164896,-1.49812,0.47774526,-0.89639324,0.24427703,0.5191,0.34294307,0.058154177
-0.2,-0.2,1.1999999999999997,0.0,0.0,0,-0.8081595,1.372706,-0.19606562,-0.06896441,-0.4894007,1.133613,0.76154125,-1.4992296,0.4786802,-0.89774096,0.24522454,0.506321,0.3411286,0.013751502
-0.2,-0.2,1.1999999999999997,0.0,0.0,0,-0.5217316,1.1309222,0.23732331,-0.11218326,0.029087324,0.69958127,0.48066804,-1.4976985,0.4770741,-0.8977436,0.24503514,0.5143995,0.34260818,0.040106617
-0.2,-0.2,1.1999999999999997,0.0,0.0,0,-0.43671468,1.232082,0.02488639,0.11719823,0.099115714,1.1459013,0.56151086,-1.4982945,0.47841224,-0.8979768,0.24612114,0.5216931,0.3388626,-0.00022566866
-0.2,-0.2,1.1999999999999997,0.0,0.0,0,-0.6595858,1.4101424,0.34552523,-0.17366159,0.06041382,1.4225152,0.7621614,-1.4976419,0.4777049,-0.89775634,0.2427408,0.51309466,0.3423286,0.02367068
-0.2,-0.2,1.1999999999999997,0.0,0.0,0,0.30675626,1.2439153,0.14692669,-0.084689885,-0.53467584,0.85547185,0.95704126,-1.4982847,0.4802378,-0.89832586,0.24352805,0.50677234,0.3421586,0.024174005
-0.2,-0.2,1.1999999999999997,0.0,0.0,0,-0.24584025,1.1416426,0.089004435,0.06477907,0.004312605,1.2443198,1.6525625,-1.4987835,0.47872984,-0.89873785,0.24486403,0.5049322,0.3409723,0.023205383
-0.2,-0.2,1.1999999999999997,0.0,0.0,0,-0.13554391,1.2112843,-0.74185854,0.008799438,-0.090091534,1.0489638,0.34736335,-1.4991072,0.477131,-0.8973846,0.24595375,0.52596235,0.34184137,0.008442918
-0.2,-0.2,1.1999999999999997,0.0,0.0,0,-0.12735528,1.4710947,-0.9931225,0.06876039,-0.14620207,0.6365755,1.8672655,-1.4987789,0.48006046,-0.8972743,0.24474797,0.52091044,0.34070536,0.02561423
-0.2,-0.2,1.1999999999999997,0.0,0.0,0,-1.0084226,1.3033575,0.19096649,-0.03855846,0.56565076,0.73632306,0.9724463,-1.5005019,0.48078963,-0.898077,0.24467146,0.5054902,0.34197402,-0.0022050352
-0.2,-0.2,1.1999999999999997,0.0,0.0,0,-0.34805068,1.2112418,0.30774504,-0.19686036,0.031195996,0.7741992,1.450639,-1.4996182,0.47934526,-0.9010579,0.2440744,0.5126632,0.345792,0.011574523
-0.2,-0.2,1.1999999999999997,0.0,0.0,0,0.4299803,1.4305423,-1.0197793,-0.28393206,0.57107496,0.7506507,-1.1243253,-1.4982334,0.48050132,-0.90039593,0.24498636,0.5106733,0.3386324,0.021649348
-0.2,-0.2,1.1999999999999997,0.0,0.0,0,-0.6327209,1.1536869,-0.012716776,-0.009744028,0.061093375,1.2641714,1.6002432,-1.4995848,0.47991484,-0.9000826,0.2422481,0.5158181,0.34101477,0.034111403
-0.2,-0.2,1.1999999999999997,0.0,0.0,0,0.016239533,1.044172,0.6583996,-0.07607715,0.089740075,0.7419214,0.93314576,-1.4984256,0.47874606,-0.89583576,0.24310273,0.5244689,0.33885494,0.036436494
-0.2,-0.2,1.1999999999999997,0.0,0.0,0,-0.4317397,1.3349113,-1.3050083,-0.03412862,-0.059594754,0.9646156,1.0371509,-1.4983225,0.4787135,-0.9006888,0.24380355,0.50634617,0.339784,0.046334453
-0.2,-0.2,1.1999999999999997,0.0,0.0,0,-0.1728272,1.067431,0.72439224,0.105275854,0.084662884,0.8089028,-0.8615269,-1.4990923,0.48144907,-0.89645183,0.24528857,0.51894313,0.33920467,0.013838917
-0.2,-0.2,1.1999999999999997,0.0,0.0,0,-0.32699803,1.1141818,-0.61274064,0.10085697,-0.25290337,1.3260603,-0.43277347,-1.4990522,0.47913092,-0.89810014,0.24343,0.49930727,0.33963716,0.046852607
-0.2,-0.2,1.1999999999999997,0.0,0.0,0,-0.46810326,1.2852324,-0.75672174,-0.105570205,0.25603393,1.1092045,0.8111795,-1.4995451,0.47804472,-0.89664537,0.24521855,0.5268109,0.34100428,0.040720455
-0.2,-0.2,1.1999999999999997,0.0,0.0,0,-0.13118969,1.2392004,-1.7842621,-0.033304792,0.35331187,0.7146109,1.4867593,-1.4977281,0.47841087,-0.89785933,0.24414752,0.53233075,0.33699256,0.05206769
-0.2,-0.2,1.1999999999999997,0.0,0.0,0,-0.27514708,1.1767592,-1.3602101,-0.0409541,-0.3436128,0.4543445,0.08331745,-1.4996561,0.48063675,-0.8971508,0.24262029,0.529603,0.34271362,0.019429568
-0.2,-0.2,1.1999999999999997,0.0,0.0,0,-0.81031084,1.4803624,-0.83824563,0.0082087,0.25460753,0.8191679,0.32848436,-1.498214,0.48017013,-0.8978897,0.24566677,0.5171498,0.34063157,0.020890756
-0.2,-0.2,1.1999999999999997,0.0,0.0,0,0.24263872,1.3457181,-0.28915972,0.0074735275,-0.27442488,1.0260543,-0.16927247,-1.4975805,0.4787866,-0.89869314,0.24433933,0.5309463,0.33759865,0.0064880233
-0.2,-0.2,1.1999999999999997,0.0,0.0,0,-0.83192533,1.4110172,-1.4428091,0.13017952,-0.104474284,0.995131,0.08148039,-1.4985172,0.47890276,-0.8986122,0.24394459,0.5292042,0.3387185,0.03497724
-0.2,-0.2,1.1999999999999997,0.0,0.0,0,-0.4424907,1.151379,-0.56630576,0.1357726,-0.17204434,1.5359834,0.025272055,-1.4983698,0.47917193,-0.8976096,0.2460746,0.52285093,0.3424723,0.024822438
-0.2,-0.2,1.1999999999999997,0.0,0.0,0,0.25032923,1.3014733,-0.39819837,-0.14641058,-0.20834172,1.0877568,-0.05325931,-1.4995236,0.47903553,-0.8982358,0.2473187,0.53088355,0.33807883,0.037062388
-0.2,-0.2,1.1999999999999997,0.0,0.0,0,-0.6903059,1.1193976,-0.006856351,-0.23099038,-0.17951527,0.8817476,1.171342,-1.4975818,0.47840253,-0.89876056,0.24315438,0.5109585,0.3386268,0.048271094
-0.2,-0.2,1.1999999999999997,0.0,0.0,0,-0.627224,1.3097855,-0.5783558,-0.05828039,-0.3604608,0.60567397,1.3285189,-1.4979376,0.47928104,-0.89569914,0.24426651,0.5152611,0.3406661,-0.0070994287
-0.2,-0.2,1.1999999999999997,0.0,0.0,0,-0.48216483,1.4233342,0.015311202,-0.05515185,0.15263896,1.0919026,-0.04324926,-1.5010726,0.47873798,-0.90087014,0.24531539,0.5269654,0.33604184,0.037244167
-0.2,-0.2,1.1999999999999997,0.0,0.0,0,-0.49274346,1.2577829,-0.7870568,-0.13112062,0.22292954,0.92320323,0.34598273,-1.4990777,0.478309,-0.89881307,0.24238466,0.5215238,0.33328283,-0.019631252
-0.2,-0.2,1.1999999999999997,0.0,0.0,0,-0.34156483,1.1529343,-0.24763061,-0.09072876,0.11362285,0.7476517,-0.6276897,-1.4992882,0.4814911,-0.9002698,0.24422394,0.49361184,0.33669284,0.008662708
-0.2,-0.2,1.1999999999999997,0.0,0.0,0,-0.33921847,1.0720377,-0.051252417,-0.005498708,-0.32255495,0.9763009,0.94928676,-1.5003138,0.47846884,-0.89979225,0.24530317,0.51752377,0.34314638,0.014787374
-0.2,-0.2,1.1999999999999997,0.0,0.0,0,-0.15376893,0.9977307,-0.49018627,-0.0048973714,0.44054872,0.75207156,0.8917481,-1.4970844,0.48222423,-0.89592874,0.24495661,0.50948465,0.33996832,0.011042824
-0.2,-0.2,1.1999999999999997,0.0,0.0,0,-0.49603248,0.99298227,-1.2628317,-0.12099808,0.10736703,0.87098604,0.33055478,-1.4986248,0.48025912,-0.89783216,0.24512084,0.51148856,0.33653185,0.015385894
-0.2,-0.2,1.1999999999999997,0.0,0.0,0,0.08477299,1.204045,0.09052721,0.065165006,-0.24010216,0.64021397,-0.17464697,-1.4980783,0.4778087,-0.8971194,0.24490047,0.5285378,0.34018886,0.029260995
-0.2,-0.2,1.1999999999999997,0.0,0.0,0,-0.40761283,1.4434867,-0.97576255,0.123484306,0.53459907,0.8117803,0.58076185,-1.4954206,0.4787523,-0.9006781,0.24465886,0.5019233,0.3396358,0.016282279
-0.2,-0.2,1.1999999999999997,0.0,0.0,0,0.18870746,1.116715,-0.3260077,-0.12802859,-0.23195331,0.83772326,0.8989266,-1.4992669,0.47959712,-0.8968175,0.24395096,0.50479877,0.33955625,0.0025019322
-0.2,-0.2,1.1999999999999997,0.0,0.0,0,-0.020386973,1.3808055,-0.65614855,-0.030354334,-0.4464048,1.3225946,1.3635416,-1.5002075,0.47649008,-0.8988864,0.2439771,0.50461733,0.33953527,0.0361632
-0.2,-0.2,1.1999999999999997,0.0,0.0,0,-0.6915278,1.1502635,0.22351488,-0.05161343,-0.32454753,1.12462,1.3792247,-1.500275,0.47830695,-0.900035,0.24476315,0.504732,0.3388611,0.04760863
-0.2,-0.2,1.1999999999999997,0.0,0.0,0,-1.0871757,1.336369,0.442814,-0.09676842,-0.5789121,0.9469783,1.198425,-1.4974164,0.48075598,-0.89909196,0.24566306,0.5288519,0.34353942,0.016638359
-0.2,-0.2,1.1999999999999997,0.0,0.0,0,0.24946524,1.2883706,-0.45309502,0.1270805,0.011787579,1.3547996,1.1964117,-1.4966185,0.47998634,-0.8986902,0.2463474,0.5188722,0.33734632,0.054449987
-0.2,-0.2,1.1999999999999997,0.0,0.0,0,-0.16820762,1.3562467,-0.059158042,-0.10549013,-0.046080325,1.0972556,0.32490116,-1.4979934,0.4793805,-0.8989328,0.24286206,0.52259684,0.34153506,0.02026866
-0.2,-0.2,1.1999999999999997,0.0,0.0,0,-0.9308654,1.3545673,0.05797367,-0.038456623,-0.020282485,0.9355026,0.39786428,-1.4971508,0.47980693,-0.9006654,0.24495532,0.52104485,0.33682027,0.009422907
-0.2,-0.2,1.1999999999999997,0.0,0.0,0,-0.81975186,1.3486264,-0.09849566,-0.12167099,-0.26343846,0.79977137,0.29906037,-1.4982557,0.47701547,-0.8994551,0.2430148,0.52378494,0.34081474,0.020733217
-0.2,-0.2,1.1999999999999997,0.0,0.0,0,-0.12949187,1.2713639,0.0049821236,-0.03739158,-0.2557358,1.009546,2.2038257,-1.4957219,0.4783822,-0.8958747,0.24492344,0.51538986,0.34168074,-0.006133436
-0.2,-0.2,1.1999999999999997,0.0,0.0,0,0.29134429,1.2807368,-0.068261266,-0.14567345,0.1257966,1.1192045,1.0342582,-1.4991192,0.47818983,-0.9002403,0.24530154,0.5268652,0.34064957,0.007497013
-0.2,-0.2,1.1999999999999997,0.0,0.0,0,0.11248797,1.1374878,0.38673353,0.009600002,0.1982086,0.9210151,-0.24122228,-1.4961365,0.479975,-0.8987493,0.24325676,0.5211873,0.34323496,0.019915406
-0.2,-0.2,1.1999999999999997,0.0,0.0,0,0.05846977,1.3292778,-0.7251559,-0.014147834,0.19744332,0.75380516,-0.09358558,-1.4984617,0.4803096,-0.89668876,0.24315976,0.51720524,0.33700886,0.07205792
-0.2,-0.2,1.1999999999999997,0.0,0.0,0,-0.7438452,1.2817942,-0.8333694,0.039128717,0.19198555,0.65748197,-0.638018,-1.4975363,0.4793591,-0.8982713,0.24154411,0.5235066,0.33928928,0.04538292
-0.2,-0.2,1.1999999999999997,0.0,0.0,0,0.006927167,1.3209292,-0.52244055,-0.21385364,0.09532171,1.1562165,0.42138618,-1.499256,0.47798872,-0.8956439,0.24360639,0.5251855,0.3412161,-0.01222166
-0.2,-0.2,1.1999999999999997,0.0,0.0,0,-0.6572236,1.3140352,-1.0701134,-0.31668505,-0.2535385,1.1200589,0.70425147,-1.4963881,0.4797765,-0.90101904,0.24334024,0.51150036,0.3388231,0.0014818881
-0.2,-0.2,1.1999999999999997,0.0,0.0,0,0.36563346,1.4344693,-0.14965272,-0.25090176,-0.2846843,0.72912806,0.91179574,-1.4982593,0.47664806,-0.89856654,0.2451516,0.5221935,0.34174475,0.02781939
-0.2,-0.2,1.1999999999999997,0.0,0.0,0,-0.8969559,1.1186976,-0.40358004,-0.041218452,0.217649,1.4618039,2.0505736,-1.5006896,0.47749463,-0.89735943,0.24402328,0.51627094,0.34049428,0.029115675
-0.2,-0.2,1.1999999999999997,0.0,0.0,0,-0.76806027,1.1394935,-0.20629694,-0.048954353,-0.27494937,0.9151228,0.39569634,-1.4983646,0.47788265,-0.89729434,0.24473906,0.527764,0.33626357,0.048288066
-0.2,-0.2,1.1999999999999997,0.0,0.0,0,-0.3453423,1.2244308,-0.5476079,0.06585119,-0.061029743,1.2468649,0.53966904,-1.4963821,0.47875565,-0.90001637,0.24536805,0.5256804,0.33559987,0.038883798
-0.2,-0.2,1.1999999999999997,0.0,0.0,0,-0.75327146,1.4651266,0.36605823,-0.1009227,-0.19270329,0.8245874,-0.8018426,-1.4985955,0.4793602,-0.8984428,0.24492355,0.52549857,0.34297368,0.019085148
-0.2,-0.2,1.1999999999999997,0.0,0.0,0,-0.01783476,1.1265906,-0.574816,0.07349846,-0.15180898,0.66624945,1.8504754,-1.4982816,0.47840303,-0.897045,0.24321936,0.51371706,0.33646953,0.038592342
-0.2,-0.2,1.1999999999999997,0.0,0.0,0,-0.67539674,1.154849,0.8503594,0.047314208,-0.05685527,0.7999982,-0.43703637,-1.4974339,0.4815083,-0.89800924,0.24488746,0.50249904,0.3402512,0.028832158
-0.2,-0.2,1.1999999999999997,0.0,0.0,0,0.06394497,0.9709043,-0.012950049,-0.17816913,-0.22098082,0.5186642,1.8586944,-1.4984188,0.48047426,-0.9006922,0.2461583,0.52611506,0.34120613,0.041170046
-0.2,-0.2,1.1999999999999997,0.0,0.0,0,-0.6434851,1.5307846,-0.3015944,-0.123861015,-0.0048696967,1.0477772,0.3992877,-1.4967923,0.47868776,-0.89876735,0.24332072,0.52366334,0.34103552,0.026284475
-0.2,-0.2,1.1999999999999997,0.0,0.0,0,-1.0159665,1.2177206,-0.35736185,-0.022132158,0.16074267,0.5012633,1.0327631,-1.4957219,0.47787675,-0.9002483,0.24570704,0.5075981,0.34260088,0.0023495408
-0.2,-0.2,1.1999999999999997,0.0,0.0,0,0.29679897,1.5288644,-0.17338407,-0.14529367,-0.13386552,0.827235,0.24901605,-1.4999732,0.4789431,-0.89860845,0.24632512,0.51315117,0.33898333,0.0107903555
-0.2,-0.2,1.1999999999999997,0.0,0.0,0,-0.25466898,1.1548204,-0.11973773,-0.12081536,0.14439152,0.9219708,0.73921716,-1.4994469,0.47795102,-0.8979359,0.24528477,0.5138076,0.3387682,0.021385929
-0.2,-0.2,1.1999999999999997,0.0,0.0,0,-0.90516174,1.5758758,-0.007031647,-0.102426514,-0.2992364,0.6396407,0.2570444,-1.4976566,0.47868052,-0.89957005,0.24508575,0.51220274,0.34122312,0.015112565
-0.2,-0.2,1.1999999999999997,0.0,0.0,0,-0.34981695,0.9976217,-0.31152055,-0.05309625,0.032160606,1.428268,0.3937905,-1.4991181,0.47830647,-0.8987935,0.24643606,0.5169507,0.33609822,0.01621555
-0.2,-0.2,1.1999999999999997,0.0,0.0,0,0.31275475,1.3799309,-0.4310282,-0.16508736,0.4508168,1.0446191,0.79747105,-1.4977872,0.47909096,-0.8987111,0.24506882,0.5234588,0.3389083,0.030356169
-0.2,-0.2,1.1999999999999997,0.0,0.0,0,-0.5337272,1.3860633,-1.0810877,0.08883781,0.0057991454,1.045213,-0.14970753,-1.4988476,0.4803789,-0.8975671,0.24481612,0.5300468,0.33785176,0.035438925
-0.2,-0.2,1.1999999999999997,0.0,0.0,0,0.083575435,1.0977545,-0.74540955,-0.015504953,0.0025944144,0.783924,0.47378296,-1.4979416,0.48316273,-0.8979108,0.24403867,0.5296938,0.341309,0.038188532
-0.2,-0.2,1.1999999999999997,0.0,0.0,0,-0.20373462,1.4353355,-1.1364768,-0.2539144,-0.15635699,0.8445952,0.28904235,-1.498156,0.47951743,-0.8974355,0.24467497,0.50515175,0.33599657,-0.004104804
-0.2,-0.2,1.1999999999999997,0.0,0.0,0,-0.41629007,1.1726284,-0.38123494,-0.100304835,-0.6900325,1.080802,1.5725192,-1.4966968,0.47891262,-0.89985704,0.24544108,0.5088447,0.33937728,0.006170602
-0.2,-0.2,1.1999999999999997,0.0,0.0,0,0.16980736,1.4169155,-0.9835182,0.020560184,-0.49086794,0.9155162,0.31873816,-1.4966128,0.48137867,-0.8984088,0.24547079,0.5291761,0.33982936,0.063500434
-0.2,-0.2,1.1999999999999997,0.0,0.0,0,-0.28273863,1.1146727,1.107614,0.056127984,-0.3006493,0.86901927,1.3606572,-1.4985111,0.48580754,-0.8986138,0.24532762,0.51669914,0.3383185,0.05318055
-0.2,-0.2,1.1999999999999997,0.0,0.0,0,-0.3471013,1.1309311,-0.29939115,-0.06780103,-0.09379787,0.54181606,0.77378225,-1.4968958,0.47806865,-0.8976646,0.24574807,0.5279028,0.33944884,0.027085077
-0.2,-0.2,1.1999999999999997,0.0,0.0,0,0.6526141,1.0637975,-0.002223318,0.042252824,0.10430635,0.68727726,-1.233193,-1.498522,0.47807145,-0.8983965,0.24416804,0.5206769,0.34136143,0.0020092828
-0.2,-0.2,1.1999999999999997,0.0,0.0,0,-0.3664468,1.3240889,-0.8981899,0.04168761,0.033690363,0.92984784,-0.0099998135,-1.4981837,0.4788935,-0.8969131,0.24421896,0.52858406,0.33714947,0.025397073
-0.2,-0.2,1.1999999999999997,0.0,0.0,0,0.48530835,1.4904557,-0.30512002,-0.12823308,-0.19791096,0.83290493,1.076315,-1.499268,0.4795064,-0.89710236,0.2450725,0.5128494,0.34067747,-0.0068445904
-0.2,-0.2,1.1999999999999997,0.0,0.0,0,-0.6488521,1.242093,-0.7434012,-0.2842662,0.024917785,0.998009,-0.40266448,-1.4964173,0.48020476,-0.89890397,0.24568503,0.5311345,0.33884317,0.018471539
-0.2,-0.2,1.1999999999999997,0.0,0.0,0,-1.0301576,1.1131272,0.19860867,0.09448713,-0.17575066,0.8931983,1.2127013,-1.497501,0.4768654,-0.90008205,0.24770886,0.5221303,0.34171516,0.03747749
-0.2,-0.2,1.1999999999999997,0.0,0.0,0,-0.65475494,1.4332063,-0.69244593,-0.14378747,-0.10968367,1.1347073,1.1870073,-1.4981744,0.47891775,-0.89838463,0.24477161,0.52455324,0.34038094,0.030185506
-0.2,-0.2,1.1999999999999997,0.0,0.0,0,-0.51164633,0.9820142,-0.7739809,0.20923595,0.1325566,1.1139038,0.01615691,-1.5005003,0.48183504,-0.90006804,0.2453444,0.51703846,0.3374482,0.0747
-0.2,-0.2,1.1999999999999997,0.0,0.0,0,0.4694418,1.1201781,-0.40524808,-0.12306559,-0.2254687,0.6302767,0.3472668,-1.4982066,0.48144162,-0.89762765,0.24399808,0.50301456,0.33983168,-0.0032229947
-0.2,-0.2,1.1999999999999997,0.0,0.0,0,-0.34086916,1.3769394,-0.61140645,-0.15931527,-0.24387863,0.98163515,1.6033707,-1.4981458,0.48103026,-0.89631194,0.24470523,0.52511495,0.33852702,0.026893515
-0.2,-0.2,1.1999999999999997,0.0,0.0,0,-0.35070202,1.3626732,0.22344881,-0.0666902,0.07595616,0.8415611,1.0678817,-1.4955455,0.48052472,-0.9005673,0.24653842,0.5289174,0.33961102,0.05748938
-0.2,-0.2,1.1999999999999997,0.0,0.0,0,-0.1822977,1.1750706,-0.81029046,-0.03088412,0.11422286,1.1230822,-0.1445849,-1.4992149,0.4766026,-0.8990499,0.2466121,0.52155536,0.33981887,-4.5773704e-05
-0.2,-0.2,1.1999999999999997,0.0,0.0,0,-1.2199522,1.4735465,-0.48906294,-0.13781773,0.07204483,0.9130916,1.0169345,-1.4964737,0.478698,-0.90015626,0.24506086,0.5154579,0.34306255,0.027842823
-0.2,-0.2,1.1999999999999997,0.0,0.0,0,0.15181759,1.0666488,-1.4520756,-0.2574808,-0.14736399,0.8712531,-0.57226807,-1.4979949,0.4803051,-0.9006917,0.24369384,0.5340571,0.33728886,0.020711325
-0.2,-0.2,1.1999999999999997,0.0,0.0,0,-0.9409026,1.3166829,-0.22404334,0.15699036,-0.009743064,0.8133877,0.9205103,-1.499141,0.48049954,-0.8993354,0.24423891,0.5251046,0.33892548,0.03209514
-0.2,-0.2,1.1999999999999997,0.0,0.0,0,0.5687037,1.4211375,-0.49412155,-0.079967104,-0.17164072,1.2153386,0.8697,-1.4974227,0.47873646,-0.89899284,0.2456207,0.5323278,0.3405363,0.028460165
-0.2,-0.2,1.1999999999999997,0.0,0.0,0,-0.9915118,1.2482045,-0.99406946,0.019285979,0.09486526,0.7752755,-0.7745771,-1.4977132,0.48195678,-0.8984593,0.24386585,0.5014658,0.34018242,0.024888674
-0.2,-0.2,1.1999999999999997,0.0,0.0,0,-0.08025309,1.4868397,-0.10731319,-0.12653415,-0.09648718,0.7823244,1.4966283,-1.4968517,0.4790359,-0.8973557,0.24348722,0.52930325,0.33976558,0.007101723
-0.2,-0.2,1.1999999999999997,0.0,0.0,0,-0.6433995,1.1611162,-0.5201027,0.029998763,-0.7385151,0.9032797,1.3482698,-1.4975085,0.4798831,-0.8989418,0.24520549,0.51413375,0.34160298,-0.0077571585
-0.2,-0.2,1.1999999999999997,0.0,0.0,0,-1.4659263,1.3898458,-0.64916617,-0.20313492,-0.36542088,1.2256696,-0.18039376,-1.4972291,0.48325658,-0.89532393,0.24352048,0.53564,0.34068257,0.0037128536
-0.2,-0.2,1.1999999999999997,0.0,0.0,0,0.2310013,1.2051386,-1.4064542,0.09621374,0.17766625,1.4258173,0.4736167,-1.4970646,0.47978172,-0.899922,0.24387445,0.5274973,0.34065625,0.007356264
-0.2,-0.2,1.1999999999999997,0.0,0.0,0,-0.35752234,0.99724615,-0.1253201,-0.063704945,0.09055091,0.74185133,1.5891023,-1.4971718,0.47705725,-0.89785236,0.24607533,0.50329274,0.33669412,0.028101422
-0.2,-0.2,1.1999999999999997,0.0,0.0,0,0.3114507,1.0100802,-0.46352732,0.09794081,0.53645015,1.0026749,-0.9477617,-1.4983741,0.48216122,-0.89825654,0.24284694,0.5179488,0.34200656,0.008878419
-0.2,-0.2,1.1999999999999997,0.0,0.0,0,-0.47142702,1.2862343,-0.73564994,-0.042221468,-0.07158003,0.9405451,2.150493,-1.4971972,0.4794969,-0.9000681,0.24583663,0.5118474,0.3398355,0.038482152
-0.2,-0.2,1.1999999999999997,0.0,0.0,0,-0.53968126,1.0994056,-0.26259896,-0.2248163,-0.15039146,0.6536705,0.8632078,-1.4986851,0.47931993,-0.90002966,0.24595971,0.5183105,0.3430011,0.026343372
-0.2,-0.2,1.1999999999999997,0.0,0.0,0,-0.77844495,1.2775391,-0.57825285,-0.027025556,-0.21387887,1.0086294,-1.0141405,-1.4964842,0.4817909,-0.8982391,0.245487,0.53181654,0.3384046,0.033221748
-0.2,-0.2,1.1999999999999997,0.0,0.0,0,-0.72117925,1.5018342,-0.58923346,-0.038408495,-0.0779377,0.9303197,0.509375,-1.4992721,0.47972798,-0.8978092,0.24499659,0.50353974,0.3400308,0.008772018
-0.2,-0.2,1.1999999999999997,0.0,0.0,0,-0.8732334,1.129079,-0.94244874,-0.134147,-0.1869088,0.7063208,-0.123944186,-1.4983637,0.47861147,-0.8981437,0.24494638,0.5230055,0.3367897,0.047832567
-0.2,-0.2,1.1999999999999997,0.0,0.0,0,-0.231815,0.9611446,-0.3537907,0.17139749,0.18684596,0.76669353,0.30531254,-1.4983443,0.481206,-0.8972286,0.246823,0.5040264,0.33850983,-0.0039161956
-0.2,-0.2,1.1999999999999997,0.0,0.0,0,-0.26319882,1.2515237,0.11319316,-0.12815566,0.22271691,0.8518154,-0.3287559,-1.496212,0.48379526,-0.89661324,0.24632882,0.5268862,0.3412728,0.016931921
-0.2,-0.2,1.1999999999999997,0.0,0.0,0,-0.20581503,1.3985566,-0.70472443,-0.102473706,0.045108676,0.29800922,-0.26305363,-1.4988416,0.4810127,-0.89880455,0.24454676,0.5276048,0.33936936,0.04433308
-0.2,-0.2,1.1999999999999997,0.0,0.0,0,0.16930331,1.2113991,-1.0027426,0.07471563,0.2489818,0.64179856,-0.09018126,-1.498327,0.4760451,-0.8981995,0.24498756,0.516702,0.34456888,0.009244728
-0.2,-0.2,1.1999999999999997,0.0,0.0,0,0.41635323,1.1544262,0.83912516,-0.22466767,-0.058357447,0.91981155,1.0456908,-1.4975773,0.48116708,-0.8991155,0.24791285,0.5154527,0.33754647,-0.013204675
-0.2,-0.2,1.1999999999999997,0.0,0.0,0,-0.44393992,1.0570574,0.7376185,-0.13663507,-0.1796857,0.26091895,-0.75904745,-1.4974918,0.47863826,-0.8976513,0.24366722,0.5257343,0.33893436,0.034608334
-0.2,-0.2,1.1999999999999997,0.0,0.0,0,-0.47294804,0.97056574,-0.12954155,-0.013534906,-0.2775985,1.1926291,-0.04953632,-1.4991312,0.4805182,-0.89917344,0.24507406,0.51913136,0.3394185,0.0354961
-0.2,-0.2,1.1999999999999997,0.0,0.0,0,-0.40196294,1.2792726,-1.3969219,-0.17936781,0.15501302,0.7940638,0.65263,-1.5007098,0.48077583,-0.89905727,0.2437196,0.51818115,0.33876386,0.012432501
-0.2,-0.2,1.1999999999999997,0.0,0.0,0,0.001918905,1.0749532,-0.6631734,0.0380754,0.021085158,0.501114,-0.13169532,-1.4962488,0.47716355,-0.89655393,0.2455587,0.53594756,0.3379793,0.012496154
-0.2,-0.2,1.1999999999999997,0.0,0.0,0,-0.1271201,1.3272948,-1.2546328,-0.044566665,-0.26581538,0.80825275,0.052024294,-1.4992478,0.47978893,-0.8991256,0.24569033,0.5285369,0.34105945,0.005182233
-0.2,-0.2,1.1999999999999997,0.0,0.0,0,-0.42575452,1.020581,0.040462583,-0.115834534,-0.074506156,0.9419718,1.1451823,-1.4979331,0.47813204,-0.89780986,0.24515973,0.51998466,0.3434258,0.01310241
-0.2,-0.2,1.1999999999999997,0.0,0.0,0,-0.0719374,1.3127291,-0.023755042,-0.018923854,0.3632289,0.53513575,1.2181703,-1.498332,0.47928604,-0.8970213,0.24605706,0.5198251,0.33849415,0.0181794
-0.2,-0.2,1.1999999999999997,0.0,0.0,0,-0.746202,1.3758631,-0.49381727,-0.05192092,0.09607603,0.91290575,0.25237015,-1.4988744,0.48110807,-0.9013322,0.24461569,0.52151114,0.34162694,0.041466445
-0.2,-0.2,1.1999999999999997,0.0,0.0,0,-0.32618976,1.4219953,-0.31013918,-0.1859421,-0.47976118,0.889564,0.35021338,-1.499544,0.47962627,-0.8984585,0.24721326,0.52294856,0.33957753,0.031770747
-0.2,-0.2,1.1999999999999997,0.0,0.0,0,-0.017358135,1.3234042,0.21083936,-0.15844072,0.274644,0.6234843,0.16903408,-1.5004501,0.4793284,-0.8983916,0.24586743,0.5166597,0.34340632,-0.002910751
-0.2,-0.2,1.1999999999999997,0.0,0.0,0,0.12724192,1.2359452,0.24640787,-0.050642647,0.05349047,1.1541026,1.2406636,-1.4989548,0.48053914,-0.89847124,0.24773869,0.53380835,0.34110287,0.03591071
-0.2,-0.2,1.1999999999999997,0.0,0.0,0,-0.6052389,1.0409762,-0.2286199,-0.016960941,0.4450029,1.1093986,0.6562168,-1.4965417,0.48121247,-0.8982543,0.2454441,0.52211004,0.3431179,0.040040895
-0.2,-0.2,1.1999999999999997,0.0,0.0,0,-0.5887693,1.4256072,0.16303733,-0.15890142,0.40943307,1.1546053,-0.2711722,-1.4999355,0.48153445,-0.8992333,0.24362925,0.51901853,0.3369404,0.012409748
-0.2,-0.2,1.1999999999999997,0.0,0.0,0,-1.0390128,1.228112,-0.8993084,0.10583802,-0.06556833,1.3593186,1.42671,-1.4985226,0.4798749,-0.9001879,0.24444807,0.5269821,0.34455115,0.016956875
-0.2,-0.2,1.1999999999999997,0.0,0.0,0,-0.09829061,1.5434908,-0.55288213,0.23223244,-0.017673653,1.3956721,1.8769541,-1.4994459,0.47932148,-0.8980701,0.24373485,0.5195042,0.33946165,0.020305842
-0.2,-0.2,1.1999999999999997,0.0,0.0,0,-0.11346558,1.2492299,-0.667011,-0.08934944,-0.29345238,0.66567653,-0.003180573,-1.4987695,0.48013988,-0.8967887,0.24515906,0.5366496,0.34018835,0.024940843
-0.2,-0.2,1.1999999999999997,0.0,0.0,0,-1.0803436,1.1181532,-0.77601075,-0.112457044,0.14739059,0.90796983,1.2113134,-1.499105,0.48058847,-0.8987595,0.2470443,0.5313292,0.3366531,0.026108352
-0.2,-0.2,1.1999999999999997,0.0,0.0,0,0.9625616,1.2208732,-0.29745203,-0.037262358,0.26121512,0.7122673,0.68431723,-1.4965351,0.4776939,-0.8982066,0.24333476,0.5327889,0.34317735,0.014238417
-0.2,-0.2,1.1999999999999997,0.0,0.0,0,-1.2134972,1.455678,0.07643373,0.1568052,-0.20670578,0.7030066,-0.7099446,-1.4987197,0.4814417,-0.9006415,0.24605246,0.5280977,0.33894265,0.049456466
-0.2,-0.2,1.1999999999999997,0.0,0.0,0,-0.1171337,1.2418365,-0.33358753,0.069652095,0.48629928,0.9797595,0.55038136,-1.4974998,0.47721523,-0.89719564,0.24398647,0.52959996,0.34152594,0.010018071
-0.2,-0.2,1.1999999999999997,0.0,0.0,0,-0.25885656,1.4972606,-0.47259074,-0.13799724,0.0021171211,1.2243369,-0.3269001,-1.4993404,0.478419,-0.89740705,0.24459688,0.52098006,0.336259,0.043885294
-0.2,-0.2,1.1999999999999997,0.0,0.0,0,-0.30084017,1.0620457,-0.88013744,0.11810289,-0.58372766,0.9928273,0.6199861,-1.4988085,0.47987917,-0.898437,0.24468787,0.5166093,0.34245643,0.026878519
-0.2,-0.2,1.1999999999999997,0.0,0.0,0,-0.23164834,1.1542476,-1.2657063,0.11890513,0.3777226,0.6326739,-1.2692431,-1.4985617,0.47915626,-0.8967413,0.2425985,0.5049559,0.3391412,0.02843536
-0.2,-0.2,1.1999999999999997,0.0,0.0,0,0.26958555,1.1936125,-0.24299474,0.02927733,0.27321148,0.8339908,0.6287492,-1.4996865,0.47988203,-0.89780957,0.24325716,0.52180153,0.3412259,0.014062634
-0.2,-0.2,1.1999999999999997,0.0,0.0,0,-0.049163222,1.3755199,-0.5477804,-0.018223615,0.0712483,0.88841677,0.036945604,-1.4956752,0.47981918,-0.8978193,0.24635382,0.5229985,0.33779013,0.013247928
-0.2,-0.2,1.1999999999999997,0.0,0.0,0,-0.24476992,1.105586,-0.40205073,0.18373029,-0.21475482,0.9523615,1.6054842,-1.498243,0.47941673,-0.8991879,0.24544844,0.5170225,0.33878282,0.032986376
-0.2,-0.2,1.1999999999999997,0.0,0.0,0,0.03454877,1.0137855,0.2677266,0.06847231,-0.17733645,0.522336,0.07808252,-1.5000384,0.4807564,-0.89828295,0.24553083,0.5243464,0.3428531,0.010540762
-0.2,-0.2,1.1999999999999997,0.0,0.0,0,-0.5259127,1.4709606,-1.0694313,-0.029327748,0.026576001,0.9467869,-0.018914046,-1.4969698,0.47693372,-0.89863414,0.24454914,0.5232662,0.33639374,0.021586563
-0.2,-0.2,1.1999999999999997,0.0,0.0,0,0.13419743,1.3699722,-0.4294521,-0.048988804,-0.11553863,0.6115197,-0.4037846,-1.4971626,0.4835838,-0.897855,0.24451445,0.5164151,0.33894047,0.01889918
-0.2,-0.2,1.1999999999999997,0.0,0.0,0,-0.051747285,1.4606594,-0.63896114,-0.103492774,-0.32653147,0.5378008,1.9229156,-1.4986434,0.48310688,-0.8981798,0.24587075,0.5310806,0.3417698,0.0069341497
-0.2,-0.2,1.1999999999999997,0.0,0.0,0,-0.85228896,1.175456,-0.46151063,-0.16463417,-0.024620498,1.3730431,1.1105455,-1.4960341,0.4770892,-0.89751416,0.24451993,0.5004447,0.3409668,0.033487223
-0.2,-0.2,1.1999999999999997,0.0,0.0,0,-0.625223,1.39336,-0.44189623,-0.20454,0.35105935,0.8235681,0.50234735,-1.4985887,0.4796028,-0.89664453,0.24385007,0.50703144,0.33895555,0.06527762
-0.2,-0.2,1.1999999999999997,0.0,0.0,0,-0.7846926,1.0686407,-0.59646046,-0.26174498,-0.21463738,1.187806,-0.2407189,-1.4961206,0.48171282,-0.8993505,0.24436842,0.52815497,0.33838254,0.024623394
-0.2,-0.2,1.1999999999999997,0.0,0.0,0,-0.6731899,1.1324688,0.1008401,-0.2687673,-0.49343342,0.7152302,-0.10915699,-1.4961518,0.47885844,-0.89945346,0.24378736,0.49043474,0.3399652,0.017657718
-0.2,-0.2,1.1999999999999997,0.0,0.0,0,0.11773365,1.115347,-0.48658755,-0.14573771,-0.17536783,0.946669,0.59018475,-1.4984185,0.4803806,-0.896029,0.24768338,0.51902544,0.3370309,0.042022303
-0.2,-0.2,1.1999999999999997,0.0,0.0,0,-1.7743875,1.3398749,-1.4870058,-0.12816773,-0.47577393,0.7526578,-0.12550859,-1.5000956,0.4806924,-0.8970061,0.24596485,0.51147485,0.33852074,-0.004768958
-0.2,-0.2,1.1999999999999997,0.0,0.0,0,-0.6064145,1.020512,-0.13601848,-0.15776834,0.36301702,0.72094315,1.2211543,-1.4975952,0.47955763,-0.898491,0.24521212,0.52453,0.33952785,0.011817558
-0.2,-0.2,1.1999999999999997,0.0,0.0,0,-0.6876774,1.1202427,-0.048070375,0.060530696,-0.56135213,0.7191899,-0.34886083,-1.49652,0.48132244,-0.89844084,0.24483609,0.51317227,0.34111965,0.019889943
-0.2,-0.2,1.1999999999999997,0.0,0.0,0,-0.45046768,1.406059,-0.6926987,-0.0006323937,0.013103602,0.7828495,-0.2605125,-1.4996573,0.4783142,-0.89779717,0.24593526,0.5103468,0.33788106,0.03138404
-0.2,-0.2,1.1999999999999997,0.0,0.0,0,0.5890965,1.0019804,-0.33947262,0.00048608563,0.82926214,1.1781691,0.27062237,-1.4972309,0.47702515,-0.8962982,0.24251501,0.5034032,0.3435953,0.034138035
-0.2,-0.2,1.1999999999999997,0.0,0.0,0,-1.2559209,1.2391366,-0.79718614,-0.014268159,-0.016964283,0.92729384,1.1448647,-1.4983698,0.47818765,-0.8996235,0.24540113,0.49895537,0.340009,0.010940264
-0.2,-0.2,1.1999999999999997,0.0,0.0,0,-0.36642948,1.2755575,-0.8026712,0.07176486,-0.19946153,0.73656726,0.02475229,-1.4967848,0.48058486,-0.89927465,0.24497694,0.524352,0.3364029,0.035809305
-0.2,-0.2,1.1999999999999997,0.0,0.0,0,-0.48228964,1.0835965,0.13857105,-0.004336706,0.10271799,0.737543,0.5095174,-1.4966477,0.48121998,-0.8989973,0.24340257,0.5385584,0.33701438,0.019626845
-0.2,-0.2,1.1999999999999997,0.0,0.0,0,-0.06503531,0.97637254,0.15287295,-0.06273013,-0.036117237,0.3846526,1.170992,-1.4983269,0.48149866,-0.8973814,0.24390732,0.52112204,0.34208733,0.02875581
-0.2,-0.2,1.1999999999999997,0.0,0.0,0,-0.84372383,1.2864844,-0.7649996,0.12910183,0.46608603,0.6384053,0.34446254,-1.4983577,0.48017025,-0.89775264,0.24369915,0.509276,0.34364855,0.023294423
-0.2,-0.2,1.1999999999999997,0.0,0.0,0,-0.5719202,1.0458908,-0.8497385,0.23185211,0.063820325,0.9698704,1.0276724,-1.4982865,0.47936642,-0.8962949,0.24612099,0.5285768,0.33820587,0.008749353
-0.2,-0.2,1.1999999999999997,0.0,0.0,0,-0.5562849,1.3392895,-0.38628083,0.14352217,0.06359156,0.95563,-0.21664397,-1.4984456,0.47749543,-0.8950083,0.24356279,0.4947093,0.33857906,0.01341574
-0.2,-0.2,1.1999999999999997,0.0,0.0,0,0.0009691266,1.2171477,-0.0070285145,-0.35435623,0.24330762,1.1109008,0.29029986,-1.4981463,0.47960436,-0.8987955,0.24282461,0.5190145,0.33837745,0.033630878
-0.2,-0.2,1.1999999999999997,0.0,0.0,0,-0.89213914,1.3153539,-0.15302625,0.03356475,-0.2746703,1.3589467,0.25382063,-1.496694,0.48007324,-0.8980144,0.24452123,0.5300194,0.3393595,0.021703199
-0.2,-0.2,1.1999999999999997,0.0,0.0,0,0.052663226,1.2131678,0.75623965,-0.25839388,-0.5180302,0.84791625,0.5407915,-1.4988184,0.480877,-0.89771277,0.24471225,0.5182942,0.33942157,0.022817886
-0.2,-0.2,1.1999999999999997,0.0,0.0,0,-0.509774,1.1767095,-1.2212316,-0.07726685,0.32312593,1.0609058,-0.03464179,-1.4990524,0.47917852,-0.8988348,0.24392445,0.51579714,0.33994976,0.024021834
-0.2,-0.2,1.1999999999999997,0.0,0.0,0,-1.3593571,1.0726732,-0.15921013,-0.21547408,-0.40227008,1.0404226,1.7959135,-1.4986598,0.48000792,-0.89896804,0.2455683,0.52291924,0.33402905,0.020096729
-0.2,-0.2,1.1999999999999997,0.0,0.0,0,-0.5105907,1.3927549,0.10199084,-0.22464702,0.505091,0.9427731,0.3994268,-1.4983811,0.47882104,-0.8988097,0.24418604,0.5064844,0.33549446,0.031601697
-0.2,-0.2,1.1999999999999997,0.0,0.0,0,-0.0017309686,1.0037931,0.06533026,-0.035217967,-0.58973956,0.90244406,1.0312593,-1.4978945,0.47814575,-0.89830244,0.24552222,0.5160786,0.3407158,0.030380826
-0.2,-0.2,1.1999999999999997,0.0,0.0,0,-0.5132219,1.3668592,-0.17846778,-0.06786625,0.15980355,0.8648567,-0.34954855,-1.4983263,0.47981727,-0.8998764,0.24424201,0.5198467,0.33959854,0.034828987
-0.2,-0.2,1.1999999999999997,0.0,0.0,0,-0.5617619,1.2610761,0.00999147,0.056340683,-0.19153838,1.1399934,0.39997512,-1.4968245,0.48040065,-0.8998362,0.2444712,0.5177683,0.3374007,0.029043669
-0.2,-0.2,1.1999999999999997,0.0,0.0,0,-0.19250084,1.1009148,0.3266992,-0.0767018,0.116082594,1.0177219,0.34073198,-1.4992639,0.48057693,-0.89644647,0.2448555,0.5214601,0.3402418,0.04941818
-0.2,-0.2,1.1999999999999997,0.0,0.0,0,-0.26978603,1.3644441,-0.29128808,-0.08144719,0.13368891,0.7751358,1.236627,-1.4972234,0.47709084,-0.8972271,0.2455016,0.52493185,0.33972505,0.03538219
-0.2,-0.2,1.1999999999999997,0.0,0.0,0,0.4383172,1.1939602,-0.4959873,0.24586692,0.1868179,1.1177157,1.6311096,-1.4976999,0.4811468,-0.8981917,0.2455314,0.5172585,0.3393958,-0.010417226
-0.2,-0.2,1.1999999999999997,0.0,0.0,0,-0.7268858,1.4520389,-0.9856338,-0.1905681,-0.3505887,0.8337121,-0.7311209,-1.4972584,0.4811044,-0.89817697,0.24505183,0.52347493,0.3397401,-0.005450931
-0.2,-0.2,1.1999999999999997,0.0,0.0,0,0.27291864,1.2334982,-0.07878186,-0.09538915,0.32528448,0.73349714,0.12134122,-1.4970427,0.47952303,-0.89853895,0.24401297,0.50887847,0.33830667,0.031062117
-0.2,-0.2,1.1999999999999997,0.0,0.0,0,-0.5365083,1.2193296,-0.3750936,-0.12275872,-0.021242615,0.9155601,0.67649835,-1.4959115,0.48055035,-0.8960662,0.24431716,0.5040192,0.33994102,0.017952941
-0.2,-0.2,1.1999999999999997,0.0,0.0,0,0.35894015,1.3383328,-0.79226786,-0.07441135,0.122444496,0.683504,1.0133376,-1.4973453,0.47951284,-0.89809984,0.24489832,0.53193915,0.34280044,0.030332398
-0.2,-0.2,1.1999999999999997,0.0,0.0,0,-0.30546057,1.3560625,-0.8790801,0.11584437,0.28906512,0.74712604,1.372208,-1.4973164,0.47737718,-0.89853835,0.24528144,0.5208705,0.34292075,0.0049902843
-0.2,-0.2,1.1999999999999997,0.0,0.0,0,-0.7968935,1.3202559,-0.45086145,-0.018066796,-0.16556941,1.2045759,0.6631399,-1.4956644,0.47807294,-0.89576584,0.24558237,0.5368234,0.34157825,0.063284606
-0.2,-0.2,1.1999999999999997,0.0,0.0,0,-0.38877058,0.99596804,0.75331855,-0.05642171,0.04715349,0.29497302,0.18447772,-1.4985806,0.4773613,-0.8983053,0.24662615,0.5359133,0.3424755,0.018026043
-0.2,-0.2,1.1999999999999997,0.0,0.0,0,-0.5837688,1.2864051,-1.8717486,-0.106557734,0.44176716,1.026348,0.8886603,-1.4976459,0.4812137,-0.8977207,0.24601728,0.51997775,0.34293485,0.0033012487
-0.2,-0.2,1.1999999999999997,0.0,0.0,0,-0.57365924,1.191194,-1.2689077,0.06578662,-0.44322738,1.1237808,1.1643935,-1.4975228,0.47703058,-0.8989105,0.24455504,0.5191568,0.3407294,0.04383738
-0.2,-0.2,1.1999999999999997,0.0,0.0,0,0.0848466,0.9738143,0.31570166,0.13145243,-0.15625474,0.8266709,0.4859614,-1.4980074,0.477097,-0.9003985,0.24443199,0.5116875,0.3376881,0.030436872
-0.2,-0.2,1.1999999999999997,0.0,0.0,0,-0.5708364,1.0122054,-0.80947614,-0.111405805,0.12696218,0.67416704,-0.17333044,-1.4990048,0.4794348,-0.89894694,0.24420321,0.50784963,0.3399702,0.015555107
-0.2,-0.2,1.1999999999999997,0.0,0.0,0,-0.39345822,1.2615147,-0.45671052,-0.20064461,-0.4572706,1.0661099,-0.14391372,-1.4984109,0.47975448,-0.8988636,0.24291976,0.5216903,0.3374841,-0.0066375528
-0.2,-0.2,1.1999999999999997,0.0,0.0,0,-0.46183655,1.1521221,-0.031666797,0.067343004,0.059179585,1.080563,-0.7964685,-1.4957927,0.47931075,-0.8969406,0.24568121,0.5256766,0.3366664,0.04563416
-0.2,-0.2,1.1999999999999997,0.0,0.0,0,-0.68110955,1.0598716,-0.42808217,0.078692704,0.0553404,0.8759042,0.84752893,-1.4976474,0.477714,-0.89844453,0.24169739,0.51865864,0.33911678,0.017676512
-0.2,-0.2,1.1999999999999997,0.0,0.0,0,-0.16125107,1.4462907,0.75941545,-0.09163812,-0.3114219,0.44243342,0.1551366,-1.498556,0.47969422,-0.89690244,0.24433878,0.50864947,0.33992755,0.0116879335
-0.2,-0.2,1.1999999999999997,0.0,0.0,0,0.22445785,1.2989895,-0.22389713,0.058671094,-0.21913558,0.79640085,0.7760967,-1.4993219,0.47740775,-0.89803374,0.24323994,0.53273356,0.3413694,0.037620816
-0.2,-0.2,1.1999999999999997,0.0,0.0,0,0.5184968,1.1049253,-0.4771099,-0.015990471,-0.18555419,0.66808146,0.9387703,-1.4965694,0.47847655,-0.89838463,0.2435006,0.5119966,0.34057826,0.07443342
-0.2,-0.2,1.1999999999999997,0.0,0.0,0,0.009762008,1.4538827,-0.87003714,-0.15443066,-0.73604465,0.85320437,-1.050804,-1.4993244,0.47909054,-0.8965352,0.24414401,0.51893073,0.3374226,0.0137008615
-0.2,-0.2,1.1999999999999997,0.0,0.0,0,-0.12428134,1.2799131,0.44519973,0.046591222,0.49804705,0.93535,0.46653482,-1.4985075,0.47967744,-0.9003731,0.24475805,0.5137463,0.33972755,0.031858776
-0.2,-0.2,1.1999999999999997,0.0,0.0,0,-0.61148053,1.8029212,-0.072395846,-0.005646705,0.19647461,0.7152874,0.51541686,-1.5002866,0.47732264,-0.89705175,0.2439105,0.5309587,0.3374024,0.037227966
-0.2,-0.2,1.1999999999999997,0.0,0.0,0,-0.2509643,1.519024,-0.5039523,-0.12152128,0.0699735,0.41727263,0.14891453,-1.4983236,0.47987053,-0.8979262,0.24429913,0.51339465,0.3367984,0.028556507
-0.2,-0.2,1.1999999999999997,0.0,0.0,0,0.07110998,1.0701286,-1.489049,-0.08043524,0.07670496,0.98786026,0.0051359413,-1.4977467,0.48176086,-0.8995118,0.24742703,0.513277,0.3424946,-0.013010397
-0.2,-0.2,1.1999999999999997,0.0,0.0,0,0.5429099,1.186717,0.36349797,-0.10115359,-0.06631556,1.0807743,0.20342079,-1.4969492,0.47999728,-0.89953184,0.24570192,0.49798986,0.34201178,0.0026703307
-0.2,-0.2,1.1999999999999997,0.0,0.0,0,-0.47864822,1.4219255,-0.8145507,0.06792254,-0.3816119,0.56525,0.575668,-1.4986696,0.47876933,-0.89909697,0.24480537,0.5188438,0.34189212,0.016661184
-0.2,-0.2,1.1999999999999997,0.0,0.0,0,-0.10161816,1.2813419,-0.027688345,0.11715876,-0.20925651,1.1784887,-0.40408364,-1.497669,0.47966018,-0.8957679,0.245631,0.52151024,0.33802822,0.020156812
-0.2,-0.2,1.1999999999999997,0.0,0.0,0,-0.04163883,1.167004,-0.5975765,-0.1520379,0.5007592,0.8071754,1.1400914,-1.4983212,0.47867787,-0.89886606,0.24508311,0.51791555,0.34266567,0.0024455062
-0.2,-0.2,1.1999999999999997,0.0,0.0,0,0.40519187,1.54315,-0.14203697,-0.2651736,-0.113495894,0.89704734,1.5108442,-1.4976217,0.47932422,-0.9004597,0.2457638,0.52923954,0.34127155,0.036401488
-0.2,-0.2,1.1999999999999997,0.0,0.0,0,0.45983276,1.5616103,0.9402439,-0.016205423,0.035478726,0.77371967,0.07039839,-1.4979477,0.478626,-0.9000352,0.24495512,0.51894486,0.34240866,0.032349486
-0.2,-0.2,1.1999999999999997,0.0,0.0,0,-0.92704165,1.407296,-0.55293804,-0.038133983,-0.11621763,0.69565,-0.7975376,-1.4982554,0.47849053,-0.8997036,0.24383377,0.5100061,0.33756217,0.05652153
-0.2,-0.2,1.1999999999999997,0.0,0.0,0,-0.79592407,1.5492707,-0.85855883,0.065771475,-0.040257182,0.95972925,1.1097116,-1.4990336,0.47742587,-0.8987245,0.24568498,0.51779085,0.3422142,0.010326775
-0.2,-0.2,1.1999999999999997,0.0,0.0,0,-0.9298273,1.2678871,-0.8134004,0.14889528,-0.11091514,0.69260496,0.5015434,-1.4988368,0.48039684,-0.89852047,0.24554665,0.5212572,0.33806717,0.03229321
-0.2,-0.2,1.1999999999999997,0.0,0.0,0,-0.24197693,1.0485228,0.70981807,-0.09205813,-0.3409933,1.0014123,1.1258618,-1.4995407,0.47975504,-0.90034366,0.24707909,0.5121299,0.3321774,-0.008825719
