sanky1234/BimanualDexCatch/isaacgymenvs/cem_results/football_pose_-0.2_-0.2_0.6_-0.5235987755982988_-0.17453292519943286_-0.17453292519943286.csv
x,y,z,roll,pitch,yaw,robot1/joint1,robot1/joint2,robot1/joint3,robot1/joint4,robot1/joint5,robot1/joint6,robot1/joint7,robot2/joint1,robot2/joint2,robot2/joint3,robot2/joint4,robot2/joint5,robot2/joint6,robot2/joint7
-0.2,-0.2,0.6,-0.5235987755982988,-0.17453292519943286,-0.17453292519943286,2.0067115,1.2949514,0.31923628,-0.1311298,-0.26009896,1.1448784,-0.45125833,-0.6932922,1.4436904,-0.01943511,-0.5298424,0.093580976,1.357788,1.4072833
-0.2,-0.2,0.6,-0.5235987755982988,-0.17453292519943286,-0.17453292519943286,2.0203273,1.3032755,0.36720455,-0.12955669,-0.26730666,1.1382108,-0.35040897,-0.66561204,1.4548012,-0.017521033,-0.5366773,0.03269161,1.3524446,1.3112211
-0.2,-0.2,0.6,-0.5235987755982988,-0.17453292519943286,-0.17453292519943286,2.0529325,1.2901748,0.31138948,-0.14348131,-0.2912393,1.1470597,-0.3736411,-0.68001956,1.4402298,-0.002613006,-0.5787267,0.031261723,1.3479885,1.2258059
-0.2,-0.2,0.6,-0.5235987755982988,-0.17453292519943286,-0.17453292519943286,2.0106137,1.3090082,0.3578049,-0.12933618,-0.27075103,1.1558262,-0.39603734,-0.68894184,1.4490992,-0.0051645217,-0.5364945,0.054552544,1.3563378,1.4597977
-0.2,-0.2,0.6,-0.5235987755982988,-0.17453292519943286,-0.17453292519943286,2.0859187,1.3049992,0.34120095,-0.14003834,-0.26901385,1.1474541,-0.33889005,-0.6541867,1.442148,-0.0069982274,-0.5380912,0.048525747,1.4053632,1.3652222
-0.2,-0.2,0.6,-0.5235987755982988,-0.17453292519943286,-0.17453292519943286,1.9866002,1.3031487,0.33861962,-0.1460738,-0.2622149,1.1485542,-0.4321565,-0.6784323,1.4594221,-0.013980596,-0.5498464,0.07019492,1.3566223,1.3920443
-0.2,-0.2,0.6,-0.5235987755982988,-0.17453292519943286,-0.17453292519943286,2.031994,1.2985846,0.3351249,-0.14434269,-0.26286104,1.1449012,-0.40999925,-0.65359545,1.4642463,-0.025186699,-0.5457699,0.059974056,1.3769999,1.3083531
-0.2,-0.2,0.6,-0.5235987755982988,-0.17453292519943286,-0.17453292519943286,1.9807489,1.3061074,0.34025446,-0.12100867,-0.28401217,1.1291866,-0.41608983,-0.66313577,1.4641927,-0.024039255,-0.5545301,0.07546073,1.3472329,1.3058578
-0.2,-0.2,0.6,-0.5235987755982988,-0.17453292519943286,-0.17453292519943286,2.0549755,1.2974648,0.2843337,-0.13610226,-0.25702167,1.1230445,-0.30536374,-0.6702341,1.4628015,-0.01738104,-0.5567642,0.06445901,1.3845176,1.3929449
-0.2,-0.2,0.6,-0.5235987755982988,-0.17453292519943286,-0.17453292519943286,2.0247257,1.3105763,0.3066733,-0.15691684,-0.24207309,1.1619895,-0.3511115,-0.68192023,1.454517,-0.02105745,-0.57083195,0.059579507,1.3726255,1.5103354
-0.2,-0.2,0.6,-0.5235987755982988,-0.17453292519943286,-0.17453292519943286,2.0338612,1.3118404,0.3732013,-0.14238454,-0.3038716,1.1428194,-0.39623213,-0.6618752,1.4578273,-0.008447874,-0.57508445,0.04083715,1.3605164,1.2641279
-0.2,-0.2,0.6,-0.5235987755982988,-0.17453292519943286,-0.17453292519943286,2.052773,1.310244,0.3354816,-0.13472305,-0.2779072,1.1497139,-0.39265478,-0.67939913,1.450126,-0.035297055,-0.54901844,0.056610268,1.3480071,1.4308977
-0.2,-0.2,0.6,-0.5235987755982988,-0.17453292519943286,-0.17453292519943286,2.0379398,1.3101472,0.31581658,-0.14884461,-0.28109935,1.1471703,-0.44886377,-0.65986305,1.4529196,-0.018410893,-0.5294552,0.06494095,1.3755196,1.3773036
-0.2,-0.2,0.6,-0.5235987755982988,-0.17453292519943286,-0.17453292519943286,2.0485446,1.3219318,0.3352239,-0.13630414,-0.24661171,1.1285398,-0.41742003,-0.6776242,1.4513136,-0.015759401,-0.5653313,0.049770854,1.3414271,1.3836341
-0.2,-0.2,0.6,-0.5235987755982988,-0.17453292519943286,-0.17453292519943286,2.0445256,1.2914535,0.32231957,-0.14018406,-0.22725396,1.1396577,-0.44024405,-0.6509136,1.461841,-0.0012334158,-0.55424887,0.0676337,1.3591609,1.3244979
-0.2,-0.2,0.6,-0.5235987755982988,-0.17453292519943286,-0.17453292519943286,2.0561235,1.3237627,0.35808837,-0.121670306,-0.29421297,1.1422001,-0.38250765,-0.6696465,1.4616235,-0.015637808,-0.62130725,0.03682627,1.3889121,1.289222
-0.2,-0.2,0.6,-0.5235987755982988,-0.17453292519943286,-0.17453292519943286,2.0427606,1.3105668,0.34103537,-0.13857809,-0.27259168,1.1507753,-0.4282518,-0.6814309,1.4564078,-0.011371694,-0.52662134,0.07482115,1.3616792,1.3966887
-0.2,-0.2,0.6,-0.5235987755982988,-0.17453292519943286,-0.17453292519943286,2.0298269,1.2999233,0.32900563,-0.15257917,-0.25734183,1.165396,-0.3601818,-0.7070102,1.4537212,-0.018861031,-0.5937482,0.05345296,1.3366103,1.2718134
-0.2,-0.2,0.6,-0.5235987755982988,-0.17453292519943286,-0.17453292519943286,2.0460937,1.3083322,0.30118206,-0.15106751,-0.25164092,1.1596,-0.44679752,-0.6318011,1.4432298,-0.0017016314,-0.5626951,0.033573624,1.3601007,1.2780198
-0.2,-0.2,0.6,-0.5235987755982988,-0.17453292519943286,-0.17453292519943286,2.0463111,1.2944556,0.30567375,-0.17378052,-0.24328312,1.1815448,-0.5104926,-0.6816144,1.4545448,-0.028661797,-0.554409,0.06893229,1.3539896,1.2392446
-0.2,-0.2,0.6,-0.5235987755982988,-0.17453292519943286,-0.17453292519943286,2.0147727,1.3052256,0.3345813,-0.16167435,-0.27224642,1.1355628,-0.4008473,-0.6571212,1.4606342,-0.012634157,-0.5339602,0.07225654,1.3326931,1.128968
-0.2,-0.2,0.6,-0.5235987755982988,-0.17453292519943286,-0.17453292519943286,2.0207365,1.3080409,0.32950717,-0.13821785,-0.25230774,1.1532074,-0.40409857,-0.6958451,1.4602861,-0.018433917,-0.5421162,0.063193634,1.3284743,1.3614209
-0.2,-0.2,0.6,-0.5235987755982988,-0.17453292519943286,-0.17453292519943286,2.0323486,1.3038361,0.31433573,-0.1558139,-0.24331875,1.1222581,-0.45818177,-0.67323077,1.4634569,-0.024305716,-0.5577088,0.08474775,1.3625336,1.0890836
-0.2,-0.2,0.6,-0.5235987755982988,-0.17453292519943286,-0.17453292519943286,2.0336418,1.3182552,0.3018005,-0.13966486,-0.32388198,1.1561015,-0.42131242,-0.6690288,1.4576286,-0.0055967798,-0.5442291,0.04585372,1.3882371,1.1820034
-0.2,-0.2,0.6,-0.5235987755982988,-0.17453292519943286,-0.17453292519943286,2.0492678,1.2997079,0.28899553,-0.148151,-0.24096984,1.1016933,-0.3832881,-0.66524494,1.4565886,-0.020837551,-0.5540467,0.075086705,1.4113168,1.323694
-0.2,-0.2,0.6,-0.5235987755982988,-0.17453292519943286,-0.17453292519943286,2.0130503,1.3026346,0.34295532,-0.14026928,-0.24686533,1.1517097,-0.31355062,-0.6855182,1.4500996,-0.0159672,-0.5820621,0.060112488,1.3710086,1.3658916
-0.2,-0.2,0.6,-0.5235987755982988,-0.17453292519943286,-0.17453292519943286,1.9999218,1.3014084,0.32689458,-0.1449152,-0.27923787,1.155298,-0.43842635,-0.65998805,1.4726472,-0.011784612,-0.5679808,0.03797404,1.3885436,1.5294448
-0.2,-0.2,0.6,-0.5235987755982988,-0.17453292519943286,-0.17453292519943286,2.0249922,1.3161865,0.29807532,-0.14333066,-0.26077884,1.1598053,-0.54009897,-0.68827176,1.4665074,-0.02334527,-0.54659146,0.056779224,1.3084974,1.2428294
-0.2,-0.2,0.6,-0.5235987755982988,-0.17453292519943286,-0.17453292519943286,2.0015576,1.2905703,0.3455544,-0.14507423,-0.25246707,1.1393716,-0.40338537,-0.6670331,1.4528086,-0.026393278,-0.5636152,0.068878725,1.3701526,1.2739263
-0.2,-0.2,0.6,-0.5235987755982988,-0.17453292519943286,-0.17453292519943286,2.032471,1.2920332,0.33420375,-0.13812874,-0.2831801,1.175846,-0.3530322,-0.6634134,1.450359,-0.01226769,-0.5510055,0.06796098,1.4078411,1.29875
-0.2,-0.2,0.6,-0.5235987755982988,-0.17453292519943286,-0.17453292519943286,2.0337882,1.2960768,0.32864487,-0.13847649,-0.2726869,1.1284444,-0.3647645,-0.6622342,1.4621154,-0.033150908,-0.5786546,0.06764476,1.3686357,1.3101302
-0.2,-0.2,0.6,-0.5235987755982988,-0.17453292519943286,-0.17453292519943286,1.9919485,1.2921573,0.3323528,-0.14594573,-0.26212576,1.1680716,-0.3956184,-0.6760234,1.4644208,-0.019364899,-0.5849601,0.090328164,1.3272177,1.0915657
-0.2,-0.2,0.6,-0.5235987755982988,-0.17453292519943286,-0.17453292519943286,1.9897692,1.3144668,0.29264557,-0.15798679,-0.1971141,1.1476419,-0.3918058,-0.6584465,1.4615806,-0.028134344,-0.55049676,0.0693982,1.3866327,1.3795654
-0.2,-0.2,0.6,-0.5235987755982988,-0.17453292519943286,-0.17453292519943286,2.0238051,1.2987863,0.3317673,-0.13026342,-0.27084532,1.1531749,-0.39011425,-0.6632199,1.4597769,-0.017014412,-0.562752,0.056620236,1.3613342,1.0770851
-0.2,-0.2,0.6,-0.5235987755982988,-0.17453292519943286,-0.17453292519943286,2.0412252,1.2985557,0.32902288,-0.14553273,-0.282748,1.1570431,-0.4403909,-0.6567058,1.4600753,-0.01692948,-0.5778911,0.059260316,1.3637673,1.4164976
-0.2,-0.2,0.6,-0.5235987755982988,-0.17453292519943286,-0.17453292519943286,1.9996327,1.2978665,0.34732774,-0.16785692,-0.30806,1.1429054,-0.30885953,-0.69159925,1.4564149,-0.019156864,-0.5635902,0.071149066,1.3596004,1.3018769
-0.2,-0.2,0.6,-0.5235987755982988,-0.17453292519943286,-0.17453292519943286,2.0448637,1.3050131,0.3268111,-0.15126021,-0.26262212,1.1644334,-0.40509954,-0.67188114,1.4547671,-0.01389322,-0.5360836,0.060919452,1.3500797,0.99826676
-0.2,-0.2,0.6,-0.5235987755982988,-0.17453292519943286,-0.17453292519943286,2.0281777,1.2990508,0.29670796,-0.15610312,-0.21308124,1.1532491,-0.4674272,-0.68900365,1.4602374,-0.008385823,-0.5466186,0.07639465,1.3651826,1.2188407
-0.2,-0.2,0.6,-0.5235987755982988,-0.17453292519943286,-0.17453292519943286,2.0187855,1.3092247,0.32754612,-0.13385752,-0.28811732,1.1097664,-0.46842292,-0.6959816,1.4571909,-0.0030803867,-0.5305805,0.057449684,1.327725,1.4768283
-0.2,-0.2,0.6,-0.5235987755982988,-0.17453292519943286,-0.17453292519943286,2.0374675,1.3011665,0.31073323,-0.14885485,-0.23852716,1.1404774,-0.43104023,-0.6698362,1.4715143,-0.01753484,-0.5810069,0.05477246,1.3657542,1.2872257
-0.2,-0.2,0.6,-0.5235987755982988,-0.17453292519943286,-0.17453292519943286,2.0413663,1.3160567,0.3364431,-0.15439731,-0.27929318,1.1811229,-0.3974946,-0.6971522,1.4542369,-0.023345305,-0.5221122,0.07584248,1.3036754,1.2576326
-0.2,-0.2,0.6,-0.5235987755982988,-0.17453292519943286,-0.17453292519943286,2.037021,1.3155204,0.29978824,-0.15121104,-0.1635173,1.127146,-0.38784388,-0.686044,1.4518751,-0.013024649,-0.5563367,0.08668702,1.3754935,1.3061348
-0.2,-0.2,0.6,-0.5235987755982988,-0.17453292519943286,-0.17453292519943286,2.013296,1.3000557,0.33464727,-0.1445656,-0.28742823,1.1601351,-0.49778658,-0.64747083,1.4531246,-0.023069786,-0.51498413,0.03795665,1.3576884,1.1600074
-0.2,-0.2,0.6,-0.5235987755982988,-0.17453292519943286,-0.17453292519943286,1.9990414,1.2996383,0.3107715,-0.121305645,-0.2457276,1.1365407,-0.45099366,-0.67114675,1.463719,-0.01412136,-0.5721568,0.028464243,1.3468616,1.4436703
-0.2,-0.2,0.6,-0.5235987755982988,-0.17453292519943286,-0.17453292519943286,2.0432506,1.2961338,0.32476333,-0.12737067,-0.26901868,1.1202021,-0.3876851,-0.66506135,1.4536986,-0.023450894,-0.5624054,0.08090512,1.3919019,1.3685325
-0.2,-0.2,0.6,-0.5235987755982988,-0.17453292519943286,-0.17453292519943286,2.0252857,1.299793,0.3243182,-0.13526306,-0.26345316,1.149881,-0.45052624,-0.67036027,1.4499159,-0.015350157,-0.5327776,0.053878237,1.3455054,1.3814206
-0.2,-0.2,0.6,-0.5235987755982988,-0.17453292519943286,-0.17453292519943286,2.0414891,1.30117,0.33245888,-0.115296416,-0.23112664,1.1487808,-0.39948815,-0.6808235,1.4372916,-0.025610577,-0.56291515,0.08164646,1.3912657,1.1324186
-0.2,-0.2,0.6,-0.5235987755982988,-0.17453292519943286,-0.17453292519943286,2.0321147,1.306831,0.3156136,-0.16353622,-0.24586973,1.1683042,-0.46464032,-0.6265028,1.4678696,-0.030203909,-0.558175,0.04316759,1.3990939,1.3392111
-0.2,-0.2,0.6,-0.5235987755982988,-0.17453292519943286,-0.17453292519943286,2.0317643,1.2938261,0.3509455,-0.12867422,-0.27929372,1.1570485,-0.39537847,-0.7151055,1.4796692,-0.012954639,-0.58565277,0.033976536,1.3371426,1.1438394
-0.2,-0.2,0.6,-0.5235987755982988,-0.17453292519943286,-0.17453292519943286,2.0210536,1.3023467,0.3505906,-0.14220168,-0.29975173,1.1859816,-0.4304941,-0.67546433,1.4414706,-0.02422403,-0.55073595,0.059761487,1.3808701,1.34331
-0.2,-0.2,0.6,-0.5235987755982988,-0.17453292519943286,-0.17453292519943286,2.0132937,1.2771233,0.3222256,-0.12759839,-0.24662563,1.1324775,-0.4698217,-0.7011463,1.452497,-0.020210346,-0.5732803,0.045552664,1.3740288,1.37551
-0.2,-0.2,0.6,-0.5235987755982988,-0.17453292519943286,-0.17453292519943286,2.043217,1.3138235,0.3317125,-0.15270679,-0.28547248,1.1320438,-0.41751033,-0.6811357,1.462119,-0.017561099,-0.56391186,0.03737528,1.3864458,1.1559397
-0.2,-0.2,0.6,-0.5235987755982988,-0.17453292519943286,-0.17453292519943286,2.0194087,1.3006903,0.33277115,-0.1429316,-0.27795246,1.1689265,-0.4041885,-0.6739831,1.4527775,-0.025762554,-0.55336636,0.06774805,1.3655126,1.1766126
-0.2,-0.2,0.6,-0.5235987755982988,-0.17453292519943286,-0.17453292519943286,2.0625675,1.304932,0.32557455,-0.14639631,-0.25099692,1.1510034,-0.41282678,-0.6705578,1.4606618,-0.019561918,-0.56968075,0.041261263,1.3807001,1.3144814
-0.2,-0.2,0.6,-0.5235987755982988,-0.17453292519943286,-0.17453292519943286,1.9880738,1.309476,0.3435726,-0.13122958,-0.29470176,1.1257635,-0.38607496,-0.69533485,1.4621198,-0.024195867,-0.57032806,0.04845105,1.342251,1.2696031
-0.2,-0.2,0.6,-0.5235987755982988,-0.17453292519943286,-0.17453292519943286,2.0314798,1.306238,0.32712337,-0.11971202,-0.3158459,1.1279639,-0.4355123,-0.6634283,1.4450638,-0.013089227,-0.53253585,0.07400212,1.3644465,1.45913
-0.2,-0.2,0.6,-0.5235987755982988,-0.17453292519943286,-0.17453292519943286,2.0126884,1.2889173,0.29682598,-0.14517249,-0.2756259,1.1356475,-0.33665854,-0.67144597,1.4453728,-0.013321204,-0.6030315,0.0511277,1.4152977,1.282167
-0.2,-0.2,0.6,-0.5235987755982988,-0.17453292519943286,-0.17453292519943286,2.0347483,1.307466,0.32525343,-0.15127693,-0.2962066,1.162017,-0.42234278,-0.6814172,1.46241,-0.024203252,-0.5695981,0.06990602,1.3768078,1.1731689
-0.2,-0.2,0.6,-0.5235987755982988,-0.17453292519943286,-0.17453292519943286,2.0040436,1.3206426,0.32411167,-0.13640736,-0.23487529,1.1330554,-0.38582176,-0.6762543,1.4518001,-0.01670235,-0.535691,0.049285755,1.3468565,1.3223742
-0.2,-0.2,0.6,-0.5235987755982988,-0.17453292519943286,-0.17453292519943286,2.0203078,1.3079982,0.31458992,-0.14908202,-0.2610652,1.1323664,-0.3170243,-0.6439579,1.459228,-0.023858981,-0.5190198,0.056603298,1.3716766,1.1627454
-0.2,-0.2,0.6,-0.5235987755982988,-0.17453292519943286,-0.17453292519943286,2.0243287,1.3018351,0.28315547,-0.15420116,-0.2160119,1.1468551,-0.53860366,-0.70371693,1.4630128,-0.028245892,-0.57346827,0.04152936,1.3604468,1.4185524
-0.2,-0.2,0.6,-0.5235987755982988,-0.17453292519943286,-0.17453292519943286,1.9912714,1.3181435,0.34578326,-0.13359869,-0.29881942,1.1397998,-0.42010316,-0.6648177,1.4543294,-0.023029052,-0.5710169,0.072912924,1.3762479,1.2985013
-0.2,-0.2,0.6,-0.5235987755982988,-0.17453292519943286,-0.17453292519943286,2.041693,1.3007649,0.33040497,-0.13853364,-0.27823064,1.1729616,-0.44087073,-0.67564076,1.4803096,-0.021770233,-0.5935126,0.08258793,1.374243,1.5915188
-0.2,-0.2,0.6,-0.5235987755982988,-0.17453292519943286,-0.17453292519943286,2.0273821,1.3069402,0.34105015,-0.13704893,-0.27626798,1.1516472,-0.38907865,-0.67477894,1.4537147,-0.021386089,-0.52378935,0.06267925,1.3460132,1.5132935
-0.2,-0.2,0.6,-0.5235987755982988,-0.17453292519943286,-0.17453292519943286,2.008284,1.3189263,0.32850665,-0.16394624,-0.32330796,1.1648474,-0.33365536,-0.632791,1.4306173,-0.03293705,-0.5536159,0.08855335,1.3764982,1.2874262
-0.2,-0.2,0.6,-0.5235987755982988,-0.17453292519943286,-0.17453292519943286,2.0529616,1.2963418,0.31379566,-0.13539924,-0.30239302,1.1621196,-0.36136833,-0.6828323,1.4576194,-0.025124505,-0.5684851,0.050862566,1.3773665,1.3160522
-0.2,-0.2,0.6,-0.5235987755982988,-0.17453292519943286,-0.17453292519943286,2.0187373,1.3189224,0.3254926,-0.13477539,-0.28461555,1.1386718,-0.42982787,-0.6823928,1.453545,-0.016106617,-0.5595418,0.041152254,1.3949082,1.5045909
-0.2,-0.2,0.6,-0.5235987755982988,-0.17453292519943286,-0.17453292519943286,2.0379348,1.3100798,0.31727126,-0.13426712,-0.2611965,1.1201572,-0.40856832,-0.6705891,1.4451591,-0.013588751,-0.5333366,0.08636435,1.3414859,1.3471133
-0.2,-0.2,0.6,-0.5235987755982988,-0.17453292519943286,-0.17453292519943286,2.004699,1.3001413,0.3409744,-0.14655596,-0.24621706,1.138847,-0.44037652,-0.6846146,1.4646689,-0.014701835,-0.55589217,0.058435693,1.3441226,1.2805524
-0.2,-0.2,0.6,-0.5235987755982988,-0.17453292519943286,-0.17453292519943286,2.022844,1.3086897,0.3148964,-0.13840248,-0.2651255,1.1454849,-0.44680414,-0.6933397,1.4654557,-0.017220622,-0.5355673,0.04946641,1.3481977,1.2621784
-0.2,-0.2,0.6,-0.5235987755982988,-0.17453292519943286,-0.17453292519943286,2.041041,1.3065865,0.32026824,-0.13533074,-0.24001275,1.1352514,-0.31904477,-0.6713477,1.4558133,-0.018301532,-0.56028616,0.05137746,1.3825023,1.410327
-0.2,-0.2,0.6,-0.5235987755982988,-0.17453292519943286,-0.17453292519943286,2.0174572,1.3140163,0.3130248,-0.13480596,-0.28616428,1.1223936,-0.44810137,-0.6840953,1.4688816,-0.017648004,-0.57308316,0.051480126,1.3339205,1.0731664
-0.2,-0.2,0.6,-0.5235987755982988,-0.17453292519943286,-0.17453292519943286,1.9972302,1.3018072,0.3219156,-0.14188741,-0.26040262,1.1444194,-0.3923559,-0.6604714,1.4588203,-0.021414455,-0.55832994,0.06531764,1.3659438,1.1925676
-0.2,-0.2,0.6,-0.5235987755982988,-0.17453292519943286,-0.17453292519943286,2.0348663,1.3051349,0.3069386,-0.1296756,-0.23721449,1.1584594,-0.37609893,-0.6672261,1.4503436,-0.025367405,-0.5522169,0.053517744,1.3443416,1.4629897
-0.2,-0.2,0.6,-0.5235987755982988,-0.17453292519943286,-0.17453292519943286,2.0288053,1.3157035,0.35080785,-0.13955204,-0.22876766,1.1429694,-0.36842898,-0.7000075,1.4590977,-0.010645622,-0.5697769,0.047429256,1.3697568,1.3539152
-0.2,-0.2,0.6,-0.5235987755982988,-0.17453292519943286,-0.17453292519943286,2.0319884,1.2981489,0.32244864,-0.15030102,-0.2739826,1.1486622,-0.3816323,-0.68793786,1.4470559,-0.009964492,-0.5864507,0.06388272,1.3496494,1.4692545
-0.2,-0.2,0.6,-0.5235987755982988,-0.17453292519943286,-0.17453292519943286,2.0310917,1.2938664,0.30489802,-0.15977232,-0.23630147,1.1315517,-0.34107783,-0.67484885,1.4490718,-0.026878348,-0.58522165,0.06365505,1.3835121,1.2705283
-0.2,-0.2,0.6,-0.5235987755982988,-0.17453292519943286,-0.17453292519943286,2.030129,1.304726,0.3475336,-0.15336181,-0.23450801,1.1461,-0.54937065,-0.66475147,1.46364,-0.027708517,-0.55840486,0.08656178,1.3655075,1.3585185
-0.2,-0.2,0.6,-0.5235987755982988,-0.17453292519943286,-0.17453292519943286,2.0496387,1.299041,0.28239113,-0.1549916,-0.27776173,1.1604835,-0.39255437,-0.6884603,1.4532795,-0.0014843945,-0.5328989,0.065080635,1.3521678,1.2744255
-0.2,-0.2,0.6,-0.5235987755982988,-0.17453292519943286,-0.17453292519943286,2.0497828,1.3300637,0.35412627,-0.13186212,-0.28558886,1.1632144,-0.4240612,-0.6779304,1.4591758,0.003891467,-0.55146724,0.052039173,1.3177438,1.0848792
-0.2,-0.2,0.6,-0.5235987755982988,-0.17453292519943286,-0.17453292519943286,2.0392642,1.3047364,0.3198044,-0.14018416,-0.23003116,1.1387534,-0.42469186,-0.64533216,1.4608024,-0.025712628,-0.5457999,0.06992535,1.3827615,1.3929235
-0.2,-0.2,0.6,-0.5235987755982988,-0.17453292519943286,-0.17453292519943286,2.0165188,1.302123,0.32953733,-0.15428063,-0.2642734,1.180874,-0.37108722,-0.6899675,1.4604657,-0.0050961613,-0.55659044,0.057362206,1.3591467,1.2903955
-0.2,-0.2,0.6,-0.5235987755982988,-0.17453292519943286,-0.17453292519943286,2.0238278,1.3117485,0.33451557,-0.12732343,-0.24610682,1.158601,-0.47524744,-0.67807126,1.4561135,-0.018244753,-0.61373913,0.07143495,1.3370048,1.1831007
-0.2,-0.2,0.6,-0.5235987755982988,-0.17453292519943286,-0.17453292519943286,2.0218105,1.2993177,0.2924085,-0.158617,-0.28369936,1.1734538,-0.5117098,-0.6790163,1.4666393,-0.021604698,-0.5552237,0.043751057,1.3634555,1.5212462
-0.2,-0.2,0.6,-0.5235987755982988,-0.17453292519943286,-0.17453292519943286,2.0340915,1.2958952,0.33465257,-0.13254352,-0.24211644,1.1511259,-0.45780003,-0.65409225,1.4665853,-0.012434066,-0.5607395,0.050561965,1.4240098,1.2207748
-0.2,-0.2,0.6,-0.5235987755982988,-0.17453292519943286,-0.17453292519943286,1.956408,1.306798,0.34735855,-0.14527062,-0.27795836,1.1430337,-0.3732619,-0.67573947,1.4455352,-0.015001263,-0.5536053,0.04408489,1.3830011,1.4088241
-0.2,-0.2,0.6,-0.5235987755982988,-0.17453292519943286,-0.17453292519943286,2.0002902,1.3041404,0.31058344,-0.13676126,-0.24346125,1.1265596,-0.4134726,-0.6617466,1.4469523,-0.023204543,-0.5510153,0.038766515,1.3714863,1.1277094
-0.2,-0.2,0.6,-0.5235987755982988,-0.17453292519943286,-0.17453292519943286,2.0186994,1.3085358,0.33342084,-0.1383299,-0.24604866,1.1724232,-0.39071706,-0.6616651,1.4466062,-0.008123639,-0.5347204,0.043889705,1.3585362,1.1548169
-0.2,-0.2,0.6,-0.5235987755982988,-0.17453292519943286,-0.17453292519943286,2.0249152,1.2901922,0.3392249,-0.12575857,-0.27106133,1.1509069,-0.40794256,-0.6821844,1.45266,-0.018205969,-0.55301785,0.08025025,1.3701457,1.310453
-0.2,-0.2,0.6,-0.5235987755982988,-0.17453292519943286,-0.17453292519943286,2.047418,1.2981757,0.30542985,-0.1357445,-0.23573878,1.1518285,-0.3786186,-0.68179125,1.4692839,-0.025104374,-0.55565786,0.057475362,1.3889718,1.4036683
-0.2,-0.2,0.6,-0.5235987755982988,-0.17453292519943286,-0.17453292519943286,2.018168,1.3035681,0.31729794,-0.15668164,-0.24580622,1.1783972,-0.37149414,-0.6526012,1.4484619,-0.014760219,-0.5364409,0.024096856,1.382149,1.3751632
-0.2,-0.2,0.6,-0.5235987755982988,-0.17453292519943286,-0.17453292519943286,2.0162506,1.3010772,0.35560435,-0.14523451,-0.2811195,1.1507808,-0.42664924,-0.6949744,1.4544095,-0.031410582,-0.54743993,0.051218692,1.3448246,1.531677
-0.2,-0.2,0.6,-0.5235987755982988,-0.17453292519943286,-0.17453292519943286,2.0034883,1.3088055,0.326631,-0.14896384,-0.29704943,1.1278614,-0.3954832,-0.6398999,1.4530442,-0.027731713,-0.5827396,0.064192325,1.3932252,1.4727594
-0.2,-0.2,0.6,-0.5235987755982988,-0.17453292519943286,-0.17453292519943286,2.0383492,1.3078578,0.32990426,-0.12666763,-0.28455585,1.1393752,-0.36262688,-0.6835247,1.4581171,-0.008069335,-0.57410264,0.08672432,1.3963472,1.2876352
-0.2,-0.2,0.6,-0.5235987755982988,-0.17453292519943286,-0.17453292519943286,1.9903681,1.3040881,0.3138322,-0.14731793,-0.31207713,1.1702412,-0.45573938,-0.7049804,1.4526631,-0.0040525156,-0.57299364,0.06682487,1.3455229,1.5538609
-0.2,-0.2,0.6,-0.5235987755982988,-0.17453292519943286,-0.17453292519943286,1.9934504,1.316743,0.34925136,-0.14977334,-0.25570536,1.1499788,-0.50524676,-0.66472155,1.470066,-0.03589084,-0.5786075,0.06299898,1.3753138,1.1786586
-0.2,-0.2,0.6,-0.5235987755982988,-0.17453292519943286,-0.17453292519943286,2.029626,1.3142362,0.3611681,-0.14461452,-0.30865258,1.1547849,-0.4122156,-0.677549,1.4678113,-0.02392314,-0.5667318,0.06868576,1.3594922,1.253607
-0.2,-0.2,0.6,-0.5235987755982988,-0.17453292519943286,-0.17453292519943286,2.0548296,1.3032113,0.35095274,-0.1328653,-0.23139171,1.1557511,-0.41829076,-0.68636125,1.4155247,-0.0040008426,-0.5601662,0.056645878,1.3832259,1.259486
-0.2,-0.2,0.6,-0.5235987755982988,-0.17453292519943286,-0.17453292519943286,2.0545251,1.2940918,0.3030468,-0.14257674,-0.24935712,1.1687056,-0.38733512,-0.6706912,1.4555594,-0.022794751,-0.57165754,0.06549639,1.3701266,1.2723467
-0.2,-0.2,0.6,-0.5235987755982988,-0.17453292519943286,-0.17453292519943286,2.0407007,1.3046178,0.30087432,-0.14181322,-0.27388605,1.163548,-0.44767916,-0.6772948,1.4539353,-0.023689007,-0.5786316,0.06390526,1.3897055,1.4539759
-0.2,-0.2,0.6,-0.5235987755982988,-0.17453292519943286,-0.17453292519943286,2.025936,1.3130729,0.32218674,-0.14245482,-0.2488132,1.1615441,-0.4655517,-0.7059185,1.4555674,-0.023983097,-0.5675956,0.07013855,1.3606567,1.4362634
-0.2,-0.2,0.6,-0.5235987755982988,-0.17453292519943286,-0.17453292519943286,2.0246387,1.3090041,0.30804566,-0.14313518,-0.24905127,1.1314944,-0.5119167,-0.6802806,1.462664,-0.018130034,-0.57079506,0.058355585,1.3934073,1.3303545
-0.2,-0.2,0.6,-0.5235987755982988,-0.17453292519943286,-0.17453292519943286,2.0277603,1.3054373,0.31838322,-0.14622964,-0.2342166,1.1354374,-0.42792675,-0.627673,1.4587796,-0.028300207,-0.57327116,0.08459849,1.3769062,1.4017923
-0.2,-0.2,0.6,-0.5235987755982988,-0.17453292519943286,-0.17453292519943286,2.0407166,1.3046412,0.3048455,-0.14448568,-0.24915601,1.1450146,-0.3129336,-0.6598719,1.4641323,-0.023551453,-0.5543549,0.040966302,1.3676825,1.3187045
-0.2,-0.2,0.6,-0.5235987755982988,-0.17453292519943286,-0.17453292519943286,2.0197341,1.3039713,0.33711058,-0.1303542,-0.2522363,1.1673231,-0.41785336,-0.68666416,1.4646316,-0.026930109,-0.5704855,0.083009616,1.3787854,1.4818968
-0.2,-0.2,0.6,-0.5235987755982988,-0.17453292519943286,-0.17453292519943286,2.002819,1.3103086,0.34269246,-0.14196914,-0.2354343,1.1696403,-0.4412528,-0.68314517,1.4609842,-0.008885126,-0.55594236,0.043171205,1.3391052,1.2917858
-0.2,-0.2,0.6,-0.5235987755982988,-0.17453292519943286,-0.17453292519943286,2.0476525,1.3140168,0.31713003,-0.15166427,-0.25155327,1.1511651,-0.43685454,-0.67269087,1.453206,-0.0063852733,-0.57797396,0.08151317,1.3801858,1.3700488
-0.2,-0.2,0.6,-0.5235987755982988,-0.17453292519943286,-0.17453292519943286,1.9875233,1.307715,0.32776985,-0.16028592,-0.27601117,1.149369,-0.42581725,-0.64561015,1.4636867,-0.026256394,-0.5309176,0.053520523,1.3740889,1.3284438
-0.2,-0.2,0.6,-0.5235987755982988,-0.17453292519943286,-0.17453292519943286,2.04325,1.3080047,0.35826415,-0.16284505,-0.35588595,1.1395904,-0.4812678,-0.6688574,1.4446348,-0.025840383,-0.54045755,0.067746095,1.332,1.3215172
-0.2,-0.2,0.6,-0.5235987755982988,-0.17453292519943286,-0.17453292519943286,2.0326228,1.318433,0.35204473,-0.1531741,-0.26256242,1.1555531,-0.40083927,-0.67315805,1.4393035,-0.02723783,-0.54961395,0.07183586,1.3571112,1.2125779
-0.2,-0.2,0.6,-0.5235987755982988,-0.17453292519943286,-0.17453292519943286,2.0008614,1.2985716,0.3524068,-0.13125372,-0.25953487,1.1877587,-0.41914243,-0.69254696,1.4497111,-0.019357264,-0.5615418,0.08583681,1.359445,1.1855475
-0.2,-0.2,0.6,-0.5235987755982988,-0.17453292519943286,-0.17453292519943286,2.0189734,1.306895,0.3331061,-0.14848779,-0.25436106,1.125526,-0.5080103,-0.6659231,1.4398652,-0.02543072,-0.5116322,0.0942799,1.349966,1.172532
-0.2,-0.2,0.6,-0.5235987755982988,-0.17453292519943286,-0.17453292519943286,2.0310397,1.3102518,0.33632174,-0.1492244,-0.24616283,1.1437883,-0.36259237,-0.6637179,1.4486059,-0.018840306,-0.5412834,0.0752752,1.3791399,1.2614348
-0.2,-0.2,0.6,-0.5235987755982988,-0.17453292519943286,-0.17453292519943286,2.009475,1.294693,0.33459496,-0.13177821,-0.2570657,1.1449937,-0.4260178,-0.6796923,1.4684756,-0.026877968,-0.58451974,0.051833775,1.3728987,1.4173244
-0.2,-0.2,0.6,-0.5235987755982988,-0.17453292519943286,-0.17453292519943286,2.03878,1.3045933,0.33445835,-0.16178441,-0.24818763,1.190991,-0.49949723,-0.70371634,1.4552578,-0.043983098,-0.557849,0.047010776,1.3563105,1.3904014
-0.2,-0.2,0.6,-0.5235987755982988,-0.17453292519943286,-0.17453292519943286,2.0297613,1.3005702,0.316106,-0.14725408,-0.21169263,1.1723404,-0.39464176,-0.6770419,1.4516152,-0.03451654,-0.5760067,0.07138077,1.38815,1.4338855
-0.2,-0.2,0.6,-0.5235987755982988,-0.17453292519943286,-0.17453292519943286,2.0179527,1.3041064,0.29691035,-0.15135819,-0.24052311,1.142379,-0.40830755,-0.69322413,1.4675858,-0.017145928,-0.5992155,0.032626454,1.399352,1.470273
-0.2,-0.2,0.6,-0.5235987755982988,-0.17453292519943286,-0.17453292519943286,2.014484,1.30291,0.35277158,-0.14488684,-0.27019048,1.1532726,-0.3504434,-0.68599325,1.4560239,-0.010555815,-0.56479627,0.04046104,1.3612761,1.2669988
-0.2,-0.2,0.6,-0.5235987755982988,-0.17453292519943286,-0.17453292519943286,2.0187633,1.3090619,0.33613604,-0.10774126,-0.2319112,1.1395273,-0.46981502,-0.645851,1.4345628,-0.026489621,-0.5359229,0.03633888,1.3464167,1.3025024
-0.2,-0.2,0.6,-0.5235987755982988,-0.17453292519943286,-0.17453292519943286,2.0591867,1.3093523,0.28769317,-0.13128923,-0.24898046,1.1406027,-0.3986713,-0.6927904,1.4470084,-0.014837956,-0.53826576,0.06597255,1.3542162,1.4080132
-0.2,-0.2,0.6,-0.5235987755982988,-0.17453292519943286,-0.17453292519943286,2.0151618,1.3036234,0.3281307,-0.1266554,-0.26821107,1.1921993,-0.37392604,-0.6655694,1.4520909,-0.0069650104,-0.5494085,0.04249631,1.3765851,1.069995
-0.2,-0.2,0.6,-0.5235987755982988,-0.17453292519943286,-0.17453292519943286,2.028324,1.295171,0.3315274,-0.122138,-0.25577357,1.1809651,-0.4088739,-0.6809245,1.4520091,-0.0137932915,-0.5396003,0.034118224,1.3735378,0.934615
-0.2,-0.2,0.6,-0.5235987755982988,-0.17453292519943286,-0.17453292519943286,2.0262277,1.3168237,0.36442828,-0.12264174,-0.24257612,1.1453637,-0.36584696,-0.6810248,1.4550877,-0.014325912,-0.5558567,0.082909726,1.3940493,1.4074144
-0.2,-0.2,0.6,-0.5235987755982988,-0.17453292519943286,-0.17453292519943286,2.0288491,1.3183552,0.33086842,-0.14666744,-0.25193012,1.1731303,-0.46493658,-0.67901295,1.4343325,-0.016319474,-0.5345407,0.060168758,1.3556396,1.2907053
-0.2,-0.2,0.6,-0.5235987755982988,-0.17453292519943286,-0.17453292519943286,2.0309792,1.3085377,0.32846877,-0.14009114,-0.26689452,1.1361014,-0.37420464,-0.6769195,1.4650095,-0.0013801478,-0.5637083,0.054982528,1.372985,1.2975345
-0.2,-0.2,0.6,-0.5235987755982988,-0.17453292519943286,-0.17453292519943286,2.0303447,1.3131934,0.32691613,-0.15606044,-0.28161117,1.16187,-0.3885752,-0.67144305,1.4623144,-0.012877264,-0.5439038,0.052283186,1.359975,1.4853846
-0.2,-0.2,0.6,-0.5235987755982988,-0.17453292519943286,-0.17453292519943286,2.010826,1.2912569,0.3171992,-0.1330948,-0.24818736,1.1638287,-0.43455783,-0.68612814,1.4581652,-0.022263288,-0.567801,0.0509716,1.3793632,1.4558835
-0.2,-0.2,0.6,-0.5235987755982988,-0.17453292519943286,-0.17453292519943286,2.0436413,1.2965883,0.32028553,-0.13348997,-0.30122536,1.1554103,-0.43668598,-0.67888945,1.4618827,-0.020232324,-0.5410597,0.07555252,1.34022,1.4234573
-0.2,-0.2,0.6,-0.5235987755982988,-0.17453292519943286,-0.17453292519943286,2.01683,1.3047682,0.30508602,-0.16703062,-0.24714716,1.1887317,-0.4082713,-0.6679305,1.4418466,-0.022257507,-0.5448547,0.06557526,1.352952,1.4398276
-0.2,-0.2,0.6,-0.5235987755982988,-0.17453292519943286,-0.17453292519943286,1.9840888,1.2987059,0.35792452,-0.15022522,-0.29104668,1.147248,-0.4449076,-0.7005602,1.4611324,-0.008764867,-0.57261837,0.04254754,1.3319125,1.3655949
-0.2,-0.2,0.6,-0.5235987755982988,-0.17453292519943286,-0.17453292519943286,2.012966,1.3103709,0.32310337,-0.15902312,-0.2585165,1.1650376,-0.49994418,-0.6725502,1.4301789,-0.008922338,-0.53221303,0.061721582,1.342026,1.3655719
-0.2,-0.2,0.6,-0.5235987755982988,-0.17453292519943286,-0.17453292519943286,2.015021,1.2968565,0.2913313,-0.14262123,-0.24092768,1.1327991,-0.37513965,-0.6962911,1.4377562,-0.025701847,-0.54939985,0.06157969,1.3545073,1.335397
-0.2,-0.2,0.6,-0.5235987755982988,-0.17453292519943286,-0.17453292519943286,2.0059557,1.3000002,0.3187306,-0.15508328,-0.24233958,1.1551764,-0.42377704,-0.6725326,1.4662894,-0.021157637,-0.557931,0.068743676,1.3492798,1.5552089
-0.2,-0.2,0.6,-0.5235987755982988,-0.17453292519943286,-0.17453292519943286,2.0345566,1.309531,0.3232555,-0.1536177,-0.23037015,1.1636093,-0.3477096,-0.686862,1.4666996,-0.02249314,-0.5940414,0.042015318,1.372964,1.5911465
-0.2,-0.2,0.6,-0.5235987755982988,-0.17453292519943286,-0.17453292519943286,2.048815,1.3045629,0.31512526,-0.13986276,-0.26917422,1.1342835,-0.34121147,-0.6791968,1.4511002,-0.012971187,-0.55081195,0.023885777,1.3497392,1.4707385
-0.2,-0.2,0.6,-0.5235987755982988,-0.17453292519943286,-0.17453292519943286,2.0110135,1.3027747,0.33161968,-0.15004559,-0.25489348,1.1520355,-0.3774485,-0.69763845,1.4613541,-0.022056645,-0.5418897,0.051472582,1.3250635,1.351147
-0.2,-0.2,0.6,-0.5235987755982988,-0.17453292519943286,-0.17453292519943286,2.027517,1.3163198,0.31612357,-0.14418897,-0.2683502,1.1728127,-0.45407394,-0.6692878,1.471492,-0.021196295,-0.5374331,0.054607447,1.3067328,1.1934009
-0.2,-0.2,0.6,-0.5235987755982988,-0.17453292519943286,-0.17453292519943286,2.0363932,1.3062266,0.321056,-0.13785188,-0.23136996,1.1642021,-0.40343246,-0.66906095,1.4446297,-0.022122797,-0.5736797,0.060353607,1.3823754,1.210124
-0.2,-0.2,0.6,-0.5235987755982988,-0.17453292519943286,-0.17453292519943286,2.0512505,1.3154349,0.31118727,-0.13415381,-0.27573815,1.138544,-0.38112223,-0.69210964,1.4568081,-0.025796412,-0.5510019,0.03643628,1.3359606,1.3289676
-0.2,-0.2,0.6,-0.5235987755982988,-0.17453292519943286,-0.17453292519943286,2.0456047,1.3078183,0.32588595,-0.1471825,-0.28645077,1.1632589,-0.45475298,-0.6634443,1.4389058,-0.010426515,-0.54142445,0.049925122,1.3579761,1.2940598
-0.2,-0.2,0.6,-0.5235987755982988,-0.17453292519943286,-0.17453292519943286,2.0572321,1.3126493,0.3304366,-0.1299892,-0.2627179,1.1477702,-0.41797927,-0.6550642,1.4539961,-0.024405343,-0.54660714,0.05213534,1.3483373,1.3404081
-0.2,-0.2,0.6,-0.5235987755982988,-0.17453292519943286,-0.17453292519943286,2.050205,1.3084267,0.31786183,-0.14385252,-0.28015012,1.1504762,-0.39804456,-0.6858677,1.4532105,-0.021113668,-0.58022326,0.07343816,1.3475631,1.598434
-0.2,-0.2,0.6,-0.5235987755982988,-0.17453292519943286,-0.17453292519943286,2.0344334,1.3103086,0.3163991,-0.13626985,-0.28088564,1.1611,-0.4936869,-0.66965413,1.4586425,-0.028492639,-0.55960834,0.07103198,1.3723242,1.1329999
-0.2,-0.2,0.6,-0.5235987755982988,-0.17453292519943286,-0.17453292519943286,2.062703,1.3181733,0.3156887,-0.13469414,-0.29998186,1.142542,-0.40273285,-0.66869444,1.4429358,-0.027569154,-0.5422713,0.061335973,1.3569432,1.1245509
-0.2,-0.2,0.6,-0.5235987755982988,-0.17453292519943286,-0.17453292519943286,2.0423908,1.304151,0.3280858,-0.14473367,-0.22837125,1.1483516,-0.3944421,-0.67184716,1.4631423,-0.026991364,-0.58138967,0.049875,1.3855765,1.3098178
-0.2,-0.2,0.6,-0.5235987755982988,-0.17453292519943286,-0.17453292519943286,1.9889724,1.3082663,0.35021472,-0.1467301,-0.2362008,1.1311632,-0.45110086,-0.66835105,1.4533482,-0.024341615,-0.5612751,0.06103548,1.3872494,1.3549047
-0.2,-0.2,0.6,-0.5235987755982988,-0.17453292519943286,-0.17453292519943286,1.9953413,1.3076032,0.34656146,-0.1359478,-0.23932776,1.1583443,-0.41834584,-0.6714337,1.4329813,-0.017914802,-0.5561554,0.08255382,1.3986673,1.2906107
-0.2,-0.2,0.6,-0.5235987755982988,-0.17453292519943286,-0.17453292519943286,1.9956727,1.2991872,0.30571377,-0.13473861,-0.2505298,1.1377338,-0.4960609,-0.6719971,1.4589708,-0.0099661015,-0.5341062,0.056826133,1.3607706,1.1617194
-0.2,-0.2,0.6,-0.5235987755982988,-0.17453292519943286,-0.17453292519943286,1.9953941,1.3027673,0.33265463,-0.15139844,-0.28035903,1.1175334,-0.43653926,-0.6805013,1.4570767,-0.012232888,-0.55569565,0.059062846,1.347332,1.3247063
-0.2,-0.2,0.6,-0.5235987755982988,-0.17453292519943286,-0.17453292519943286,2.017993,1.3107735,0.34133112,-0.14531565,-0.27798557,1.1463952,-0.39748934,-0.67872894,1.4660983,-0.02858826,-0.53892887,0.06925468,1.3527888,1.2463422
-0.2,-0.2,0.6,-0.5235987755982988,-0.17453292519943286,-0.17453292519943286,2.05715,1.3024529,0.29471806,-0.13786237,-0.23479085,1.147827,-0.42988127,-0.677982,1.4697665,-0.014722594,-0.550785,0.026099894,1.3408138,1.2269492
-0.2,-0.2,0.6,-0.5235987755982988,-0.17453292519943286,-0.17453292519943286,2.0009513,1.30367,0.30540043,-0.13393955,-0.28976917,1.1493474,-0.41743982,-0.65030384,1.4667506,-0.013138323,-0.55837643,0.06709588,1.4052684,1.3976483
-0.2,-0.2,0.6,-0.5235987755982988,-0.17453292519943286,-0.17453292519943286,2.0358963,1.2995456,0.33337688,-0.15754357,-0.2472722,1.160565,-0.43944612,-0.6874861,1.4568148,-0.011938258,-0.59540665,0.044304054,1.3996315,1.332662
-0.2,-0.2,0.6,-0.5235987755982988,-0.17453292519943286,-0.17453292519943286,2.0075638,1.3197987,0.32581252,-0.14221878,-0.25478163,1.1733544,-0.4749481,-0.6779493,1.4682814,-0.02177484,-0.5642764,0.07666162,1.3347213,1.2160996
-0.2,-0.2,0.6,-0.5235987755982988,-0.17453292519943286,-0.17453292519943286,2.0149548,1.3179576,0.31703743,-0.14940377,-0.28841683,1.1574596,-0.36583912,-0.66364646,1.4478785,-0.020136211,-0.52963537,0.06620621,1.3542353,1.379491
-0.2,-0.2,0.6,-0.5235987755982988,-0.17453292519943286,-0.17453292519943286,2.0304275,1.2932454,0.29758975,-0.12825,-0.26322335,1.1433125,-0.47605476,-0.65485984,1.4624838,-0.010683636,-0.5506253,0.049600314,1.4046261,1.4233767
-0.2,-0.2,0.6,-0.5235987755982988,-0.17453292519943286,-0.17453292519943286,1.9925236,1.2974157,0.26817238,-0.16681547,-0.25499204,1.135169,-0.35376388,-0.65840155,1.4625382,-0.0017429519,-0.53191614,0.05507957,1.3615831,1.1970533
-0.2,-0.2,0.6,-0.5235987755982988,-0.17453292519943286,-0.17453292519943286,2.0246522,1.3093954,0.31011018,-0.1373117,-0.25877422,1.1588039,-0.37402344,-0.6559978,1.4636716,-0.018036408,-0.54740644,0.05040163,1.3423787,1.3601865
-0.2,-0.2,0.6,-0.5235987755982988,-0.17453292519943286,-0.17453292519943286,2.0127883,1.3093338,0.29489052,-0.1677986,-0.21805884,1.1461105,-0.3800406,-0.680261,1.4555658,-0.025429865,-0.554011,0.05011528,1.4029477,1.3722234
-0.2,-0.2,0.6,-0.5235987755982988,-0.17453292519943286,-0.17453292519943286,1.9962461,1.3156565,0.3277155,-0.12679264,-0.26307568,1.1507663,-0.43432617,-0.66045785,1.4446796,-0.02371248,-0.54968315,0.06278603,1.3530369,1.4409776
-0.2,-0.2,0.6,-0.5235987755982988,-0.17453292519943286,-0.17453292519943286,2.0097046,1.3128371,0.34890342,-0.1322517,-0.2733323,1.1387261,-0.39540187,-0.67448545,1.4654186,-0.013970582,-0.52925473,0.06849425,1.3277454,1.2104633
-0.2,-0.2,0.6,-0.5235987755982988,-0.17453292519943286,-0.17453292519943286,2.0407112,1.2980682,0.31971574,-0.13110419,-0.26582155,1.1356347,-0.37855986,-0.6820615,1.446072,-0.016029717,-0.5523461,0.080395594,1.3399788,1.2502978
-0.2,-0.2,0.6,-0.5235987755982988,-0.17453292519943286,-0.17453292519943286,2.0464616,1.3174132,0.31441325,-0.1421326,-0.27266642,1.1580003,-0.4077343,-0.67894495,1.4521308,-0.017781103,-0.53094494,0.042243462,1.332745,1.4207182
-0.2,-0.2,0.6,-0.5235987755982988,-0.17453292519943286,-0.17453292519943286,2.0380664,1.3013573,0.29725033,-0.14598921,-0.24345677,1.1466526,-0.3994038,-0.68580866,1.4389749,-0.018975373,-0.53693515,0.055470794,1.3630822,1.2149072
-0.2,-0.2,0.6,-0.5235987755982988,-0.17453292519943286,-0.17453292519943286,2.0350294,1.3013699,0.3380857,-0.14341772,-0.2661122,1.169318,-0.40703586,-0.67572093,1.4430121,-0.028776892,-0.5301302,0.045369264,1.3520285,1.210261
-0.2,-0.2,0.6,-0.5235987755982988,-0.17453292519943286,-0.17453292519943286,2.032039,1.3173587,0.31040606,-0.14050548,-0.25797766,1.177496,-0.38670045,-0.6868491,1.4516716,-0.00866315,-0.5714589,0.068332784,1.340973,1.2151902
-0.2,-0.2,0.6,-0.5235987755982988,-0.17453292519943286,-0.17453292519943286,2.0219216,1.306818,0.35430962,-0.13805866,-0.30536154,1.1278563,-0.4671379,-0.6791351,1.4612436,-0.015914453,-0.6103844,0.07151285,1.3692815,1.3530437
-0.2,-0.2,0.6,-0.5235987755982988,-0.17453292519943286,-0.17453292519943286,2.0455306,1.2993964,0.35843745,-0.14315476,-0.3032919,1.1483122,-0.4444692,-0.6770049,1.4424672,-0.031328212,-0.57070106,0.052435257,1.3190904,1.2705232
-0.2,-0.2,0.6,-0.5235987755982988,-0.17453292519943286,-0.17453292519943286,2.0190148,1.3165207,0.34029892,-0.1204998,-0.27630532,1.1593513,-0.3900126,-0.6782963,1.4620731,-0.017562216,-0.55406,0.0573207,1.3713055,1.366511
-0.2,-0.2,0.6,-0.5235987755982988,-0.17453292519943286,-0.17453292519943286,1.9844695,1.3044298,0.37856188,-0.15865816,-0.27626577,1.1659032,-0.42184797,-0.67236555,1.4487542,-0.015778242,-0.57527864,0.05630715,1.3789043,1.4761044
-0.2,-0.2,0.6,-0.5235987755982988,-0.17453292519943286,-0.17453292519943286,2.0029233,1.3150064,0.33834794,-0.16209044,-0.29032984,1.1555564,-0.3941975,-0.67912066,1.45374,-0.036638413,-0.5872096,0.051070005,1.3665124,1.4575136
-0.2,-0.2,0.6,-0.5235987755982988,-0.17453292519943286,-0.17453292519943286,2.0523024,1.308053,0.34849423,-0.121638015,-0.2582952,1.1970136,-0.41526002,-0.6785948,1.4393647,-0.02567417,-0.53408754,0.061981298,1.398413,1.4329427
-0.2,-0.2,0.6,-0.5235987755982988,-0.17453292519943286,-0.17453292519943286,2.0326147,1.306602,0.3468069,-0.14997563,-0.278662,1.1557479,-0.47198766,-0.69263095,1.4669614,-0.012335828,-0.56972027,0.086726844,1.3940691,1.1198446
-0.2,-0.2,0.6,-0.5235987755982988,-0.17453292519943286,-0.17453292519943286,2.0065053,1.2899895,0.3362917,-0.12462491,-0.2739072,1.1676149,-0.455069,-0.67853636,1.4521852,-0.024803998,-0.54179484,0.07566508,1.3524922,1.2925012
-0.2,-0.2,0.6,-0.5235987755982988,-0.17453292519943286,-0.17453292519943286,2.0189831,1.3052558,0.31109723,-0.15073363,-0.29469866,1.1525992,-0.39511025,-0.6838787,1.4383256,-0.019821053,-0.53644097,0.058408193,1.3807917,1.353123
-0.2,-0.2,0.6,-0.5235987755982988,-0.17453292519943286,-0.17453292519943286,2.0286224,1.3068886,0.3100481,-0.13120866,-0.2619523,1.1421351,-0.43087766,-0.65691364,1.4492053,-0.005423875,-0.5233011,0.0673022,1.3709224,1.3433632
-0.2,-0.2,0.6,-0.5235987755982988,-0.17453292519943286,-0.17453292519943286,2.030195,1.2933756,0.33242214,-0.114540204,-0.24793687,1.1738328,-0.44889644,-0.677794,1.4510497,-0.016904216,-0.54929984,0.043100998,1.3453038,1.2335972
-0.2,-0.2,0.6,-0.5235987755982988,-0.17453292519943286,-0.17453292519943286,2.0685835,1.3120329,0.31214473,-0.1505032,-0.27870917,1.158949,-0.38396457,-0.6882079,1.4474949,-0.024205424,-0.58235997,0.06691628,1.3112272,1.408532
-0.2,-0.2,0.6,-0.5235987755982988,-0.17453292519943286,-0.17453292519943286,2.0690904,1.3029745,0.31246647,-0.14437038,-0.28731832,1.1502012,-0.41519907,-0.67849904,1.449142,-0.010498027,-0.5681905,0.048830207,1.3466448,1.138255
-0.2,-0.2,0.6,-0.5235987755982988,-0.17453292519943286,-0.17453292519943286,2.0314379,1.30613,0.32506898,-0.14280948,-0.2657153,1.1320668,-0.38584936,-0.6729356,1.4412332,-0.01792029,-0.57233167,0.056046918,1.3684932,1.3067372
-0.2,-0.2,0.6,-0.5235987755982988,-0.17453292519943286,-0.17453292519943286,2.0358477,1.2991964,0.34383208,-0.12786518,-0.27602553,1.1626874,-0.37415832,-0.6847253,1.4475175,-0.03328701,-0.5573182,0.053263977,1.3271424,1.1850319
-0.2,-0.2,0.6,-0.5235987755982988,-0.17453292519943286,-0.17453292519943286,2.0100386,1.3111439,0.28494334,-0.12482533,-0.2729552,1.1175905,-0.43269607,-0.6740277,1.4511541,-0.017088572,-0.50637543,0.05100967,1.3139038,1.296053
-0.2,-0.2,0.6,-0.5235987755982988,-0.17453292519943286,-0.17453292519943286,2.0415034,1.314582,0.31698304,-0.12437988,-0.24224938,1.1429405,-0.360369,-0.6593846,1.4562162,-0.01420979,-0.569709,0.08443386,1.3914354,1.154614
-0.2,-0.2,0.6,-0.5235987755982988,-0.17453292519943286,-0.17453292519943286,1.9816209,1.3121877,0.34957886,-0.1434122,-0.28603724,1.1453192,-0.440051,-0.6715895,1.4684712,-0.01750221,-0.5508726,0.04166234,1.3425797,1.1211566
-0.2,-0.2,0.6,-0.5235987755982988,-0.17453292519943286,-0.17453292519943286,1.9958628,1.3057069,0.30406713,-0.13076691,-0.24151312,1.1444476,-0.4584638,-0.6850089,1.4540979,-0.017213233,-0.54942596,0.059649237,1.3433656,1.3961157
-0.2,-0.2,0.6,-0.5235987755982988,-0.17453292519943286,-0.17453292519943286,2.0568843,1.3087462,0.31011027,-0.14481135,-0.3086008,1.1744343,-0.3347391,-0.6688171,1.4521414,-0.016151194,-0.5723882,0.0739161,1.4032431,1.3071444
-0.2,-0.2,0.6,-0.5235987755982988,-0.17453292519943286,-0.17453292519943286,2.0330858,1.3062763,0.35196933,-0.14298457,-0.28810436,1.1625421,-0.5366597,-0.67481536,1.4612383,-0.021463603,-0.5306331,0.0885435,1.3457383,0.9125195
-0.2,-0.2,0.6,-0.5235987755982988,-0.17453292519943286,-0.17453292519943286,2.0153794,1.2945201,0.30848783,-0.11427312,-0.19447653,1.1652379,-0.36771637,-0.6593302,1.4567459,-0.011678973,-0.54158926,0.046287816,1.3440676,1.4789727
-0.2,-0.2,0.6,-0.5235987755982988,-0.17453292519943286,-0.17453292519943286,1.9980588,1.3006432,0.29383233,-0.13720776,-0.28746405,1.1223663,-0.36598313,-0.67487645,1.4556938,-0.022167616,-0.524693,0.066658154,1.3315686,1.194341
-0.2,-0.2,0.6,-0.5235987755982988,-0.17453292519943286,-0.17453292519943286,2.0293913,1.2997001,0.30727902,-0.14089811,-0.30875045,1.1694251,-0.49257565,-0.6563121,1.4666361,-0.025788352,-0.5398069,0.068644546,1.3595589,1.3269393
-0.2,-0.2,0.6,-0.5235987755982988,-0.17453292519943286,-0.17453292519943286,1.9886615,1.303376,0.30672863,-0.13229835,-0.25876018,1.1662711,-0.3884535,-0.6768147,1.4591292,-0.005229604,-0.57425857,0.05719044,1.4066249,1.4426308
-0.2,-0.2,0.6,-0.5235987755982988,-0.17453292519943286,-0.17453292519943286,2.0087082,1.2965162,0.30250195,-0.14254887,-0.25840306,1.1557719,-0.38527182,-0.68753296,1.4632809,-0.012843162,-0.5579609,0.027969956,1.3223617,1.1403269
-0.2,-0.2,0.6,-0.5235987755982988,-0.17453292519943286,-0.17453292519943286,1.9880323,1.3092375,0.3255478,-0.11611596,-0.26957348,1.1642076,-0.43352833,-0.6583198,1.4539938,-0.01975219,-0.53636503,0.07640902,1.3336684,1.3836786
-0.2,-0.2,0.6,-0.5235987755982988,-0.17453292519943286,-0.17453292519943286,2.0405796,1.2989478,0.33338976,-0.15545516,-0.29357213,1.1413535,-0.34345964,-0.66102785,1.4360609,-0.013306264,-0.5148145,0.054715976,1.3510711,1.1313447
-0.2,-0.2,0.6,-0.5235987755982988,-0.17453292519943286,-0.17453292519943286,2.013573,1.3084638,0.3209093,-0.12389263,-0.27344728,1.1767577,-0.40917358,-0.69078904,1.4713924,-0.024332648,-0.5572603,0.024176745,1.3297215,1.367756
-0.2,-0.2,0.6,-0.5235987755982988,-0.17453292519943286,-0.17453292519943286,2.0280626,1.3114629,0.32081705,-0.12971647,-0.22803453,1.1459652,-0.39130825,-0.68052083,1.4682682,-0.018784352,-0.55904055,0.03435497,1.3807548,1.2057091
-0.2,-0.2,0.6,-0.5235987755982988,-0.17453292519943286,-0.17453292519943286,2.0067883,1.3150095,0.31870517,-0.13054447,-0.23909622,1.1354966,-0.4429198,-0.67385936,1.4434483,-0.019096896,-0.56474334,0.046829093,1.3387674,1.3436203
-0.2,-0.2,0.6,-0.5235987755982988,-0.17453292519943286,-0.17453292519943286,2.0863514,1.3248701,0.34290558,-0.1391518,-0.3084592,1.1738904,-0.42884806,-0.6663393,1.4479914,-0.027818948,-0.568262,0.064445786,1.358332,1.3939378
-0.2,-0.2,0.6,-0.5235987755982988,-0.17453292519943286,-0.17453292519943286,2.0075357,1.2994473,0.32526073,-0.15111998,-0.2451101,1.1571761,-0.35931498,-0.6764825,1.4510529,-0.012310983,-0.57117003,0.051788483,1.3388151,1.238448
-0.2,-0.2,0.6,-0.5235987755982988,-0.17453292519943286,-0.17453292519943286,2.004955,1.3173621,0.33058378,-0.13395834,-0.23226777,1.1478885,-0.476473,-0.67621356,1.4417619,-0.017044365,-0.55803615,0.05646086,1.3769784,1.6120465
-0.2,-0.2,0.6,-0.5235987755982988,-0.17453292519943286,-0.17453292519943286,2.0159674,1.3149756,0.30445194,-0.12908301,-0.28392592,1.1213762,-0.3672254,-0.6855586,1.4691577,-0.029780658,-0.62825525,0.06941395,1.3678181,1.436428
-0.2,-0.2,0.6,-0.5235987755982988,-0.17453292519943286,-0.17453292519943286,2.0233345,1.3203478,0.31124666,-0.13862865,-0.3090034,1.1405172,-0.3872327,-0.6762257,1.4602407,-0.009230086,-0.5809274,0.09842336,1.3655578,1.4070956
-0.2,-0.2,0.6,-0.5235987755982988,-0.17453292519943286,-0.17453292519943286,1.985172,1.3007138,0.3144752,-0.14006457,-0.2567018,1.1662395,-0.43392256,-0.6772458,1.4506255,-0.026602723,-0.5675079,0.035259318,1.3221781,1.352282
-0.2,-0.2,0.6,-0.5235987755982988,-0.17453292519943286,-0.17453292519943286,1.9770215,1.3112841,0.32152024,-0.1284359,-0.2570132,1.1377814,-0.43299618,-0.666483,1.4505866,-0.01941518,-0.535318,0.034592822,1.4098716,1.4809383
-0.2,-0.2,0.6,-0.5235987755982988,-0.17453292519943286,-0.17453292519943286,2.0102215,1.2987441,0.2813197,-0.14735904,-0.2662263,1.1368525,-0.41538838,-0.6737772,1.4570607,-0.025954835,-0.53468615,0.056452814,1.3326828,1.3931888
-0.2,-0.2,0.6,-0.5235987755982988,-0.17453292519943286,-0.17453292519943286,2.0109742,1.3037748,0.3152188,-0.13947478,-0.26520073,1.1466568,-0.47293967,-0.681762,1.4568238,-0.016379025,-0.5664578,0.07503375,1.3657014,1.0792222
-0.2,-0.2,0.6,-0.5235987755982988,-0.17453292519943286,-0.17453292519943286,2.0099316,1.2976772,0.35349065,-0.1273971,-0.30982587,1.1113834,-0.48074302,-0.54267794,1.413667,-0.028509058,-0.48163798,0.06288458,1.4129447,1.3319348
-0.2,-0.2,0.6,-0.5235987755982988,-0.17453292519943286,-0.17453292519943286,1.9959948,1.3183182,0.34209776,-0.13768485,-0.23608121,1.1391793,-0.42399096,-0.70337296,1.4629066,-0.018549098,-0.57272947,0.06829853,1.3730212,1.1924955
-0.2,-0.2,0.6,-0.5235987755982988,-0.17453292519943286,-0.17453292519943286,2.0083435,1.3063453,0.32101077,-0.13533849,-0.25861588,1.1633117,-0.4044476,-0.7018581,1.4505919,-0.011945475,-0.5351386,0.069359295,1.3742117,1.2661134
-0.2,-0.2,0.6,-0.5235987755982988,-0.17453292519943286,-0.17453292519943286,2.0670302,1.3080493,0.2964146,-0.16278817,-0.26071432,1.1413357,-0.39181724,-0.5870447,1.4445895,-0.022588613,-0.50316447,0.05307029,1.3398479,1.277476
-0.2,-0.2,0.6,-0.5235987755982988,-0.17453292519943286,-0.17453292519943286,2.04116,1.3047588,0.28921077,-0.14885981,-0.27567962,1.1784239,-0.31292847,-0.64224017,1.4572718,-0.006551072,-0.55752546,0.0598186,1.3492024,1.2395569
-0.2,-0.2,0.6,-0.5235987755982988,-0.17453292519943286,-0.17453292519943286,2.0262492,1.3082508,0.29784366,-0.14539848,-0.2465029,1.1757215,-0.46428183,-0.6701878,1.4528089,-0.029740416,-0.58274806,0.05449017,1.3781438,1.378325
-0.2,-0.2,0.6,-0.5235987755982988,-0.17453292519943286,-0.17453292519943286,2.0324814,1.315775,0.2758387,-0.13211031,-0.22381057,1.1635991,-0.41488907,-0.7024151,1.4547654,-0.019175734,-0.5617958,0.0669304,1.3275043,1.0553144
-0.2,-0.2,0.6,-0.5235987755982988,-0.17453292519943286,-0.17453292519943286,2.0129735,1.2928749,0.3236349,-0.12751353,-0.28586617,1.1930932,-0.40301418,-0.69588214,1.4286926,-0.02842253,-0.5418374,0.04723304,1.3659819,1.4612563
-0.2,-0.2,0.6,-0.5235987755982988,-0.17453292519943286,-0.17453292519943286,2.0208757,1.3072587,0.31038657,-0.13540445,-0.22449766,1.1338938,-0.419714,-0.6713899,1.4526889,-0.012443576,-0.5408518,0.04450521,1.3154103,1.2986535
-0.2,-0.2,0.6,-0.5235987755982988,-0.17453292519943286,-0.17453292519943286,2.0191076,1.3044525,0.30335942,-0.13169678,-0.27894494,1.1426604,-0.35120174,-0.66006666,1.4680098,-0.034605943,-0.55423474,0.06730413,1.3187882,1.0705829
-0.2,-0.2,0.6,-0.5235987755982988,-0.17453292519943286,-0.17453292519943286,2.037859,1.3003373,0.26287365,-0.13901968,-0.26979813,1.149332,-0.38739485,-0.68924373,1.4588014,0.0028102493,-0.56124175,0.08402962,1.3458803,1.3164229
-0.2,-0.2,0.6,-0.5235987755982988,-0.17453292519943286,-0.17453292519943286,2.0359247,1.3063333,0.34224883,-0.1514242,-0.28623524,1.1486827,-0.45238593,-0.6739751,1.4630636,-0.025950076,-0.57864887,0.06680441,1.3707079,1.2044636
-0.2,-0.2,0.6,-0.5235987755982988,-0.17453292519943286,-0.17453292519943286,2.016541,1.2984561,0.3146117,-0.13156945,-0.22394276,1.1653891,-0.39456087,-0.6633522,1.4549388,-0.02481779,-0.5914936,0.04387119,1.3868747,1.4193469
-0.2,-0.2,0.6,-0.5235987755982988,-0.17453292519943286,-0.17453292519943286,1.9941279,1.3024833,0.31912178,-0.1305298,-0.2855257,1.1740932,-0.37898722,-0.66335356,1.4548068,-0.023734802,-0.58094263,0.083309665,1.3388029,1.3470035
-0.2,-0.2,0.6,-0.5235987755982988,-0.17453292519943286,-0.17453292519943286,2.0177915,1.3209461,0.3094179,-0.14108318,-0.2386905,1.1958047,-0.3691439,-0.6569032,1.4715607,-0.014021377,-0.5680139,0.034053136,1.3809872,1.331136
-0.2,-0.2,0.6,-0.5235987755982988,-0.17453292519943286,-0.17453292519943286,2.0606558,1.3062805,0.3127632,-0.16049387,-0.23164713,1.1672413,-0.40904024,-0.66851026,1.4709653,-0.021412361,-0.5580107,0.054968998,1.3728232,1.3060644
-0.2,-0.2,0.6,-0.5235987755982988,-0.17453292519943286,-0.17453292519943286,2.0212393,1.3053287,0.31021062,-0.14636771,-0.2875531,1.1319929,-0.39258024,-0.67634803,1.4528413,-0.0144681875,-0.58263296,0.08273036,1.3420155,1.3910651
-0.2,-0.2,0.6,-0.5235987755982988,-0.17453292519943286,-0.17453292519943286,2.006857,1.3048826,0.32415515,-0.15505137,-0.25167152,1.152245,-0.4853914,-0.6661932,1.456819,-0.011339656,-0.56170905,0.05130055,1.3800863,1.4161124
-0.2,-0.2,0.6,-0.5235987755982988,-0.17453292519943286,-0.17453292519943286,2.0154629,1.318046,0.31270254,-0.14630923,-0.28743327,1.166301,-0.3482105,-0.6541731,1.4685377,-0.006081574,-0.5322961,0.046187706,1.3742073,1.2880743
-0.2,-0.2,0.6,-0.5235987755982988,-0.17453292519943286,-0.17453292519943286,2.0220864,1.3180935,0.2852803,-0.14886342,-0.24455597,1.1609831,-0.39035425,-0.66418093,1.454177,-0.030009894,-0.59275126,0.044969466,1.352193,1.5113573
-0.2,-0.2,0.6,-0.5235987755982988,-0.17453292519943286,-0.17453292519943286,2.0080013,1.3037993,0.33537194,-0.134237,-0.28873068,1.1444594,-0.35826707,-0.6692503,1.4489552,-0.021304127,-0.5548108,0.045239363,1.3838497,1.4242116
-0.2,-0.2,0.6,-0.5235987755982988,-0.17453292519943286,-0.17453292519943286,2.0362873,1.3009362,0.2836079,-0.15726987,-0.2509415,1.1436366,-0.40562537,-0.679276,1.4653441,-0.008822616,-0.54300344,0.06585953,1.4106052,1.303634
-0.2,-0.2,0.6,-0.5235987755982988,-0.17453292519943286,-0.17453292519943286,2.0308397,1.2997937,0.30968416,-0.12405804,-0.2736904,1.1421026,-0.45527235,-0.6755451,1.446321,-0.0077492134,-0.5573231,0.065422446,1.3257517,1.2722733
-0.2,-0.2,0.6,-0.5235987755982988,-0.17453292519943286,-0.17453292519943286,2.000555,1.2985901,0.32930833,-0.13773559,-0.2677342,1.1635126,-0.32075822,-0.65848196,1.4505541,-0.012725001,-0.56655186,0.063748844,1.3842713,1.164356
-0.2,-0.2,0.6,-0.5235987755982988,-0.17453292519943286,-0.17453292519943286,2.018753,1.3011022,0.32416064,-0.13895914,-0.2781359,1.1664488,-0.42031318,-0.70919895,1.454811,-0.016970297,-0.53368086,0.06141018,1.3556973,1.2146432
-0.2,-0.2,0.6,-0.5235987755982988,-0.17453292519943286,-0.17453292519943286,2.0459208,1.3047965,0.29622993,-0.13718575,-0.29541838,1.154533,-0.42848465,-0.64034605,1.4617686,-0.017045582,-0.58552456,0.045476433,1.3626176,1.43788
-0.2,-0.2,0.6,-0.5235987755982988,-0.17453292519943286,-0.17453292519943286,2.0119736,1.305319,0.31155616,-0.16067693,-0.23934078,1.1285946,-0.326699,-0.6774374,1.4680314,-0.016295366,-0.56287,0.054881994,1.3896226,1.2984903
-0.2,-0.2,0.6,-0.5235987755982988,-0.17453292519943286,-0.17453292519943286,2.056526,1.3059092,0.34570262,-0.1513721,-0.2808063,1.1361295,-0.4281565,-0.6581146,1.4322829,-0.010685038,-0.54611915,0.076759785,1.3977083,0.9505934
-0.2,-0.2,0.6,-0.5235987755982988,-0.17453292519943286,-0.17453292519943286,2.0292625,1.307313,0.30852017,-0.12083912,-0.26921615,1.1512401,-0.4323012,-0.6748501,1.4634389,-0.014485355,-0.58513814,0.03877538,1.3589352,1.2835922
-0.2,-0.2,0.6,-0.5235987755982988,-0.17453292519943286,-0.17453292519943286,2.0330267,1.3124472,0.31018567,-0.12654121,-0.30311275,1.136229,-0.35298505,-0.6631495,1.4531448,-0.009750118,-0.5460566,0.05268164,1.3079599,1.2464675
-0.2,-0.2,0.6,-0.5235987755982988,-0.17453292519943286,-0.17453292519943286,2.0232437,1.3015202,0.29914808,-0.13567676,-0.26649803,1.1534588,-0.41365916,-0.6654369,1.4680699,0.003848366,-0.57522565,0.08853209,1.3941183,1.1425159
-0.2,-0.2,0.6,-0.5235987755982988,-0.17453292519943286,-0.17453292519943286,1.9963332,1.3032253,0.32737556,-0.16113701,-0.2561313,1.1307192,-0.4448399,-0.6740379,1.466339,-0.020912182,-0.5477285,0.07115315,1.3655483,1.3269159
-0.2,-0.2,0.6,-0.5235987755982988,-0.17453292519943286,-0.17453292519943286,1.9887276,1.3023888,0.3515671,-0.14930743,-0.31252402,1.1323867,-0.3843018,-0.6445728,1.4661754,-0.0037688247,-0.5503274,0.037267398,1.386094,1.2444055
-0.2,-0.2,0.6,-0.5235987755982988,-0.17453292519943286,-0.17453292519943286,2.0417502,1.3216568,0.2869787,-0.13161857,-0.24626616,1.1586372,-0.34976235,-0.67130816,1.4553795,-0.014785751,-0.5685922,0.07288431,1.3337444,1.43061
-0.2,-0.2,0.6,-0.5235987755982988,-0.17453292519943286,-0.17453292519943286,2.0300808,1.2997798,0.32105404,-0.14376281,-0.24406923,1.1445092,-0.37191403,-0.6859069,1.4704415,-0.012855281,-0.54430944,0.032301083,1.3169754,1.2309439
-0.2,-0.2,0.6,-0.5235987755982988,-0.17453292519943286,-0.17453292519943286,2.0392163,1.3016788,0.2878342,-0.13964167,-0.24544029,1.1339394,-0.42119887,-0.65055704,1.4695121,-0.006655554,-0.56176215,0.05524848,1.3885643,1.3700379
-0.2,-0.2,0.6,-0.5235987755982988,-0.17453292519943286,-0.17453292519943286,2.0125268,1.3076112,0.34086376,-0.1467025,-0.25533992,1.1704106,-0.4045098,-0.67676544,1.4566941,-0.00033419547,-0.5428583,0.07133174,1.391815,1.4599952
-0.2,-0.2,0.6,-0.5235987755982988,-0.17453292519943286,-0.17453292519943286,2.0358994,1.2990527,0.31041014,-0.14697699,-0.28403026,1.1372447,-0.39734548,-0.66356665,1.4527901,-0.020188844,-0.5639074,0.06834596,1.4006716,1.2777351
-0.2,-0.2,0.6,-0.5235987755982988,-0.17453292519943286,-0.17453292519943286,2.0233307,1.3034422,0.29242814,-0.13655777,-0.2520581,1.1563845,-0.37465164,-0.6605581,1.4500134,-0.024881737,-0.54698646,0.0583985,1.3472681,1.1678668
-0.2,-0.2,0.6,-0.5235987755982988,-0.17453292519943286,-0.17453292519943286,2.0512507,1.3087991,0.28007302,-0.15176821,-0.2522652,1.1632963,-0.44191498,-0.69071853,1.4579678,-0.024598954,-0.5467916,0.055357605,1.335232,1.3791776
-0.2,-0.2,0.6,-0.5235987755982988,-0.17453292519943286,-0.17453292519943286,2.013656,1.3086786,0.28305548,-0.14225338,-0.24156097,1.1055242,-0.45468405,-0.66040885,1.4654859,-0.015760094,-0.55943537,0.058956146,1.3681066,1.1993618
-0.2,-0.2,0.6,-0.5235987755982988,-0.17453292519943286,-0.17453292519943286,2.0409997,1.304599,0.30971056,-0.12552302,-0.28624627,1.1519048,-0.3763171,-0.6648084,1.456054,-0.026722545,-0.5458114,0.050981153,1.356475,1.4884143
-0.2,-0.2,0.6,-0.5235987755982988,-0.17453292519943286,-0.17453292519943286,2.045794,1.3038003,0.32435265,-0.14917912,-0.27521658,1.1595287,-0.3715621,-0.68600076,1.457484,-0.0041502407,-0.5592729,0.07456177,1.3697891,1.2450578
-0.2,-0.2,0.6,-0.5235987755982988,-0.17453292519943286,-0.17453292519943286,1.9980744,1.3070042,0.32955196,-0.13844614,-0.2580471,1.169143,-0.41606236,-0.66426873,1.4639641,-0.011989048,-0.5322276,0.05991182,1.3684908,1.2774843
-0.2,-0.2,0.6,-0.5235987755982988,-0.17453292519943286,-0.17453292519943286,2.0675468,1.3079598,0.30816463,-0.13239844,-0.2624925,1.1673838,-0.3958847,-0.6550371,1.4581584,-0.026664512,-0.56799644,0.051950354,1.3845859,1.2483351
-0.2,-0.2,0.6,-0.5235987755982988,-0.17453292519943286,-0.17453292519943286,2.0303328,1.3018028,0.35383114,-0.14886944,-0.2588018,1.1443487,-0.40271097,-0.6755368,1.4596387,-0.020362873,-0.53723866,0.079443894,1.4064288,1.2654045
-0.2,-0.2,0.6,-0.5235987755982988,-0.17453292519943286,-0.17453292519943286,2.051627,1.3037515,0.31114045,-0.15282813,-0.28762347,1.140312,-0.40288803,-0.63696957,1.468325,-0.015002461,-0.57299775,0.05256168,1.3877192,1.2883863
-0.2,-0.2,0.6,-0.5235987755982988,-0.17453292519943286,-0.17453292519943286,2.0231407,1.3058362,0.30052042,-0.11930429,-0.27723768,1.1321675,-0.41507322,-0.6649867,1.4684961,-0.022062065,-0.60240924,0.06688177,1.3756803,1.3168997
-0.2,-0.2,0.6,-0.5235987755982988,-0.17453292519943286,-0.17453292519943286,2.0485487,1.313247,0.3358787,-0.13945775,-0.28534716,1.1515456,-0.46692213,-0.68768835,1.4600298,-0.003646289,-0.5570947,0.059980944,1.3440155,1.1425143
-0.2,-0.2,0.6,-0.5235987755982988,-0.17453292519943286,-0.17453292519943286,2.0338416,1.3174697,0.30296654,-0.15134197,-0.24230246,1.165768,-0.38483483,-0.67244005,1.4697081,-0.01619296,-0.5484636,0.069434285,1.3570178,1.3408475
-0.2,-0.2,0.6,-0.5235987755982988,-0.17453292519943286,-0.17453292519943286,2.0239637,1.310481,0.29476905,-0.15669507,-0.23185258,1.1583434,-0.4370299,-0.67008257,1.4781877,-0.015427594,-0.5674804,0.047837805,1.3334594,1.1268325
-0.2,-0.2,0.6,-0.5235987755982988,-0.17453292519943286,-0.17453292519943286,2.0296273,1.2990514,0.30792412,-0.15532282,-0.2760258,1.1461048,-0.46261412,-0.6809678,1.4702481,-0.011289613,-0.5626799,0.058437686,1.3655746,1.3246888
-0.2,-0.2,0.6,-0.5235987755982988,-0.17453292519943286,-0.17453292519943286,2.0431628,1.3174704,0.3224195,-0.15636837,-0.26597083,1.1343443,-0.31800613,-0.6451225,1.4686494,-0.019029208,-0.58060706,0.06055913,1.3747909,1.2738258
-0.2,-0.2,0.6,-0.5235987755982988,-0.17453292519943286,-0.17453292519943286,2.0077443,1.3014423,0.29373938,-0.14594033,-0.24331504,1.164926,-0.40194735,-0.6698936,1.4579605,-0.0073008365,-0.55334324,0.045576543,1.3390888,1.2209402
-0.2,-0.2,0.6,-0.5235987755982988,-0.17453292519943286,-0.17453292519943286,2.0175617,1.3132924,0.30339172,-0.14585036,-0.28975084,1.1853174,-0.41189384,-0.68718785,1.4811407,-0.022063006,-0.5493589,0.06514019,1.3404146,1.3711246
-0.2,-0.2,0.6,-0.5235987755982988,-0.17453292519943286,-0.17453292519943286,1.9922493,1.3168014,0.30333102,-0.1518901,-0.25676212,1.1810403,-0.3414655,-0.69918406,1.458339,-0.01758271,-0.5329186,0.06578953,1.3037457,1.3900532
-0.2,-0.2,0.6,-0.5235987755982988,-0.17453292519943286,-0.17453292519943286,2.0332947,1.3058891,0.33607417,-0.14786041,-0.24872711,1.1584474,-0.4004407,-0.6800143,1.4621707,-0.0055317055,-0.5364709,0.04987848,1.4065807,1.2343462
-0.2,-0.2,0.6,-0.5235987755982988,-0.17453292519943286,-0.17453292519943286,2.059315,1.3064438,0.3205286,-0.14438367,-0.28154254,1.1153114,-0.41695035,-0.67217696,1.4711404,-0.021971334,-0.5421908,0.09444257,1.3697498,1.1690916
-0.2,-0.2,0.6,-0.5235987755982988,-0.17453292519943286,-0.17453292519943286,2.0108478,1.2995871,0.35082915,-0.16352434,-0.3199097,1.146424,-0.40194628,-0.679201,1.4805247,-0.019575639,-0.56485164,0.04138533,1.4098786,1.2409133
-0.2,-0.2,0.6,-0.5235987755982988,-0.17453292519943286,-0.17453292519943286,2.0621922,1.2967923,0.2908781,-0.13768335,-0.260097,1.1356936,-0.35776368,-0.679304,1.473752,-0.01342797,-0.5496156,0.071818225,1.3480105,1.1606246
-0.2,-0.2,0.6,-0.5235987755982988,-0.17453292519943286,-0.17453292519943286,2.0317874,1.3057971,0.34217328,-0.13603103,-0.30683488,1.1927829,-0.4098315,-0.67877257,1.4730608,-0.005518658,-0.5646454,0.065944254,1.3642678,1.0651159
-0.2,-0.2,0.6,-0.5235987755982988,-0.17453292519943286,-0.17453292519943286,2.0226986,1.3001972,0.31156126,-0.1421432,-0.242585,1.1772747,-0.38559276,-0.6641749,1.4684954,-0.023723066,-0.53886425,0.0754545,1.3592552,1.0184575
-0.2,-0.2,0.6,-0.5235987755982988,-0.17453292519943286,-0.17453292519943286,2.0368598,1.2982947,0.32560024,-0.13058424,-0.29854888,1.1937895,-0.44831568,-0.6787661,1.4707795,-0.012863296,-0.53510326,0.050777126,1.330127,1.1597562
-0.2,-0.2,0.6,-0.5235987755982988,-0.17453292519943286,-0.17453292519943286,1.9938911,1.3083434,0.32934096,-0.16782132,-0.28817007,1.1815982,-0.3774935,-0.66544455,1.471785,-0.034097295,-0.5438418,0.06407857,1.3676916,1.336405
-0.2,-0.2,0.6,-0.5235987755982988,-0.17453292519943286,-0.17453292519943286,2.0377429,1.3133146,0.3142017,-0.12554355,-0.26647282,1.1581765,-0.41794124,-0.67687756,1.482692,-0.0048836158,-0.55229,0.06827534,1.3584342,1.3372023
-0.2,-0.2,0.6,-0.5235987755982988,-0.17453292519943286,-0.17453292519943286,2.0553136,1.300255,0.2965369,-0.15450548,-0.2845079,1.130674,-0.39688063,-0.65658784,1.4574814,-0.027024962,-0.54178745,0.03549736,1.3654034,1.4472654
-0.2,-0.2,0.6,-0.5235987755982988,-0.17453292519943286,-0.17453292519943286,2.0217555,1.2913473,0.30343428,-0.15323398,-0.2799451,1.1481295,-0.3884074,-0.6628682,1.4557825,-0.016765803,-0.5568192,0.047100157,1.3876115,1.2468365
-0.2,-0.2,0.6,-0.5235987755982988,-0.17453292519943286,-0.17453292519943286,2.0366392,1.2921702,0.26767328,-0.14909633,-0.2294481,1.1497334,-0.4048586,-0.6623519,1.4649394,-0.00803289,-0.55882776,0.053007413,1.3664418,1.2499315
-0.2,-0.2,0.6,-0.5235987755982988,-0.17453292519943286,-0.17453292519943286,1.99844,1.2954986,0.3339755,-0.15233125,-0.26189095,1.1452342,-0.32362548,-0.6937313,1.4509059,-0.018049343,-0.57261807,0.0687198,1.3425109,1.2735295
-0.2,-0.2,0.6,-0.5235987755982988,-0.17453292519943286,-0.17453292519943286,2.024092,1.307747,0.3046552,-0.14399576,-0.24684583,1.164366,-0.35189572,-0.68750644,1.4563781,-0.017435465,-0.55687904,0.05774248,1.3359724,1.2282029
-0.2,-0.2,0.6,-0.5235987755982988,-0.17453292519943286,-0.17453292519943286,2.030965,1.2940265,0.29977757,-0.1594263,-0.2226916,1.1699809,-0.4274963,-0.6759747,1.4597639,-0.00841892,-0.5635092,0.085506834,1.372849,1.5653882
-0.2,-0.2,0.6,-0.5235987755982988,-0.17453292519943286,-0.17453292519943286,2.0115643,1.3079041,0.36300537,-0.13645875,-0.29170066,1.1866988,-0.37862206,-0.6937235,1.4652334,-0.013559426,-0.5615122,0.075152285,1.3740163,1.1021042
-0.2,-0.2,0.6,-0.5235987755982988,-0.17453292519943286,-0.17453292519943286,2.0137546,1.3131266,0.26037636,-0.15734755,-0.22292973,1.1887517,-0.49892387,-0.66213655,1.4627615,-0.021370744,-0.53928554,0.047491103,1.3359283,1.4205577
-0.2,-0.2,0.6,-0.5235987755982988,-0.17453292519943286,-0.17453292519943286,2.0248494,1.3113374,0.31131783,-0.15642715,-0.32492217,1.1552591,-0.47904414,-0.7143606,1.4709568,-0.021433577,-0.56052774,0.06834565,1.3807976,1.323762
-0.2,-0.2,0.6,-0.5235987755982988,-0.17453292519943286,-0.17453292519943286,2.0069056,1.3182018,0.34766927,-0.11813529,-0.25828415,1.1455534,-0.4115602,-0.681923,1.4602135,-0.014974017,-0.55832857,0.05382467,1.338642,1.175914
-0.2,-0.2,0.6,-0.5235987755982988,-0.17453292519943286,-0.17453292519943286,2.0202823,1.2919396,0.32084778,-0.1477818,-0.29923666,1.1750933,-0.42674944,-0.64954203,1.4621143,-0.015052473,-0.5447158,0.04524203,1.3899434,1.2854966
-0.2,-0.2,0.6,-0.5235987755982988,-0.17453292519943286,-0.17453292519943286,2.055134,1.307947,0.30329457,-0.1358326,-0.27039954,1.1616827,-0.44154778,-0.69210744,1.4591192,-0.01082714,-0.5895255,0.05933509,1.3375838,1.5723618
-0.2,-0.2,0.6,-0.5235987755982988,-0.17453292519943286,-0.17453292519943286,2.0041885,1.2930626,0.29958394,-0.12623401,-0.24153808,1.1337848,-0.31866857,-0.69010955,1.4662688,-0.0335946,-0.52714354,0.046507344,1.3247279,1.4633524
-0.2,-0.2,0.6,-0.5235987755982988,-0.17453292519943286,-0.17453292519943286,2.0157785,1.2975224,0.34985682,-0.13195284,-0.32956627,1.1303455,-0.30932692,-0.67818767,1.4742211,-0.03392145,-0.5613972,0.0570679,1.3672949,1.3005394
-0.2,-0.2,0.6,-0.5235987755982988,-0.17453292519943286,-0.17453292519943286,1.9768208,1.297452,0.29874867,-0.15779059,-0.26673177,1.138571,-0.3699925,-0.6882,1.4481165,-0.012306209,-0.5352292,0.0645692,1.3428167,1.2247393
-0.2,-0.2,0.6,-0.5235987755982988,-0.17453292519943286,-0.17453292519943286,2.0043576,1.315075,0.30281967,-0.1350355,-0.18584508,1.1589528,-0.3674883,-0.6761263,1.462141,-0.013001991,-0.57577693,0.05874853,1.3511083,1.2090145
-0.2,-0.2,0.6,-0.5235987755982988,-0.17453292519943286,-0.17453292519943286,2.0544322,1.3117296,0.3286019,-0.1352176,-0.27140906,1.1731138,-0.4812597,-0.6578417,1.472369,-0.0190197,-0.5950836,0.03748706,1.3729509,1.6228421
-0.2,-0.2,0.6,-0.5235987755982988,-0.17453292519943286,-0.17453292519943286,2.0127378,1.3228086,0.36258852,-0.13234566,-0.29977983,1.1587771,-0.34279394,-0.6542966,1.4709089,-0.011395149,-0.5574698,0.025013013,1.3560196,1.4388866
-0.2,-0.2,0.6,-0.5235987755982988,-0.17453292519943286,-0.17453292519943286,1.9862467,1.315512,0.31801328,-0.13135272,-0.26832554,1.1290734,-0.46519038,-0.67115724,1.4497858,-0.0039561796,-0.5418661,0.0561734,1.3607192,1.2549546
-0.2,-0.2,0.6,-0.5235987755982988,-0.17453292519943286,-0.17453292519943286,2.0620313,1.296277,0.3302304,-0.13561128,-0.29133323,1.1573145,-0.5294065,-0.6492435,1.4703848,0.0058082724,-0.56359977,0.046054624,1.3761846,1.3949088
-0.2,-0.2,0.6,-0.5235987755982988,-0.17453292519943286,-0.17453292519943286,2.0575743,1.3084798,0.33245224,-0.14220457,-0.28210047,1.1394731,-0.36307928,-0.6917976,1.4681107,-0.016662037,-0.53284955,0.07916553,1.3364302,1.2802922
-0.2,-0.2,0.6,-0.5235987755982988,-0.17453292519943286,-0.17453292519943286,2.0631146,1.3133197,0.32521704,-0.16028415,-0.25696954,1.1585178,-0.4486485,-0.6950613,1.4767711,-0.022100147,-0.5570186,0.059731644,1.3683798,1.1425326
-0.2,-0.2,0.6,-0.5235987755982988,-0.17453292519943286,-0.17453292519943286,2.0495539,1.3046081,0.31045467,-0.14563799,-0.25488922,1.1726109,-0.34845424,-0.6889969,1.4567635,-0.016909223,-0.5564801,0.07946116,1.3009536,1.0180186
-0.2,-0.2,0.6,-0.5235987755982988,-0.17453292519943286,-0.17453292519943286,2.0225415,1.3166647,0.29922307,-0.13715154,-0.27522,1.1434171,-0.40672338,-0.67424244,1.463027,-0.027091267,-0.5724618,0.061027065,1.3630753,1.127725
-0.2,-0.2,0.6,-0.5235987755982988,-0.17453292519943286,-0.17453292519943286,2.0448318,1.3151258,0.30318022,-0.16274966,-0.24296322,1.1729188,-0.31634352,-0.6953344,1.4765059,-0.01150725,-0.55537367,0.071942426,1.3340682,1.4058024
-0.2,-0.2,0.6,-0.5235987755982988,-0.17453292519943286,-0.17453292519943286,2.0076284,1.3164877,0.29704714,-0.1369932,-0.26633683,1.1348419,-0.4340338,-0.6594319,1.4669005,-0.031642403,-0.56099856,0.08257793,1.3552221,1.1915662
-0.2,-0.2,0.6,-0.5235987755982988,-0.17453292519943286,-0.17453292519943286,2.0287063,1.3017641,0.26884854,-0.13059384,-0.2606372,1.1729599,-0.4063027,-0.68645495,1.465822,-0.015300921,-0.5448503,0.044008255,1.3931633,1.5743225
-0.2,-0.2,0.6,-0.5235987755982988,-0.17453292519943286,-0.17453292519943286,2.0274558,1.3095053,0.31587958,-0.15202743,-0.2755625,1.154525,-0.3699265,-0.6657807,1.4652486,-0.014484402,-0.5366797,0.05199332,1.3640934,1.3200253
-0.2,-0.2,0.6,-0.5235987755982988,-0.17453292519943286,-0.17453292519943286,2.0134294,1.3139685,0.33200365,-0.14591193,-0.27034494,1.1511786,-0.40149757,-0.687135,1.4670646,-0.009340395,-0.5479296,0.08013406,1.3519341,1.2553892
-0.2,-0.2,0.6,-0.5235987755982988,-0.17453292519943286,-0.17453292519943286,2.02018,1.3065548,0.31602535,-0.14159392,-0.25959015,1.11357,-0.39151365,-0.64908105,1.4700657,-0.020579675,-0.5779715,0.034102865,1.3577188,1.3767726
-0.2,-0.2,0.6,-0.5235987755982988,-0.17453292519943286,-0.17453292519943286,2.021083,1.3293142,0.33834675,-0.13738295,-0.25986487,1.1370504,-0.32972336,-0.64473706,1.4530964,-0.026869262,-0.5641766,0.034046974,1.3809478,1.3436825
-0.2,-0.2,0.6,-0.5235987755982988,-0.17453292519943286,-0.17453292519943286,2.0110252,1.2955539,0.32524246,-0.13504896,-0.230166,1.1774906,-0.41733122,-0.6596954,1.4566313,-0.016695587,-0.5750229,0.050538715,1.3511902,1.1088874
-0.2,-0.2,0.6,-0.5235987755982988,-0.17453292519943286,-0.17453292519943286,2.0493171,1.2984014,0.33316982,-0.1390851,-0.29923874,1.1563164,-0.43522623,-0.6886785,1.4640427,-0.01646625,-0.5387828,0.06524539,1.339564,1.3090855
-0.2,-0.2,0.6,-0.5235987755982988,-0.17453292519943286,-0.17453292519943286,2.0284157,1.304837,0.31304088,-0.14174482,-0.25315478,1.128788,-0.35869932,-0.64102626,1.4580271,-0.027240962,-0.5524056,0.10455131,1.4063663,1.3107182
-0.2,-0.2,0.6,-0.5235987755982988,-0.17453292519943286,-0.17453292519943286,1.9997612,1.3188763,0.37591565,-0.14703774,-0.2967322,1.1682478,-0.43312967,-0.67475915,1.458415,-0.022011638,-0.5489076,0.05011149,1.3490419,1.3054078
-0.2,-0.2,0.6,-0.5235987755982988,-0.17453292519943286,-0.17453292519943286,2.004428,1.3082128,0.32755208,-0.14265317,-0.30185804,1.1837924,-0.405432,-0.68512887,1.4656903,-0.0071699726,-0.53066796,0.06470655,1.3626117,1.1876177
-0.2,-0.2,0.6,-0.5235987755982988,-0.17453292519943286,-0.17453292519943286,2.0094416,1.3077618,0.31253982,-0.16281775,-0.25087753,1.139701,-0.39051852,-0.6702843,1.4518564,-0.028350664,-0.62950724,0.01830807,1.3849914,1.3884277
-0.2,-0.2,0.6,-0.5235987755982988,-0.17453292519943286,-0.17453292519943286,2.0172791,1.3100343,0.34566694,-0.12911205,-0.2938658,1.1632627,-0.449962,-0.66704607,1.4636245,-0.006854507,-0.5580779,0.057055995,1.3852719,1.2137539
-0.2,-0.2,0.6,-0.5235987755982988,-0.17453292519943286,-0.17453292519943286,2.0485601,1.3092285,0.31011173,-0.13124132,-0.2711367,1.1913085,-0.42906085,-0.655973,1.4534534,-0.018354978,-0.56907743,0.07748334,1.3980595,1.3950902
-0.2,-0.2,0.6,-0.5235987755982988,-0.17453292519943286,-0.17453292519943286,2.0371647,1.3049674,0.29997447,-0.1366504,-0.26169628,1.1464651,-0.3543306,-0.67421484,1.4657106,-0.023761787,-0.52789825,0.07310025,1.331198,1.4030724
-0.2,-0.2,0.6,-0.5235987755982988,-0.17453292519943286,-0.17453292519943286,2.0169477,1.301431,0.29677695,-0.14895284,-0.21049276,1.1378745,-0.3898355,-0.6986741,1.4588424,-0.013043166,-0.55370486,0.075365834,1.348292,1.2908589
-0.2,-0.2,0.6,-0.5235987755982988,-0.17453292519943286,-0.17453292519943286,2.0090938,1.3080273,0.3357849,-0.1422271,-0.25309917,1.1595135,-0.43942943,-0.65654397,1.4576931,-0.024302522,-0.5449352,0.05623102,1.3627732,1.240763
-0.2,-0.2,0.6,-0.5235987755982988,-0.17453292519943286,-0.17453292519943286,2.036115,1.3043047,0.3057521,-0.15006208,-0.24126221,1.1546626,-0.38143465,-0.65348274,1.4613589,-0.0009861247,-0.55980027,0.056292113,1.3571935,1.3581185
-0.2,-0.2,0.6,-0.5235987755982988,-0.17453292519943286,-0.17453292519943286,2.0754547,1.303072,0.28823888,-0.1367929,-0.29127645,1.1378803,-0.41099942,-0.67234087,1.4551686,-0.012984306,-0.5705342,0.068030946,1.3654613,1.2904897
-0.2,-0.2,0.6,-0.5235987755982988,-0.17453292519943286,-0.17453292519943286,2.0226142,1.3144989,0.36752233,-0.15688396,-0.32079065,1.1364416,-0.43468192,-0.65942645,1.4494656,-0.026770948,-0.53960645,0.05213451,1.3229948,1.111073
-0.2,-0.2,0.6,-0.5235987755982988,-0.17453292519943286,-0.17453292519943286,2.0130227,1.3062822,0.3513054,-0.14646101,-0.3007084,1.1505094,-0.38809854,-0.67932314,1.4760749,-0.007826167,-0.5766262,0.05542316,1.3674328,1.482964
-0.2,-0.2,0.6,-0.5235987755982988,-0.17453292519943286,-0.17453292519943286,2.0364025,1.3013394,0.35233513,-0.13718982,-0.24865994,1.1271341,-0.42167786,-0.6958952,1.4549986,-0.016211664,-0.5208844,0.05543641,1.3939384,1.2740567
-0.2,-0.2,0.6,-0.5235987755982988,-0.17453292519943286,-0.17453292519943286,2.034219,1.3130689,0.3239865,-0.16747724,-0.26752147,1.1713244,-0.33182585,-0.67354345,1.4638458,-0.022974024,-0.58759713,0.057211194,1.3562988,1.5108395
-0.2,-0.2,0.6,-0.5235987755982988,-0.17453292519943286,-0.17453292519943286,2.037334,1.2997489,0.3119772,-0.15477209,-0.2822169,1.1279502,-0.3343641,-0.6483832,1.4631971,-0.014484809,-0.53605056,0.053436562,1.3771853,1.4119165
-0.2,-0.2,0.6,-0.5235987755982988,-0.17453292519943286,-0.17453292519943286,2.028228,1.3083088,0.31389594,-0.13975522,-0.2558382,1.1841408,-0.43238914,-0.66617125,1.442254,-0.010440806,-0.53822273,0.076889,1.377091,1.1805731
-0.2,-0.2,0.6,-0.5235987755982988,-0.17453292519943286,-0.17453292519943286,2.0431004,1.3243309,0.32099715,-0.1522613,-0.2457758,1.1627419,-0.41258737,-0.6952365,1.4673412,-0.026861945,-0.54125464,0.049979597,1.3285732,1.3610611
-0.2,-0.2,0.6,-0.5235987755982988,-0.17453292519943286,-0.17453292519943286,2.0484989,1.3077918,0.3131145,-0.16133715,-0.30454955,1.161012,-0.39463446,-0.6851206,1.4551119,-0.016283218,-0.51400423,0.07065578,1.3565779,1.333177
-0.2,-0.2,0.6,-0.5235987755982988,-0.17453292519943286,-0.17453292519943286,2.0276911,1.3073158,0.3238461,-0.1678472,-0.28397602,1.1631016,-0.5012476,-0.69570196,1.4688615,-0.025485732,-0.60059893,0.073807746,1.4147121,1.4048427
-0.2,-0.2,0.6,-0.5235987755982988,-0.17453292519943286,-0.17453292519943286,2.0277748,1.3089724,0.36408827,-0.12790468,-0.28006282,1.136816,-0.36599198,-0.69509494,1.45543,-0.014992451,-0.5860325,0.055562083,1.3481276,1.2617784
-0.2,-0.2,0.6,-0.5235987755982988,-0.17453292519943286,-0.17453292519943286,2.0367699,1.310685,0.31837562,-0.13716912,-0.23760623,1.1594251,-0.40916827,-0.6660362,1.4500632,-0.019346425,-0.5374484,0.05008715,1.3424386,1.1833681
-0.2,-0.2,0.6,-0.5235987755982988,-0.17453292519943286,-0.17453292519943286,1.9776512,1.292006,0.3345054,-0.12294763,-0.2946147,1.1743969,-0.36197954,-0.6675768,1.4537231,-0.012820448,-0.56438935,0.07027616,1.367807,1.3497314
-0.2,-0.2,0.6,-0.5235987755982988,-0.17453292519943286,-0.17453292519943286,2.0199275,1.3017629,0.32356542,-0.14357238,-0.26858616,1.1717892,-0.37138906,-0.6546558,1.4568888,-0.022473384,-0.55737203,0.041129455,1.3535223,1.0706893
-0.2,-0.2,0.6,-0.5235987755982988,-0.17453292519943286,-0.17453292519943286,2.0238552,1.3081306,0.345675,-0.15531082,-0.24067391,1.1487972,-0.39763027,-0.663156,1.4663198,-0.024884528,-0.5463111,0.058710847,1.420509,1.4451733
-0.2,-0.2,0.6,-0.5235987755982988,-0.17453292519943286,-0.17453292519943286,2.0180461,1.3040034,0.32070985,-0.13841408,-0.2629235,1.1574719,-0.3375502,-0.64680886,1.4727268,-0.018717542,-0.599634,0.05530879,1.385277,1.1846558
-0.2,-0.2,0.6,-0.5235987755982988,-0.17453292519943286,-0.17453292519943286,1.9984019,1.2916706,0.30906078,-0.15217213,-0.26956543,1.1433808,-0.41030812,-0.6692412,1.481495,-0.019476455,-0.54645795,0.052017234,1.3837444,1.3017311
-0.2,-0.2,0.6,-0.5235987755982988,-0.17453292519943286,-0.17453292519943286,2.0192595,1.2935047,0.33312458,-0.12377727,-0.28627592,1.1478186,-0.48264402,-0.66110975,1.4597917,-0.012067333,-0.565337,0.07638983,1.3440937,1.117229
-0.2,-0.2,0.6,-0.5235987755982988,-0.17453292519943286,-0.17453292519943286,2.0214636,1.3032379,0.32902008,-0.13634959,-0.23279513,1.1481979,-0.4303029,-0.69361764,1.457676,-0.02800417,-0.545156,0.07305081,1.3557233,1.3714043
-0.2,-0.2,0.6,-0.5235987755982988,-0.17453292519943286,-0.17453292519943286,2.018752,1.3180755,0.3010638,-0.1370568,-0.25042292,1.1620514,-0.42025927,-0.68271923,1.4597915,-0.01302461,-0.59961355,0.055894237,1.3695494,1.2679001
-0.2,-0.2,0.6,-0.5235987755982988,-0.17453292519943286,-0.17453292519943286,2.013628,1.3044015,0.36274087,-0.14233656,-0.28111947,1.1775665,-0.40503037,-0.6577136,1.4497395,-0.017020952,-0.49966612,0.060627375,1.3571305,1.3529992
-0.2,-0.2,0.6,-0.5235987755982988,-0.17453292519943286,-0.17453292519943286,2.0258276,1.3061061,0.29800087,-0.15012567,-0.22465917,1.1437887,-0.43813488,-0.6600017,1.4740406,-0.01158807,-0.55276144,0.04197071,1.378133,1.2391084
-0.2,-0.2,0.6,-0.5235987755982988,-0.17453292519943286,-0.17453292519943286,1.9779488,1.313548,0.3264205,-0.15659279,-0.24040787,1.1310112,-0.40692195,-0.6665989,1.4667658,-0.018882155,-0.55473286,0.048530478,1.3583779,1.0145081
-0.2,-0.2,0.6,-0.5235987755982988,-0.17453292519943286,-0.17453292519943286,2.0403059,1.3114169,0.33487755,-0.12932226,-0.27624536,1.1372888,-0.4644493,-0.67626286,1.475164,-0.013860593,-0.56249255,0.07772148,1.3509473,1.1776882
-0.2,-0.2,0.6,-0.5235987755982988,-0.17453292519943286,-0.17453292519943286,2.0192711,1.3015165,0.33332583,-0.14408994,-0.26498452,1.1646518,-0.39130878,-0.68478495,1.4657199,-0.029136736,-0.5541517,0.080059074,1.3294895,1.1929308
-0.2,-0.2,0.6,-0.5235987755982988,-0.17453292519943286,-0.17453292519943286,2.023214,1.3067707,0.2862196,-0.15527382,-0.28696874,1.1405925,-0.43558705,-0.6656438,1.4681281,-0.015783345,-0.525862,0.062064234,1.352858,1.2310519
-0.2,-0.2,0.6,-0.5235987755982988,-0.17453292519943286,-0.17453292519943286,2.0447462,1.3129375,0.322433,-0.14334196,-0.2838753,1.1401863,-0.37712708,-0.67603624,1.4744345,-0.020378537,-0.5508482,0.060909595,1.3393421,1.2222275
-0.2,-0.2,0.6,-0.5235987755982988,-0.17453292519943286,-0.17453292519943286,2.0113232,1.299013,0.3284583,-0.14168946,-0.23222771,1.1459168,-0.40722245,-0.6673689,1.4580947,-0.022424534,-0.529974,0.06971618,1.3702772,1.3766716
-0.2,-0.2,0.6,-0.5235987755982988,-0.17453292519943286,-0.17453292519943286,2.0263546,1.3088912,0.32056278,-0.13941503,-0.23074886,1.1484991,-0.4034647,-0.6738174,1.4640733,-0.029770942,-0.52726847,0.049036477,1.3296094,1.2474123
-0.2,-0.2,0.6,-0.5235987755982988,-0.17453292519943286,-0.17453292519943286,1.9935124,1.3046279,0.32049718,-0.14501877,-0.2597887,1.1084107,-0.36504605,-0.65525925,1.4462664,-0.0075897668,-0.5955131,0.07004808,1.395006,1.2767919
-0.2,-0.2,0.6,-0.5235987755982988,-0.17453292519943286,-0.17453292519943286,1.9988819,1.2982802,0.33572495,-0.16318022,-0.2672904,1.1349483,-0.4033395,-0.6702852,1.4669466,-0.009568132,-0.5713763,0.07707265,1.3721466,1.2209871
-0.2,-0.2,0.6,-0.5235987755982988,-0.17453292519943286,-0.17453292519943286,1.9847538,1.3058045,0.3353852,-0.15472782,-0.2599286,1.1277531,-0.4717071,-0.66411954,1.466016,-0.010115863,-0.5545896,0.077559195,1.3530115,1.1927872
-0.2,-0.2,0.6,-0.5235987755982988,-0.17453292519943286,-0.17453292519943286,2.0598006,1.3142076,0.30623445,-0.12791891,-0.2879469,1.133161,-0.54931176,-0.66465247,1.4693668,-0.02288686,-0.5632196,0.04336927,1.4036653,1.3921236
-0.2,-0.2,0.6,-0.5235987755982988,-0.17453292519943286,-0.17453292519943286,2.0301235,1.2933955,0.3401669,-0.15108213,-0.2915474,1.1555285,-0.41563678,-0.68939435,1.4674007,-0.020659266,-0.5462182,0.076853916,1.3672668,1.3222655
-0.2,-0.2,0.6,-0.5235987755982988,-0.17453292519943286,-0.17453292519943286,2.055513,1.317545,0.31884947,-0.12521146,-0.25817066,1.1550324,-0.43154067,-0.68474567,1.4404285,-0.01950465,-0.58600897,0.050570894,1.3969688,1.464915
-0.2,-0.2,0.6,-0.5235987755982988,-0.17453292519943286,-0.17453292519943286,1.9972444,1.3209988,0.3476275,-0.14332338,-0.26661524,1.1778045,-0.4152069,-0.66911304,1.4635406,-0.016970446,-0.5385972,0.055849794,1.3707428,1.3431041
-0.2,-0.2,0.6,-0.5235987755982988,-0.17453292519943286,-0.17453292519943286,2.0281236,1.3083782,0.30814925,-0.13287087,-0.24634968,1.1628405,-0.33582285,-0.68525743,1.45766,-0.01735859,-0.57371986,0.05156255,1.3283471,1.5829085
-0.2,-0.2,0.6,-0.5235987755982988,-0.17453292519943286,-0.17453292519943286,2.0664313,1.3148257,0.3024066,-0.1643018,-0.29695255,1.147598,-0.40220767,-0.70692825,1.4463688,-0.019549381,-0.5628276,0.08548036,1.3621562,1.2831886
-0.2,-0.2,0.6,-0.5235987755982988,-0.17453292519943286,-0.17453292519943286,1.9935814,1.3015565,0.32642484,-0.15387113,-0.24969122,1.1228039,-0.40732682,-0.6674656,1.4667798,-0.028054494,-0.57518,0.0666613,1.35679,1.4047812
-0.2,-0.2,0.6,-0.5235987755982988,-0.17453292519943286,-0.17453292519943286,2.0290198,1.2894614,0.31104493,-0.1567809,-0.29097274,1.1449648,-0.32837886,-0.68738496,1.4629238,-0.024905832,-0.53558606,0.03601121,1.372441,1.4990139
-0.2,-0.2,0.6,-0.5235987755982988,-0.17453292519943286,-0.17453292519943286,2.0101173,1.2949045,0.32246763,-0.13755453,-0.2561664,1.1491038,-0.44602346,-0.65073055,1.4627593,-0.017447276,-0.5633344,0.077573456,1.3402603,1.2787691
-0.2,-0.2,0.6,-0.5235987755982988,-0.17453292519943286,-0.17453292519943286,2.0318725,1.307348,0.34106645,-0.13532913,-0.26854718,1.1624264,-0.36064062,-0.6895503,1.4636053,-0.015509973,-0.59313273,0.06028888,1.3769662,1.3446475
-0.2,-0.2,0.6,-0.5235987755982988,-0.17453292519943286,-0.17453292519943286,2.022348,1.2963184,0.33355623,-0.15033533,-0.29728073,1.1459891,-0.43980736,-0.66284424,1.4587497,-0.012308268,-0.5469772,0.046630494,1.3463064,1.2772471
-0.2,-0.2,0.6,-0.5235987755982988,-0.17453292519943286,-0.17453292519943286,2.0232167,1.2983037,0.32931712,-0.12762813,-0.2626626,1.1643904,-0.35422355,-0.6604456,1.4629693,-0.021843588,-0.5305104,0.09801399,1.3942616,1.3086954
-0.2,-0.2,0.6,-0.5235987755982988,-0.17453292519943286,-0.17453292519943286,2.0116563,1.3087815,0.30171853,-0.15851341,-0.2682602,1.1228276,-0.40452993,-0.67386466,1.4638622,-0.01399339,-0.5425336,0.05585881,1.3582118,1.220263
-0.2,-0.2,0.6,-0.5235987755982988,-0.17453292519943286,-0.17453292519943286,2.0440714,1.2981745,0.34503305,-0.13188076,-0.27537867,1.1219385,-0.44664365,-0.68096334,1.465351,-0.011386098,-0.5486658,0.06508541,1.3925921,1.445167
-0.2,-0.2,0.6,-0.5235987755982988,-0.17453292519943286,-0.17453292519943286,2.0219371,1.3002268,0.34084526,-0.13593997,-0.28075698,1.1634248,-0.34671894,-0.6370101,1.4699019,0.008506043,-0.5530019,0.03480864,1.3812847,1.2647251
-0.2,-0.2,0.6,-0.5235987755982988,-0.17453292519943286,-0.17453292519943286,2.0096805,1.3035018,0.3676844,-0.13661753,-0.3189942,1.1651468,-0.38801163,-0.6764085,1.467029,-0.014559478,-0.57283235,0.060042277,1.3890338,1.3495075
-0.2,-0.2,0.6,-0.5235987755982988,-0.17453292519943286,-0.17453292519943286,2.0085037,1.3047693,0.33775485,-0.12750879,-0.26595777,1.1499492,-0.41711167,-0.6651343,1.472819,-0.0068030735,-0.55217916,0.057088938,1.3347214,1.1249961
-0.2,-0.2,0.6,-0.5235987755982988,-0.17453292519943286,-0.17453292519943286,2.0026624,1.301964,0.30655545,-0.13413215,-0.29245475,1.16975,-0.4961916,-0.66659725,1.4519951,-0.01541587,-0.55097175,0.016969541,1.3554701,1.3061835
-0.2,-0.2,0.6,-0.5235987755982988,-0.17453292519943286,-0.17453292519943286,2.0496156,1.3065044,0.29258773,-0.14409018,-0.2823101,1.163186,-0.38008764,-0.6615057,1.464556,-0.007300326,-0.54597723,0.05566793,1.3625696,1.2432142
-0.2,-0.2,0.6,-0.5235987755982988,-0.17453292519943286,-0.17453292519943286,2.031551,1.3036159,0.353355,-0.13534307,-0.29389682,1.1312593,-0.41976815,-0.65948683,1.4662248,-0.0130061945,-0.571028,0.07318228,1.3894473,1.267263
-0.2,-0.2,0.6,-0.5235987755982988,-0.17453292519943286,-0.17453292519943286,2.0854757,1.3033493,0.27055228,-0.15971602,-0.27244204,1.15227,-0.4612604,-0.6541498,1.4538857,-0.021223126,-0.5452994,0.05016252,1.3788699,1.34375
-0.2,-0.2,0.6,-0.5235987755982988,-0.17453292519943286,-0.17453292519943286,2.0076594,1.3106952,0.31147942,-0.12569223,-0.2549177,1.143645,-0.4108391,-0.66423136,1.4608666,-0.026111562,-0.56391764,0.049937848,1.3911456,1.1675907
-0.2,-0.2,0.6,-0.5235987755982988,-0.17453292519943286,-0.17453292519943286,2.0454576,1.3096428,0.33127764,-0.14258027,-0.26102793,1.1382003,-0.36063713,-0.66981906,1.4522547,-0.033539876,-0.5212684,0.07535412,1.3562342,1.3337151
-0.2,-0.2,0.6,-0.5235987755982988,-0.17453292519943286,-0.17453292519943286,2.0085013,1.2937224,0.29361564,-0.15323605,-0.23719785,1.1251925,-0.5013168,-0.67257285,1.4574498,-0.009174299,-0.5420852,0.057692837,1.4024869,1.2300179
-0.2,-0.2,0.6,-0.5235987755982988,-0.17453292519943286,-0.17453292519943286,1.9968541,1.2975979,0.3393656,-0.14476418,-0.24200687,1.1747065,-0.47283575,-0.68849295,1.4473013,-0.011556224,-0.5502743,0.044189777,1.34879,1.2412246
-0.2,-0.2,0.6,-0.5235987755982988,-0.17453292519943286,-0.17453292519943286,2.0229368,1.3181534,0.32884502,-0.14050579,-0.25441253,1.143911,-0.36561608,-0.65673476,1.4515803,-0.03590091,-0.55016476,0.06905439,1.3455582,1.2001456
-0.2,-0.2,0.6,-0.5235987755982988,-0.17453292519943286,-0.17453292519943286,2.0314476,1.315667,0.29777968,-0.1573386,-0.2745696,1.1430794,-0.3270667,-0.69132525,1.4606792,-0.014478032,-0.53505397,0.056655135,1.3207338,1.3378365
-0.2,-0.2,0.6,-0.5235987755982988,-0.17453292519943286,-0.17453292519943286,2.0047076,1.3032916,0.299133,-0.14353243,-0.2579423,1.1530187,-0.47363597,-0.6559174,1.4408321,-0.027309524,-0.5738142,0.06504352,1.3985729,1.3786763
-0.2,-0.2,0.6,-0.5235987755982988,-0.17453292519943286,-0.17453292519943286,2.0293324,1.300446,0.33790797,-0.14496018,-0.29743147,1.1346169,-0.4839067,-0.6758337,1.4493238,-0.023784384,-0.565495,0.053244732,1.3438188,1.2240168
-0.2,-0.2,0.6,-0.5235987755982988,-0.17453292519943286,-0.17453292519943286,2.025182,1.3142198,0.281846,-0.15580663,-0.24563393,1.1534637,-0.48974457,-0.68508226,1.4617971,-0.030586159,-0.5886329,0.073877834,1.3418423,1.2252154
-0.2,-0.2,0.6,-0.5235987755982988,-0.17453292519943286,-0.17453292519943286,2.0412078,1.3095772,0.32945424,-0.12907931,-0.25930113,1.1667794,-0.27178732,-0.6502653,1.4612098,-0.023115296,-0.528007,0.06325177,1.3892946,1.1269767
-0.2,-0.2,0.6,-0.5235987755982988,-0.17453292519943286,-0.17453292519943286,2.0204353,1.313805,0.30446714,-0.1480969,-0.27846962,1.1722759,-0.41913486,-0.6831597,1.4682707,-0.0033677407,-0.5431468,0.0914643,1.3852497,1.0509433
-0.2,-0.2,0.6,-0.5235987755982988,-0.17453292519943286,-0.17453292519943286,2.0051196,1.322811,0.3368973,-0.13232903,-0.2773305,1.149036,-0.37348518,-0.66923237,1.4404296,-0.012533011,-0.56407315,0.067455284,1.3956665,1.3261307
-0.2,-0.2,0.6,-0.5235987755982988,-0.17453292519943286,-0.17453292519943286,2.0011406,1.3110589,0.29870993,-0.13430908,-0.26071823,1.1437749,-0.36872917,-0.6723112,1.462899,-0.016419524,-0.5868374,0.04553694,1.3646653,1.3130481
-0.2,-0.2,0.6,-0.5235987755982988,-0.17453292519943286,-0.17453292519943286,2.0000298,1.3157048,0.3263791,-0.13448001,-0.24602798,1.1539128,-0.4523954,-0.69576246,1.4575483,-0.010627717,-0.60789293,0.047032557,1.3917692,1.4926232
-0.2,-0.2,0.6,-0.5235987755982988,-0.17453292519943286,-0.17453292519943286,2.053647,1.2991138,0.31689927,-0.14325565,-0.25138053,1.1823167,-0.38586146,-0.6720419,1.4492127,-0.022021463,-0.5369874,0.09527684,1.3801913,1.2004865
-0.2,-0.2,0.6,-0.5235987755982988,-0.17453292519943286,-0.17453292519943286,2.0598726,1.3065989,0.29649317,-0.13873525,-0.2586392,1.140165,-0.3846706,-0.6822304,1.4452469,-0.020398954,-0.54321927,0.065375224,1.3442129,1.2754505
-0.2,-0.2,0.6,-0.5235987755982988,-0.17453292519943286,-0.17453292519943286,2.0115259,1.2966218,0.29037848,-0.16539803,-0.25735074,1.1410779,-0.39349422,-0.6713361,1.476146,-0.017230617,-0.54762685,0.045815676,1.3377492,1.2580426
-0.2,-0.2,0.6,-0.5235987755982988,-0.17453292519943286,-0.17453292519943286,1.9829084,1.3145776,0.31044805,-0.13660607,-0.25081712,1.1460483,-0.4771387,-0.66197675,1.4727608,-0.019545745,-0.5623314,0.071540624,1.3909987,1.4358077
-0.2,-0.2,0.6,-0.5235987755982988,-0.17453292519943286,-0.17453292519943286,2.0246065,1.3223914,0.31343028,-0.15172125,-0.3177249,1.1563962,-0.35092717,-0.6552349,1.4699072,-0.020821322,-0.5373927,0.029117597,1.4070184,1.2228645
-0.2,-0.2,0.6,-0.5235987755982988,-0.17453292519943286,-0.17453292519943286,2.0390682,1.3165982,0.29337323,-0.14903176,-0.24908309,1.1410521,-0.37925014,-0.672016,1.4582454,-0.01009457,-0.54486847,0.022651706,1.3346995,1.2659575
-0.2,-0.2,0.6,-0.5235987755982988,-0.17453292519943286,-0.17453292519943286,2.0268483,1.3014858,0.3311689,-0.12893131,-0.28072378,1.1313732,-0.38223538,-0.6814585,1.4595926,-0.013941635,-0.56460583,0.0565699,1.3470279,1.1915829
-0.2,-0.2,0.6,-0.5235987755982988,-0.17453292519943286,-0.17453292519943286,2.0296183,1.2950181,0.33697256,-0.14978547,-0.2575081,1.1487867,-0.42720503,-0.7077028,1.4533781,-0.0063764234,-0.5308101,0.04128993,1.33299,1.2439623
-0.2,-0.2,0.6,-0.5235987755982988,-0.17453292519943286,-0.17453292519943286,2.0464034,1.3146157,0.31260952,-0.1489879,-0.28950453,1.1586822,-0.42550907,-0.6902808,1.4625659,-0.000974789,-0.58034617,0.070882566,1.3319796,1.3278079
-0.2,-0.2,0.6,-0.5235987755982988,-0.17453292519943286,-0.17453292519943286,2.0111036,1.285776,0.30086705,-0.13283896,-0.2508295,1.1433339,-0.4352942,-0.66041493,1.4492325,-0.018273735,-0.5357982,0.06485553,1.3936343,1.1921328
-0.2,-0.2,0.6,-0.5235987755982988,-0.17453292519943286,-0.17453292519943286,2.040021,1.3132975,0.31923947,-0.1480921,-0.23927414,1.1561811,-0.38079476,-0.63177186,1.4635805,-0.03624547,-0.54329896,0.061665013,1.3915325,1.3153938
-0.2,-0.2,0.6,-0.5235987755982988,-0.17453292519943286,-0.17453292519943286,2.0406551,1.2909557,0.34339106,-0.13774653,-0.3132251,1.1711148,-0.4438512,-0.6719934,1.4519451,-0.011016445,-0.53825784,0.068594806,1.4203385,1.1542037
-0.2,-0.2,0.6,-0.5235987755982988,-0.17453292519943286,-0.17453292519943286,2.0119238,1.3027306,0.33427873,-0.15714063,-0.24996422,1.1630433,-0.3146636,-0.68738735,1.4628069,-0.018423643,-0.57014596,0.045957,1.3890095,1.3792304
-0.2,-0.2,0.6,-0.5235987755982988,-0.17453292519943286,-0.17453292519943286,2.022527,1.3073251,0.32013327,-0.137428,-0.28466964,1.1432143,-0.34176332,-0.6720693,1.4628893,-0.017892152,-0.52852076,0.05924514,1.3528458,1.3245394
-0.2,-0.2,0.6,-0.5235987755982988,-0.17453292519943286,-0.17453292519943286,2.051055,1.3074617,0.33737984,-0.13106194,-0.280577,1.1365297,-0.3247015,-0.6693801,1.4412947,-0.023257338,-0.54864633,0.06780476,1.3542492,1.3341187
-0.2,-0.2,0.6,-0.5235987755982988,-0.17453292519943286,-0.17453292519943286,2.0181897,1.3046304,0.30206028,-0.14734271,-0.24248812,1.1429157,-0.38438976,-0.6668243,1.4450245,-0.019867053,-0.55358166,0.052956074,1.4014721,1.4068398
-0.2,-0.2,0.6,-0.5235987755982988,-0.17453292519943286,-0.17453292519943286,2.0295827,1.3133004,0.33927342,-0.15353897,-0.28198224,1.1460328,-0.44462797,-0.6542597,1.456713,-0.022363618,-0.53213185,0.073098935,1.3518013,1.458653
-0.2,-0.2,0.6,-0.5235987755982988,-0.17453292519943286,-0.17453292519943286,2.019956,1.3167869,0.3437898,-0.14919125,-0.26841933,1.1577018,-0.37340254,-0.68199104,1.4686548,-0.016187416,-0.58774024,0.07248193,1.4048107,1.1756172
-0.2,-0.2,0.6,-0.5235987755982988,-0.17453292519943286,-0.17453292519943286,2.0250432,1.3093258,0.33275548,-0.14944956,-0.24318896,1.1508435,-0.37881812,-0.6672602,1.4585706,-0.03522027,-0.5615932,0.06502034,1.3960136,1.3980885
-0.2,-0.2,0.6,-0.5235987755982988,-0.17453292519943286,-0.17453292519943286,1.992155,1.3006508,0.31476954,-0.15884776,-0.2690554,1.1481537,-0.33101237,-0.65089697,1.4444257,-0.009515765,-0.5718476,0.060502946,1.3873918,1.3692282
-0.2,-0.2,0.6,-0.5235987755982988,-0.17453292519943286,-0.17453292519943286,2.0136213,1.3045588,0.33045235,-0.117154464,-0.29836947,1.1504209,-0.43078083,-0.69132245,1.4534975,-0.013072657,-0.5419113,0.06391097,1.3677503,1.3324927
-0.2,-0.2,0.6,-0.5235987755982988,-0.17453292519943286,-0.17453292519943286,2.0333314,1.3276252,0.26882306,-0.14911151,-0.27253962,1.130882,-0.43565923,-0.6855481,1.4657714,-0.009050778,-0.5865566,0.042296886,1.3578032,1.6056485
-0.2,-0.2,0.6,-0.5235987755982988,-0.17453292519943286,-0.17453292519943286,1.9825121,1.295226,0.3029212,-0.13462578,-0.28299615,1.1358328,-0.43368095,-0.6745885,1.4608608,-0.030061394,-0.557797,0.06644108,1.3499558,1.2091503
-0.2,-0.2,0.6,-0.5235987755982988,-0.17453292519943286,-0.17453292519943286,2.0029666,1.3298315,0.33413246,-0.13469344,-0.25569984,1.1333702,-0.28038538,-0.67899483,1.4494541,-0.014996941,-0.5301938,0.037734494,1.3475543,1.283237
-0.2,-0.2,0.6,-0.5235987755982988,-0.17453292519943286,-0.17453292519943286,2.026704,1.3113424,0.3266241,-0.13043632,-0.30767107,1.1223708,-0.40736026,-0.66584796,1.4371638,-0.018148044,-0.5483627,0.05161412,1.4117459,1.4015849
-0.2,-0.2,0.6,-0.5235987755982988,-0.17453292519943286,-0.17453292519943286,2.0403419,1.3099374,0.32976845,-0.15035513,-0.27830994,1.1559567,-0.3717931,-0.66963005,1.4583124,-0.019147238,-0.54442114,0.03930003,1.3618168,0.98333305
-0.2,-0.2,0.6,-0.5235987755982988,-0.17453292519943286,-0.17453292519943286,2.0327969,1.3201396,0.34538996,-0.13891944,-0.26637402,1.1244557,-0.3987469,-0.68187267,1.451092,-0.011253382,-0.6034785,0.05908629,1.3710923,1.2731334
-0.2,-0.2,0.6,-0.5235987755982988,-0.17453292519943286,-0.17453292519943286,2.0598342,1.3149534,0.29032874,-0.1341277,-0.26373285,1.1355307,-0.37488297,-0.6807785,1.4646151,-0.024564674,-0.5824749,0.06320182,1.3651628,1.2450052
-0.2,-0.2,0.6,-0.5235987755982988,-0.17453292519943286,-0.17453292519943286,2.0164218,1.3123205,0.31466302,-0.1375978,-0.2649047,1.1638927,-0.36473247,-0.69251114,1.4598534,-0.026148597,-0.568182,0.072880104,1.3774784,1.3493959
-0.2,-0.2,0.6,-0.5235987755982988,-0.17453292519943286,-0.17453292519943286,2.045542,1.2983558,0.3414863,-0.14706893,-0.27847183,1.1246036,-0.3801595,-0.6682656,1.455915,-0.008982472,-0.5573376,0.054188617,1.3622307,1.3945005
-0.2,-0.2,0.6,-0.5235987755982988,-0.17453292519943286,-0.17453292519943286,2.0160306,1.3126863,0.3583326,-0.12536567,-0.28915602,1.1545094,-0.34538704,-0.6682407,1.4367683,-0.01751769,-0.525206,0.052683596,1.3710757,1.1152234
-0.2,-0.2,0.6,-0.5235987755982988,-0.17453292519943286,-0.17453292519943286,2.043124,1.322867,0.27611718,-0.14124086,-0.20841172,1.166209,-0.48458576,-0.67370206,1.4572648,-0.007024748,-0.54187447,0.059720475,1.3734088,1.2808739
-0.2,-0.2,0.6,-0.5235987755982988,-0.17453292519943286,-0.17453292519943286,2.034642,1.3053435,0.3151561,-0.1514455,-0.22128616,1.1605157,-0.41285124,-0.69463325,1.4496702,-0.02075521,-0.5105703,0.05342364,1.344875,1.2924227
-0.2,-0.2,0.6,-0.5235987755982988,-0.17453292519943286,-0.17453292519943286,2.022971,1.3140703,0.34895098,-0.15496765,-0.2634506,1.1573224,-0.4254315,-0.68341726,1.4577177,-0.010212268,-0.5552951,0.06043578,1.3823819,1.4791892
-0.2,-0.2,0.6,-0.5235987755982988,-0.17453292519943286,-0.17453292519943286,2.0291908,1.3113492,0.3307281,-0.13432343,-0.31193295,1.1367332,-0.38852498,-0.6670623,1.4467454,-0.013448508,-0.53089136,0.061897345,1.3728288,1.3565358
-0.2,-0.2,0.6,-0.5235987755982988,-0.17453292519943286,-0.17453292519943286,2.041275,1.309434,0.2949762,-0.13855624,-0.22985116,1.1577096,-0.3680557,-0.6862925,1.4510707,-0.022834947,-0.5412745,0.037902568,1.3646721,1.3213128
-0.2,-0.2,0.6,-0.5235987755982988,-0.17453292519943286,-0.17453292519943286,2.0113938,1.3142602,0.33560824,-0.13227513,-0.24864149,1.1179426,-0.34712484,-0.68572557,1.4564103,-0.024041662,-0.5579392,0.05676431,1.385813,1.2523173
-0.2,-0.2,0.6,-0.5235987755982988,-0.17453292519943286,-0.17453292519943286,1.9943976,1.2910494,0.3330786,-0.14698996,-0.27340627,1.1727464,-0.3892687,-0.6746622,1.4691354,-0.01828715,-0.5698853,0.061044525,1.3521321,1.347698
-0.2,-0.2,0.6,-0.5235987755982988,-0.17453292519943286,-0.17453292519943286,2.0332015,1.3219972,0.31483385,-0.14562026,-0.28337747,1.1445009,-0.41835302,-0.6837381,1.4559071,-0.005110066,-0.56825227,0.05154231,1.3575609,1.3801435
-0.2,-0.2,0.6,-0.5235987755982988,-0.17453292519943286,-0.17453292519943286,2.0086064,1.3159786,0.30352303,-0.12970853,-0.28530517,1.1428566,-0.4203337,-0.6876824,1.4661629,-0.019820953,-0.5594269,0.06684934,1.3743247,1.4497803
-0.2,-0.2,0.6,-0.5235987755982988,-0.17453292519943286,-0.17453292519943286,2.0005958,1.3067595,0.30570075,-0.14909591,-0.24504304,1.1537776,-0.3783546,-0.6315825,1.4612648,0.011337701,-0.56702864,0.04903005,1.4188505,1.2039319
-0.2,-0.2,0.6,-0.5235987755982988,-0.17453292519943286,-0.17453292519943286,1.9787308,1.3088003,0.31651375,-0.14178446,-0.28538918,1.1605778,-0.40888253,-0.6614311,1.4568554,-0.014878858,-0.63391185,0.046410028,1.3808821,1.295099
-0.2,-0.2,0.6,-0.5235987755982988,-0.17453292519943286,-0.17453292519943286,2.0094838,1.3058168,0.34912604,-0.14177242,-0.3027023,1.1712917,-0.3562625,-0.6806436,1.4663463,-0.032771695,-0.60753816,0.03522685,1.3768643,1.1918422
-0.2,-0.2,0.6,-0.5235987755982988,-0.17453292519943286,-0.17453292519943286,2.0404997,1.3105214,0.3202894,-0.13849072,-0.25660655,1.1446167,-0.43490025,-0.6752791,1.4611377,-0.0059234146,-0.5606281,0.059334867,1.3612536,1.2233627
-0.2,-0.2,0.6,-0.5235987755982988,-0.17453292519943286,-0.17453292519943286,2.0463667,1.311874,0.27688164,-0.124175705,-0.24269052,1.1246988,-0.41226104,-0.68203545,1.4530429,-0.014043103,-0.54545903,0.0737293,1.3543127,1.3299791
-0.2,-0.2,0.6,-0.5235987755982988,-0.17453292519943286,-0.17453292519943286,2.021515,1.3128446,0.30942607,-0.13630891,-0.23234445,1.164033,-0.3498902,-0.6844263,1.4548427,-0.017545165,-0.552801,0.06437351,1.3553083,1.3209331
-0.2,-0.2,0.6,-0.5235987755982988,-0.17453292519943286,-0.17453292519943286,2.0583498,1.3063706,0.29713702,-0.12518926,-0.21293324,1.1548623,-0.5103916,-0.6624504,1.4491559,-0.03231953,-0.56163436,0.04810742,1.4077373,1.4300193
-0.2,-0.2,0.6,-0.5235987755982988,-0.17453292519943286,-0.17453292519943286,2.0037508,1.3119199,0.32392251,-0.14382428,-0.25052992,1.1495758,-0.370003,-0.66979593,1.4466342,-0.016508829,-0.5665333,0.05062177,1.363923,1.1873689
-0.2,-0.2,0.6,-0.5235987755982988,-0.17453292519943286,-0.17453292519943286,2.0241365,1.3067753,0.33378035,-0.15071881,-0.28900677,1.1619884,-0.39512327,-0.67595243,1.4603995,-0.01220086,-0.5573302,0.05367269,1.3602966,1.3062987
-0.2,-0.2,0.6,-0.5235987755982988,-0.17453292519943286,-0.17453292519943286,2.0504835,1.305174,0.28036612,-0.13474908,-0.24556588,1.133958,-0.37951794,-0.68990105,1.4533473,-0.019217225,-0.57295567,0.088828094,1.3857509,1.3081418
-0.2,-0.2,0.6,-0.5235987755982988,-0.17453292519943286,-0.17453292519943286,2.0632367,1.2908121,0.301083,-0.14712925,-0.2507625,1.1640664,-0.38953283,-0.6916956,1.4700575,-0.026143735,-0.60944307,0.07630916,1.4109269,1.4094396
-0.2,-0.2,0.6,-0.5235987755982988,-0.17453292519943286,-0.17453292519943286,2.0145073,1.3099205,0.3099452,-0.1268434,-0.25689387,1.1450633,-0.35516506,-0.6773347,1.4543903,-0.02116726,-0.5517984,0.052998025,1.3841002,1.2041311
-0.2,-0.2,0.6,-0.5235987755982988,-0.17453292519943286,-0.17453292519943286,2.0318956,1.307165,0.32771173,-0.13544728,-0.24265791,1.1313227,-0.37790105,-0.66643363,1.4488702,-0.0039008465,-0.58029056,0.05356914,1.3770347,1.2595563
-0.2,-0.2,0.6,-0.5235987755982988,-0.17453292519943286,-0.17453292519943286,2.006185,1.2939069,0.3373379,-0.14085862,-0.2721148,1.1651591,-0.40583685,-0.6664458,1.455776,-0.027325675,-0.5896671,0.06995761,1.40231,1.3511143
-0.2,-0.2,0.6,-0.5235987755982988,-0.17453292519943286,-0.17453292519943286,1.9974213,1.3084501,0.33081982,-0.14360267,-0.25362793,1.114828,-0.3673451,-0.6984445,1.4650242,-0.010064001,-0.5760827,0.061743453,1.3350227,1.3139902
-0.2,-0.2,0.6,-0.5235987755982988,-0.17453292519943286,-0.17453292519943286,2.0317466,1.3127066,0.28878355,-0.14300285,-0.20605214,1.1649559,-0.4356936,-0.67555577,1.4733319,-0.023134166,-0.5491094,0.038623318,1.3581604,1.5475368
