sanky1234/BimanualDexCatch/isaacgymenvs/cem_results/football_pose_0.0_0.0_0.7999999999999999_0.0_0.0_0_2025-05-26.csv
x,y,z,roll,pitch,yaw,robot1/joint1,robot1/joint2,robot1/joint3,robot1/joint4,robot1/joint5,robot1/joint6,robot1/joint7,robot2/joint1,robot2/joint2,robot2/joint3,robot2/joint4,robot2/joint5,robot2/joint6,robot2/joint7
0.0,0.0,0.7999999999999999,0.0,0.0,0,0.767934,-1.1360317,2.517871,0.09636763,-0.032107573,1.4439439,-0.019339453,-0.13404745,-1.0651271,-2.1981869,-0.06450157,0.24677905,1.0099832,-0.3821563
0.0,0.0,0.7999999999999999,0.0,0.0,0,0.7515904,-1.143629,2.5259588,0.1009115,-0.062319335,1.4430141,-0.10751129,-0.17475216,-1.0725518,-1.7226083,0.008016415,0.0850935,0.9246461,0.031006575
0.0,0.0,0.7999999999999999,0.0,0.0,0,0.75557137,-1.1512008,2.5103512,0.09094654,-0.055662517,1.4451718,-0.0748956,-0.13454337,-1.0676535,-2.4266338,-0.09400115,-0.14586817,1.1293947,0.13296816
0.0,0.0,0.7999999999999999,0.0,0.0,0,0.7721998,-1.1351799,2.5053978,0.10097666,-0.011010054,1.4482429,-0.0702635,-0.1600073,-1.0731612,-1.9046439,0.098801404,-0.034462225,1.1755599,0.25037876
0.0,0.0,0.7999999999999999,0.0,0.0,0,0.82162964,-1.148104,2.5206223,0.0831674,-0.0981574,1.4479152,-0.01133892,-0.13523427,-1.0632051,-2.5930579,0.010735588,0.077291526,1.0320817,-1.4549342
0.0,0.0,0.7999999999999999,0.0,0.0,0,0.75456655,-1.1460973,2.5055468,0.09249384,-0.05438528,1.4317027,-0.046072852,-0.14302845,-1.0578556,-2.0832024,-0.06474106,0.020690663,0.826044,0.08710019
0.0,0.0,0.7999999999999999,0.0,0.0,0,0.7560136,-1.1402208,2.52444,0.094071954,-0.026788365,1.4446117,-0.090507835,-0.11736517,-1.0651766,-2.6110134,-0.12886642,0.18691453,1.1897665,-1.0240635
0.0,0.0,0.7999999999999999,0.0,0.0,0,0.77006745,-1.157656,2.5159883,0.08403753,0.000685035,1.4602674,-0.096725516,-0.114026904,-1.062516,-2.5975583,-0.048054434,0.32871315,1.110534,1.1169299
0.0,0.0,0.7999999999999999,0.0,0.0,0,0.7435078,-1.1381748,2.5154958,0.09003078,-0.051689018,1.4414023,-0.047346137,-0.108570896,-1.0709975,-2.2129838,-0.08010596,0.3757814,1.0858393,-0.52070767
0.0,0.0,0.7999999999999999,0.0,0.0,0,0.7447448,-1.1427462,2.5160952,0.08948385,0.019478906,1.4363593,-0.06628806,-0.11134005,-1.0635837,-2.2118502,0.0066264574,0.15583813,1.0512255,-0.07998104
0.0,0.0,0.7999999999999999,0.0,0.0,0,0.76908165,-1.1514904,2.5316927,0.08225553,-0.0396821,1.4545487,-0.08738003,-0.13521369,-1.0551085,-2.269795,-0.027440272,0.1037478,1.0113875,1.5280383
0.0,0.0,0.7999999999999999,0.0,0.0,0,0.77000755,-1.1510062,2.5213358,0.08623389,-0.023583774,1.4498475,-0.07931581,-0.1048411,-1.064433,-1.6789777,-0.12227296,0.19941022,0.8673011,-0.8197921
0.0,0.0,0.7999999999999999,0.0,0.0,0,0.78961945,-1.1388844,2.5056055,0.09906023,-0.08113562,1.4579505,-0.09254146,-0.12490791,-1.0683904,-2.2815979,-0.05349363,0.014021926,1.0304247,1.0885851
0.0,0.0,0.7999999999999999,0.0,0.0,0,0.75317687,-1.1390308,2.5214581,0.08856784,-0.05441358,1.4509554,-0.0629045,-0.13896033,-1.0674679,-2.2585344,-0.14208102,0.04133843,1.1689466,-1.3482243
0.0,0.0,0.7999999999999999,0.0,0.0,0,0.76742244,-1.1406157,2.5409384,0.09976998,-0.13924734,1.4335043,-0.10555226,-0.12249619,-1.0661141,-2.0152907,0.062849924,0.12776515,1.1414561,1.7588551
0.0,0.0,0.7999999999999999,0.0,0.0,0,0.7989196,-1.1431392,2.5252,0.08852754,-0.021479433,1.4466425,-0.08370823,-0.15199615,-1.063452,-2.3947318,-0.16381992,-0.10652089,1.0729623,-0.28619444
0.0,0.0,0.7999999999999999,0.0,0.0,0,0.7589996,-1.1377194,2.517726,0.083602525,-0.050828613,1.4605887,-0.02809556,-0.16247302,-1.0622574,-1.976529,-0.029362133,0.054458838,1.0217974,-0.25510246
0.0,0.0,0.7999999999999999,0.0,0.0,0,0.7893062,-1.1560303,2.526558,0.08646511,-0.06417872,1.470769,-0.07629394,-0.14748634,-1.0687717,-2.1198306,-0.037694205,-0.06272158,1.1591349,0.13321388
0.0,0.0,0.7999999999999999,0.0,0.0,0,0.77408046,-1.1431149,2.517754,0.08462511,-0.040501844,1.4355564,-0.13586628,-0.14736722,-1.0690361,-1.6009389,0.047846418,-0.073677815,1.132177,0.40021563
0.0,0.0,0.7999999999999999,0.0,0.0,0,0.7879948,-1.149827,2.5250561,0.094988,-0.071551375,1.4511356,-0.0757788,-0.15023634,-1.0621483,-1.988256,-0.1748841,0.17934477,0.93867075,-0.45584705
0.0,0.0,0.7999999999999999,0.0,0.0,0,0.81118786,-1.1325727,2.5231068,0.096819095,-0.04971324,1.4479284,-0.025380654,-0.13813743,-1.0774337,-2.2442791,0.11367543,0.37564528,1.0384885,-0.45412695
0.0,0.0,0.7999999999999999,0.0,0.0,0,0.77674687,-1.144632,2.5279522,0.10006111,-0.084299624,1.4576244,-0.12424495,-0.13320827,-1.0584518,-2.3095489,-0.11150473,0.050130233,1.0365465,0.6120921
0.0,0.0,0.7999999999999999,0.0,0.0,0,0.7725806,-1.1394799,2.5058439,0.09638931,-0.056135327,1.4487988,-0.10515601,-0.1845475,-1.0641004,-2.041445,-0.055960584,0.27264768,1.2620354,-1.0003368
0.0,0.0,0.7999999999999999,0.0,0.0,0,0.74878746,-1.1466088,2.5101435,0.08831961,-0.06246986,1.4402733,-0.046834297,-0.18748526,-1.0555067,-1.5076019,-0.09941264,0.46373442,1.2876089,-0.028012104
0.0,0.0,0.7999999999999999,0.0,0.0,0,0.77744424,-1.1446549,2.5118957,0.085524656,-0.0151158525,1.4458275,-0.05729208,-0.13771492,-1.0627359,-1.7671634,0.013105905,0.11530236,1.1251535,0.06273828
0.0,0.0,0.7999999999999999,0.0,0.0,0,0.79412997,-1.1442847,2.5107257,0.085105404,-0.017889861,1.4380294,-0.061349664,-0.0994388,-1.0660316,-2.263897,-0.12989582,-0.00061855157,1.0445802,1.1798342
0.0,0.0,0.7999999999999999,0.0,0.0,0,0.79245114,-1.1496893,2.529056,0.092445396,-0.055219036,1.437199,-0.050327122,-0.14566204,-1.0631546,-1.8748449,-0.0031947293,0.037634235,0.91221565,0.40710065
0.0,0.0,0.7999999999999999,0.0,0.0,0,0.7788026,-1.1426611,2.5281992,0.097733155,-0.09051956,1.4452306,-0.08760736,-0.14446072,-1.068228,-2.1130807,-0.058632724,0.2910309,1.0864589,1.9460485
0.0,0.0,0.7999999999999999,0.0,0.0,0,0.79445547,-1.1268148,2.508588,0.086884946,-0.052670315,1.4335567,-0.0033475482,-0.14797108,-1.0715675,-2.2835944,0.0150898835,0.1577099,1.080272,1.1529086
0.0,0.0,0.7999999999999999,0.0,0.0,0,0.8048173,-1.1453462,2.534573,0.089196645,-0.063888855,1.4545265,-0.07741911,-0.12415978,-1.0616169,-2.3041086,-0.033393733,0.31537458,1.0952848,0.03661792
0.0,0.0,0.7999999999999999,0.0,0.0,0,0.7627801,-1.1483258,2.5081017,0.089893766,-0.100901,1.447979,0.022717383,-0.14545444,-1.0567273,-2.238488,-0.07022244,0.408324,1.081565,0.24940863
0.0,0.0,0.7999999999999999,0.0,0.0,0,0.7932268,-1.1491921,2.539154,0.09988389,-0.049781248,1.4457182,-0.034702063,-0.105080254,-1.0652488,-2.195017,-0.18119961,0.29038313,0.9640813,-0.084122404
0.0,0.0,0.7999999999999999,0.0,0.0,0,0.77516705,-1.128339,2.519838,0.093316786,-0.06542263,1.4690363,-0.06786634,-0.14475314,-1.0612321,-2.5021687,-0.26023108,0.27268875,0.99546355,-0.68239367
0.0,0.0,0.7999999999999999,0.0,0.0,0,0.7975298,-1.1563617,2.5080445,0.091540806,-0.037841745,1.4416842,-0.047003224,-0.15081385,-1.0552,-2.29619,-0.1212702,-0.08114293,1.0390474,-0.4180307
0.0,0.0,0.7999999999999999,0.0,0.0,0,0.77718,-1.147141,2.5209687,0.09247894,-0.08781785,1.4399631,-0.123952985,-0.15595815,-1.0575597,-2.2065313,-0.050976057,0.23729952,1.0347909,0.44503295
0.0,0.0,0.7999999999999999,0.0,0.0,0,0.7883504,-1.146848,2.5238175,0.088122554,-0.04778925,1.4274284,-0.04518366,-0.10824694,-1.0621618,-2.3262174,0.03072356,0.47960958,1.2137476,0.53681386
0.0,0.0,0.7999999999999999,0.0,0.0,0,0.76430184,-1.1524482,2.5266895,0.08909815,-0.050621346,1.4589853,-0.06282376,-0.15003887,-1.0615343,-1.9976171,0.021018108,0.23171617,1.1559457,-2.0292275
0.0,0.0,0.7999999999999999,0.0,0.0,0,0.7942755,-1.1460834,2.5197623,0.08845792,-0.12186035,1.4367441,-0.08136453,-0.13048764,-1.0628935,-2.1708508,-0.061189126,0.4691959,1.1736377,-0.5030415
0.0,0.0,0.7999999999999999,0.0,0.0,0,0.7843663,-1.1500096,2.5261855,0.08593671,-0.059592463,1.4453363,-0.110384636,-0.10298441,-1.0643209,-1.9624207,-0.11847838,0.37248328,1.010667,0.8891713
0.0,0.0,0.7999999999999999,0.0,0.0,0,0.7485616,-1.1465695,2.519234,0.08577146,-0.042876825,1.4450237,-0.088311784,-0.098924324,-1.0754253,-2.3256721,0.10160807,-0.035091113,1.0085429,0.30801743
0.0,0.0,0.7999999999999999,0.0,0.0,0,0.7431015,-1.1435008,2.5016272,0.097333446,-0.0571668,1.457123,-0.05395557,-0.1553217,-1.0617529,-1.7840855,-0.14300308,0.3145016,1.0317315,-0.095109224
0.0,0.0,0.7999999999999999,0.0,0.0,0,0.75984496,-1.1498518,2.5169222,0.096216545,-0.034237497,1.4651212,-0.09405708,-0.116667785,-1.0658245,-1.9455965,-0.11117497,0.326499,1.080737,0.27197313
0.0,0.0,0.7999999999999999,0.0,0.0,0,0.7585429,-1.1450542,2.5273502,0.08793038,-0.021931877,1.4454077,-0.09454304,-0.15488023,-1.0588531,-2.3376393,-0.0429704,0.3113146,0.98877585,0.099278554
0.0,0.0,0.7999999999999999,0.0,0.0,0,0.7711491,-1.1390288,2.517832,0.10087713,-0.01919215,1.4468472,-0.11685579,-0.13663188,-1.0627686,-2.5464344,-0.04629634,0.31914404,1.0954934,-0.4154061
0.0,0.0,0.7999999999999999,0.0,0.0,0,0.78880125,-1.1444752,2.514853,0.095430985,-0.050467834,1.4358399,-0.088749796,-0.13643275,-1.0629262,-2.802522,-0.17198083,0.17422678,0.95647705,0.8966704
0.0,0.0,0.7999999999999999,0.0,0.0,0,0.7856105,-1.1520836,2.4989738,0.097609594,-0.053055193,1.4543409,-0.050118864,-0.14287652,-1.0617,-2.4556468,-0.07851817,0.1928443,1.0277097,-0.025223263
0.0,0.0,0.7999999999999999,0.0,0.0,0,0.7262789,-1.1398726,2.5142114,0.09390994,-0.04686307,1.4445002,-0.046974767,-0.12635955,-1.0644474,-2.50828,-0.112414084,0.27791283,1.1878015,0.15500367
0.0,0.0,0.7999999999999999,0.0,0.0,0,0.7374911,-1.1430534,2.5431397,0.08849581,-0.050249975,1.43475,-0.01664906,-0.17343341,-1.0601368,-2.0513196,-0.08605456,0.19408953,1.1285206,0.47196233
0.0,0.0,0.7999999999999999,0.0,0.0,0,0.78194356,-1.1429328,2.5103579,0.07504959,-0.09450115,1.4437114,-0.08716044,-0.13073005,-1.0640265,-2.4411144,0.045764934,0.072819725,0.9781762,0.15208699
0.0,0.0,0.7999999999999999,0.0,0.0,0,0.78080535,-1.1502745,2.5055583,0.085758366,-0.053298663,1.4529411,-0.10058475,-0.10923081,-1.0660108,-1.7506548,-0.11428673,0.017068047,1.0077503,0.51779675
0.0,0.0,0.7999999999999999,0.0,0.0,0,0.7490613,-1.1362457,2.5086405,0.08839609,-0.084441595,1.4471078,-0.003809526,-0.113654226,-1.0687989,-2.369448,0.01830653,0.047127787,0.9576511,0.14235495
0.0,0.0,0.7999999999999999,0.0,0.0,0,0.77228296,-1.1398318,2.517124,0.089033015,-0.039886255,1.453279,-0.08479736,-0.1844007,-1.0645497,-1.6520939,0.021769088,0.16244523,0.9279295,0.266947
0.0,0.0,0.7999999999999999,0.0,0.0,0,0.7470078,-1.1433785,2.5015326,0.08768997,-0.018975457,1.4636832,-0.054644033,-0.13884458,-1.062062,-2.1802425,-0.07722502,0.32829872,1.1357899,-0.1946358
0.0,0.0,0.7999999999999999,0.0,0.0,0,0.8004752,-1.153197,2.5055223,0.09176643,-0.032638095,1.4422756,-0.109202154,-0.1177936,-1.0657574,-2.7620928,0.07244155,0.09474783,0.9253864,-0.6331799
0.0,0.0,0.7999999999999999,0.0,0.0,0,0.7834827,-1.1545016,2.5314565,0.098234944,-0.032938007,1.4669974,-0.050296165,-0.14022873,-1.0611264,-2.476432,-0.071639314,0.023698056,0.9742873,2.1312485
0.0,0.0,0.7999999999999999,0.0,0.0,0,0.7661566,-1.1439183,2.50989,0.0908507,-0.06290714,1.4467336,-0.036298092,-0.14710473,-1.0663611,-2.3601258,-0.17444573,0.30961433,1.0410869,-0.12007147
0.0,0.0,0.7999999999999999,0.0,0.0,0,0.7445471,-1.1417673,2.5234866,0.08822899,-0.057830412,1.4549876,-0.046972048,-0.15959448,-1.0596455,-2.032038,-0.025907684,2.8338873e-05,1.2148904,-0.20740786
0.0,0.0,0.7999999999999999,0.0,0.0,0,0.7676018,-1.1396004,2.5109076,0.094974704,-0.036452353,1.4473423,-0.12318214,-0.110224016,-1.072399,-2.4359715,-0.08301023,0.046117157,0.92384636,0.15393563
0.0,0.0,0.7999999999999999,0.0,0.0,0,0.78134525,-1.1412516,2.5141592,0.08357124,-0.038713742,1.4435145,-0.096945256,-0.123794675,-1.0746313,-1.9492053,-0.038506437,0.16299605,1.0383855,1.1339718
0.0,0.0,0.7999999999999999,0.0,0.0,0,0.775263,-1.1519524,2.5315223,0.0872137,-0.077556744,1.4459645,-0.0134952525,-0.14010783,-1.0635378,-1.5201814,0.07921349,0.16007596,1.0425858,0.3085588
0.0,0.0,0.7999999999999999,0.0,0.0,0,0.80071145,-1.1297704,2.528914,0.086978436,-0.022129366,1.4556903,-0.04068722,-0.13333617,-1.0714688,-2.6234221,0.06856774,0.2659781,1.0128402,0.25859648
0.0,0.0,0.7999999999999999,0.0,0.0,0,0.7603311,-1.1400963,2.50888,0.08884488,-0.064233735,1.4476825,-0.11771978,-0.15426402,-1.0653912,-2.1821241,-0.06472892,0.18530944,1.1204896,1.0393536
0.0,0.0,0.7999999999999999,0.0,0.0,0,0.7520983,-1.1454705,2.5184255,0.0950612,-0.031924583,1.4480952,-0.08613224,-0.13592097,-1.0678654,-2.209189,-0.058430344,0.14014407,1.1333625,-1.5961124
0.0,0.0,0.7999999999999999,0.0,0.0,0,0.81167597,-1.1507019,2.502186,0.08970638,-0.07475217,1.4460274,-0.08821108,-0.11758892,-1.0598221,-2.282231,-0.07144943,0.05772777,1.2132823,-0.49330187
0.0,0.0,0.7999999999999999,0.0,0.0,0,0.8073923,-1.1410578,2.5108874,0.088632524,-0.025676724,1.4729904,-0.002328711,-0.14376116,-1.0735065,-2.0757613,-0.18564594,0.067713425,0.9125647,-0.5108408
0.0,0.0,0.7999999999999999,0.0,0.0,0,0.7647299,-1.1577383,2.5055466,0.09626993,-0.0067439363,1.4496951,-0.052056305,-0.1511124,-1.0588676,-2.281103,-0.057153948,0.22141403,0.93014544,-0.49512368
0.0,0.0,0.7999999999999999,0.0,0.0,0,0.75202286,-1.1384532,2.5179083,0.09441163,-0.08689446,1.4375145,-0.077669054,-0.1884813,-1.0596284,-2.3082547,0.024342509,0.2179417,0.99070686,0.81416273
0.0,0.0,0.7999999999999999,0.0,0.0,0,0.75432587,-1.1590049,2.5217106,0.09569715,-0.026553422,1.4411386,-0.067552954,-0.13208753,-1.064499,-1.8496927,-0.03479604,0.27488017,0.8491326,-0.77244747
0.0,0.0,0.7999999999999999,0.0,0.0,0,0.74492836,-1.1510136,2.5205002,0.097217076,-0.06436434,1.4482858,-0.11927759,-0.11269782,-1.0630586,-1.8801134,-0.10055145,0.42322594,1.1540271,-0.6419559
0.0,0.0,0.7999999999999999,0.0,0.0,0,0.76926917,-1.149485,2.5248857,0.09888437,-0.04081671,1.455521,-0.059157643,-0.15786155,-1.0589955,-2.1533587,0.027722599,0.22779225,1.0259255,0.31644946
0.0,0.0,0.7999999999999999,0.0,0.0,0,0.76930445,-1.1545744,2.5166357,0.08336757,-0.023370426,1.4471443,-0.0758392,-0.13369484,-1.0587504,-2.2752798,-0.083506495,0.10284939,1.0103304,0.20829436
0.0,0.0,0.7999999999999999,0.0,0.0,0,0.77412367,-1.149506,2.5166872,0.08301813,-0.07369556,1.4583089,-0.1317479,-0.14221936,-1.0667479,-1.9677203,-0.023567654,-0.018813007,1.2706977,0.6035012
0.0,0.0,0.7999999999999999,0.0,0.0,0,0.7954871,-1.1629735,2.5212595,0.09314766,-0.018289512,1.4440215,-0.057066012,-0.16383584,-1.0605357,-2.4947422,-0.034767833,0.29494813,0.96835953,0.25058377
0.0,0.0,0.7999999999999999,0.0,0.0,0,0.77434987,-1.1435137,2.5155213,0.070289515,-0.05371315,1.4354838,-0.05523628,-0.12265402,-1.065334,-2.1508996,-0.076659895,-0.15937452,1.0599186,-0.7726845
0.0,0.0,0.7999999999999999,0.0,0.0,0,0.76339316,-1.1650149,2.5122964,0.08878055,-0.0601211,1.4584955,-0.020233475,-0.16554491,-1.0502479,-1.8631235,0.14298506,0.31333312,1.1798608,0.7161796
0.0,0.0,0.7999999999999999,0.0,0.0,0,0.7637317,-1.1406027,2.5002105,0.09495472,-0.083723344,1.445098,-0.084334835,-0.16474345,-1.071717,-2.1584253,-0.040515456,0.3347142,0.8838032,0.49660778
0.0,0.0,0.7999999999999999,0.0,0.0,0,0.75838387,-1.1552702,2.524923,0.08163772,0.021582076,1.4384232,-0.07562674,-0.13956587,-1.0670207,-1.7427404,0.020011362,-0.19304344,1.0628084,-1.8185724
0.0,0.0,0.7999999999999999,0.0,0.0,0,0.80048245,-1.1397185,2.5104828,0.10178145,-0.047110967,1.442636,-0.11683319,-0.15695944,-1.0688852,-1.9842849,-0.062985435,0.04800664,1.0735004,-0.17334831
0.0,0.0,0.7999999999999999,0.0,0.0,0,0.7703169,-1.1466767,2.5142808,0.09180289,-0.03784098,1.4482118,-0.0346404,-0.12586492,-1.0652212,-2.3371444,-0.0779541,0.12467431,1.069957,0.63034344
0.0,0.0,0.7999999999999999,0.0,0.0,0,0.7712771,-1.1451232,2.529396,0.07463265,-0.034080654,1.4435889,-0.08660781,-0.14086996,-1.0683035,-2.3310812,-0.03622868,0.081527315,1.112898,-0.60304433
0.0,0.0,0.7999999999999999,0.0,0.0,0,0.78896594,-1.1515518,2.5051372,0.08749176,-0.017410684,1.4451476,-0.10224497,-0.1423941,-1.0685816,-2.0869734,-0.11823214,-0.17955832,1.1874998,-0.7224829
0.0,0.0,0.7999999999999999,0.0,0.0,0,0.7775328,-1.1384898,2.5175037,0.08911525,-0.028638277,1.4394231,0.034284685,-0.1830281,-1.0678389,-2.0339036,0.046087462,-0.30544728,1.0532162,2.1955905
0.0,0.0,0.7999999999999999,0.0,0.0,0,0.79072535,-1.1418489,2.514058,0.09401925,-0.04223058,1.4338034,-0.08939295,-0.15185826,-1.0652945,-1.9890729,-0.015127824,0.1982466,1.0494304,0.3706435
0.0,0.0,0.7999999999999999,0.0,0.0,0,0.7557188,-1.1540865,2.5298367,0.087351225,-0.05295285,1.4517576,-0.10322164,-0.16357872,-1.0578445,-2.3003132,-0.008898735,0.21205762,1.1234399,-0.6451208
0.0,0.0,0.7999999999999999,0.0,0.0,0,0.7791459,-1.1410357,2.5144122,0.09306046,-0.11182366,1.4449251,-0.07112272,-0.18728562,-1.0639617,-2.2299223,-0.0060011777,0.40138564,1.0989435,0.11137724
0.0,0.0,0.7999999999999999,0.0,0.0,0,0.77610517,-1.1575593,2.5139408,0.0856928,-0.08064905,1.4567997,-0.02559708,-0.17134635,-1.0581483,-2.4986825,-0.08797484,0.019201735,1.1739272,0.2725917
0.0,0.0,0.7999999999999999,0.0,0.0,0,0.7733629,-1.1503721,2.518425,0.09820313,-0.012157648,1.4546027,-0.040197864,-0.11372946,-1.0668546,-2.5615702,0.011208944,0.39091,1.0459592,1.0846996
0.0,0.0,0.7999999999999999,0.0,0.0,0,0.744416,-1.1328319,2.517262,0.09349312,-0.011299998,1.4385267,-0.06260665,-0.14562225,-1.0721688,-2.5112302,0.060729757,0.19266106,1.0135249,0.037077423
0.0,0.0,0.7999999999999999,0.0,0.0,0,0.76473176,-1.152175,2.501777,0.09059241,0.005984953,1.452306,-0.048291173,-0.10234015,-1.0631856,-2.2610083,-0.021825321,0.2327943,1.0281775,-0.033213425
0.0,0.0,0.7999999999999999,0.0,0.0,0,0.76692,-1.1519513,2.5313766,0.08978918,-0.038693223,1.4616606,-0.083487436,-0.122977406,-1.0654483,-2.206058,-0.018614722,0.12151866,1.1557865,0.85031885
0.0,0.0,0.7999999999999999,0.0,0.0,0,0.79132545,-1.1279327,2.4961185,0.08546474,-0.07015904,1.4516344,-0.13405912,-0.1715625,-1.0734682,-2.5548265,-0.016830144,-0.045964066,0.98910904,0.2147427
0.0,0.0,0.7999999999999999,0.0,0.0,0,0.8008923,-1.1486166,2.5038335,0.09896244,-0.049760632,1.4394683,-0.0929959,-0.09089311,-1.0671886,-2.7704003,-0.060419656,-0.024905166,0.9693446,0.20996347
0.0,0.0,0.7999999999999999,0.0,0.0,0,0.7662763,-1.1557602,2.5196528,0.09569164,-0.09058308,1.4382414,-0.10107945,-0.14731506,-1.0597599,-2.1161335,-0.03505417,0.2737808,1.0881444,1.0527903
0.0,0.0,0.7999999999999999,0.0,0.0,0,0.7897163,-1.1450496,2.4986775,0.09270447,-0.051587574,1.4524428,-0.096572205,-0.14347765,-1.0623769,-2.6255972,-0.09368173,-0.026374284,1.104479,0.35294572
0.0,0.0,0.7999999999999999,0.0,0.0,0,0.74416286,-1.1532633,2.5162022,0.08936047,-0.042442176,1.4420689,-0.037469123,-0.118164584,-1.0667509,-2.0980585,-0.032342706,0.24588564,1.0687882,-0.7324508
0.0,0.0,0.7999999999999999,0.0,0.0,0,0.81029505,-1.1472459,2.501343,0.08531258,-0.09631286,1.4363669,-0.12541007,-0.17035156,-1.0645485,-2.1859558,0.028571757,0.38771072,0.9580557,1.3490607
0.0,0.0,0.7999999999999999,0.0,0.0,0,0.735228,-1.1444103,2.5172071,0.098157115,-0.051167518,1.4460083,-0.0489233,-0.14282313,-1.0669928,-1.843834,-0.07953361,0.13428473,0.9831978,-0.38162082
0.0,0.0,0.7999999999999999,0.0,0.0,0,0.7726517,-1.1447389,2.4929655,0.094555214,-0.005504568,1.4459977,-0.09514206,-0.16541031,-1.0655406,-2.4891295,-0.20255695,0.17112117,1.2855171,-0.7800732
0.0,0.0,0.7999999999999999,0.0,0.0,0,0.7475515,-1.1648971,2.52956,0.09405362,-0.0441113,1.4391831,-0.11421239,-0.11893554,-1.0652694,-2.366104,0.07632949,-0.052755017,1.0872113,-0.68428385
0.0,0.0,0.7999999999999999,0.0,0.0,0,0.743931,-1.1505868,2.510025,0.09939513,-0.067850314,1.4370236,-0.07344881,-0.13905053,-1.0679058,-2.0435796,0.012110608,0.23157959,1.0317593,-0.067268
0.0,0.0,0.7999999999999999,0.0,0.0,0,0.77266735,-1.1614318,2.5319555,0.09491114,-0.086238034,1.454596,-0.11621977,-0.13234223,-1.0702698,-1.968269,0.057183746,0.22326824,1.068938,-0.93881446
0.0,0.0,0.7999999999999999,0.0,0.0,0,0.7773066,-1.143307,2.484746,0.0912788,0.00885504,1.4456148,-0.046853222,-0.17759474,-1.0698097,-1.9318694,-0.07451473,0.11155516,1.0264773,0.73742974
0.0,0.0,0.7999999999999999,0.0,0.0,0,0.7785416,-1.1529881,2.5048897,0.09917005,-0.07010042,1.4592627,-0.056242563,-0.1179897,-1.0631465,-2.5285,-0.10918022,0.4252232,1.0878325,-0.038162094
0.0,0.0,0.7999999999999999,0.0,0.0,0,0.7755184,-1.1484205,2.5165968,0.09264634,-0.04174474,1.4491385,-0.052447956,-0.1227354,-1.071113,-2.0648167,-0.039477542,0.23730238,1.1349965,-0.01610926
0.0,0.0,0.7999999999999999,0.0,0.0,0,0.77713394,-1.1464714,2.5107956,0.09796443,-0.09188178,1.4435397,-0.061672818,-0.20526601,-1.0597908,-2.0492625,-0.075804666,-0.056234743,0.91879696,1.0256721
0.0,0.0,0.7999999999999999,0.0,0.0,0,0.7571682,-1.1566422,2.5095785,0.09001414,-0.115190774,1.4449971,-0.13582888,-0.105051294,-1.0619665,-2.6991246,0.009542633,0.13597797,1.3327287,0.74423665
0.0,0.0,0.7999999999999999,0.0,0.0,0,0.73697895,-1.1459774,2.5237293,0.09101567,-0.044758994,1.4523232,-0.069333054,-0.15150328,-1.0616516,-2.216735,-0.041364297,0.24904723,1.0608333,-1.3120959
0.0,0.0,0.7999999999999999,0.0,0.0,0,0.73330235,-1.1466603,2.509457,0.08763317,-0.021533463,1.4386803,-0.07138498,-0.13563101,-1.0627395,-2.3087997,-0.04398777,0.027955886,1.0689247,-1.4477233
0.0,0.0,0.7999999999999999,0.0,0.0,0,0.77581054,-1.1452657,2.5220883,0.096102156,-0.043266926,1.4620217,-0.025036259,-0.1564089,-1.0630856,-2.3474936,0.09748345,0.46181443,1.1144136,-0.40360102
0.0,0.0,0.7999999999999999,0.0,0.0,0,0.7648918,-1.1635349,2.5120807,0.099683814,-0.07205467,1.4379869,-0.13885996,-0.13280039,-1.063583,-2.058941,0.021494526,-0.1286589,0.9032155,0.09871295
0.0,0.0,0.7999999999999999,0.0,0.0,0,0.76591516,-1.1472939,2.5061448,0.085969314,-0.02261761,1.4434136,-0.06160096,-0.1516902,-1.0676106,-2.6030698,0.088790685,0.17567089,0.8680375,0.3578069
0.0,0.0,0.7999999999999999,0.0,0.0,0,0.771676,-1.1516414,2.5202458,0.092090696,-0.08321781,1.4402274,-0.04138075,-0.1300294,-1.0644056,-2.4149365,-0.075284004,0.19133167,0.9419722,-0.28398013
0.0,0.0,0.7999999999999999,0.0,0.0,0,0.76757246,-1.1561567,2.516297,0.082594186,-0.037046928,1.455138,-0.09638498,-0.16929965,-1.060187,-1.8429693,0.003279284,0.07948122,1.1403027,1.9005184
0.0,0.0,0.7999999999999999,0.0,0.0,0,0.7791222,-1.1468556,2.5053146,0.097434685,-0.08008881,1.4391348,-0.09463643,-0.13575347,-1.067011,-2.363952,-0.10607288,0.027295059,1.2015594,1.364133
0.0,0.0,0.7999999999999999,0.0,0.0,0,0.78191733,-1.1488044,2.5258286,0.088984154,-0.10853074,1.4466242,-0.082121596,-0.1364857,-1.0639479,-2.8422685,-0.15640256,0.2156961,0.9777357,-0.6410901
0.0,0.0,0.7999999999999999,0.0,0.0,0,0.7749468,-1.1463883,2.5294616,0.08288732,-0.06139505,1.4439728,-0.0914401,-0.15962164,-1.0621773,-2.5373604,-0.02859571,0.12257944,1.074897,0.9673655
0.0,0.0,0.7999999999999999,0.0,0.0,0,0.75596887,-1.1600978,2.5149777,0.07766183,-0.08474074,1.4501648,-0.08334005,-0.15136825,-1.0576357,-2.3429227,0.009441302,0.14435214,0.9509635,0.6306436
0.0,0.0,0.7999999999999999,0.0,0.0,0,0.799913,-1.153319,2.5067396,0.08722697,-0.018314052,1.4457736,-0.10513042,-0.11770198,-1.0597167,-2.7441926,-0.072483264,0.25489384,1.1854001,-0.7807342
0.0,0.0,0.7999999999999999,0.0,0.0,0,0.80225295,-1.1551266,2.5042882,0.09203451,-0.118375935,1.4578344,-0.09909307,-0.12761548,-1.0693293,-2.178465,0.05830263,0.26697838,1.1725141,-1.532811
0.0,0.0,0.7999999999999999,0.0,0.0,0,0.7716387,-1.1596376,2.5161152,0.08707062,-0.055703413,1.4517809,-0.040911227,-0.13910796,-1.0646267,-1.8989518,-0.04840748,0.08208899,1.1582112,0.08035116
0.0,0.0,0.7999999999999999,0.0,0.0,0,0.76455367,-1.1510674,2.5212827,0.101991944,-0.040183105,1.4403161,-0.033560656,-0.1503814,-1.0667701,-2.09991,0.04122364,0.08713728,1.0545754,-1.0882304
0.0,0.0,0.7999999999999999,0.0,0.0,0,0.80118877,-1.1558255,2.5180988,0.09233561,-0.06740509,1.443174,-0.11571827,-0.12591083,-1.0650553,-2.306034,0.012250739,-0.021055335,1.0273074,0.09364892
0.0,0.0,0.7999999999999999,0.0,0.0,0,0.771169,-1.1614789,2.5111563,0.10146427,-0.12086941,1.4347974,-0.03367304,-0.17233731,-1.0559397,-1.8717502,0.057205807,0.048638534,1.2718959,0.9380382
0.0,0.0,0.7999999999999999,0.0,0.0,0,0.8122021,-1.1588185,2.5253356,0.087237775,-0.08392506,1.4406099,-0.08568398,-0.1677471,-1.0594666,-1.8204124,-0.049135167,-0.09627424,1.2663628,-1.3162322
0.0,0.0,0.7999999999999999,0.0,0.0,0,0.7765322,-1.1459982,2.51513,0.08495341,-0.0019172754,1.4430813,-0.06797871,-0.16908662,-1.0646591,-2.722627,-0.13188659,0.18776113,1.1327724,1.1319604
0.0,0.0,0.7999999999999999,0.0,0.0,0,0.7767128,-1.1412723,2.510109,0.09059759,-0.060272,1.4498763,-0.098141156,-0.15308458,-1.0732275,-2.0779154,-0.0111053,0.04745808,1.2995862,1.3787166
0.0,0.0,0.7999999999999999,0.0,0.0,0,0.7661504,-1.146489,2.4949949,0.09314765,-0.001642741,1.4620429,-0.10321402,-0.16428934,-1.0716345,-2.4967625,0.06191953,0.22245696,0.9357249,0.31457868
0.0,0.0,0.7999999999999999,0.0,0.0,0,0.75385976,-1.1533779,2.4998085,0.09712503,-0.053250436,1.4472113,-0.11911145,-0.1315686,-1.0696818,-2.1114814,0.044066217,0.026187394,0.95481,-1.048096
0.0,0.0,0.7999999999999999,0.0,0.0,0,0.761991,-1.1581438,2.5222642,0.10049675,-0.055460095,1.4481966,-0.08785729,-0.13119158,-1.0629203,-1.9186829,0.058387104,0.10785976,1.1530617,0.2864566
0.0,0.0,0.7999999999999999,0.0,0.0,0,0.7730228,-1.147072,2.5276375,0.100324646,-0.026461799,1.4606678,-0.09653211,-0.12156034,-1.069339,-2.2083392,-0.009586202,0.0856556,1.0383397,0.7560366
0.0,0.0,0.7999999999999999,0.0,0.0,0,0.77095926,-1.1534811,2.522637,0.0936206,-0.039025906,1.4615548,-0.09995262,-0.12706804,-1.0665399,-2.1335835,0.07340191,0.09263225,1.1170826,-0.58569103
0.0,0.0,0.7999999999999999,0.0,0.0,0,0.7799987,-1.1473933,2.5292552,0.096131325,-0.055581868,1.4406888,-0.015220057,-0.09327333,-1.0768005,-1.8812597,-0.0030708972,0.088783205,1.1527406,0.4465288
0.0,0.0,0.7999999999999999,0.0,0.0,0,0.7605007,-1.1398292,2.502691,0.09430106,-0.11072384,1.4563737,-0.032330185,-0.16548865,-1.0688987,-2.3183231,-0.014730015,0.19873182,1.150104,-0.93948853
0.0,0.0,0.7999999999999999,0.0,0.0,0,0.7693679,-1.1475633,2.5148885,0.09759015,-0.044041783,1.4329524,-0.049539577,-0.16513467,-1.0655068,-2.684463,-0.016215658,0.29146186,1.1220152,-0.31728852
0.0,0.0,0.7999999999999999,0.0,0.0,0,0.77359766,-1.1551679,2.510918,0.09994519,-0.019628879,1.4604473,-0.095336065,-0.13258906,-1.0635737,-2.0958564,0.025633572,0.24743535,1.1197917,-0.097310245
0.0,0.0,0.7999999999999999,0.0,0.0,0,0.7626444,-1.1513311,2.5046253,0.09515427,-0.03692042,1.4456265,-0.11926923,-0.12928398,-1.0624508,-2.7446685,0.10178308,0.029285273,1.1558833,0.6834633
0.0,0.0,0.7999999999999999,0.0,0.0,0,0.75615263,-1.148244,2.5240614,0.08890677,-0.057394683,1.4507481,-0.10010012,-0.16854706,-1.0693129,-1.9666091,0.058021683,0.037913952,1.0527724,1.7035756
0.0,0.0,0.7999999999999999,0.0,0.0,0,0.79238135,-1.1533306,2.5228448,0.0879563,-0.054145,1.4458563,-0.039271846,-0.17083499,-1.071371,-2.0487578,-0.045522515,0.27442366,1.0939959,1.400684
0.0,0.0,0.7999999999999999,0.0,0.0,0,0.7451736,-1.1466292,2.521383,0.09078122,-0.04888262,1.4550418,-0.05096574,-0.13631812,-1.0694813,-2.0268984,-0.020255778,0.17536868,1.0432035,0.39939958
0.0,0.0,0.7999999999999999,0.0,0.0,0,0.79808617,-1.150981,2.5061855,0.09344825,-0.06693792,1.4633467,-0.115874305,-0.11117359,-1.0690044,-2.2821872,-0.07525886,0.029696051,1.1389648,-0.7574969
0.0,0.0,0.7999999999999999,0.0,0.0,0,0.7345894,-1.1505346,2.5225945,0.08551273,-0.10684715,1.4412051,-0.05631923,-0.14522043,-1.0656618,-2.3369021,-0.13496816,0.12517837,0.92165816,-0.862813
0.0,0.0,0.7999999999999999,0.0,0.0,0,0.7594147,-1.1561095,2.5141397,0.08349747,-0.060591776,1.4357021,-0.05865254,-0.12823682,-1.0684365,-1.8869786,0.042612568,0.08737852,1.025502,-0.982315
0.0,0.0,0.7999999999999999,0.0,0.0,0,0.77994025,-1.1512259,2.5091417,0.09369587,0.0073195416,1.4521276,-0.1604852,-0.13813277,-1.0747758,-1.9777337,-0.03041011,0.13762285,1.0912015,0.26370364
0.0,0.0,0.7999999999999999,0.0,0.0,0,0.80385005,-1.1484255,2.5204868,0.09022791,-0.09534529,1.4475247,0.026598848,-0.16408964,-1.0703847,-2.155293,0.01821682,-0.12734911,1.0314105,-0.22280736
0.0,0.0,0.7999999999999999,0.0,0.0,0,0.74920595,-1.1455497,2.5174441,0.09944132,-0.041696128,1.4498496,-0.11374084,-0.13858613,-1.0711243,-2.4343038,-0.09123289,0.17267624,1.1897682,0.19107845
0.0,0.0,0.7999999999999999,0.0,0.0,0,0.77914083,-1.1544673,2.5087743,0.09356531,-0.02765562,1.4504513,-0.05285995,-0.15798968,-1.061903,-2.1135273,-0.047350302,0.13832612,1.1041405,-1.0351633
0.0,0.0,0.7999999999999999,0.0,0.0,0,0.78933424,-1.1564819,2.5040576,0.08909441,-0.036716834,1.4466425,-0.13319643,-0.11807058,-1.065154,-2.3604288,-0.0041886778,0.015914734,0.99556774,-1.4762428
0.0,0.0,0.7999999999999999,0.0,0.0,0,0.7706171,-1.1400266,2.5089865,0.08976236,-0.13665314,1.4410554,-0.057839017,-0.15832923,-1.0736811,-2.557793,-0.0030903895,0.18688224,1.0247644,-1.7742823
0.0,0.0,0.7999999999999999,0.0,0.0,0,0.782664,-1.1563998,2.5108685,0.08869205,-0.13054544,1.4376258,-0.005504902,-0.13710618,-1.064963,-2.2223628,0.050771244,0.18280119,1.1609918,-1.5319518
0.0,0.0,0.7999999999999999,0.0,0.0,0,0.75505483,-1.155984,2.5281813,0.08422132,-0.10401785,1.4291418,-0.057996564,-0.14224951,-1.0674516,-2.1178777,0.13881709,0.13201992,0.94829905,1.4085661
0.0,0.0,0.7999999999999999,0.0,0.0,0,0.7797893,-1.1547072,2.5265281,0.0920242,-0.045531236,1.4457202,-0.025326103,-0.15826923,-1.0729556,-2.0882401,-0.16026112,-0.096558265,0.90836686,1.5991153
0.0,0.0,0.7999999999999999,0.0,0.0,0,0.74600923,-1.147704,2.5202003,0.09000663,-0.038892295,1.4367262,-0.1293882,-0.11026978,-1.0709263,-2.2718248,-0.051273115,0.31502908,1.0585719,-1.289107
0.0,0.0,0.7999999999999999,0.0,0.0,0,0.76789546,-1.145724,2.499061,0.08121138,-0.077830434,1.4585998,-0.070054844,-0.17462301,-1.06807,-2.28517,-0.019189833,-0.11673332,1.0888587,-0.20801666
0.0,0.0,0.7999999999999999,0.0,0.0,0,0.77568424,-1.1543226,2.5133018,0.08297788,-0.021143235,1.4494866,-0.07957498,-0.15080379,-1.0676545,-2.6955578,-0.10728133,0.062994175,0.9277428,-0.74884254
0.0,0.0,0.7999999999999999,0.0,0.0,0,0.78666127,-1.1524798,2.514519,0.08672991,-0.11531656,1.4478631,-0.061809897,-0.13178869,-1.069624,-2.5410616,-0.12696832,-0.071849525,1.1216983,-0.77088624
0.0,0.0,0.7999999999999999,0.0,0.0,0,0.7608163,-1.1572402,2.515927,0.09030533,-0.06842364,1.4343071,-0.06280654,-0.15022118,-1.0644374,-2.5304778,-0.023947714,0.30445266,0.9863512,-1.6724502
0.0,0.0,0.7999999999999999,0.0,0.0,0,0.77106667,-1.1523867,2.5252724,0.08801132,-0.06798178,1.4525537,-0.023295835,-0.16414201,-1.0684589,-2.311953,-0.07955948,-0.0042774836,1.1164631,0.6449598
0.0,0.0,0.7999999999999999,0.0,0.0,0,0.7837466,-1.1540108,2.5150623,0.08298782,-0.004916886,1.452346,-0.031845544,-0.15856683,-1.0670719,-2.2521808,0.13160828,0.28548956,1.0907481,-1.0443513
0.0,0.0,0.7999999999999999,0.0,0.0,0,0.76099235,-1.1504114,2.496729,0.09940625,-0.0058993828,1.4416736,-0.097487226,-0.1575186,-1.0684259,-2.0435345,-0.048188284,0.20837565,1.0492865,0.30332696
0.0,0.0,0.7999999999999999,0.0,0.0,0,0.7660559,-1.1670289,2.5175657,0.0930922,-0.02469838,1.4673609,-0.084981576,-0.15738456,-1.0673345,-2.4003103,0.02992338,-0.10386028,0.98363304,-0.70383966
0.0,0.0,0.7999999999999999,0.0,0.0,0,0.77750295,-1.1541383,2.5285447,0.09274792,-0.075150356,1.4428086,-0.006792371,-0.13174385,-1.0683935,-2.599151,-0.041161213,0.036150813,1.128929,0.21470873
0.0,0.0,0.7999999999999999,0.0,0.0,0,0.7835643,-1.1555512,2.5230267,0.08704349,-0.0529908,1.4458032,-0.080037236,-0.11930252,-1.0764467,-2.235658,-0.073452115,0.21264163,0.993115,-0.3259362
0.0,0.0,0.7999999999999999,0.0,0.0,0,0.76189625,-1.1618,2.5415127,0.090818085,-0.08678215,1.4601241,-0.08584961,-0.13835062,-1.0676892,-2.0663884,-0.15052405,0.059723392,1.2107481,-1.1017697
0.0,0.0,0.7999999999999999,0.0,0.0,0,0.77094525,-1.1587627,2.5216122,0.092633836,-0.06391694,1.4424492,-0.08358488,-0.14416257,-1.07327,-2.202834,0.069870576,0.0976472,1.1079453,-1.3571551
0.0,0.0,0.7999999999999999,0.0,0.0,0,0.79774153,-1.1609066,2.5172052,0.090351336,-0.0017582102,1.4541197,-0.054165326,-0.13583882,-1.068844,-2.3442729,-0.08701329,0.17567606,1.1801637,0.65446603
0.0,0.0,0.7999999999999999,0.0,0.0,0,0.7807822,-1.1277285,2.513226,0.08517524,-0.04798236,1.4432458,-0.08125289,-0.14980286,-1.0749892,-2.0373325,-0.016309291,0.120242454,1.0265828,0.30187133
0.0,0.0,0.7999999999999999,0.0,0.0,0,0.7836681,-1.123292,2.5124228,0.09063607,-0.08525969,1.4426198,-0.098331615,-0.13154581,-1.062466,-2.082472,-0.022566965,0.11258358,1.1459589,0.13686556
0.0,0.0,0.7999999999999999,0.0,0.0,0,0.7734176,-1.1548328,2.5024047,0.075573504,-0.03326691,1.4418244,-0.06593107,-0.1446094,-1.0565286,-1.7376101,0.010451163,-0.2396566,1.0609301,-0.021742633
0.0,0.0,0.7999999999999999,0.0,0.0,0,0.7774206,-1.1532092,2.5186682,0.080906376,-0.029421331,1.4575036,-0.010215156,-0.13299339,-1.063711,-2.0662367,-0.0023883125,0.2648025,1.2666115,1.3238342
0.0,0.0,0.7999999999999999,0.0,0.0,0,0.77913225,-1.1503435,2.5167782,0.097811535,-0.08243455,1.4484998,-0.060287,-0.1435028,-1.0677207,-2.1459546,0.0385106,0.37848192,1.0302167,0.6807419
0.0,0.0,0.7999999999999999,0.0,0.0,0,0.77494866,-1.1446387,2.4937189,0.10128851,-0.023912888,1.4535766,-0.052083846,-0.11178348,-1.0773981,-1.858671,0.030601565,0.38947383,1.0970556,-0.89954185
0.0,0.0,0.7999999999999999,0.0,0.0,0,0.7786746,-1.1226592,2.5090618,0.102147676,-0.08719224,1.4478608,-0.038716495,-0.16906032,-1.0610036,-2.3251808,-0.055891257,0.28180683,0.8993657,0.6843586
0.0,0.0,0.7999999999999999,0.0,0.0,0,0.7511421,-1.1257039,2.5155523,0.08577206,-0.079650275,1.4561176,-0.15094058,-0.14425251,-1.0615175,-2.1256795,0.088541366,0.26370582,1.1291645,0.4773441
0.0,0.0,0.7999999999999999,0.0,0.0,0,0.7717445,-1.1202917,2.5188227,0.09402867,-0.15614428,1.4524201,-0.09757426,-0.1433302,-1.0589421,-2.1029692,-0.023866475,0.100124344,1.0648478,-0.76063204
0.0,0.0,0.7999999999999999,0.0,0.0,0,0.7689022,-1.1555154,2.5160544,0.082726635,-0.03975189,1.4475874,-0.07761368,-0.12927383,-1.0562184,-2.1293924,0.047472253,0.2766409,1.1864284,0.42211682
0.0,0.0,0.7999999999999999,0.0,0.0,0,0.80730045,-1.1264703,2.5147138,0.09153125,-0.09813219,1.443439,-0.10822906,-0.12794957,-1.056171,-2.2429242,-0.04242945,0.3722319,1.1114682,-1.1278288
0.0,0.0,0.7999999999999999,0.0,0.0,0,0.8019664,-1.1383147,2.5048707,0.08502466,-0.07984193,1.4392018,-0.038839243,-0.17458656,-1.0547374,-2.1386316,-0.009591515,0.12162404,1.106042,-0.6435698
0.0,0.0,0.7999999999999999,0.0,0.0,0,0.79390365,-1.1616125,2.5344975,0.08379089,-0.04002026,1.4567457,-0.06918868,-0.12652734,-1.0675222,-2.027625,0.1094167,0.1417664,1.2145877,-0.5570478
0.0,0.0,0.7999999999999999,0.0,0.0,0,0.7663023,-1.1222441,2.5327983,0.09836475,-0.05839435,1.4550068,-0.009739419,-0.1244903,-1.0635816,-2.037827,-0.08768799,0.047494397,1.23693,0.63441515
0.0,0.0,0.7999999999999999,0.0,0.0,0,0.78008455,-1.1165559,2.5224288,0.09918421,-0.08444449,1.4482454,-0.07341298,-0.14125018,-1.0585734,-2.3921387,-0.03557773,0.012631295,1.1438488,1.2864501
0.0,0.0,0.7999999999999999,0.0,0.0,0,0.79197353,-1.1163346,2.5275214,0.08632115,-0.06905278,1.4528707,-0.13661376,-0.17559001,-1.0531265,-2.9412978,-0.032282274,0.066781454,1.0843537,0.20658751
0.0,0.0,0.7999999999999999,0.0,0.0,0,0.75762486,-1.116314,2.5082119,0.089742035,-0.06227876,1.44317,-0.08275265,-0.11078099,-1.0698252,-2.351281,-0.07961096,0.10288371,1.0774535,-1.70316
0.0,0.0,0.7999999999999999,0.0,0.0,0,0.73190886,-1.1292557,2.5365043,0.09715651,-0.013290911,1.454517,-0.06967024,-0.13638286,-1.0683671,-2.3703852,-0.1263789,0.075134754,1.0461413,0.21077959
0.0,0.0,0.7999999999999999,0.0,0.0,0,0.7673074,-1.1286077,2.5305543,0.09708852,0.001568136,1.4470108,-0.07598515,-0.1313955,-1.0613112,-2.5144536,-0.059012745,-0.19786398,1.0263683,0.42755532
0.0,0.0,0.7999999999999999,0.0,0.0,0,0.7759632,-1.1587368,2.5021994,0.09054982,-0.07904642,1.4320284,-0.12542029,-0.1371346,-1.0627829,-2.583669,-0.108305655,-0.09335248,1.0214672,-1.2280817
0.0,0.0,0.7999999999999999,0.0,0.0,0,0.7605915,-1.1394492,2.5246267,0.09251805,0.038108986,1.4467804,-0.10325853,-0.11861503,-1.0690081,-2.4840076,-0.087069,0.08363367,0.97765404,1.5117477
0.0,0.0,0.7999999999999999,0.0,0.0,0,0.79389226,-1.1601933,2.5244687,0.102992,0.0029498115,1.4488597,-0.0680955,-0.16621374,-1.0661777,-2.490535,-0.033767484,-0.02893409,1.0751332,2.6780956
0.0,0.0,0.7999999999999999,0.0,0.0,0,0.7744022,-1.143958,2.5212002,0.09654805,0.005523785,1.4468951,-0.09250412,-0.10829938,-1.0668706,-1.9241455,-0.0143852895,0.07782018,1.291651,1.2464919
0.0,0.0,0.7999999999999999,0.0,0.0,0,0.8139484,-1.1429452,2.5067878,0.093207866,-0.014576014,1.4567741,-0.060792387,-0.11107014,-1.0656096,-1.8738152,-0.07508049,0.022332221,1.1216661,-0.58042103
0.0,0.0,0.7999999999999999,0.0,0.0,0,0.7569924,-1.1546465,2.5115783,0.10038545,-0.029398741,1.43894,-0.09266896,-0.17035964,-1.06237,-2.668584,0.082779676,0.07339737,0.8673861,0.6849465
0.0,0.0,0.7999999999999999,0.0,0.0,0,0.7508571,-1.1556234,2.522834,0.09192223,-0.043717522,1.440182,-0.055006206,-0.13848856,-1.0538698,-2.2063596,0.06175181,0.20721658,0.95863813,0.78285855
0.0,0.0,0.7999999999999999,0.0,0.0,0,0.78699964,-1.1494677,2.5260103,0.08818767,-0.029000208,1.4466474,-0.094899,-0.124475025,-1.0524987,-2.290275,-0.093906336,0.32708433,0.96632165,-0.3189208
0.0,0.0,0.7999999999999999,0.0,0.0,0,0.75147766,-1.1330459,2.5032134,0.095304474,-0.06518313,1.4427619,-0.05133864,-0.13525018,-1.062336,-2.3024936,-0.074192874,0.4332263,0.9812727,-1.094129
0.0,0.0,0.7999999999999999,0.0,0.0,0,0.7745222,-1.143242,2.5284233,0.09871897,-0.09263011,1.4431952,-0.14729276,-0.14632607,-1.0604804,-1.8922707,-0.11425165,0.40096876,1.0859964,0.8785603
0.0,0.0,0.7999999999999999,0.0,0.0,0,0.77722746,-1.1418242,2.5314195,0.0939802,-0.0127463825,1.4569161,-0.120347515,-0.14671136,-1.0630926,-1.9540203,-0.012875004,0.3016649,0.9840993,-0.32076806
0.0,0.0,0.7999999999999999,0.0,0.0,0,0.78136027,-1.1382076,2.5253227,0.08803707,-0.014593127,1.4519653,-0.13581535,-0.13736801,-1.0635532,-2.804818,-0.008047127,0.12125206,0.93833554,0.002195696
0.0,0.0,0.7999999999999999,0.0,0.0,0,0.74120736,-1.138044,2.5245874,0.093802914,-0.058172766,1.4554834,-0.070839584,-0.13451861,-1.0585195,-2.2454352,-0.163371,0.2496279,1.2403607,1.2927366
0.0,0.0,0.7999999999999999,0.0,0.0,0,0.7960845,-1.147218,2.5261939,0.09393917,-0.012037326,1.4526993,-0.10137716,-0.11190004,-1.0644498,-2.2258475,0.051071793,-0.028773677,1.123829,0.36989275
0.0,0.0,0.7999999999999999,0.0,0.0,0,0.8056995,-1.1487695,2.5073647,0.100710884,-0.018806247,1.4511777,-0.09260963,-0.14177193,-1.0660787,-2.3106577,-0.033158783,0.1098898,1.0900913,-0.43163773
0.0,0.0,0.7999999999999999,0.0,0.0,0,0.77856416,-1.1480509,2.518101,0.10190663,-0.047089037,1.4490665,-0.063409634,-0.13505726,-1.0654888,-2.1133332,-0.15375108,-0.018824434,1.0824906,0.56381327
0.0,0.0,0.7999999999999999,0.0,0.0,0,0.7738655,-1.138709,2.5233219,0.10632202,-0.0075636376,1.4352584,-0.08464198,-0.087841175,-1.0678235,-2.5046723,-0.086993486,0.2349813,1.0338621,0.6782783
0.0,0.0,0.7999999999999999,0.0,0.0,0,0.78617805,-1.1356231,2.524052,0.08569513,-0.0788532,1.4383183,-0.13419777,-0.14160708,-1.061837,-2.1316643,-0.03218839,0.30217952,1.2626687,0.90199924
0.0,0.0,0.7999999999999999,0.0,0.0,0,0.76850927,-1.1508461,2.5281038,0.08814276,-0.02803378,1.4547609,-0.054906018,-0.15425672,-1.0636766,-1.759652,0.014634869,0.14279397,1.1487736,-0.21596776
0.0,0.0,0.7999999999999999,0.0,0.0,0,0.7625777,-1.1459541,2.516928,0.09319298,-0.038480174,1.4541785,-0.096297145,-0.14026433,-1.0638072,-2.1461427,-0.0594714,0.39543217,1.1388541,-0.055378236
0.0,0.0,0.7999999999999999,0.0,0.0,0,0.791133,-1.1702371,2.5062666,0.096958786,-0.039059438,1.4353957,-0.066258326,-0.10348746,-1.0593058,-1.987614,0.06805553,0.16134942,1.1699684,-1.4317172
0.0,0.0,0.7999999999999999,0.0,0.0,0,0.76499116,-1.1473349,2.511095,0.091413304,-0.039161358,1.4472102,-0.10261126,-0.1506125,-1.0581181,-2.3731854,-0.21992317,0.15736741,0.9756529,0.05403325
0.0,0.0,0.7999999999999999,0.0,0.0,0,0.7391965,-1.1445854,2.5146732,0.0965763,-0.067731015,1.4605515,-0.07027455,-0.15056379,-1.0588905,-2.4995742,0.04206513,0.056269016,0.8990751,0.7166774
0.0,0.0,0.7999999999999999,0.0,0.0,0,0.7756666,-1.1554594,2.5094292,0.10008794,-0.045919716,1.4539136,-0.07427905,-0.11770031,-1.0632703,-2.6868122,0.07462447,0.17052557,0.9352031,-0.09545218
0.0,0.0,0.7999999999999999,0.0,0.0,0,0.77555233,-1.156561,2.5191042,0.10675087,0.0030580366,1.4439715,-0.03857037,-0.17065999,-1.0681518,-1.9393297,0.18024011,0.2729694,0.8672817,1.9336342
0.0,0.0,0.7999999999999999,0.0,0.0,0,0.8236058,-1.1616411,2.5311632,0.096602656,-0.030942844,1.4532561,-0.041857295,-0.14676712,-1.0551944,-2.2721577,-0.059730444,0.1963048,1.1500434,-1.2665054
0.0,0.0,0.7999999999999999,0.0,0.0,0,0.75574744,-1.1370363,2.5072045,0.09816654,-0.029696984,1.4442168,-0.06657203,-0.13426907,-1.0614141,-2.5965834,-0.16826336,0.019876258,1.0570558,1.070866
0.0,0.0,0.7999999999999999,0.0,0.0,0,0.81026125,-1.1639563,2.5045238,0.08180631,0.018119512,1.4601465,-0.09774318,-0.12521514,-1.0611129,-2.4115386,-0.098167785,-0.034749027,1.1585733,0.43620467
0.0,0.0,0.7999999999999999,0.0,0.0,0,0.7992706,-1.1323879,2.5036685,0.09225751,-0.05963724,1.4417245,-0.09337359,-0.15118551,-1.0687739,-2.3284082,0.01560001,0.06419786,1.1547407,1.3322142
0.0,0.0,0.7999999999999999,0.0,0.0,0,0.7441874,-1.136525,2.5252707,0.09228457,-0.04351716,1.442478,-0.004406305,-0.12239634,-1.065214,-2.3876677,0.15957025,0.08167211,1.0756172,-0.7314928
0.0,0.0,0.7999999999999999,0.0,0.0,0,0.76611596,-1.1339785,2.524768,0.08882454,-0.08583447,1.434614,-0.08580826,-0.16881749,-1.0629259,-2.0916257,-0.039330445,0.13072248,0.95946234,-0.79335576
0.0,0.0,0.7999999999999999,0.0,0.0,0,0.80325913,-1.1418334,2.5229397,0.087648675,-0.04962114,1.4515,-0.07759692,-0.14390537,-1.0666872,-2.2169712,0.11010056,0.38843536,0.96965235,-0.3264902
0.0,0.0,0.7999999999999999,0.0,0.0,0,0.7957294,-1.1485502,2.5008314,0.07628613,-0.043740198,1.4440709,-0.05922169,-0.13497718,-1.0648186,-1.6739519,0.17051727,0.10422538,1.12352,0.6999446
0.0,0.0,0.7999999999999999,0.0,0.0,0,0.7659768,-1.1407431,2.5159583,0.09009152,-0.03691399,1.4417366,-0.08160358,-0.1367964,-1.0644215,-1.9738346,-0.06675378,0.18257417,1.1438442,1.5419679
0.0,0.0,0.7999999999999999,0.0,0.0,0,0.7876437,-1.147822,2.519456,0.08845363,-0.03306352,1.4335406,-0.09815432,-0.17672232,-1.0644689,-1.953988,-0.14175722,0.1585163,1.2028176,-0.87519336
0.0,0.0,0.7999999999999999,0.0,0.0,0,0.74525905,-1.1478202,2.5035594,0.09631283,-0.04402705,1.45421,-0.06024758,-0.16582914,-1.0558826,-2.1984968,0.05352377,0.159118,1.116085,-0.66862255
0.0,0.0,0.7999999999999999,0.0,0.0,0,0.77650493,-1.149922,2.5254142,0.08312372,-0.074268684,1.4478276,-0.12691166,-0.15929711,-1.065143,-2.0858495,-0.051081702,0.027801221,1.1199793,-0.87634933
0.0,0.0,0.7999999999999999,0.0,0.0,0,0.7584075,-1.1562101,2.5072682,0.092175424,-0.023831204,1.4515502,-0.07286816,-0.16594204,-1.0553564,-2.3413773,-0.11394326,0.30725595,1.1568121,-1.5637566
0.0,0.0,0.7999999999999999,0.0,0.0,0,0.75634766,-1.1540735,2.52221,0.0905017,-0.0017223796,1.4462972,-0.10563964,-0.16485406,-1.067898,-2.4921432,-0.070896655,-0.20822862,1.0634629,-1.4314395
0.0,0.0,0.7999999999999999,0.0,0.0,0,0.7567773,-1.1445752,2.519925,0.096289314,-0.053480353,1.4408714,0.014266026,-0.13292626,-1.0679682,-2.305764,-0.019557673,0.09770958,0.854291,0.60074145
0.0,0.0,0.7999999999999999,0.0,0.0,0,0.7811826,-1.1729684,2.5014753,0.09102987,-0.013127547,1.4558223,-0.079475656,-0.10282009,-1.059723,-2.0334234,0.0544868,-0.10391304,1.0288413,2.0071235
0.0,0.0,0.7999999999999999,0.0,0.0,0,0.76624024,-1.1497217,2.520398,0.098528795,-0.050798215,1.4658973,-0.06845306,-0.13726683,-1.0654831,-1.7028484,-0.014177666,0.18746212,1.2227542,0.80029017
0.0,0.0,0.7999999999999999,0.0,0.0,0,0.75537163,-1.1572728,2.52673,0.084841415,-0.017351346,1.4509628,-0.008626889,-0.13720657,-1.0616863,-2.2859187,-0.030754207,0.18142843,1.09242,-0.05068458
0.0,0.0,0.7999999999999999,0.0,0.0,0,0.750222,-1.1512467,2.5308242,0.0951195,-0.011207921,1.4540614,-0.10001442,-0.15160926,-1.0652949,-2.2589626,-0.035621706,0.15947632,1.0865304,0.9269969
0.0,0.0,0.7999999999999999,0.0,0.0,0,0.7698149,-1.1486324,2.5044296,0.09103584,-0.089380324,1.4532413,-0.10880564,-0.17088841,-1.063397,-2.0644968,-0.011539776,0.14545016,0.9886122,0.120423175
0.0,0.0,0.7999999999999999,0.0,0.0,0,0.77057666,-1.1510049,2.506462,0.086204246,-0.04173573,1.4467654,-0.11192988,-0.1806085,-1.067176,-1.8347645,0.057898585,0.20108229,1.0240501,-0.17455545
0.0,0.0,0.7999999999999999,0.0,0.0,0,0.7746199,-1.1510974,2.511766,0.09478871,-0.082356624,1.4545289,-0.028864907,-0.1305786,-1.0717516,-2.220059,0.03836995,0.0862639,0.91147685,1.0550269
0.0,0.0,0.7999999999999999,0.0,0.0,0,0.78377455,-1.158841,2.5214508,0.08643539,-0.07332306,1.4550645,-0.08142252,-0.17904891,-1.0631555,-2.0118234,-0.10664411,0.056417007,1.0665711,2.325839
0.0,0.0,0.7999999999999999,0.0,0.0,0,0.80634034,-1.1458538,2.51242,0.09396822,-0.08566206,1.4276257,-0.09578126,-0.14246707,-1.0663215,-2.7750497,-0.058521222,0.4441924,1.1197764,0.054704357
0.0,0.0,0.7999999999999999,0.0,0.0,0,0.7440963,-1.1455513,2.5141938,0.09544257,-0.03191847,1.4470996,-0.1007021,-0.16289225,-1.0694176,-2.229223,-0.053628225,0.07266011,1.1303409,-0.9639719
0.0,0.0,0.7999999999999999,0.0,0.0,0,0.7596443,-1.1502357,2.4962668,0.09101466,-0.016952762,1.4473525,-0.058287337,-0.16127011,-1.0739241,-2.0202594,-0.16291536,0.37288865,0.8215078,-1.8817537
0.0,0.0,0.7999999999999999,0.0,0.0,0,0.7499822,-1.1484002,2.5114014,0.096637845,-0.08804603,1.4453167,-0.09537799,-0.12338682,-1.0692632,-3.038855,0.003831085,0.075164005,1.2516619,-0.41742486
0.0,0.0,0.7999999999999999,0.0,0.0,0,0.77576715,-1.165012,2.5175283,0.09708831,-0.066940725,1.4482709,-0.07642395,-0.13726683,-1.067781,-2.4519415,0.15144214,0.39191976,1.0403166,1.2056531
0.0,0.0,0.7999999999999999,0.0,0.0,0,0.7934187,-1.1653003,2.5133448,0.09714947,-0.056663375,1.4392961,-0.10112226,-0.14614971,-1.0676216,-1.3767529,0.14107557,0.07989024,1.0128487,0.30469176
0.0,0.0,0.7999999999999999,0.0,0.0,0,0.737713,-1.1554905,2.5174658,0.08947417,-0.069527626,1.4529778,-0.07088373,-0.16115639,-1.0657556,-2.3649054,-0.14261618,0.07836168,1.1255037,1.2603774
0.0,0.0,0.7999999999999999,0.0,0.0,0,0.74515975,-1.1572536,2.5237072,0.09301619,-0.06514315,1.4535866,-0.032985967,-0.13374873,-1.0654289,-2.1451213,-0.02150144,0.05431363,1.1985884,-0.2567586
0.0,0.0,0.7999999999999999,0.0,0.0,0,0.75538605,-1.1507083,2.5106242,0.088573255,-0.046629783,1.443144,-0.100968674,-0.15687089,-1.0705965,-1.844544,0.012366998,0.2270945,1.0090897,1.616198
0.0,0.0,0.7999999999999999,0.0,0.0,0,0.7974077,-1.1621994,2.5172439,0.09159547,-0.07639811,1.4365437,-0.0846399,-0.16591659,-1.065682,-1.9515622,-0.006116355,0.17561132,1.3130438,0.6839859
0.0,0.0,0.7999999999999999,0.0,0.0,0,0.74142843,-1.1601725,2.5220766,0.09314471,-0.024810664,1.4591076,-0.026229454,-0.14589095,-1.0667659,-1.8571985,0.08938373,0.24499768,0.99034226,-1.7122077
0.0,0.0,0.7999999999999999,0.0,0.0,0,0.7600724,-1.1484792,2.51645,0.0884478,-0.029707259,1.4401976,-0.030101694,-0.18872465,-1.0661602,-2.2043872,0.016397987,0.2757166,1.0390505,-0.42177787
0.0,0.0,0.7999999999999999,0.0,0.0,0,0.76052594,-1.1464508,2.5399446,0.094968304,-0.10391987,1.4549934,-0.114128344,-0.1528771,-1.0742806,-2.6310039,-0.1726942,0.08615779,1.0477762,-0.28219807
0.0,0.0,0.7999999999999999,0.0,0.0,0,0.79212815,-1.1671368,2.5116515,0.09163413,-0.023176799,1.4412961,-0.052521996,-0.11850944,-1.0656381,-2.286515,-0.09037578,0.06424219,1.0968722,1.4097127
0.0,0.0,0.7999999999999999,0.0,0.0,0,0.7479323,-1.1516377,2.5043771,0.08778869,-0.043438148,1.453885,-0.0401383,-0.12253237,-1.0741376,-2.5188231,-0.0035582553,-0.020012202,1.0696427,0.0061725643
0.0,0.0,0.7999999999999999,0.0,0.0,0,0.79289234,-1.1559758,2.507228,0.082334734,-0.027161706,1.4571865,-0.012322716,-0.13485502,-1.0730698,-1.9031247,0.0023190198,-0.03650934,1.139134,1.1009357
0.0,0.0,0.7999999999999999,0.0,0.0,0,0.7760908,-1.1465008,2.496398,0.09888755,-0.02848806,1.4408935,-0.119691476,-0.13438624,-1.066169,-1.8300189,-0.03293306,-0.0060572405,0.9845095,1.2415446
0.0,0.0,0.7999999999999999,0.0,0.0,0,0.7704017,-1.1457083,2.5349035,0.100458145,-0.0114996135,1.4441372,-0.0805081,-0.11861931,-1.0689467,-2.3743668,0.033325903,0.29635525,1.0095332,-1.2929357
0.0,0.0,0.7999999999999999,0.0,0.0,0,0.7843104,-1.1397034,2.5190156,0.09314613,-0.03246131,1.4511693,-0.12404003,-0.15335721,-1.0732244,-2.3752913,-0.019969186,-0.14467168,1.2948469,0.7719807
0.0,0.0,0.7999999999999999,0.0,0.0,0,0.74322,-1.1383549,2.5128796,0.0889079,0.0024174398,1.4369144,0.004149812,-0.16395548,-1.0673592,-2.1572223,0.05289139,0.17453,1.0745252,0.24383818
0.0,0.0,0.7999999999999999,0.0,0.0,0,0.7818568,-1.1501917,2.5083141,0.09333383,-0.035537653,1.4495981,-0.097262725,-0.15725242,-1.0640407,-2.4943268,-0.19591665,0.029496683,1.1035081,0.33861867
0.0,0.0,0.7999999999999999,0.0,0.0,0,0.746402,-1.1477292,2.5164454,0.09299735,-0.05249291,1.4370625,-0.019937593,-0.14402781,-1.0701421,-2.1831062,0.0015136114,0.15593153,1.0796086,1.62605
0.0,0.0,0.7999999999999999,0.0,0.0,0,0.76068306,-1.1617242,2.5036793,0.09577497,-0.033983734,1.4486465,-0.071904674,-0.14815268,-1.0649467,-2.2185059,-0.032811165,0.26743335,1.0265698,0.8444014
0.0,0.0,0.7999999999999999,0.0,0.0,0,0.74348485,-1.1629665,2.509946,0.094407566,-0.0464308,1.4407185,-0.014149066,-0.15383166,-1.0602858,-2.3243988,-0.12839708,0.051708147,1.1450597,0.72798884
