sanky1234/BimanualDexCatch/isaacgymenvs/cem_results/football_pose_0.0_-0.1_1.1999999999999997_-0.5235987755982988_0.0_0_2025-05-26.csv
x,y,z,roll,pitch,yaw,robot1/joint1,robot1/joint2,robot1/joint3,robot1/joint4,robot1/joint5,robot1/joint6,robot1/joint7,robot2/joint1,robot2/joint2,robot2/joint3,robot2/joint4,robot2/joint5,robot2/joint6,robot2/joint7
0.0,-0.1,1.1999999999999997,-0.5235987755982988,0.0,0,-0.2138812,-1.4863317,-0.29420537,0.121758364,0.010783913,1.156525,-0.25713477,-0.02229954,-0.5809923,0.006438594,0.2256528,-0.06926056,1.123989,1.6139274
0.0,-0.1,1.1999999999999997,-0.5235987755982988,0.0,0,-0.21460076,-1.485482,-0.29592875,0.10466256,0.08776579,1.1699877,-0.5773481,-0.021784592,-0.580939,-0.0007262687,0.22473648,-0.009716929,1.0802885,0.9379217
0.0,-0.1,1.1999999999999997,-0.5235987755982988,0.0,0,-0.2149772,-1.4853046,-0.30096248,0.116997585,0.12815619,1.0437174,0.29076397,-0.021049758,-0.581053,0.004303458,0.2143884,-0.09346422,1.0900823,1.712248
0.0,-0.1,1.1999999999999997,-0.5235987755982988,0.0,0,-0.21547551,-1.4855925,-0.29667586,0.11554791,0.048957694,1.0882611,-0.058465946,-0.02163217,-0.5811689,-0.015196999,0.19188708,0.00085727737,1.1095152,-0.03510798
0.0,-0.1,1.1999999999999997,-0.5235987755982988,0.0,0,-0.21402578,-1.4856871,-0.30446625,0.11021118,-0.091496706,1.1524572,-0.6447072,-0.023539273,-0.58126664,-0.021293981,0.21269472,-0.2600031,1.089222,1.0157747
0.0,-0.1,1.1999999999999997,-0.5235987755982988,0.0,0,-0.21380658,-1.4840257,-0.30424538,0.12643695,-0.0024669052,1.0804589,-0.62510616,-0.022072501,-0.58120406,-0.010713372,0.1900804,-0.055373367,1.1022644,0.44985545
0.0,-0.1,1.1999999999999997,-0.5235987755982988,0.0,0,-0.21521844,-1.4848975,-0.3042682,0.10612069,0.006411071,1.145612,0.2751415,-0.020342771,-0.5812514,-0.024247812,0.20898105,-0.0450598,1.0902609,0.15678257
0.0,-0.1,1.1999999999999997,-0.5235987755982988,0.0,0,-0.21447876,-1.4847,-0.29464617,0.109250605,0.036371578,1.0911891,-0.297178,-0.023463376,-0.581182,0.0004875598,0.23444836,0.043535594,1.1192727,0.80312073
0.0,-0.1,1.1999999999999997,-0.5235987755982988,0.0,0,-0.21470398,-1.4860535,-0.29767865,0.1211351,0.010362598,1.1379488,-1.197171,-0.023500303,-0.5809047,0.0036546295,0.2018398,-0.0364283,1.1014924,0.9360774
0.0,-0.1,1.1999999999999997,-0.5235987755982988,0.0,0,-0.21289496,-1.485843,-0.29493394,0.12075126,-0.08649863,1.0744224,-0.29041138,-0.01970467,-0.58093375,0.01193887,0.20989381,-0.09348549,1.0863752,-0.325984
0.0,-0.1,1.1999999999999997,-0.5235987755982988,0.0,0,-0.21391284,-1.4847869,-0.2980522,0.11348761,0.024164628,1.0316162,-0.65135163,-0.0244081,-0.58124876,0.012130324,0.2207608,0.04793602,1.0716383,0.16299984
0.0,-0.1,1.1999999999999997,-0.5235987755982988,0.0,0,-0.2135281,-1.4853438,-0.2913506,0.108187765,0.09863865,1.0798694,0.1541019,-0.023506114,-0.5812278,0.008911378,0.21191786,-0.18975854,1.0827911,1.0573803
0.0,-0.1,1.1999999999999997,-0.5235987755982988,0.0,0,-0.21418081,-1.4847404,-0.3011882,0.10899283,0.14081405,1.0549868,0.041352395,-0.02240641,-0.58099246,-0.0036315785,0.197342,0.025115944,1.1111748,-0.18124196
0.0,-0.1,1.1999999999999997,-0.5235987755982988,0.0,0,-0.2135817,-1.4859241,-0.3001562,0.109005295,-0.018367365,1.0349334,-0.36217508,-0.022951987,-0.5810692,-0.0028020006,0.21720544,0.16567539,1.0881394,1.0305732
0.0,-0.1,1.1999999999999997,-0.5235987755982988,0.0,0,-0.21351056,-1.4856108,-0.29625204,0.10593481,0.0067057265,1.0661106,-0.114252165,-0.022676237,-0.58101773,0.0077537303,0.2229075,-0.18797965,1.1119626,1.0267595
0.0,-0.1,1.1999999999999997,-0.5235987755982988,0.0,0,-0.21417417,-1.4862031,-0.29827574,0.1206674,0.077304006,1.2111748,-0.9846407,-0.021413023,-0.5813373,-0.0074666874,0.21328665,-0.020502036,1.0787987,0.34727377
0.0,-0.1,1.1999999999999997,-0.5235987755982988,0.0,0,-0.21337609,-1.486112,-0.2935463,0.113138154,-0.015400782,1.0488052,0.45625952,-0.022520546,-0.5811114,0.009385416,0.2217664,-0.018870687,1.0630624,0.9630646
0.0,-0.1,1.1999999999999997,-0.5235987755982988,0.0,0,-0.21351671,-1.4856817,-0.30559456,0.10567437,-0.10101667,1.0280815,-0.33860916,-0.021661276,-0.58087873,-0.008316138,0.20472036,-0.0588617,1.0834395,0.30577612
0.0,-0.1,1.1999999999999997,-0.5235987755982988,0.0,0,-0.21293579,-1.4855849,-0.2961149,0.10438716,0.093650505,1.1826841,-0.18433574,-0.023409342,-0.58116835,-0.005982985,0.18345566,-0.030648112,1.120261,-0.100196086
0.0,-0.1,1.1999999999999997,-0.5235987755982988,0.0,0,-0.21424824,-1.4855807,-0.2971634,0.11842572,0.0005813965,1.0752112,0.7404949,-0.023250848,-0.58104,0.0046583232,0.1778571,-0.25792357,1.0855478,0.13015646
0.0,-0.1,1.1999999999999997,-0.5235987755982988,0.0,0,-0.2150673,-1.484514,-0.3048645,0.107753485,-0.09201404,1.1210862,-1.4382993,-0.020255316,-0.58105576,-0.008431579,0.221268,-0.064214066,1.1097044,2.3359556
0.0,-0.1,1.1999999999999997,-0.5235987755982988,0.0,0,-0.21432956,-1.485411,-0.29469362,0.10769644,0.029806681,1.0914333,-1.2801831,-0.021852097,-0.58131826,-0.0074937763,0.2096339,-0.13400811,1.1154861,0.8790222
0.0,-0.1,1.1999999999999997,-0.5235987755982988,0.0,0,-0.21287112,-1.4848245,-0.30491626,0.11209096,-0.022537023,1.0118564,0.3218192,-0.022686653,-0.580885,0.008020194,0.21149217,-0.079893544,1.1025152,0.03058854
0.0,-0.1,1.1999999999999997,-0.5235987755982988,0.0,0,-0.21370904,-1.4837162,-0.29728198,0.11584736,0.13639526,1.0667756,0.3019556,-0.021955764,-0.5811864,0.020018486,0.19170238,0.04806109,1.0917238,0.12784685
0.0,-0.1,1.1999999999999997,-0.5235987755982988,0.0,0,-0.21513191,-1.4847702,-0.29943904,0.115712635,-0.029339911,1.0992814,-1.1203809,-0.021027872,-0.581094,-5.1223765e-06,0.19843993,-0.055303946,1.1133984,0.35335574
0.0,-0.1,1.1999999999999997,-0.5235987755982988,0.0,0,-0.21277891,-1.4855486,-0.3018333,0.1269967,-0.07243279,1.1400303,-0.60155976,-0.023283798,-0.5812575,-0.0060947877,0.19858775,-0.13704492,1.0980926,-0.6239228
0.0,-0.1,1.1999999999999997,-0.5235987755982988,0.0,0,-0.21409662,-1.4863436,-0.28928354,0.108823426,0.038887225,1.064957,-0.19004947,-0.0237052,-0.5809983,0.011162972,0.19051187,0.07219748,1.118797,-0.34128982
0.0,-0.1,1.1999999999999997,-0.5235987755982988,0.0,0,-0.21338527,-1.4857539,-0.30076414,0.10494834,-0.09590412,1.2149255,-1.2853056,-0.022654992,-0.5810932,-0.0034020853,0.21957347,-0.0038003805,1.1086941,0.22641777
0.0,-0.1,1.1999999999999997,-0.5235987755982988,0.0,0,-0.21466474,-1.4856082,-0.29709563,0.11755648,0.057190683,1.0907404,-0.74431795,-0.019503012,-0.5810387,0.0016789598,0.20298882,0.036055803,1.0986719,0.38146785
0.0,-0.1,1.1999999999999997,-0.5235987755982988,0.0,0,-0.21435887,-1.4846199,-0.3000845,0.11813653,0.0047448054,1.2278842,0.86094266,-0.022801157,-0.5811377,0.016598633,0.20859873,-0.06337262,1.0907253,-0.40904367
0.0,-0.1,1.1999999999999997,-0.5235987755982988,0.0,0,-0.21466962,-1.4845531,-0.29458198,0.12479043,-0.005264936,1.0731659,-0.4022843,-0.021788977,-0.5811983,0.018810973,0.19078946,-0.14356363,1.0740253,0.485291
0.0,-0.1,1.1999999999999997,-0.5235987755982988,0.0,0,-0.21472132,-1.4855022,-0.30010158,0.12369779,0.09947522,1.0781965,-1.0795935,-0.021291282,-0.58097327,0.013060113,0.18742868,-0.1313242,1.0778382,0.4613057
0.0,-0.1,1.1999999999999997,-0.5235987755982988,0.0,0,-0.21355224,-1.486381,-0.3000398,0.114689164,0.08406187,1.0434715,0.18419014,-0.022144135,-0.58099604,-0.0023264345,0.2108871,0.007140506,1.116896,0.24960107
0.0,-0.1,1.1999999999999997,-0.5235987755982988,0.0,0,-0.21480504,-1.4848412,-0.29723793,0.10478547,-0.074412614,1.1760527,0.40350515,-0.023287378,-0.58147496,-0.010107748,0.20834662,-0.046420433,1.0761971,-1.4019243
0.0,-0.1,1.1999999999999997,-0.5235987755982988,0.0,0,-0.21433297,-1.4858167,-0.2975086,0.11813723,0.11427532,1.1391742,0.5853147,-0.024414396,-0.5814588,-0.013231435,0.2093138,0.1485037,1.0880485,0.60431767
0.0,-0.1,1.1999999999999997,-0.5235987755982988,0.0,0,-0.2126086,-1.4846286,-0.3060165,0.11620597,0.09273766,1.1441861,-0.42924505,-0.023359023,-0.5807787,0.025820093,0.20856833,-0.10701529,1.0790764,0.42773604
0.0,-0.1,1.1999999999999997,-0.5235987755982988,0.0,0,-0.21357298,-1.4849644,-0.2921359,0.12372551,0.047114134,1.1600598,-1.2635974,-0.021702124,-0.5816063,-0.0013632571,0.2076237,-0.14532723,1.1098245,0.89487624
0.0,-0.1,1.1999999999999997,-0.5235987755982988,0.0,0,-0.21420592,-1.484372,-0.2981571,0.119788416,0.049946196,1.1331692,0.44678986,-0.02202585,-0.5813631,0.004804364,0.2105617,-0.15374994,1.1030465,-0.010011589
0.0,-0.1,1.1999999999999997,-0.5235987755982988,0.0,0,-0.21377437,-1.4855299,-0.29429358,0.11231777,0.031465154,1.0364624,0.05059383,-0.020891238,-0.5812097,0.009302471,0.18032618,-0.19021046,1.0802835,0.22638217
0.0,-0.1,1.1999999999999997,-0.5235987755982988,0.0,0,-0.2125734,-1.4848818,-0.30172557,0.11651577,0.079571515,1.0842459,-1.4332777,-0.020510947,-0.5813369,-0.004028508,0.20448112,-0.07573052,1.1142077,0.7067556
0.0,-0.1,1.1999999999999997,-0.5235987755982988,0.0,0,-0.21289578,-1.4846317,-0.3020242,0.11693091,0.116883114,1.0476031,-1.2068729,-0.021744674,-0.58107984,0.013808871,0.21791996,-0.068221085,1.0848718,1.2260146
0.0,-0.1,1.1999999999999997,-0.5235987755982988,0.0,0,-0.21429239,-1.4863145,-0.296773,0.117236316,-0.016665084,1.0919062,-0.049099494,-0.02020289,-0.5810775,0.015633969,0.23028526,-0.11701499,1.0735588,-0.3097638
0.0,-0.1,1.1999999999999997,-0.5235987755982988,0.0,0,-0.21425754,-1.484971,-0.3024022,0.115209214,0.0073482334,1.1719502,0.9466053,-0.022727953,-0.58096975,0.019636946,0.20597202,0.031016748,1.1098726,-0.35287797
0.0,-0.1,1.1999999999999997,-0.5235987755982988,0.0,0,-0.2137716,-1.4845724,-0.30607322,0.11796294,0.07233049,0.9489735,0.7269995,-0.024058241,-0.5814461,-0.0030913139,0.18876365,-0.1108646,1.0843396,-0.748465
0.0,-0.1,1.1999999999999997,-0.5235987755982988,0.0,0,-0.2158685,-1.4859335,-0.30554628,0.108459726,0.02198954,1.0122676,0.21825391,-0.022347623,-0.5809785,0.0021167463,0.2079049,0.037389483,1.0776836,-0.16127472
0.0,-0.1,1.1999999999999997,-0.5235987755982988,0.0,0,-0.21274742,-1.4864569,-0.29316986,0.115862034,-0.055336308,1.0934342,-1.212852,-0.020942073,-0.5813603,0.0062335967,0.2363501,-0.07188893,1.0669276,0.57081854
0.0,-0.1,1.1999999999999997,-0.5235987755982988,0.0,0,-0.21458657,-1.4859416,-0.3043565,0.10646706,-0.082686946,1.0196552,0.8816369,-0.021614265,-0.581238,-0.004380803,0.2329777,-0.17253728,1.0888987,0.4786251
0.0,-0.1,1.1999999999999997,-0.5235987755982988,0.0,0,-0.21368302,-1.4858571,-0.30458203,0.11219276,0.111144096,1.1172806,-0.6191898,-0.020964153,-0.58115834,-0.0058063255,0.2076697,0.110168055,1.0814519,0.105720766
0.0,-0.1,1.1999999999999997,-0.5235987755982988,0.0,0,-0.21363966,-1.4855056,-0.30127296,0.11337615,-0.04545987,1.1679827,-0.58788174,-0.023407098,-0.58103585,0.013958832,0.22726373,-0.013669391,1.1166446,-0.50948036
0.0,-0.1,1.1999999999999997,-0.5235987755982988,0.0,0,-0.21366465,-1.484646,-0.3023747,0.10943367,-0.030911518,1.0719107,1.3228471,-0.022856938,-0.5812778,0.006457229,0.22653176,0.009057216,1.0704234,0.5477764
0.0,-0.1,1.1999999999999997,-0.5235987755982988,0.0,0,-0.21412212,-1.4848865,-0.30300117,0.10759142,-0.02021375,1.0891991,-0.503218,-0.023673246,-0.5812717,-0.0011245518,0.19654857,-0.0022675688,1.0772233,0.7340218
0.0,-0.1,1.1999999999999997,-0.5235987755982988,0.0,0,-0.21328649,-1.4858748,-0.30072194,0.11716331,-0.02228002,1.0982633,0.047530033,-0.020157026,-0.58122283,0.0008752333,0.19503282,0.052645933,1.0771892,-0.26377025
0.0,-0.1,1.1999999999999997,-0.5235987755982988,0.0,0,-0.21444666,-1.4841957,-0.29678184,0.1108254,0.000293369,1.0762174,-0.03830726,-0.022181472,-0.58116823,0.029882826,0.20190072,-0.06547912,1.0844322,-0.0731487
0.0,-0.1,1.1999999999999997,-0.5235987755982988,0.0,0,-0.21484919,-1.4854145,-0.30005142,0.10928657,0.003801934,1.0536021,-0.025225155,-0.022462651,-0.580906,0.02008698,0.18548878,-0.18440264,1.0599371,1.3451251
0.0,-0.1,1.1999999999999997,-0.5235987755982988,0.0,0,-0.21366283,-1.4857745,-0.30391207,0.10626066,0.06717905,1.0085006,-0.71703243,-0.020006899,-0.5812593,-0.0038160798,0.21146809,-0.1678662,1.086412,1.7297536
0.0,-0.1,1.1999999999999997,-0.5235987755982988,0.0,0,-0.21409512,-1.4860332,-0.2991973,0.10102978,0.07060829,1.0876223,0.110461906,-0.022218382,-0.5814035,-0.017941393,0.19243322,0.0693994,1.0789466,1.3725158
0.0,-0.1,1.1999999999999997,-0.5235987755982988,0.0,0,-0.21318318,-1.4845103,-0.3024949,0.112508975,-0.09766567,1.1886412,-0.23867065,-0.020982876,-0.58123434,0.0058145146,0.19645318,-0.0031059254,1.1152598,-0.36913595
0.0,-0.1,1.1999999999999997,-0.5235987755982988,0.0,0,-0.21368848,-1.4851071,-0.3007967,0.108536676,-0.01609369,1.0107336,0.6646635,-0.023546783,-0.5814295,0.0030565097,0.21326527,0.07104898,1.0896386,0.19929662
0.0,-0.1,1.1999999999999997,-0.5235987755982988,0.0,0,-0.21410805,-1.485146,-0.30919188,0.12123638,0.115760505,1.1305933,0.5799029,-0.0206664,-0.5810732,0.0028282756,0.21304552,-0.024424028,1.1017663,0.14904271
0.0,-0.1,1.1999999999999997,-0.5235987755982988,0.0,0,-0.21352115,-1.4852443,-0.29272923,0.11003175,0.023722863,1.0418731,0.64066035,-0.021999087,-0.5810832,0.034309138,0.21395701,-0.05187549,1.097942,0.64413357
0.0,-0.1,1.1999999999999997,-0.5235987755982988,0.0,0,-0.21409068,-1.4857916,-0.29981792,0.12474667,0.05690761,1.0094644,0.9966608,-0.020937841,-0.58143777,0.005479363,0.23354371,0.04370201,1.0908258,1.1147517
0.0,-0.1,1.1999999999999997,-0.5235987755982988,0.0,0,-0.21476002,-1.4857211,-0.29378784,0.111590885,0.012092519,1.0206224,-1.8992842,-0.020778947,-0.5815429,0.004921351,0.19469446,0.03942866,1.0681039,0.6613537
0.0,-0.1,1.1999999999999997,-0.5235987755982988,0.0,0,-0.21373877,-1.4854288,-0.29906943,0.10733526,0.01990872,1.1337286,-0.64129925,-0.023246631,-0.581305,0.0008774945,0.20849198,0.037123114,1.1126566,0.35503373
0.0,-0.1,1.1999999999999997,-0.5235987755982988,0.0,0,-0.21459441,-1.4840734,-0.300434,0.120643385,-0.05556144,1.052363,-0.11497029,-0.020126102,-0.5812282,0.025859067,0.21994677,-0.13594978,1.076998,0.0066679963
0.0,-0.1,1.1999999999999997,-0.5235987755982988,0.0,0,-0.21359478,-1.4857905,-0.30308148,0.11241365,-0.10206467,1.0606253,0.1944872,-0.021645648,-0.58130515,0.00791338,0.22665226,0.19276294,1.0895662,0.9034409
0.0,-0.1,1.1999999999999997,-0.5235987755982988,0.0,0,-0.21371824,-1.4849178,-0.304191,0.11392302,0.03094787,1.143109,0.094692566,-0.022850547,-0.5812055,0.0058424533,0.21713243,0.11806631,1.0904331,1.1411963
0.0,-0.1,1.1999999999999997,-0.5235987755982988,0.0,0,-0.21333818,-1.485031,-0.30412066,0.1058694,0.039695058,1.1246306,-0.16995628,-0.021090204,-0.58135027,-0.0031851225,0.21215935,-0.047169413,1.085882,0.10187058
0.0,-0.1,1.1999999999999997,-0.5235987755982988,0.0,0,-0.2144881,-1.484964,-0.29735428,0.11531713,0.009049739,1.1182052,-0.74786216,-0.0217915,-0.5810764,0.023243409,0.20226896,0.045312,1.1040895,0.61579996
0.0,-0.1,1.1999999999999997,-0.5235987755982988,0.0,0,-0.21341516,-1.4847673,-0.29946244,0.105288975,0.01850404,1.1824197,-0.25914598,-0.020356415,-0.58144474,0.0053717,0.20920494,-0.0538589,1.0831711,1.0231967
0.0,-0.1,1.1999999999999997,-0.5235987755982988,0.0,0,-0.21379298,-1.4856662,-0.30525413,0.112514056,0.060290124,1.062524,-1.3458915,-0.019443864,-0.5814677,-0.0017594987,0.21699023,-0.1960417,1.0669688,1.5680906
0.0,-0.1,1.1999999999999997,-0.5235987755982988,0.0,0,-0.21371005,-1.4856256,-0.29843897,0.104485005,-0.07081451,1.1103927,0.046695866,-0.022978023,-0.5811522,0.012641454,0.20702952,-0.0055150576,1.0990846,0.2847493
0.0,-0.1,1.1999999999999997,-0.5235987755982988,0.0,0,-0.2134743,-1.4839059,-0.3024002,0.10382991,0.08355253,1.2144377,-0.588448,-0.02184356,-0.5812424,0.021421269,0.2183721,-0.15355144,1.093197,0.9862957
0.0,-0.1,1.1999999999999997,-0.5235987755982988,0.0,0,-0.21404898,-1.4860841,-0.3027381,0.10950555,0.0048483685,1.1319722,0.30211657,-0.022373939,-0.5813086,0.00029727537,0.18334156,-0.016437678,1.0790726,0.5184897
0.0,-0.1,1.1999999999999997,-0.5235987755982988,0.0,0,-0.21426524,-1.4849287,-0.2978354,0.12070692,0.091865756,1.1409837,-1.6910177,-0.022689566,-0.58151454,0.01754036,0.2096291,-0.20053786,1.1307689,0.23702104
0.0,-0.1,1.1999999999999997,-0.5235987755982988,0.0,0,-0.21392351,-1.4853343,-0.30199096,0.11286012,0.018645411,1.130541,1.076361,-0.02402905,-0.5812592,0.0108995,0.169342,0.009914915,1.0879451,0.6760372
0.0,-0.1,1.1999999999999997,-0.5235987755982988,0.0,0,-0.2141872,-1.4859068,-0.3013567,0.122855775,0.030853003,1.1132687,-0.26005542,-0.021789053,-0.5813243,0.0040446147,0.20993434,-0.03967144,1.1234787,-0.17394233
0.0,-0.1,1.1999999999999997,-0.5235987755982988,0.0,0,-0.21328264,-1.4848083,-0.30052266,0.103960566,-0.05057974,1.1388273,0.3084543,-0.021575455,-0.5811761,0.013912249,0.20681424,-0.014351741,1.1116402,1.2564698
0.0,-0.1,1.1999999999999997,-0.5235987755982988,0.0,0,-0.21366079,-1.4857774,-0.29564002,0.10241999,-0.045767695,1.1763225,0.028317101,-0.02281436,-0.58109736,0.016930744,0.18734932,-0.005768816,1.115312,0.40772742
0.0,-0.1,1.1999999999999997,-0.5235987755982988,0.0,0,-0.21319303,-1.4856367,-0.2979092,0.112713344,0.058975562,1.1216847,-0.53449535,-0.021210896,-0.5814152,0.0069867624,0.19942467,-0.30638388,1.1266443,-0.15167654
0.0,-0.1,1.1999999999999997,-0.5235987755982988,0.0,0,-0.21518004,-1.4850583,-0.3002217,0.11629079,0.06628294,1.016574,-1.4627513,-0.021072758,-0.5812855,0.024745101,0.23156157,-0.07370467,1.105986,0.24102165
0.0,-0.1,1.1999999999999997,-0.5235987755982988,0.0,0,-0.21371928,-1.4852529,-0.30049706,0.10934651,-0.0919271,1.069871,1.1739728,-0.02082439,-0.58152544,0.00012597731,0.17733347,-0.07035793,1.0857306,0.6079578
0.0,-0.1,1.1999999999999997,-0.5235987755982988,0.0,0,-0.21408257,-1.4867829,-0.30000538,0.11440678,0.01561724,1.086529,0.70513123,-0.023030262,-0.58136845,0.015805136,0.22282499,-0.014788456,1.0823057,0.56642765
0.0,-0.1,1.1999999999999997,-0.5235987755982988,0.0,0,-0.2141272,-1.4864938,-0.29999912,0.10618867,0.124802835,1.0380291,-1.5415066,-0.020477405,-0.581531,0.0063060876,0.21746247,-0.12008631,1.1054258,0.32461467
0.0,-0.1,1.1999999999999997,-0.5235987755982988,0.0,0,-0.21494175,-1.4852246,-0.304427,0.10662432,-0.048654713,1.11086,0.25734115,-0.020966696,-0.58121717,0.01095064,0.17874055,-0.22929582,1.1102548,0.4266219
0.0,-0.1,1.1999999999999997,-0.5235987755982988,0.0,0,-0.21402958,-1.4869391,-0.29711747,0.11331272,0.05061163,1.1063783,-1.1112332,-0.02261046,-0.5813974,0.026961999,0.21189578,-0.010046797,1.0999527,0.2725125
0.0,-0.1,1.1999999999999997,-0.5235987755982988,0.0,0,-0.21304564,-1.4835967,-0.29721126,0.118226424,0.10465173,0.9948063,-0.346294,-0.021716349,-0.5809439,-0.03232462,0.21645023,0.007381683,1.0688313,-0.7200809
0.0,-0.1,1.1999999999999997,-0.5235987755982988,0.0,0,-0.2133249,-1.4840552,-0.29516464,0.120909475,0.09784735,1.0958194,1.0083203,-0.022282166,-0.58108497,-0.026822947,0.20028876,-0.18137737,1.0956172,0.6002365
0.0,-0.1,1.1999999999999997,-0.5235987755982988,0.0,0,-0.21399394,-1.4839013,-0.2911548,0.1131764,0.021760214,1.110117,-0.93132246,-0.022461476,-0.5811045,-0.0037703635,0.21570039,-0.120179,1.0455868,0.22745271
0.0,-0.1,1.1999999999999997,-0.5235987755982988,0.0,0,-0.21372078,-1.4839591,-0.29615054,0.11748251,-0.12573436,1.1514572,0.89073974,-0.023544492,-0.581224,-0.027106548,0.19646339,-0.072387196,1.1085937,-0.016365405
0.0,-0.1,1.1999999999999997,-0.5235987755982988,0.0,0,-0.21525593,-1.4841217,-0.29142103,0.11749047,0.21396637,1.0995846,0.0832484,-0.021054571,-0.5811607,-0.008574753,0.20808522,-0.13302203,1.0662194,0.006530254
0.0,-0.1,1.1999999999999997,-0.5235987755982988,0.0,0,-0.21374878,-1.4860618,-0.297289,0.11393719,0.019326314,0.993628,0.1599237,-0.02240508,-0.5810069,-0.02068186,0.19994819,-0.15258366,1.0660222,-0.57371867
0.0,-0.1,1.1999999999999997,-0.5235987755982988,0.0,0,-0.21378602,-1.4854046,-0.29673597,0.10821397,-0.053943582,1.0469812,0.09624302,-0.022126831,-0.58066523,-0.021182578,0.19433211,-0.06947304,1.1061527,0.042660926
0.0,-0.1,1.1999999999999997,-0.5235987755982988,0.0,0,-0.21460843,-1.4844289,-0.29760507,0.117623396,0.12425289,0.9985601,1.9025605,-0.023082683,-0.5813748,-0.032795783,0.18541667,-0.12747383,1.0848283,1.3551806
0.0,-0.1,1.1999999999999997,-0.5235987755982988,0.0,0,-0.21494353,-1.4851332,-0.2909361,0.11691474,0.04268805,0.9937984,-0.61262405,-0.022360025,-0.58115864,-0.01702742,0.19786952,-0.0012407816,1.0993721,-0.13210174
0.0,-0.1,1.1999999999999997,-0.5235987755982988,0.0,0,-0.21516134,-1.4843849,-0.29677585,0.11679094,0.07858655,1.0432656,-0.17001592,-0.02228142,-0.58096576,-0.005544194,0.24342853,-0.13520785,1.1077517,0.5166765
0.0,-0.1,1.1999999999999997,-0.5235987755982988,0.0,0,-0.21398005,-1.4851424,-0.29413062,0.124809325,0.14851044,1.000337,0.5001779,-0.022171646,-0.58107585,-0.00807618,0.21010807,0.025405645,1.0949975,0.95150745
0.0,-0.1,1.1999999999999997,-0.5235987755982988,0.0,0,-0.2143267,-1.4839269,-0.2998908,0.11982114,0.044954237,1.1507999,0.4838632,-0.022975031,-0.58091795,-0.010424507,0.2007765,0.025199907,1.0789639,1.2590485
0.0,-0.1,1.1999999999999997,-0.5235987755982988,0.0,0,-0.21461526,-1.4847232,-0.30636972,0.119719915,-0.07300387,0.9157389,0.07684155,-0.020986719,-0.5809895,-0.008696811,0.19482547,0.031546455,1.0625144,1.5664649
0.0,-0.1,1.1999999999999997,-0.5235987755982988,0.0,0,-0.21514252,-1.485224,-0.30166668,0.12110012,0.041022968,1.0393384,0.3818763,-0.02133938,-0.5811186,-0.023223987,0.23546714,-0.021491548,1.1112505,0.69995296
0.0,-0.1,1.1999999999999997,-0.5235987755982988,0.0,0,-0.21336274,-1.4847459,-0.29838344,0.10822215,-0.030906344,1.1176088,0.37162814,-0.023309056,-0.58100325,-0.014265382,0.23945697,-0.08829043,1.0880107,-0.7626239
0.0,-0.1,1.1999999999999997,-0.5235987755982988,0.0,0,-0.2142012,-1.4851786,-0.29809427,0.11405763,-0.01820686,1.0491314,-0.11482325,-0.020842666,-0.5810957,-0.02678755,0.21348469,-0.02245624,1.0755848,0.5333784
0.0,-0.1,1.1999999999999997,-0.5235987755982988,0.0,0,-0.21361993,-1.4848764,-0.29896808,0.12388504,0.04221208,0.95578814,-0.10307159,-0.021686548,-0.5811852,-0.0123745585,0.20159924,-0.05485184,1.0835882,0.69501
0.0,-0.1,1.1999999999999997,-0.5235987755982988,0.0,0,-0.21397793,-1.4848298,-0.29520375,0.104362056,-0.0048338636,1.0344356,-1.0600039,-0.022835098,-0.5811966,-0.025347456,0.209135,-0.03251056,1.0903721,-0.03003342
0.0,-0.1,1.1999999999999997,-0.5235987755982988,0.0,0,-0.21374935,-1.4857068,-0.29472393,0.11973976,0.03577754,1.112794,-1.4579306,-0.022784006,-0.5810539,-0.016994901,0.22012392,-0.1358,1.0972571,1.0401064
0.0,-0.1,1.1999999999999997,-0.5235987755982988,0.0,0,-0.21362664,-1.4860586,-0.29509094,0.110305525,0.030386467,1.1349896,0.6528803,-0.022243029,-0.5809726,-0.011663775,0.21377322,-0.08020771,1.0447068,0.8639863
0.0,-0.1,1.1999999999999997,-0.5235987755982988,0.0,0,-0.21403646,-1.4853555,-0.29701614,0.1068584,0.031264406,1.1499953,-0.13097143,-0.021069782,-0.5808639,-0.011767295,0.20831594,0.015395522,1.0668347,0.74729025
0.0,-0.1,1.1999999999999997,-0.5235987755982988,0.0,0,-0.21372275,-1.4846731,-0.2922188,0.10746574,0.0155158015,1.1470876,-0.30584663,-0.021113997,-0.58112603,-0.005227867,0.19731124,-0.027539311,1.069355,0.06289052
0.0,-0.1,1.1999999999999997,-0.5235987755982988,0.0,0,-0.2145794,-1.4849036,-0.30353108,0.114835285,-0.0023678304,1.1676216,-0.85059214,-0.020113349,-0.58118963,-0.029994432,0.20700935,0.063018486,1.107354,0.12713516
0.0,-0.1,1.1999999999999997,-0.5235987755982988,0.0,0,-0.21319512,-1.4858183,-0.29301715,0.10745663,-0.05829013,1.1687332,-0.041096624,-0.02208215,-0.580753,0.0062079686,0.20551026,-0.0034556277,1.0774926,0.68669903
0.0,-0.1,1.1999999999999997,-0.5235987755982988,0.0,0,-0.21486005,-1.4849156,-0.30799052,0.10685549,-0.0046680956,1.0889747,-0.54778814,-0.022388764,-0.5810225,-0.024730608,0.23235266,-0.12574852,1.0693455,-0.012221302
0.0,-0.1,1.1999999999999997,-0.5235987755982988,0.0,0,-0.21434692,-1.484795,-0.2934525,0.1196719,-0.074660726,1.143334,2.3096483,-0.020880159,-0.581211,-0.01270601,0.21306239,-0.027519364,1.0940882,-0.45321655
0.0,-0.1,1.1999999999999997,-0.5235987755982988,0.0,0,-0.21496831,-1.4845201,-0.30202138,0.10979471,-0.05456738,1.0964978,0.6997379,-0.021760251,-0.580946,-0.015371629,0.22846223,-0.009007027,1.099008,0.67746586
0.0,-0.1,1.1999999999999997,-0.5235987755982988,0.0,0,-0.21422423,-1.4844562,-0.29943532,0.1070073,-0.010709237,1.0762701,-0.49227872,-0.020545475,-0.5810571,-0.012766423,0.22537442,-0.0682162,1.0907319,1.2889352
0.0,-0.1,1.1999999999999997,-0.5235987755982988,0.0,0,-0.21360278,-1.4854248,-0.2971443,0.12941684,0.11904407,1.0521208,-0.27347293,-0.024395285,-0.58093154,0.0044718347,0.18740188,0.02487773,1.0628004,0.02007299
0.0,-0.1,1.1999999999999997,-0.5235987755982988,0.0,0,-0.21317753,-1.4858575,-0.2911857,0.11295362,0.097994216,1.1403158,0.49916953,-0.022187557,-0.5810746,-0.011721243,0.21679454,-0.13765648,1.1188946,1.1658217
0.0,-0.1,1.1999999999999997,-0.5235987755982988,0.0,0,-0.21392284,-1.4841098,-0.2984645,0.11127148,-0.013124607,1.1507695,-0.6907572,-0.021254193,-0.58100957,-0.0055517145,0.17722513,0.0071750646,1.0802624,0.34023917
0.0,-0.1,1.1999999999999997,-0.5235987755982988,0.0,0,-0.21509044,-1.4837894,-0.29742563,0.11980831,0.024514522,1.1147715,1.5533118,-0.02095947,-0.5810783,0.0018971569,0.19546123,0.12696192,1.0491365,-0.3551268
0.0,-0.1,1.1999999999999997,-0.5235987755982988,0.0,0,-0.21400575,-1.4848403,-0.2976435,0.11759602,0.046033315,1.0597521,0.9980069,-0.022633268,-0.581079,-0.007280944,0.2038384,0.07104284,1.1151725,1.6588287
0.0,-0.1,1.1999999999999997,-0.5235987755982988,0.0,0,-0.21398836,-1.4844722,-0.29686946,0.12488297,-0.020491267,1.0992384,-1.0342805,-0.021798268,-0.58110297,-0.0050610024,0.19643936,0.0048610857,1.0742712,0.07009499
0.0,-0.1,1.1999999999999997,-0.5235987755982988,0.0,0,-0.2129937,-1.4851024,-0.30255988,0.12065645,0.052633565,1.1809871,-1.089607,-0.022535142,-0.5810847,-0.010725433,0.2320484,-0.10496744,1.0964646,0.752971
0.0,-0.1,1.1999999999999997,-0.5235987755982988,0.0,0,-0.21493137,-1.4847579,-0.30148315,0.114195645,-0.054071315,1.1552546,0.27342126,-0.022307161,-0.5809869,-0.0033387088,0.19225034,-0.18117854,1.0969003,0.5628556
0.0,-0.1,1.1999999999999997,-0.5235987755982988,0.0,0,-0.21391922,-1.486655,-0.29869944,0.11940784,-0.00455792,1.0432634,0.017950656,-0.022587225,-0.5809342,-0.008069396,0.2163601,-0.081982665,1.073653,0.5730653
0.0,-0.1,1.1999999999999997,-0.5235987755982988,0.0,0,-0.21433243,-1.4860315,-0.29496345,0.10239522,0.021580754,1.0928265,0.64300823,-0.023069963,-0.5808714,-0.007037494,0.21796452,-0.10115837,1.0779362,0.5509215
0.0,-0.1,1.1999999999999997,-0.5235987755982988,0.0,0,-0.21339466,-1.4855056,-0.2991436,0.13285917,0.009150221,1.080958,0.69281286,-0.022533456,-0.58091056,0.004186547,0.20427531,-0.12937352,1.0749524,0.7369672
0.0,-0.1,1.1999999999999997,-0.5235987755982988,0.0,0,-0.21455622,-1.4849297,-0.30130836,0.11214657,-0.04994793,1.1898513,1.1199418,-0.02057653,-0.5812959,-0.021066215,0.20894094,-0.21197172,1.0992137,0.49595416
0.0,-0.1,1.1999999999999997,-0.5235987755982988,0.0,0,-0.21344398,-1.4865756,-0.2978902,0.11474859,-0.032678165,1.0788089,-0.7724036,-0.022592923,-0.5811132,-0.009841732,0.22272725,0.104379565,1.0649217,-0.33848202
0.0,-0.1,1.1999999999999997,-0.5235987755982988,0.0,0,-0.21457554,-1.4841089,-0.2982378,0.10904379,0.047279857,1.1570225,-0.30412096,-0.022031352,-0.58113515,-0.011248331,0.19681184,0.104802124,1.1114277,0.6404687
0.0,-0.1,1.1999999999999997,-0.5235987755982988,0.0,0,-0.21320386,-1.4850888,-0.29510704,0.12228556,0.116770804,1.1002012,1.3514578,-0.022335714,-0.58134466,-0.004004266,0.1968681,-0.16798922,1.0885983,1.3473856
0.0,-0.1,1.1999999999999997,-0.5235987755982988,0.0,0,-0.21513629,-1.4849917,-0.29545432,0.12014425,0.053533822,1.1034998,0.24866654,-0.021469364,-0.581152,-0.0053038285,0.21032625,-0.025496712,1.1029541,-0.15241072
0.0,-0.1,1.1999999999999997,-0.5235987755982988,0.0,0,-0.21435796,-1.485269,-0.29951683,0.11772924,0.04548081,1.1439494,-1.1277952,-0.022299163,-0.5810807,-0.009267525,0.2208532,-0.11274953,1.0852246,0.1523411
0.0,-0.1,1.1999999999999997,-0.5235987755982988,0.0,0,-0.21392198,-1.4843789,-0.3023728,0.111359745,0.06698763,1.0454757,0.33936787,-0.023608895,-0.5813904,-0.018024089,0.20288374,0.10621159,1.0667057,0.6751018
0.0,-0.1,1.1999999999999997,-0.5235987755982988,0.0,0,-0.21448866,-1.485386,-0.3037348,0.1163733,0.01981165,1.0548902,0.28418598,-0.023564348,-0.581324,-0.018167427,0.22161762,-0.17255369,1.0787876,0.39114925
0.0,-0.1,1.1999999999999997,-0.5235987755982988,0.0,0,-0.21476239,-1.4847475,-0.29631662,0.12046523,0.06775521,1.1652862,-0.44228405,-0.022375995,-0.58139825,-0.001914764,0.2134472,-0.14437413,1.0798362,-0.17928475
0.0,-0.1,1.1999999999999997,-0.5235987755982988,0.0,0,-0.21424738,-1.4854132,-0.2972682,0.11371317,0.11500954,1.0927895,0.4620366,-0.019892078,-0.5809578,-0.005102858,0.17802586,0.10426166,1.0896598,-0.17467526
0.0,-0.1,1.1999999999999997,-0.5235987755982988,0.0,0,-0.214435,-1.4844108,-0.2972264,0.11383453,-0.016836915,1.0583528,-1.3678354,-0.020484533,-0.58113307,0.0042271325,0.22129193,-0.14828952,1.1122391,0.31664276
0.0,-0.1,1.1999999999999997,-0.5235987755982988,0.0,0,-0.21498145,-1.4850726,-0.29521036,0.11781633,0.09572911,1.0308281,-0.11220214,-0.021187665,-0.58126545,0.008489534,0.20917882,-0.28254056,1.076877,1.5354683
0.0,-0.1,1.1999999999999997,-0.5235987755982988,0.0,0,-0.21411942,-1.4849108,-0.29918924,0.11346377,-0.032851815,1.0872855,-0.028564302,-0.021424394,-0.5813008,-0.013605423,0.21665308,-0.31345752,1.1021965,0.7022219
0.0,-0.1,1.1999999999999997,-0.5235987755982988,0.0,0,-0.21406406,-1.4857831,-0.2929727,0.112274304,0.04898468,1.1416945,-0.15546875,-0.021303724,-0.58114165,-0.0008864086,0.18501392,-0.0888486,1.0880486,0.5122939
0.0,-0.1,1.1999999999999997,-0.5235987755982988,0.0,0,-0.21363214,-1.4845525,-0.30024463,0.10605235,-0.013360568,1.1238499,-1.6735849,-0.023477731,-0.58110684,0.0046252003,0.2284255,-0.0070926445,1.0634286,0.14762372
0.0,-0.1,1.1999999999999997,-0.5235987755982988,0.0,0,-0.214746,-1.4861372,-0.28809848,0.10906992,-0.052882705,1.0654879,-0.83654463,-0.021080924,-0.581372,-0.012765055,0.21769431,0.027570438,1.0928975,0.5273502
0.0,-0.1,1.1999999999999997,-0.5235987755982988,0.0,0,-0.21436512,-1.4856229,-0.2970909,0.12543449,-0.03481733,1.1073439,-0.42093936,-0.025083378,-0.58107376,-0.0007353042,0.20822638,0.077060945,1.0858402,1.6363982
0.0,-0.1,1.1999999999999997,-0.5235987755982988,0.0,0,-0.21308394,-1.4848453,-0.2972897,0.09432672,0.020724198,1.1419444,0.01722274,-0.021732831,-0.5812195,-0.013297368,0.20283028,-0.15888326,1.065214,-0.3413559
0.0,-0.1,1.1999999999999997,-0.5235987755982988,0.0,0,-0.21391161,-1.484864,-0.29422122,0.105544396,0.14736356,1.1935823,-1.3631274,-0.022605544,-0.5809979,0.00063279975,0.21356785,-0.005975484,1.139276,1.0106407
0.0,-0.1,1.1999999999999997,-0.5235987755982988,0.0,0,-0.21455699,-1.4848442,-0.29813913,0.11451524,0.059853625,1.1558745,-1.6004755,-0.021565568,-0.5811368,0.0001689554,0.2099209,0.026270887,1.0971737,0.4704282
0.0,-0.1,1.1999999999999997,-0.5235987755982988,0.0,0,-0.21393602,-1.4845933,-0.29492053,0.10235543,0.056741707,1.1647015,-0.16132559,-0.022650165,-0.58082545,0.01799049,0.18571831,-0.06920933,1.0816517,0.55052626
0.0,-0.1,1.1999999999999997,-0.5235987755982988,0.0,0,-0.2141962,-1.4852608,-0.29606512,0.110564366,-0.019319078,1.1442258,0.3208497,-0.023707623,-0.58118385,-0.003968153,0.20229954,-0.024700386,1.0940628,0.8636427
0.0,-0.1,1.1999999999999997,-0.5235987755982988,0.0,0,-0.2136145,-1.484909,-0.29758066,0.10909254,0.008086693,1.156519,-0.22232471,-0.022339208,-0.5812589,-0.013702642,0.19324636,-0.10884229,1.1053423,-0.35843766
0.0,-0.1,1.1999999999999997,-0.5235987755982988,0.0,0,-0.21383607,-1.4846294,-0.29503447,0.1165155,-0.008160176,1.0394018,0.70032686,-0.023974326,-0.5812782,0.006977343,0.18317325,-0.050541915,1.0539681,-0.031681743
0.0,-0.1,1.1999999999999997,-0.5235987755982988,0.0,0,-0.21361731,-1.4838094,-0.29890093,0.11479502,0.09639723,1.1052245,-0.9810305,-0.021123933,-0.58112395,0.010625553,0.23009896,-0.16485369,1.1009488,0.66044164
0.0,-0.1,1.1999999999999997,-0.5235987755982988,0.0,0,-0.21396188,-1.4849135,-0.29271573,0.11794978,-0.074823745,1.104284,1.110743,-0.019370902,-0.5813532,0.0005666509,0.19734548,-0.08342126,1.0673599,0.6444753
0.0,-0.1,1.1999999999999997,-0.5235987755982988,0.0,0,-0.21377091,-1.4859371,-0.30001667,0.11112249,0.024208888,1.1341221,-1.056858,-0.022947203,-0.5809896,-0.010973648,0.21508387,-0.08197859,1.1167722,0.50896233
0.0,-0.1,1.1999999999999997,-0.5235987755982988,0.0,0,-0.21375385,-1.4857689,-0.29450533,0.116601475,-0.10928386,1.0915433,0.037034467,-0.021965344,-0.5811476,0.004071102,0.1958106,0.0923614,1.0635662,0.7048766
0.0,-0.1,1.1999999999999997,-0.5235987755982988,0.0,0,-0.2144897,-1.4847792,-0.2991015,0.11515875,0.055577345,1.1239502,0.40926644,-0.01966673,-0.58109784,-0.0031040139,0.19085878,-0.13515058,1.0738904,1.0622646
0.0,-0.1,1.1999999999999997,-0.5235987755982988,0.0,0,-0.21298783,-1.4852238,-0.30563572,0.11475725,0.017333178,1.1505564,0.081099935,-0.022746408,-0.5811891,-0.00040031868,0.2342344,-0.04784972,1.0255424,0.435635
0.0,-0.1,1.1999999999999997,-0.5235987755982988,0.0,0,-0.21446833,-1.4845897,-0.2950818,0.11184934,0.042608984,1.0482225,0.273398,-0.021204622,-0.58105075,0.010756479,0.18676315,0.07693553,1.0809627,-0.53287756
0.0,-0.1,1.1999999999999997,-0.5235987755982988,0.0,0,-0.21404588,-1.4852654,-0.2975975,0.122890465,0.04098802,1.0810024,-0.24619453,-0.02176223,-0.5813236,-0.009085781,0.20835751,-0.1150546,1.1026096,1.6208375
0.0,-0.1,1.1999999999999997,-0.5235987755982988,0.0,0,-0.21322463,-1.4848447,-0.30048802,0.11691665,0.068968095,1.0750937,0.29889813,-0.022965949,-0.5814919,-0.016769482,0.19531275,-0.055080175,1.0760882,-0.64532924
0.0,-0.1,1.1999999999999997,-0.5235987755982988,0.0,0,-0.21463636,-1.485513,-0.3062707,0.11511295,0.085916,1.1457629,0.7354963,-0.021739738,-0.58124983,-0.014077856,0.18501817,-0.06586943,1.0349513,-0.33892253
0.0,-0.1,1.1999999999999997,-0.5235987755982988,0.0,0,-0.2137107,-1.4862788,-0.29802987,0.110266194,0.0041807317,1.0004292,0.926521,-0.021006722,-0.58108133,0.0031879984,0.22170384,0.077955045,1.042792,-0.08834738
0.0,-0.1,1.1999999999999997,-0.5235987755982988,0.0,0,-0.21428569,-1.4846119,-0.29951462,0.11479391,0.10527747,1.1474763,-1.0118835,-0.022545394,-0.5812317,0.006868829,0.20931366,-0.035981722,1.0887793,0.3512036
0.0,-0.1,1.1999999999999997,-0.5235987755982988,0.0,0,-0.21409358,-1.4864357,-0.29560512,0.118619755,0.031188665,1.0658981,-0.40692905,-0.024491543,-0.5808962,0.012252916,0.18691602,0.013162264,1.0879683,1.168961
0.0,-0.1,1.1999999999999997,-0.5235987755982988,0.0,0,-0.21272978,-1.4852798,-0.305627,0.11984204,0.010644382,1.1882668,0.406273,-0.021104936,-0.5810608,-0.0072611114,0.21287008,-0.036471516,1.1005864,-1.4342338
0.0,-0.1,1.1999999999999997,-0.5235987755982988,0.0,0,-0.21350786,-1.4855222,-0.29088748,0.11716502,0.037889775,1.0420908,0.92041934,-0.021252053,-0.5811487,0.015301602,0.20639853,0.041483767,1.1023692,0.9916517
0.0,-0.1,1.1999999999999997,-0.5235987755982988,0.0,0,-0.21381195,-1.485797,-0.30244258,0.11789249,0.023604214,1.0148493,1.6037345,-0.022623755,-0.58097047,0.010905934,0.22379991,-0.12840651,1.0810685,0.060607985
0.0,-0.1,1.1999999999999997,-0.5235987755982988,0.0,0,-0.21369308,-1.4845656,-0.30524626,0.11997537,-0.039312184,1.1244196,-0.0026867345,-0.021278514,-0.58103704,-0.00037932923,0.2028494,-0.048111994,1.1103559,0.3100753
0.0,-0.1,1.1999999999999997,-0.5235987755982988,0.0,0,-0.21421833,-1.4863025,-0.29450136,0.12043216,0.056607913,1.1610096,-0.4166436,-0.02147598,-0.5809825,-0.0014786434,0.20121789,-0.14449464,1.1021602,0.79317653
0.0,-0.1,1.1999999999999997,-0.5235987755982988,0.0,0,-0.2143883,-1.4853992,-0.2992849,0.12407121,-0.103196785,1.1013626,-1.7171675,-0.02179116,-0.5812708,-0.0020495616,0.20531408,-0.23491627,1.0602666,0.5388049
0.0,-0.1,1.1999999999999997,-0.5235987755982988,0.0,0,-0.2148645,-1.4859126,-0.29833353,0.10590494,-0.01869003,1.076144,-0.6248978,-0.021433966,-0.581218,-0.014441535,0.18660408,-0.12485841,1.0601232,0.9947136
0.0,-0.1,1.1999999999999997,-0.5235987755982988,0.0,0,-0.21434371,-1.4851891,-0.29983908,0.106749065,0.02102298,1.0639186,0.3395212,-0.023214012,-0.5809944,0.0023192542,0.20567735,0.03495013,1.0788214,0.010606928
0.0,-0.1,1.1999999999999997,-0.5235987755982988,0.0,0,-0.21457736,-1.4855173,-0.2975332,0.10171798,0.14795281,1.1596882,-1.4479486,-0.021775894,-0.58127844,-0.016348861,0.20824546,-0.069955096,1.0988159,-0.8473853
0.0,-0.1,1.1999999999999997,-0.5235987755982988,0.0,0,-0.21407536,-1.485551,-0.29993644,0.11928894,0.07789141,0.9979563,0.23755571,-0.022406137,-0.5811858,0.0025279776,0.20720384,0.08445397,1.0819261,0.23996569
0.0,-0.1,1.1999999999999997,-0.5235987755982988,0.0,0,-0.21373564,-1.4855446,-0.2928883,0.109905034,0.017260734,1.0859262,-0.045828626,-0.020141903,-0.5813993,-0.0049088504,0.21158293,0.09654643,1.0783589,0.4698129
0.0,-0.1,1.1999999999999997,-0.5235987755982988,0.0,0,-0.21558754,-1.4840611,-0.30157036,0.10895468,0.0832518,1.1049538,-0.9342701,-0.02153551,-0.58114713,0.001488569,0.24055892,0.027512377,1.1311734,0.87884
0.0,-0.1,1.1999999999999997,-0.5235987755982988,0.0,0,-0.21431704,-1.4862084,-0.3022771,0.111106716,0.00050837547,1.1264422,-0.49766034,-0.022536378,-0.5807984,0.006726053,0.20516914,0.020342333,1.0662841,0.8272202
0.0,-0.1,1.1999999999999997,-0.5235987755982988,0.0,0,-0.21423914,-1.4853132,-0.30163118,0.11155042,0.024046551,1.2028271,-1.1526542,-0.023807103,-0.5811218,-0.0021323403,0.19243413,-0.0403975,1.121736,0.4222842
0.0,-0.1,1.1999999999999997,-0.5235987755982988,0.0,0,-0.21409836,-1.4851911,-0.30428633,0.11891259,0.13680908,1.0927502,1.9214382,-0.022776978,-0.5810213,0.008175891,0.17833503,-0.06403134,1.0645535,0.6916368
0.0,-0.1,1.1999999999999997,-0.5235987755982988,0.0,0,-0.21442786,-1.4855745,-0.3057939,0.11492427,0.054687507,1.138809,-0.25286266,-0.023816729,-0.5808184,0.007883377,0.21498854,-0.113451876,1.0958184,-0.13755742
0.0,-0.1,1.1999999999999997,-0.5235987755982988,0.0,0,-0.21376678,-1.486358,-0.2945577,0.106064424,0.107786685,1.0347887,-0.6738444,-0.023239879,-0.5811287,0.00028731293,0.19182113,-0.24314566,1.108071,1.0469025
0.0,-0.1,1.1999999999999997,-0.5235987755982988,0.0,0,-0.21392621,-1.4854082,-0.2969526,0.11162391,-0.0036647536,1.1566498,1.0180854,-0.022699064,-0.5812357,0.003290133,0.18899724,-0.038838316,1.0781091,1.110368
0.0,-0.1,1.1999999999999997,-0.5235987755982988,0.0,0,-0.21295331,-1.4867028,-0.29643476,0.12798984,-0.061463285,1.1356136,-0.73253703,-0.022910597,-0.58117545,0.008220824,0.22972116,-0.08437004,1.0952395,1.4702609
0.0,-0.1,1.1999999999999997,-0.5235987755982988,0.0,0,-0.21289897,-1.4862266,-0.30080003,0.11555431,-0.034649726,1.0832071,-0.66752225,-0.022264842,-0.58113325,-0.0010099126,0.19147111,0.055721465,1.0583088,-1.0361156
0.0,-0.1,1.1999999999999997,-0.5235987755982988,0.0,0,-0.21494225,-1.4864229,-0.29959485,0.111343384,0.07402919,1.1379398,0.9312638,-0.021722388,-0.5812848,-0.010442531,0.20744854,-0.019328173,1.0769187,1.2040938
0.0,-0.1,1.1999999999999997,-0.5235987755982988,0.0,0,-0.2136862,-1.4868792,-0.29682264,0.11552401,0.021763062,1.108139,0.16382748,-0.02350649,-0.5810683,0.0021644693,0.17440486,0.025747858,1.08329,0.7006042
0.0,-0.1,1.1999999999999997,-0.5235987755982988,0.0,0,-0.21463618,-1.4855323,-0.30109626,0.11005476,0.05306481,1.1314577,0.5212698,-0.021034509,-0.58114296,-0.0008619662,0.22421367,-0.20675679,1.0932934,0.1709746
0.0,-0.1,1.1999999999999997,-0.5235987755982988,0.0,0,-0.21411528,-1.4861115,-0.29384336,0.120963305,-0.061576147,1.1742408,0.07319348,-0.022415351,-0.58135796,-0.0084471805,0.16833745,-0.07547853,1.1518998,0.52446485
0.0,-0.1,1.1999999999999997,-0.5235987755982988,0.0,0,-0.21457627,-1.484502,-0.30014613,0.10624594,0.026893444,1.1783422,0.50777507,-0.023076914,-0.58154637,-0.0044134133,0.2153056,-0.18455088,1.0752286,1.2060461
0.0,-0.1,1.1999999999999997,-0.5235987755982988,0.0,0,-0.21339811,-1.4843447,-0.2972067,0.11356631,0.069115624,1.0315905,-0.13818441,-0.020803526,-0.5815029,0.012966761,0.24295256,0.013876725,1.0774379,-0.24038517
0.0,-0.1,1.1999999999999997,-0.5235987755982988,0.0,0,-0.21475287,-1.4860216,-0.30061194,0.09823394,0.10839806,1.1056007,0.4900623,-0.023109948,-0.5809898,-0.010143463,0.19532354,0.13984689,1.079943,-0.26826778
0.0,-0.1,1.1999999999999997,-0.5235987755982988,0.0,0,-0.21352448,-1.4847752,-0.29916367,0.12348538,-0.034878775,1.1094118,0.10157214,-0.021160344,-0.58097875,0.023773793,0.21261612,-0.114351265,1.0854554,-0.5829098
0.0,-0.1,1.1999999999999997,-0.5235987755982988,0.0,0,-0.21418963,-1.4856702,-0.30148718,0.113682985,0.11578267,1.0684499,-0.27955526,-0.020143103,-0.58123875,0.0015201664,0.2063835,-0.124049485,1.0877312,0.27789003
0.0,-0.1,1.1999999999999997,-0.5235987755982988,0.0,0,-0.21504904,-1.4860771,-0.2997694,0.107508376,0.11584211,1.1396587,0.0890852,-0.022173274,-0.58117706,0.004758301,0.20525181,-0.0803159,1.0585285,0.06026205
0.0,-0.1,1.1999999999999997,-0.5235987755982988,0.0,0,-0.21325229,-1.4862398,-0.2963842,0.12294595,0.08144289,1.106473,0.7412013,-0.021504141,-0.58094376,0.013041437,0.20618561,-0.16969033,1.1106873,0.28160134
0.0,-0.1,1.1999999999999997,-0.5235987755982988,0.0,0,-0.21496993,-1.4860572,-0.30369356,0.10636766,0.043495,1.0970156,-0.99724793,-0.0213741,-0.5809598,0.0028091182,0.22650926,-0.14962883,1.1067648,1.0077198
0.0,-0.1,1.1999999999999997,-0.5235987755982988,0.0,0,-0.21391055,-1.4852134,-0.29775658,0.11147787,-0.008048555,1.1165038,-0.44489208,-0.023053156,-0.5811371,0.012197815,0.21942888,-0.0827042,1.1192507,-0.13233513
0.0,-0.1,1.1999999999999997,-0.5235987755982988,0.0,0,-0.21357062,-1.4848337,-0.30391282,0.114369884,-0.03641656,1.1429192,-0.63788223,-0.022493454,-0.58143413,0.0056077256,0.20809373,-0.002495729,1.0461475,-1.8390442
0.0,-0.1,1.1999999999999997,-0.5235987755982988,0.0,0,-0.21367075,-1.4849936,-0.30326703,0.11024921,0.02167102,1.0890974,-1.5680693,-0.021645145,-0.5810251,0.016432207,0.2306858,-0.14238942,1.087118,0.88716793
0.0,-0.1,1.1999999999999997,-0.5235987755982988,0.0,0,-0.21377048,-1.4857088,-0.29835486,0.10601704,0.107800975,1.0689243,-0.070764385,-0.021965118,-0.58111274,0.010513913,0.20440067,0.052458085,1.0765157,0.050961528
0.0,-0.1,1.1999999999999997,-0.5235987755982988,0.0,0,-0.21383092,-1.4855325,-0.30642006,0.123586185,0.08056411,1.1119022,-1.5945212,-0.021730348,-0.5811675,2.372805e-05,0.19204606,-0.09930858,1.0836676,-0.0020914848
0.0,-0.1,1.1999999999999997,-0.5235987755982988,0.0,0,-0.21373382,-1.4855875,-0.29874864,0.12069312,0.03335434,1.1154563,-1.447283,-0.02193656,-0.5810481,0.00948109,0.19421071,-0.09689002,1.0955855,0.72975963
0.0,-0.1,1.1999999999999997,-0.5235987755982988,0.0,0,-0.21393707,-1.4853458,-0.2976,0.1319035,0.015310649,1.1801366,-1.2476606,-0.023382546,-0.5814593,0.012391308,0.20433909,-0.031520255,1.0762999,0.15804432
0.0,-0.1,1.1999999999999997,-0.5235987755982988,0.0,0,-0.21304391,-1.4861053,-0.29796413,0.12354165,0.15465333,1.0700678,0.80913454,-0.02258822,-0.5811119,0.020404985,0.20017718,0.11564252,1.0713656,-0.24313831
0.0,-0.1,1.1999999999999997,-0.5235987755982988,0.0,0,-0.21417135,-1.4849454,-0.30091813,0.106226556,0.0048296205,1.0598403,-0.7716033,-0.021601396,-0.58133006,0.01301247,0.2233802,0.07093856,1.0779151,0.39826766
0.0,-0.1,1.1999999999999997,-0.5235987755982988,0.0,0,-0.21436627,-1.4851218,-0.301977,0.113910384,0.0005547226,1.076209,0.3337513,-0.020719802,-0.5812585,0.018554907,0.22801737,0.03408059,1.0624261,-0.35305774
0.0,-0.1,1.1999999999999997,-0.5235987755982988,0.0,0,-0.21447667,-1.4850686,-0.29590714,0.11721282,0.06870146,1.239138,0.14737178,-0.021302227,-0.58132887,0.02355686,0.20263824,-0.14279021,1.0683694,-0.18082243
0.0,-0.1,1.1999999999999997,-0.5235987755982988,0.0,0,-0.21399124,-1.4852135,-0.29473457,0.10406459,0.021282932,1.1050246,-0.26375392,-0.023400098,-0.5813477,0.019146038,0.19836977,-0.03265331,1.0626804,0.54915637
0.0,-0.1,1.1999999999999997,-0.5235987755982988,0.0,0,-0.21355364,-1.4850597,-0.29850835,0.10784537,-0.036153905,1.101827,-0.47012782,-0.02186405,-0.58134025,0.015294118,0.19997169,-0.09275391,1.0595644,0.693902
0.0,-0.1,1.1999999999999997,-0.5235987755982988,0.0,0,-0.21268968,-1.4857463,-0.30331966,0.11280869,-0.124445066,1.1604911,-0.14695145,-0.020371623,-0.5812902,0.0081281895,0.22280791,-0.029022926,1.0707992,1.1758196
0.0,-0.1,1.1999999999999997,-0.5235987755982988,0.0,0,-0.21468966,-1.4857454,-0.29866463,0.11733384,0.08453539,1.1150662,-0.038327157,-0.021638352,-0.5809244,0.031200374,0.20834543,0.071595274,1.0790876,0.21972378
0.0,-0.1,1.1999999999999997,-0.5235987755982988,0.0,0,-0.21466573,-1.4842951,-0.2991091,0.10834946,0.049892493,1.1110998,-1.5500336,-0.020313652,-0.5811973,0.02102018,0.22289397,-0.102230825,1.1044899,0.5748234
0.0,-0.1,1.1999999999999997,-0.5235987755982988,0.0,0,-0.21359698,-1.4866799,-0.30337363,0.10629984,-0.019429395,1.1348085,-0.8756571,-0.022499682,-0.5812432,-0.011277511,0.2094239,-0.06824443,1.0909396,0.6909208
0.0,-0.1,1.1999999999999997,-0.5235987755982988,0.0,0,-0.21434203,-1.4857683,-0.30416813,0.10844751,0.08581452,1.0226448,0.053583093,-0.023322674,-0.5812169,0.012734432,0.19639578,-0.04956801,1.0791198,0.4521285
0.0,-0.1,1.1999999999999997,-0.5235987755982988,0.0,0,-0.21499953,-1.4854113,-0.303822,0.11792804,0.009509786,1.0740663,0.23267387,-0.022742268,-0.5814289,0.014371651,0.23718606,0.069254525,1.0866656,1.1837445
0.0,-0.1,1.1999999999999997,-0.5235987755982988,0.0,0,-0.21425514,-1.4838339,-0.3006725,0.11674191,-0.0040566493,1.1151195,0.8627898,-0.0220329,-0.58153343,0.015984025,0.2191437,-0.06320148,1.1043037,1.7739953
0.0,-0.1,1.1999999999999997,-0.5235987755982988,0.0,0,-0.21362261,-1.4854964,-0.30636767,0.1168589,0.10307229,1.1825612,-1.7670774,-0.020323493,-0.5815014,0.00047081348,0.23291396,-0.044304334,1.0999671,0.18338037
0.0,-0.1,1.1999999999999997,-0.5235987755982988,0.0,0,-0.21299167,-1.4865909,-0.29752466,0.12776148,0.07543788,1.1059004,0.43968177,-0.025023457,-0.5816379,0.0012175614,0.19749562,-0.20333089,1.1093503,1.2339354
0.0,-0.1,1.1999999999999997,-0.5235987755982988,0.0,0,-0.21242726,-1.4861469,-0.3017501,0.11816731,-0.023153003,1.0868425,0.27845633,-0.023381712,-0.58133096,0.018436514,0.2118063,0.1974811,1.0854704,1.9182928
0.0,-0.1,1.1999999999999997,-0.5235987755982988,0.0,0,-0.21477112,-1.4839094,-0.30361953,0.11238176,0.029038884,1.0839702,0.81479084,-0.024096018,-0.5813126,0.028966011,0.20109999,-0.09545283,1.0676132,2.3059494
0.0,-0.1,1.1999999999999997,-0.5235987755982988,0.0,0,-0.21423134,-1.4861649,-0.30793452,0.11448861,-0.030874765,1.0315862,-0.28763846,-0.022913141,-0.5811555,0.011440608,0.2044365,-0.078907,1.073882,0.11274681
0.0,-0.1,1.1999999999999997,-0.5235987755982988,0.0,0,-0.21360998,-1.4860326,-0.29795676,0.10478167,0.10451058,1.033012,-0.07426847,-0.021554893,-0.58140963,0.009688081,0.20454645,-0.0139486315,1.087477,-0.63069165
0.0,-0.1,1.1999999999999997,-0.5235987755982988,0.0,0,-0.2129849,-1.4855716,-0.2990294,0.10932603,0.0039876825,1.0390779,-0.4689108,-0.021639915,-0.58143806,0.017463854,0.19403668,-0.27686307,1.0893227,-0.19572833
0.0,-0.1,1.1999999999999997,-0.5235987755982988,0.0,0,-0.2129435,-1.4861609,-0.3049806,0.11880831,0.053384345,1.0864903,0.06709261,-0.02026246,-0.580937,0.018242344,0.20974518,0.07080468,1.1071504,-0.7066609
0.0,-0.1,1.1999999999999997,-0.5235987755982988,0.0,0,-0.2141311,-1.4863166,-0.30303845,0.110135086,0.034289226,1.12062,-0.75666624,-0.024033077,-0.5813937,0.016333897,0.18575221,0.025855795,1.0742351,1.1764402
0.0,-0.1,1.1999999999999997,-0.5235987755982988,0.0,0,-0.21370538,-1.4855556,-0.30465797,0.11166821,-0.002516091,1.0783061,-0.12885028,-0.021910235,-0.58133477,0.018048711,0.18894312,-0.07516699,1.1349925,0.2299317
0.0,-0.1,1.1999999999999997,-0.5235987755982988,0.0,0,-0.2136038,-1.4839545,-0.29832605,0.091986924,0.02768285,1.1098409,-0.69917166,-0.02459878,-0.58128923,0.038814265,0.21642168,-0.14354762,1.1379734,0.861075
0.0,-0.1,1.1999999999999997,-0.5235987755982988,0.0,0,-0.21358234,-1.485116,-0.29199925,0.11854222,-0.01876445,1.1492858,0.5134498,-0.021218454,-0.58071226,-0.006606821,0.21899925,0.0346985,1.0903149,-0.006539095
0.0,-0.1,1.1999999999999997,-0.5235987755982988,0.0,0,-0.21379955,-1.4850856,-0.2940731,0.12505361,0.05307276,1.0730426,-1.2024597,-0.021617915,-0.5810557,-0.028324995,0.20697726,-0.030550625,1.068249,1.7275659
0.0,-0.1,1.1999999999999997,-0.5235987755982988,0.0,0,-0.21340519,-1.4858967,-0.29337737,0.11649951,0.077262826,1.1726086,-0.14281042,-0.0220073,-0.58109754,-0.033317044,0.22321156,0.06674437,1.0857284,0.23459382
0.0,-0.1,1.1999999999999997,-0.5235987755982988,0.0,0,-0.21252453,-1.4862449,-0.2932613,0.11970967,-0.0069007855,1.0091348,-0.6883253,-0.02185246,-0.5806753,-0.011829654,0.19110252,-0.042599496,1.093378,0.62583
0.0,-0.1,1.1999999999999997,-0.5235987755982988,0.0,0,-0.21414067,-1.4842842,-0.2938216,0.119112894,0.10498118,1.1123338,-1.7032312,-0.021128716,-0.58102965,0.008402436,0.22520423,-0.24910738,1.0768828,0.284875
0.0,-0.1,1.1999999999999997,-0.5235987755982988,0.0,0,-0.21390916,-1.4857547,-0.29147285,0.12340546,-0.005952051,1.0351589,0.8205486,-0.021117575,-0.5809604,-0.0028841693,0.2077147,-0.047891375,1.0801045,1.7623227
0.0,-0.1,1.1999999999999997,-0.5235987755982988,0.0,0,-0.21402378,-1.4854931,-0.30006424,0.12015485,0.061846677,1.0812417,-0.12823887,-0.021273114,-0.5810657,-0.021933451,0.21515574,-0.064176545,1.1223928,-0.032815617
0.0,-0.1,1.1999999999999997,-0.5235987755982988,0.0,0,-0.21345468,-1.4846504,-0.30004603,0.112515375,0.024356611,1.1472119,0.039671235,-0.024299577,-0.5812993,-0.029877981,0.19230655,-0.03301153,1.0837333,1.0680609
0.0,-0.1,1.1999999999999997,-0.5235987755982988,0.0,0,-0.21336909,-1.4851097,-0.29186285,0.109056376,-0.043518074,1.1803343,-0.99131423,-0.019616783,-0.58095,0.0045130686,0.1939278,-0.15710312,1.0985823,-0.30506164
0.0,-0.1,1.1999999999999997,-0.5235987755982988,0.0,0,-0.2142885,-1.4846447,-0.30479315,0.11720849,0.0009320851,1.1489868,-0.7835331,-0.02198411,-0.5812596,-0.019114371,0.22550175,-0.008556298,1.0712502,-0.19807103
0.0,-0.1,1.1999999999999997,-0.5235987755982988,0.0,0,-0.21393918,-1.4843675,-0.29909468,0.11861585,-0.07261655,1.0755842,-1.6135321,-0.021688977,-0.5810716,0.0055895583,0.20386079,0.03849202,1.0698843,0.7656158
0.0,-0.1,1.1999999999999997,-0.5235987755982988,0.0,0,-0.21381651,-1.4847848,-0.3003683,0.11284938,-0.08568548,1.0789218,-1.0843489,-0.020491103,-0.58115727,-0.011295466,0.21269524,-0.15861267,1.0986853,0.52576405
0.0,-0.1,1.1999999999999997,-0.5235987755982988,0.0,0,-0.21309406,-1.4859595,-0.30200446,0.11993871,-0.08054138,1.1024156,2.087507,-0.022377595,-0.5806882,0.010960695,0.19023284,-0.103388034,1.0411991,0.60701555
0.0,-0.1,1.1999999999999997,-0.5235987755982988,0.0,0,-0.21479619,-1.4852822,-0.30369243,0.10949808,0.10946111,1.1183039,-1.1855704,-0.021114068,-0.580972,-0.0010620003,0.23319755,-0.21229579,1.0817653,0.2010466
0.0,-0.1,1.1999999999999997,-0.5235987755982988,0.0,0,-0.21379194,-1.4852724,-0.30047458,0.10848391,-0.035026766,1.0859592,-1.186223,-0.021840971,-0.5812659,-0.010109631,0.20791326,-0.23500484,1.064234,0.2764201
0.0,-0.1,1.1999999999999997,-0.5235987755982988,0.0,0,-0.2137123,-1.4855412,-0.299671,0.11890228,-0.054925937,1.0383939,-0.32856375,-0.02241216,-0.58102256,0.010891913,0.19789274,0.07047969,1.0683409,0.56699526
0.0,-0.1,1.1999999999999997,-0.5235987755982988,0.0,0,-0.21412893,-1.4846029,-0.30209517,0.10923069,0.049367335,1.112763,-0.650753,-0.02197752,-0.5814102,-0.023315847,0.19642653,-0.071469404,1.0951176,-0.22988206
0.0,-0.1,1.1999999999999997,-0.5235987755982988,0.0,0,-0.21433498,-1.4863346,-0.29203922,0.114276886,-0.03307422,1.1331488,-0.5537157,-0.023885554,-0.580959,0.016611643,0.23750052,0.05700607,1.115397,-0.38473544
0.0,-0.1,1.1999999999999997,-0.5235987755982988,0.0,0,-0.21488117,-1.4857646,-0.2964967,0.123910226,0.0054093814,0.98578644,1.6688178,-0.021929437,-0.5813686,-0.0041980324,0.19069451,-0.038649306,1.0793763,-0.116912216
0.0,-0.1,1.1999999999999997,-0.5235987755982988,0.0,0,-0.21485338,-1.4835583,-0.30312097,0.11952418,0.11048668,1.1610723,0.13197108,-0.02224196,-0.58120286,0.01567147,0.2362878,-0.023640731,1.0927228,0.61107534
0.0,-0.1,1.1999999999999997,-0.5235987755982988,0.0,0,-0.21289219,-1.4849002,-0.29925588,0.11668735,0.06233723,1.1566589,-0.7354345,-0.02227353,-0.58111274,0.0073318426,0.20632192,-0.22154911,1.0986311,-0.22381562
0.0,-0.1,1.1999999999999997,-0.5235987755982988,0.0,0,-0.21454836,-1.4863979,-0.30121756,0.12107866,0.16569233,1.1576083,-1.5793108,-0.019892406,-0.5813855,-0.016687179,0.20547529,0.0050443397,1.0802573,-0.048232235
0.0,-0.1,1.1999999999999997,-0.5235987755982988,0.0,0,-0.21392012,-1.4848441,-0.29690212,0.100387655,-0.07844343,1.0942069,0.14781958,-0.019602723,-0.5811979,-0.0012354437,0.20720229,-0.09098316,1.0849005,-0.28614342
0.0,-0.1,1.1999999999999997,-0.5235987755982988,0.0,0,-0.21455672,-1.4847703,-0.29534835,0.11030472,0.016727187,1.0657401,-1.1964202,-0.022669556,-0.5813757,0.0017621958,0.20154281,0.055686414,1.0842948,-0.035847113
0.0,-0.1,1.1999999999999997,-0.5235987755982988,0.0,0,-0.21318111,-1.4853231,-0.301059,0.11474955,0.050174672,1.0168207,-1.1331187,-0.022115618,-0.5811906,0.0098303,0.20554668,-0.058438785,1.0946026,0.7020189
0.0,-0.1,1.1999999999999997,-0.5235987755982988,0.0,0,-0.21397226,-1.4847999,-0.30587167,0.10617163,0.06435333,1.0473535,0.49142507,-0.020565622,-0.5811208,0.0007900468,0.21827191,-0.03314675,1.0925554,0.8525612
0.0,-0.1,1.1999999999999997,-0.5235987755982988,0.0,0,-0.2144599,-1.4863138,-0.30593917,0.11578264,0.12638913,1.0978868,-1.0564615,-0.023630684,-0.5810038,-0.0007611563,0.19841965,0.08050356,1.0720938,-0.12939446
0.0,-0.1,1.1999999999999997,-0.5235987755982988,0.0,0,-0.21470419,-1.4852903,-0.29666048,0.121773705,0.08356031,1.1188865,-0.5626087,-0.02310825,-0.58137554,0.016930621,0.23141712,0.018201357,1.0980421,0.29407167
0.0,-0.1,1.1999999999999997,-0.5235987755982988,0.0,0,-0.21379891,-1.4853629,-0.3023027,0.11779989,0.06610696,1.0488954,-0.39210126,-0.024072476,-0.58133686,0.021380024,0.22382069,-0.040071707,1.1096723,0.50944734
0.0,-0.1,1.1999999999999997,-0.5235987755982988,0.0,0,-0.21514133,-1.4861908,-0.29641056,0.1142354,0.044637684,1.0756716,-0.36087123,-0.021583855,-0.5812978,0.016504053,0.20210932,-0.121816956,1.1061981,0.4177448
0.0,-0.1,1.1999999999999997,-0.5235987755982988,0.0,0,-0.21366699,-1.4848104,-0.30453813,0.10613931,-0.017750636,1.0935532,0.1565876,-0.022223152,-0.5812688,0.011973833,0.22672708,0.067368165,1.106907,0.73592097
0.0,-0.1,1.1999999999999997,-0.5235987755982988,0.0,0,-0.21380359,-1.4855353,-0.3039011,0.10697895,0.06546394,1.0748764,0.9995269,-0.022139512,-0.5812596,0.015402822,0.20539498,0.017625099,1.089279,1.9651207
