sanky1234/BimanualDexCatch/isaacgymenvs/cem_results/football_pose_-0.1_-0.1_1.4_0.0_-0.5235987755982988_0_2025-05-25.csv
x,y,z,roll,pitch,yaw,robot1/joint1,robot1/joint2,robot1/joint3,robot1/joint4,robot1/joint5,robot1/joint6,robot1/joint7,robot2/joint1,robot2/joint2,robot2/joint3,robot2/joint4,robot2/joint5,robot2/joint6,robot2/joint7
-0.1,-0.1,1.4,0.0,-0.5235987755982988,0,-0.31378442,-1.6108123,0.97331715,0.024729867,-0.06483217,1.0887501,-0.04458812,0.40390468,-0.57852554,-0.43142503,0.06804101,0.24098073,1.2721945,-0.11623643
-0.1,-0.1,1.4,0.0,-0.5235987755982988,0,-0.31216314,-1.6109776,0.96680385,0.019647915,-0.11461814,1.0279102,0.46694428,0.39973223,-0.57683736,-0.4315443,0.06167296,0.05812602,1.0954272,-0.24030083
-0.1,-0.1,1.4,0.0,-0.5235987755982988,0,-0.31454283,-1.6109366,0.96650064,0.015529385,0.11363759,1.0844772,0.41821146,0.40355968,-0.5791068,-0.4278814,0.10764939,-0.13631664,1.2385875,-1.3285124
-0.1,-0.1,1.4,0.0,-0.5235987755982988,0,-0.31388476,-1.610997,0.96083254,0.0238029,-0.17674631,1.1215367,0.56158817,0.40283623,-0.5791427,-0.43636417,0.062752604,0.05476684,1.2274843,0.57911307
-0.1,-0.1,1.4,0.0,-0.5235987755982988,0,-0.3119365,-1.6133189,0.9921116,0.018758232,-0.22175136,1.0400356,0.1145204,0.406028,-0.5732975,-0.43309927,0.069937535,0.0058710673,1.1144745,-1.007304
-0.1,-0.1,1.4,0.0,-0.5235987755982988,0,-0.31522867,-1.611369,0.9625734,0.019919412,-0.19233693,1.1131268,0.76581126,0.40446195,-0.5798505,-0.42652264,0.08459292,0.103550136,1.3139331,-1.2843215
-0.1,-0.1,1.4,0.0,-0.5235987755982988,0,-0.31461343,-1.6116058,0.95607466,0.022023782,-0.10756806,1.1425734,0.060104743,0.4053154,-0.580651,-0.43277785,0.07802393,0.073944815,1.2062472,0.5864513
-0.1,-0.1,1.4,0.0,-0.5235987755982988,0,-0.31397057,-1.6119974,0.96709764,0.016041022,-0.1050907,1.0895396,1.6035324,0.40136734,-0.5778402,-0.42842042,0.07070879,0.18649912,1.2629249,-0.33527753
-0.1,-0.1,1.4,0.0,-0.5235987755982988,0,-0.3153737,-1.6099283,0.9792962,0.016548214,-0.021026254,1.2184091,0.44319698,0.4053885,-0.57900745,-0.43337178,0.0757976,0.09267752,1.222362,-0.2866851
-0.1,-0.1,1.4,0.0,-0.5235987755982988,0,-0.31318054,-1.6113057,0.97391474,0.017581077,-0.1667825,1.1375389,0.7805368,0.40605628,-0.57851297,-0.43094298,0.0788659,0.03367932,1.2998638,-1.5514866
-0.1,-0.1,1.4,0.0,-0.5235987755982988,0,-0.31382516,-1.6103402,0.97748613,0.015522235,0.049097355,0.99523526,1.0682148,0.40250674,-0.5789586,-0.42947152,0.09756597,0.17501268,1.1183914,0.8743635
-0.1,-0.1,1.4,0.0,-0.5235987755982988,0,-0.31218436,-1.6125214,0.97558373,0.017313497,-0.14875717,1.1123923,1.126708,0.40671712,-0.5797535,-0.4252947,0.083444394,0.090226986,1.2928345,-0.89707196
-0.1,-0.1,1.4,0.0,-0.5235987755982988,0,-0.31294936,-1.6112665,0.9582212,0.020390967,0.16136608,1.0896217,1.4773604,0.40373474,-0.57824254,-0.4316949,0.07645488,-0.09384599,1.2330388,-0.74648327
-0.1,-0.1,1.4,0.0,-0.5235987755982988,0,-0.3138463,-1.6102369,0.9733856,0.018874304,-0.1253593,1.1313225,0.61890876,0.4063223,-0.57912636,-0.43089232,0.07313189,0.21646088,1.2184594,-1.1519045
-0.1,-0.1,1.4,0.0,-0.5235987755982988,0,-0.3153122,-1.6119727,0.9749603,0.022390798,-0.058500562,1.1354454,1.5174735,0.40400636,-0.5799583,-0.43193713,0.084361434,0.18917426,1.2407694,-0.7031576
-0.1,-0.1,1.4,0.0,-0.5235987755982988,0,-0.3142158,-1.6117184,0.95725125,0.02217017,-0.041054044,1.061929,1.1092434,0.40705916,-0.5812778,-0.42900786,0.06965466,0.0693233,1.2440023,-0.27010402
-0.1,-0.1,1.4,0.0,-0.5235987755982988,0,-0.312978,-1.6105428,0.96770465,0.025789527,-0.1981673,1.1823967,0.11165255,0.40170494,-0.57922435,-0.4348433,0.06478854,0.098216906,1.1590561,-0.19922295
-0.1,-0.1,1.4,0.0,-0.5235987755982988,0,-0.3141497,-1.609808,0.93765354,0.016887985,-0.075550824,1.011612,1.3231802,0.40123263,-0.578193,-0.43372327,0.072279505,0.11058942,1.164839,0.10125202
-0.1,-0.1,1.4,0.0,-0.5235987755982988,0,-0.31533012,-1.6110799,0.9744827,0.017586026,0.2916649,1.1057606,0.14771654,0.39767253,-0.57823515,-0.43103385,0.085238606,0.18585625,1.1055334,-0.04252326
-0.1,-0.1,1.4,0.0,-0.5235987755982988,0,-0.314617,-1.6108515,0.9852298,0.01619716,-0.11382277,1.1572549,0.7963574,0.4109852,-0.57962805,-0.43428296,0.053247496,0.051673144,1.2318847,-0.30758876
-0.1,-0.1,1.4,0.0,-0.5235987755982988,0,-0.31415495,-1.6111324,0.9469397,0.019133031,-0.035000153,1.1352606,1.1270458,0.40767714,-0.58089876,-0.43416628,0.08436931,0.10975798,1.2221787,-1.9755679
-0.1,-0.1,1.4,0.0,-0.5235987755982988,0,-0.3114894,-1.6109773,0.9526147,0.018830804,-0.18533683,1.0434504,0.53734374,0.41007483,-0.5799265,-0.43993837,0.056727342,0.10852857,1.2757726,-0.96557605
-0.1,-0.1,1.4,0.0,-0.5235987755982988,0,-0.31289414,-1.6091447,0.9614497,0.021145375,0.1205105,1.0304049,0.3642542,0.4062876,-0.5792304,-0.43280435,0.06587474,0.07088112,1.2384646,-0.8984394
-0.1,-0.1,1.4,0.0,-0.5235987755982988,0,-0.31336775,-1.6105328,0.95304483,0.019089874,0.009354323,1.1894797,0.12062595,0.40197054,-0.5803214,-0.4318166,0.07329459,0.0022612312,1.1971809,-1.5086803
-0.1,-0.1,1.4,0.0,-0.5235987755982988,0,-0.3147582,-1.6104531,0.98229843,0.019235887,-0.1710224,1.0112876,0.15110841,0.40768266,-0.58222693,-0.42954755,0.070118375,0.07771597,1.1206585,-1.1607422
-0.1,-0.1,1.4,0.0,-0.5235987755982988,0,-0.31399697,-1.6107403,1.016294,0.016054515,0.13784981,1.1240387,0.9144653,0.40335697,-0.5782247,-0.43438083,0.07499143,-0.10592044,1.1124872,-1.3276067
-0.1,-0.1,1.4,0.0,-0.5235987755982988,0,-0.31346542,-1.611161,0.97406936,0.025783332,0.2239952,1.0564432,0.57199234,0.40649167,-0.5800391,-0.42791176,0.05470058,-0.08484251,1.1649319,-1.346332
-0.1,-0.1,1.4,0.0,-0.5235987755982988,0,-0.31297585,-1.6102662,0.95771587,0.020906152,-0.23951922,1.0575691,0.5537632,0.40743127,-0.57972217,-0.4302081,0.09690267,-0.11132393,1.2575905,-0.18938775
-0.1,-0.1,1.4,0.0,-0.5235987755982988,0,-0.3138905,-1.6095768,0.9896806,0.020400882,0.0140913315,1.0116023,0.16633727,0.40686405,-0.58008105,-0.4290504,0.110875644,-0.03877168,1.0730381,-1.3872025
-0.1,-0.1,1.4,0.0,-0.5235987755982988,0,-0.31469887,-1.6106746,0.9568784,0.019150002,-0.053731587,1.1071419,0.9967857,0.4001398,-0.5782801,-0.4326555,0.07133725,0.10422598,1.1978693,0.1006459
-0.1,-0.1,1.4,0.0,-0.5235987755982988,0,-0.31310803,-1.6104015,0.97112596,0.027405819,-0.054534502,1.1596929,1.1450664,0.39852417,-0.5793932,-0.42064166,0.07114806,0.03629085,1.2247322,-2.503404
-0.1,-0.1,1.4,0.0,-0.5235987755982988,0,-0.31462955,-1.610845,0.99382716,0.019774133,-0.03788371,1.1539403,0.9280755,0.40704623,-0.579366,-0.43238077,0.04675989,0.21494634,1.1747648,0.19429852
-0.1,-0.1,1.4,0.0,-0.5235987755982988,0,-0.3143299,-1.6099482,0.95988727,0.015175608,-0.12543635,1.0013343,0.85597837,0.4018049,-0.5791673,-0.4369122,0.11131897,0.2956862,1.2577876,0.83606106
-0.1,-0.1,1.4,0.0,-0.5235987755982988,0,-0.3140456,-1.6121455,0.96386826,0.023508502,0.06887969,1.202596,1.3878086,0.40871456,-0.57879984,-0.4321196,0.06302446,-0.10606964,1.2185165,-0.25363922
-0.1,-0.1,1.4,0.0,-0.5235987755982988,0,-0.31240404,-1.6117997,0.95267355,0.020657105,-0.1875169,1.1225543,1.4259784,0.40881947,-0.5796575,-0.42664337,0.08027429,0.24385662,1.1993744,-0.21010618
-0.1,-0.1,1.4,0.0,-0.5235987755982988,0,-0.31429374,-1.6092621,0.9647605,0.017273162,0.26199764,1.0979553,-0.41706887,0.41006532,-0.58175147,-0.4370488,0.054827012,0.22170441,1.1785744,-1.0342952
-0.1,-0.1,1.4,0.0,-0.5235987755982988,0,-0.31292647,-1.6109077,0.9534998,0.023434307,-0.29961145,1.1524297,0.5824857,0.40342546,-0.57896215,-0.43079084,0.078745626,0.05378245,1.1924818,-0.84074295
-0.1,-0.1,1.4,0.0,-0.5235987755982988,0,-0.3138018,-1.608634,0.9686257,0.018146094,-0.18762149,1.1667377,1.3788377,0.4061379,-0.57989085,-0.43039957,0.054021016,0.17812477,1.2172247,-1.2819457
-0.1,-0.1,1.4,0.0,-0.5235987755982988,0,-0.31202728,-1.6115835,1.005486,0.026293328,-0.1710956,1.1719754,0.9296261,0.40507302,-0.578654,-0.4261834,0.05115034,0.34544298,1.2810508,0.604459
-0.1,-0.1,1.4,0.0,-0.5235987755982988,0,-0.3133593,-1.6110276,0.96274066,0.022961756,-0.022397045,1.1418134,0.617038,0.40765953,-0.58057344,-0.43122485,0.079456195,0.028874626,1.2326199,-0.85694474
-0.1,-0.1,1.4,0.0,-0.5235987755982988,0,-0.31454298,-1.6106622,0.9425141,0.01475807,-0.17448431,1.0569605,1.0268812,0.40097493,-0.5800764,-0.42790282,0.05145534,0.21768227,1.1786962,-1.2107463
-0.1,-0.1,1.4,0.0,-0.5235987755982988,0,-0.31363663,-1.6094916,0.970043,0.024412561,-0.06361719,1.0762802,0.08677124,0.40446952,-0.5781032,-0.43538827,0.07763749,-0.14252223,1.2076796,-0.39667967
-0.1,-0.1,1.4,0.0,-0.5235987755982988,0,-0.3137411,-1.6130527,0.95314234,0.021595478,-0.044250116,1.1259484,0.39143452,0.4062986,-0.58001375,-0.4341068,0.07595594,0.1453934,1.0193532,0.3038218
-0.1,-0.1,1.4,0.0,-0.5235987755982988,0,-0.31378517,-1.6103472,0.97390264,0.02130358,-0.19286369,1.0302473,1.2663347,0.39875433,-0.5801977,-0.4284725,0.070382394,-0.044015825,1.1058297,-1.4117218
-0.1,-0.1,1.4,0.0,-0.5235987755982988,0,-0.31394574,-1.6099353,0.962513,0.019200606,-0.095099255,1.2310282,0.58924264,0.40040874,-0.5810653,-0.4323089,0.058948033,-0.21704496,1.1886168,-0.67450005
-0.1,-0.1,1.4,0.0,-0.5235987755982988,0,-0.31341988,-1.6114357,0.95659703,0.018556412,-0.1536999,1.1012106,0.39433765,0.39999288,-0.57957244,-0.43616626,0.08625029,0.27106342,1.2337204,-0.4076349
-0.1,-0.1,1.4,0.0,-0.5235987755982988,0,-0.31332558,-1.6105554,0.9561692,0.012251111,-0.03938371,1.0572718,0.49935022,0.40125018,-0.5784498,-0.42801097,0.0618274,-0.033202447,1.2379847,-0.4744725
-0.1,-0.1,1.4,0.0,-0.5235987755982988,0,-0.3135017,-1.6095421,0.9713999,0.021074707,0.14078383,1.1343399,1.2494096,0.40290117,-0.5801367,-0.43078128,0.09229288,0.13759555,1.2472836,0.099173225
-0.1,-0.1,1.4,0.0,-0.5235987755982988,0,-0.3128891,-1.6105485,0.9778247,0.019842537,-0.22461656,1.0263233,1.5594654,0.40739605,-0.580097,-0.42780697,0.06454417,0.061393585,1.176965,-0.36858872
-0.1,-0.1,1.4,0.0,-0.5235987755982988,0,-0.3128634,-1.6105398,0.92739236,0.01388576,0.010325968,1.0609589,1.1093962,0.39789182,-0.57907265,-0.43332115,0.08495542,-0.08227856,1.113529,-0.94727504
-0.1,-0.1,1.4,0.0,-0.5235987755982988,0,-0.31281555,-1.609766,0.98038673,0.014226871,-0.012995996,1.2441698,0.5850719,0.40723783,-0.57807213,-0.43898118,0.070849665,0.038191933,1.2204622,1.5848674
-0.1,-0.1,1.4,0.0,-0.5235987755982988,0,-0.31247184,-1.6100228,0.96851933,0.020996824,0.025929937,1.0946786,1.3938944,0.40186536,-0.57856977,-0.4314044,0.0815407,0.2175605,1.1179665,-1.349629
-0.1,-0.1,1.4,0.0,-0.5235987755982988,0,-0.3150283,-1.6121749,0.9695853,0.02367131,-0.062494483,1.1666408,-0.6319779,0.39503205,-0.57938963,-0.43276954,0.07605768,0.13623324,1.1780119,-2.082353
-0.1,-0.1,1.4,0.0,-0.5235987755982988,0,-0.3134255,-1.611405,0.9593201,0.019215811,0.022115612,1.0288851,0.6436377,0.39979422,-0.5774079,-0.43523684,0.06564098,0.029509403,1.2020012,-0.28079197
-0.1,-0.1,1.4,0.0,-0.5235987755982988,0,-0.31345,-1.6122425,0.9622805,0.018546477,-0.14700723,1.1226224,0.54245657,0.40523505,-0.5785545,-0.4333651,0.08237269,0.06320687,1.2290634,-0.27662417
-0.1,-0.1,1.4,0.0,-0.5235987755982988,0,-0.3136741,-1.6121936,0.97735834,0.018145874,0.149762,1.0209235,0.04656364,0.40337852,-0.5797504,-0.42593703,0.06914858,0.13486019,1.0694649,0.41707152
-0.1,-0.1,1.4,0.0,-0.5235987755982988,0,-0.31281364,-1.6105249,0.97576624,0.024589881,-0.19442381,1.2042867,0.6490402,0.40514427,-0.5801474,-0.43135568,0.070071764,0.052668184,1.1239722,-0.7881412
-0.1,-0.1,1.4,0.0,-0.5235987755982988,0,-0.31311348,-1.6111552,0.96630967,0.019480104,-0.12719303,1.0697824,0.56333566,0.39648348,-0.578771,-0.4231984,0.07572376,-0.019177493,1.1114514,0.27351865
-0.1,-0.1,1.4,0.0,-0.5235987755982988,0,-0.31399345,-1.61127,0.9594722,0.018999606,0.033271816,1.1553906,0.46499315,0.40294564,-0.57888246,-0.43552947,0.09939931,0.109084144,1.1961447,-0.773804
-0.1,-0.1,1.4,0.0,-0.5235987755982988,0,-0.3133822,-1.6114583,0.985677,0.026119292,0.090101205,1.0969925,-0.10093411,0.40564194,-0.58021206,-0.43125483,0.082771555,0.046297148,1.1117264,-0.5864753
-0.1,-0.1,1.4,0.0,-0.5235987755982988,0,-0.31248555,-1.612533,0.9935882,0.01883692,-0.03262511,1.1511627,-0.10643044,0.4048021,-0.5782491,-0.4305911,0.075661555,0.1808056,1.1291549,0.9480039
-0.1,-0.1,1.4,0.0,-0.5235987755982988,0,-0.3137714,-1.6108503,0.95590925,0.018906463,-0.12055684,1.0406781,1.2239956,0.39844674,-0.5798868,-0.4307065,0.07859998,0.042701364,1.2094208,-0.7328429
-0.1,-0.1,1.4,0.0,-0.5235987755982988,0,-0.3133593,-1.6102571,0.971977,0.01959368,-0.15601632,1.263668,0.48349553,0.40290716,-0.5804272,-0.43144637,0.06502255,0.38154256,1.0981828,-0.78698474
-0.1,-0.1,1.4,0.0,-0.5235987755982988,0,-0.3129985,-1.6127136,0.9749297,0.019892698,-0.1720332,1.1498332,1.014259,0.40576676,-0.57857376,-0.43258312,0.06752273,0.038819037,1.175312,-0.04758493
-0.1,-0.1,1.4,0.0,-0.5235987755982988,0,-0.31489044,-1.6114376,0.97911483,0.015663614,-0.13306873,1.0864584,0.54078835,0.39934793,-0.57904994,-0.43206862,0.074886024,-0.13632725,1.1268733,-1.0922107
-0.1,-0.1,1.4,0.0,-0.5235987755982988,0,-0.31280765,-1.6109025,0.95677495,0.02367189,-0.036029164,1.1034999,-0.014924793,0.39934742,-0.5806038,-0.4278595,0.087114275,0.19153517,1.2376587,-0.3435112
-0.1,-0.1,1.4,0.0,-0.5235987755982988,0,-0.31342864,-1.6122477,0.9608811,0.023277275,-0.058194287,1.0895708,0.11219688,0.39972928,-0.57830846,-0.4300836,0.07338513,0.086277746,1.3836623,-1.6413846
-0.1,-0.1,1.4,0.0,-0.5235987755982988,0,-0.31288826,-1.6097014,0.9633994,0.027884347,-0.15452255,1.1410121,0.690756,0.40330788,-0.5789385,-0.43076593,0.06943658,0.16782846,1.2975141,-0.47235435
-0.1,-0.1,1.4,0.0,-0.5235987755982988,0,-0.31415877,-1.6102197,0.9752084,0.019120252,-0.025134329,1.2542971,-0.20274411,0.4038031,-0.5803105,-0.42733556,0.08091969,0.15595073,1.232797,-0.32626295
-0.1,-0.1,1.4,0.0,-0.5235987755982988,0,-0.3124712,-1.6108388,0.96707857,0.019606153,-0.048220664,1.1032284,0.41641313,0.39913908,-0.5784506,-0.4311992,0.083599545,-0.13926584,1.2273682,0.93171823
-0.1,-0.1,1.4,0.0,-0.5235987755982988,0,-0.31310117,-1.6110262,0.96837986,0.02537464,0.06179703,1.0042653,1.2083255,0.40434363,-0.5815327,-0.43171477,0.07270642,-0.030908901,1.2238045,0.34172845
-0.1,-0.1,1.4,0.0,-0.5235987755982988,0,-0.31372857,-1.6100521,0.98642784,0.022051636,0.17170385,1.066236,0.5602587,0.41158372,-0.5807709,-0.4322401,0.04376332,0.040183842,1.1794301,-1.8928827
-0.1,-0.1,1.4,0.0,-0.5235987755982988,0,-0.3131289,-1.6087509,0.9660679,0.018708725,-0.13900743,1.0637792,-0.04405189,0.4028935,-0.5808249,-0.42157182,0.045137145,0.044706862,1.2854536,-1.1570222
-0.1,-0.1,1.4,0.0,-0.5235987755982988,0,-0.31456763,-1.6094996,0.97722393,0.020604555,-0.014094917,1.1501279,0.22035581,0.39981332,-0.57918054,-0.43038628,0.059766587,0.28736556,1.2332789,-0.9030952
-0.1,-0.1,1.4,0.0,-0.5235987755982988,0,-0.31369025,-1.6116445,0.96298873,0.019005353,-0.20725495,1.0904781,1.4024858,0.40405467,-0.5793888,-0.42886165,0.05940757,-0.027947543,1.2507865,-0.66977555
-0.1,-0.1,1.4,0.0,-0.5235987755982988,0,-0.3138358,-1.6113858,0.94797605,0.015443237,-0.024318626,1.1412277,1.0536774,0.40516722,-0.5792853,-0.43053588,0.07312288,0.10786608,1.2902545,0.1299598
-0.1,-0.1,1.4,0.0,-0.5235987755982988,0,-0.31405628,-1.6112307,0.95849276,0.017368698,-0.07350532,1.1316395,0.5616524,0.40690377,-0.5799536,-0.43702853,0.06981907,0.017737368,1.2188978,-1.7253358
-0.1,-0.1,1.4,0.0,-0.5235987755982988,0,-0.31295714,-1.6126919,0.99607563,0.023867,0.080396965,1.2587609,0.24810016,0.40156636,-0.57733995,-0.43221745,0.082599714,0.16615763,1.0882932,0.06406259
-0.1,-0.1,1.4,0.0,-0.5235987755982988,0,-0.3131735,-1.6106339,0.9503125,0.019578973,-0.053837575,1.1623311,-0.2606684,0.40607005,-0.5817371,-0.43325734,0.07591061,-0.04390237,1.1880112,-1.1858524
-0.1,-0.1,1.4,0.0,-0.5235987755982988,0,-0.31307918,-1.6104372,0.94532335,0.02290666,-0.2415417,1.1105093,0.024134096,0.40105924,-0.57990026,-0.43090826,0.044771504,0.4875002,1.1510857,0.5791202
-0.1,-0.1,1.4,0.0,-0.5235987755982988,0,-0.3130936,-1.6115646,0.95649165,0.013434517,0.08331326,1.0173941,0.46022978,0.41137603,-0.5803452,-0.4277471,0.077501565,-0.06578562,1.146632,-1.62252
-0.1,-0.1,1.4,0.0,-0.5235987755982988,0,-0.31432793,-1.6121595,0.9836087,0.019007642,-0.21398997,1.2383236,0.6339174,0.40124714,-0.5796243,-0.4300978,0.07485207,-0.03590151,1.3426671,-0.49021778
-0.1,-0.1,1.4,0.0,-0.5235987755982988,0,-0.31307247,-1.6109405,0.94524103,0.018729532,0.04631505,1.1430416,1.1546882,0.39867994,-0.58094364,-0.4267699,0.09179097,0.07713921,1.2757744,0.82087654
-0.1,-0.1,1.4,0.0,-0.5235987755982988,0,-0.3123007,-1.6102247,0.9798573,0.019408928,0.06938634,1.2016654,0.686375,0.40587282,-0.57961994,-0.42994493,0.0808685,-0.043632798,1.0674882,1.4866798
-0.1,-0.1,1.4,0.0,-0.5235987755982988,0,-0.3135654,-1.6098131,0.9962533,0.021083765,0.0038964548,1.1380471,0.39894244,0.40298203,-0.5796972,-0.4287068,0.09139984,0.033630136,1.0878515,-0.72430974
-0.1,-0.1,1.4,0.0,-0.5235987755982988,0,-0.3129505,-1.6129354,0.9691396,0.019052668,-0.02369179,1.1382651,0.9291905,0.4005182,-0.5792798,-0.42291003,0.08509994,0.09187229,1.1750767,-0.22343947
-0.1,-0.1,1.4,0.0,-0.5235987755982988,0,-0.3136017,-1.6106302,0.96131015,0.017144678,0.06697608,1.1985809,0.51839805,0.40860903,-0.58117884,-0.4324014,0.085915275,-0.006649044,1.1814148,-0.183454
-0.1,-0.1,1.4,0.0,-0.5235987755982988,0,-0.31381854,-1.6092185,0.96327674,0.016449139,-0.2868575,1.0773886,0.3049649,0.39849228,-0.58077353,-0.43706477,0.07683794,0.19842331,1.22603,0.3363576
-0.1,-0.1,1.4,0.0,-0.5235987755982988,0,-0.31252843,-1.6106135,0.94936645,0.023324449,0.08577379,1.1106484,-0.1400394,0.3970257,-0.579494,-0.4305746,0.08801862,0.18244968,1.207364,-0.44586802
-0.1,-0.1,1.4,0.0,-0.5235987755982988,0,-0.31347737,-1.6113081,0.97490865,0.024992846,-0.14023331,1.0495045,1.2183186,0.40280718,-0.58060557,-0.4243877,0.06579003,0.0074259923,1.2128587,0.5860247
-0.1,-0.1,1.4,0.0,-0.5235987755982988,0,-0.31244117,-1.6118759,0.9647103,0.022686757,0.3361715,1.2023603,0.44380024,0.39861077,-0.57926667,-0.43525773,0.08769235,-0.13507663,1.1643267,0.074575976
-0.1,-0.1,1.4,0.0,-0.5235987755982988,0,-0.31266135,-1.6089907,0.95045656,0.01566715,-0.03027045,1.1231401,0.07101614,0.4070185,-0.58220834,-0.42369297,0.075374655,0.105405524,1.1188164,-0.05249744
-0.1,-0.1,1.4,0.0,-0.5235987755982988,0,-0.31274882,-1.6108547,0.9610242,0.014524639,0.1066773,1.0977129,-0.020310476,0.4068018,-0.5789098,-0.43125826,0.07925171,-0.05940011,1.1999549,0.39082196
-0.1,-0.1,1.4,0.0,-0.5235987755982988,0,-0.31370237,-1.610536,0.9588784,0.0127053,0.084891684,1.2358155,1.4511163,0.40880948,-0.5805838,-0.4293837,0.08200772,-0.28287712,1.2436413,0.32977992
-0.1,-0.1,1.4,0.0,-0.5235987755982988,0,-0.31322342,-1.6121203,0.96692467,0.015649172,-0.026252486,1.0535951,0.1498518,0.40478888,-0.57866675,-0.4312681,0.09237114,0.28870505,1.084048,-1.0025582
-0.1,-0.1,1.4,0.0,-0.5235987755982988,0,-0.31362218,-1.611283,0.9629488,0.018509353,0.061633497,1.1169347,-0.027146067,0.40581873,-0.5803242,-0.43186972,0.067051634,0.113097034,1.1203772,0.069478296
-0.1,-0.1,1.4,0.0,-0.5235987755982988,0,-0.31503937,-1.6108961,0.9755536,0.020319171,-0.22933887,1.189075,0.33953798,0.40602124,-0.5807777,-0.42936972,0.07477645,-0.118460484,1.189018,-0.43655884
-0.1,-0.1,1.4,0.0,-0.5235987755982988,0,-0.31466162,-1.6102457,0.9862669,0.021529866,-0.15603597,1.1289301,1.454574,0.40359336,-0.5799909,-0.43103087,0.06527255,0.1075805,1.0907983,-0.6258556
-0.1,-0.1,1.4,0.0,-0.5235987755982988,0,-0.3129557,-1.6125106,0.97330505,0.019501487,-0.07009712,1.1114223,0.3709481,0.40416694,-0.5792213,-0.42347524,0.084606856,0.22432095,1.1871501,-0.9820291
-0.1,-0.1,1.4,0.0,-0.5235987755982988,0,-0.31288588,-1.6109684,0.9565153,0.018439291,-0.03421823,1.1691505,1.0194001,0.40574658,-0.5809238,-0.43133533,0.10549109,0.1323611,1.1911819,0.40815276
-0.1,-0.1,1.4,0.0,-0.5235987755982988,0,-0.31223482,-1.6134098,0.97787845,0.014541725,-0.13015637,1.1421332,0.784584,0.40841684,-0.5741495,-0.4264057,0.045901548,0.1271632,1.1547344,-1.789759
-0.1,-0.1,1.4,0.0,-0.5235987755982988,0,-0.31367365,-1.612818,0.9627924,0.02242827,-0.044334155,1.093615,0.7639174,0.39939156,-0.57847095,-0.43327996,0.08159657,-0.19188726,1.2626902,-1.2823983
-0.1,-0.1,1.4,0.0,-0.5235987755982988,0,-0.31461507,-1.6105886,0.95841116,0.013602704,-0.025839549,1.0873079,0.67818946,0.40505284,-0.57974756,-0.4332956,0.073717445,-0.112325035,1.1614561,-0.90184265
-0.1,-0.1,1.4,0.0,-0.5235987755982988,0,-0.3119253,-1.6118978,0.96160483,0.022811007,-0.06612176,1.2434295,0.80026,0.40933216,-0.58019674,-0.44085553,0.07421767,0.038840365,1.171962,0.04110332
-0.1,-0.1,1.4,0.0,-0.5235987755982988,0,-0.31326312,-1.6099784,0.9702825,0.016938275,0.14944696,1.1609843,0.4871735,0.40455255,-0.58001333,-0.4270259,0.06920958,-0.048553433,1.2421776,0.2724816
-0.1,-0.1,1.4,0.0,-0.5235987755982988,0,-0.31312704,-1.6105422,0.9647396,0.020775497,-0.049849395,1.154343,0.8471103,0.40139565,-0.5804864,-0.43389642,0.080941044,0.07765813,1.0652282,-2.0012388
-0.1,-0.1,1.4,0.0,-0.5235987755982988,0,-0.31437778,-1.6108646,0.9775146,0.016852664,-0.18991034,1.1010836,0.67526436,0.4043929,-0.5798505,-0.4345375,0.09502861,0.099889606,1.1681669,-1.1650906
-0.1,-0.1,1.4,0.0,-0.5235987755982988,0,-0.31394383,-1.6112821,0.9890638,0.020150777,-0.16555913,1.150051,0.27708486,0.40887216,-0.58022463,-0.43338946,0.064524405,0.19890897,1.0773947,1.7448843
-0.1,-0.1,1.4,0.0,-0.5235987755982988,0,-0.31185743,-1.610771,0.9539342,0.020888539,0.0136264125,1.1800227,0.054569248,0.40508112,-0.580077,-0.43598813,0.07902887,0.21742696,1.085657,-2.0647657
-0.1,-0.1,1.4,0.0,-0.5235987755982988,0,-0.31242362,-1.6114529,0.95957434,0.02436204,-0.12020821,1.113551,1.0757333,0.41008493,-0.5807859,-0.4290057,0.07988858,0.07903717,1.2097087,-0.73961574
-0.1,-0.1,1.4,0.0,-0.5235987755982988,0,-0.31350964,-1.6108674,0.9688388,0.02097101,-0.000871798,1.2407749,1.5379144,0.40022388,-0.5807771,-0.42765677,0.09028156,0.0430228,1.1802604,-0.17633633
-0.1,-0.1,1.4,0.0,-0.5235987755982988,0,-0.3113517,-1.6113257,0.9385759,0.019793492,0.12535536,1.1514825,0.91768324,0.40995917,-0.5801847,-0.42887077,0.07912137,0.11703406,1.218916,0.90596247
-0.1,-0.1,1.4,0.0,-0.5235987755982988,0,-0.3128107,-1.6115925,0.95904005,0.021201035,0.06835857,1.1146626,0.7186058,0.4079066,-0.5810551,-0.43155208,0.081967615,-0.009525782,1.1795386,-0.66691077
-0.1,-0.1,1.4,0.0,-0.5235987755982988,0,-0.31142682,-1.6099987,0.98195887,0.021543888,-0.26950562,1.097268,0.3981215,0.40322125,-0.57968485,-0.4272326,0.08765539,0.11887101,1.1838437,-0.1582617
-0.1,-0.1,1.4,0.0,-0.5235987755982988,0,-0.31381533,-1.6112951,0.96243733,0.01646755,-0.08545193,1.0491128,0.74778914,0.40118095,-0.57888615,-0.4318396,0.07191421,0.11378914,1.2012613,-0.92221206
-0.1,-0.1,1.4,0.0,-0.5235987755982988,0,-0.3136011,-1.6116838,0.9781825,0.017988792,-0.16982757,1.1349871,1.9971443,0.4046411,-0.57879454,-0.4367953,0.07157324,-0.0329618,1.0582734,-1.1811326
-0.1,-0.1,1.4,0.0,-0.5235987755982988,0,-0.3138713,-1.6108563,0.9595871,0.01686215,-0.09364617,1.0655116,0.7896333,0.39999026,-0.5806495,-0.4319281,0.06548086,-0.09138563,1.2145377,-0.688189
-0.1,-0.1,1.4,0.0,-0.5235987755982988,0,-0.31304297,-1.6115391,0.9736297,0.022619696,0.03577089,1.140435,1.2137384,0.40175548,-0.57964325,-0.43020964,0.08138779,-0.01774327,1.145809,0.025036056
-0.1,-0.1,1.4,0.0,-0.5235987755982988,0,-0.31490073,-1.610833,0.9735571,0.018475952,0.16280952,1.2135639,-0.05490176,0.40258092,-0.57937706,-0.44021195,0.0627509,0.13209596,1.3572958,-0.33112648
-0.1,-0.1,1.4,0.0,-0.5235987755982988,0,-0.31416592,-1.6108091,0.9733664,0.019059164,-0.10876492,1.1840283,-0.3598935,0.40094545,-0.57979655,-0.4254928,0.10541356,0.09959386,1.142987,-0.1998677
-0.1,-0.1,1.4,0.0,-0.5235987755982988,0,-0.31222388,-1.6134971,0.9758666,0.026566759,-0.01385164,1.0944874,0.28942284,0.40759996,-0.57977813,-0.42642286,0.061626956,0.02251662,1.2416372,-0.25584024
-0.1,-0.1,1.4,0.0,-0.5235987755982988,0,-0.31376788,-1.6117661,0.9525311,0.017439254,0.022753067,1.0906478,1.04294,0.40460873,-0.58053076,-0.43610227,0.09097096,-0.047144778,1.2112498,0.22141385
-0.1,-0.1,1.4,0.0,-0.5235987755982988,0,-0.31398752,-1.6100205,0.9788126,0.019862814,0.14044349,1.1652249,0.039936997,0.4011068,-0.58160573,-0.42717722,0.08633196,-0.08717944,1.2355503,-0.28878146
-0.1,-0.1,1.4,0.0,-0.5235987755982988,0,-0.31398657,-1.612231,0.97520524,0.022928117,-0.06600875,1.1390014,1.5301372,0.40468466,-0.5803039,-0.42674088,0.07228986,0.08991007,1.1537379,-0.8889581
-0.1,-0.1,1.4,0.0,-0.5235987755982988,0,-0.31286973,-1.6103185,0.96821827,0.02435101,0.05792388,1.1801716,0.4092236,0.4039338,-0.5783668,-0.43984324,0.07781008,-0.13514747,1.1829457,-0.98533386
-0.1,-0.1,1.4,0.0,-0.5235987755982988,0,-0.3128135,-1.6122355,0.9401044,0.016185822,-0.018380748,1.080289,1.0980197,0.4120302,-0.5812079,-0.4303752,0.06258644,0.06728206,1.3077451,1.6776345
-0.1,-0.1,1.4,0.0,-0.5235987755982988,0,-0.3137009,-1.6125135,0.98254085,0.023302853,-0.11918834,1.2129664,0.63732636,0.4012245,-0.57944876,-0.430898,0.08909701,0.23190422,1.2713546,-1.133249
-0.1,-0.1,1.4,0.0,-0.5235987755982988,0,-0.31335405,-1.609893,0.98271936,0.018328229,-0.19803067,1.1770283,0.5219686,0.4062872,-0.5808903,-0.43005306,0.060289774,0.07936413,1.1465883,-1.503918
-0.1,-0.1,1.4,0.0,-0.5235987755982988,0,-0.31212723,-1.6118498,0.9848362,0.018339412,0.18387169,1.0775591,-0.8182181,0.40006512,-0.57840556,-0.4265598,0.09033184,0.26970562,1.2233365,-0.41318563
-0.1,-0.1,1.4,0.0,-0.5235987755982988,0,-0.3139558,-1.6123017,0.95060563,0.022993606,-0.115630366,1.1610944,0.30876473,0.41108406,-0.58110636,-0.43101984,0.07367793,0.17533994,1.2670289,-0.089216925
-0.1,-0.1,1.4,0.0,-0.5235987755982988,0,-0.31347284,-1.6097592,0.9926894,0.015778594,-0.062357944,1.112628,0.48661828,0.4059101,-0.5804556,-0.42947635,0.085204355,0.13949317,1.1579741,-1.0119272
-0.1,-0.1,1.4,0.0,-0.5235987755982988,0,-0.3144919,-1.6112452,0.9686806,0.018507367,-0.08470113,1.1563665,1.3188478,0.4012757,-0.5812986,-0.43423197,0.06329092,0.22062412,1.2115623,-0.59740055
-0.1,-0.1,1.4,0.0,-0.5235987755982988,0,-0.31329706,-1.6119845,0.9635214,0.022028517,-0.08709834,1.1774058,1.0810707,0.40229818,-0.58107406,-0.42387807,0.10388171,-0.2801644,1.2693179,-1.1189454
-0.1,-0.1,1.4,0.0,-0.5235987755982988,0,-0.3116675,-1.6108218,0.9521694,0.01164349,-0.061033078,1.1898657,0.8814857,0.39846742,-0.5770535,-0.4348547,0.0819497,0.08072504,1.1607643,-0.6931752
-0.1,-0.1,1.4,0.0,-0.5235987755982988,0,-0.31240192,-1.6111202,0.969299,0.023799822,0.025108417,1.141034,1.0828878,0.40764654,-0.57949275,-0.4297042,0.07071441,-0.01836196,1.1694157,0.0664775
-0.1,-0.1,1.4,0.0,-0.5235987755982988,0,-0.31139642,-1.6118107,0.9837463,0.01922979,0.013593156,1.1622045,0.33858246,0.40677097,-0.5801171,-0.4270974,0.07849893,-0.09009812,1.1556482,-0.56958795
-0.1,-0.1,1.4,0.0,-0.5235987755982988,0,-0.314058,-1.6108655,0.97270036,0.018888028,0.1893496,1.0870737,1.2592613,0.4041111,-0.58127475,-0.436686,0.061292205,-0.03297412,1.1753491,-1.0854763
-0.1,-0.1,1.4,0.0,-0.5235987755982988,0,-0.31289697,-1.610642,0.9730298,0.017902551,0.05772483,1.1115423,0.74674714,0.40371925,-0.5792551,-0.43356997,0.089221045,0.039462745,1.3254466,-0.8685819
-0.1,-0.1,1.4,0.0,-0.5235987755982988,0,-0.31203485,-1.6105484,0.9718438,0.021688454,-0.02342464,1.1625067,0.40423602,0.4075959,-0.5808063,-0.43542892,0.08224518,0.12517495,1.1370833,-0.5840151
-0.1,-0.1,1.4,0.0,-0.5235987755982988,0,-0.3142395,-1.6115752,0.96437305,0.019277124,0.08825527,1.10429,0.16688952,0.4000466,-0.57902664,-0.4330141,0.086734176,-0.0020775357,1.2375442,-0.21438652
-0.1,-0.1,1.4,0.0,-0.5235987755982988,0,-0.3135856,-1.6132305,0.97339886,0.019531753,-0.048596647,1.1600367,0.24326406,0.40120775,-0.5801869,-0.42592564,0.073146746,-0.09245422,1.2497575,-2.103407
-0.1,-0.1,1.4,0.0,-0.5235987755982988,0,-0.31351545,-1.611963,0.9480697,0.016564745,0.05768378,1.0892864,0.34247994,0.39970788,-0.5781654,-0.4369668,0.0821099,-0.0018122393,1.2316626,0.03514705
-0.1,-0.1,1.4,0.0,-0.5235987755982988,0,-0.31329876,-1.6126332,0.9648333,0.017016677,-0.10864387,0.9909803,0.14205265,0.39846963,-0.5799686,-0.42265916,0.07339099,0.02463997,1.20178,-1.5642245
-0.1,-0.1,1.4,0.0,-0.5235987755982988,0,-0.3131071,-1.6111896,0.95526093,0.015035597,-0.042979237,1.0645901,1.4702554,0.40441525,-0.5805031,-0.4342304,0.092871614,0.1868804,1.2043003,-0.604672
-0.1,-0.1,1.4,0.0,-0.5235987755982988,0,-0.31270802,-1.6109034,0.9842464,0.021999814,0.04753434,1.0903543,0.6817746,0.411419,-0.5821331,-0.42557245,0.0655928,0.37508056,1.1431111,0.092010535
-0.1,-0.1,1.4,0.0,-0.5235987755982988,0,-0.3122587,-1.6095268,0.9649426,0.019028656,-0.07084485,1.2138139,1.1990759,0.40736336,-0.58179605,-0.43178275,0.08347272,0.020902421,1.2963175,-0.23297143
-0.1,-0.1,1.4,0.0,-0.5235987755982988,0,-0.31328547,-1.61072,0.97314805,0.018804532,-0.0024520268,1.0958244,0.92359215,0.40268725,-0.58145225,-0.43282995,0.09076364,-0.024766788,1.3486441,-1.470937
-0.1,-0.1,1.4,0.0,-0.5235987755982988,0,-0.3126596,-1.6101687,0.97359645,0.018756036,-0.017736243,1.2219704,0.904762,0.40704438,-0.58096355,-0.4291177,0.059264258,-0.19217409,1.175532,0.32741728
-0.1,-0.1,1.4,0.0,-0.5235987755982988,0,-0.31464761,-1.6116754,0.95976555,0.012954745,0.063688844,1.1430014,0.5966665,0.3984058,-0.5782381,-0.43730482,0.038074747,-0.033688854,1.2327757,0.22738366
-0.1,-0.1,1.4,0.0,-0.5235987755982988,0,-0.3130467,-1.6112324,0.9609141,0.01752551,-0.028376361,1.1656677,0.52856976,0.3934551,-0.57987547,-0.43282533,0.065539405,-0.20095453,1.1006685,-1.233766
-0.1,-0.1,1.4,0.0,-0.5235987755982988,0,-0.31395212,-1.6108073,0.97674716,0.0072814133,-0.08397543,1.150505,0.20245525,0.40721747,-0.5803017,-0.43418527,0.101785034,-0.12347172,1.143256,-1.9319996
-0.1,-0.1,1.4,0.0,-0.5235987755982988,0,-0.3121967,-1.6122493,0.9721342,0.021266632,-0.026824042,1.1944506,0.32742813,0.40714997,-0.580802,-0.4324153,0.04041854,0.27988586,1.1592999,-0.91748804
-0.1,-0.1,1.4,0.0,-0.5235987755982988,0,-0.31139705,-1.6114975,0.9464681,0.020146605,-0.14136668,1.1611259,0.14732106,0.40183416,-0.5797211,-0.42852947,0.06362435,0.006490096,1.1325687,0.6383787
-0.1,-0.1,1.4,0.0,-0.5235987755982988,0,-0.31261238,-1.610719,0.9779399,0.023883143,-0.15953393,1.0761727,1.5133716,0.39940518,-0.5810183,-0.43673685,0.076494455,-0.041188516,1.3067602,1.5111231
-0.1,-0.1,1.4,0.0,-0.5235987755982988,0,-0.31288207,-1.6110549,0.9664536,0.019816691,0.036368802,1.1614982,0.33993673,0.40173844,-0.5801609,-0.42745075,0.080517486,0.09535975,1.253051,-1.5340713
-0.1,-0.1,1.4,0.0,-0.5235987755982988,0,-0.31196427,-1.610193,0.9886178,0.024147771,-0.09024074,1.0969951,0.12596424,0.39937738,-0.5808898,-0.43062744,0.067499734,-0.1589954,1.081162,1.7672381
-0.1,-0.1,1.4,0.0,-0.5235987755982988,0,-0.3132242,-1.6130742,0.9815758,0.016418993,0.004377328,1.024043,0.89009815,0.39624423,-0.5800402,-0.42628732,0.08035233,0.21654747,1.2640132,-0.20281014
-0.1,-0.1,1.4,0.0,-0.5235987755982988,0,-0.313176,-1.6103576,0.9572582,0.015621936,-0.16380541,1.159423,-0.08856693,0.39317572,-0.580711,-0.43344033,0.06711226,-0.13920414,1.2331764,-0.33968174
-0.1,-0.1,1.4,0.0,-0.5235987755982988,0,-0.31252018,-1.6111141,0.96599233,0.020038987,0.18682645,1.123218,-0.016577661,0.39643788,-0.5807929,-0.4297695,0.06445919,0.029671991,1.1637881,-0.87782776
-0.1,-0.1,1.4,0.0,-0.5235987755982988,0,-0.313898,-1.6129609,0.97987866,0.017992565,-0.18357651,1.0848294,0.5540211,0.4092802,-0.58141965,-0.4364675,0.088408954,0.39872462,1.1835253,0.9909024
-0.1,-0.1,1.4,0.0,-0.5235987755982988,0,-0.31370103,-1.6112827,0.9813341,0.017685048,-0.16412017,1.1143185,0.5092716,0.40552932,-0.5824777,-0.43079063,0.075152464,0.28709978,1.1958109,-1.1621404
-0.1,-0.1,1.4,0.0,-0.5235987755982988,0,-0.31346872,-1.6131704,0.9729424,0.013315467,-0.20224372,1.2813002,1.5050968,0.40276575,-0.57969713,-0.4314889,0.08900276,0.1594776,1.1767788,-1.180511
-0.1,-0.1,1.4,0.0,-0.5235987755982988,0,-0.31299412,-1.6105027,0.97707963,0.014977281,-0.053419553,1.1328474,0.3213229,0.40002927,-0.5788094,-0.43566194,0.071910456,0.27262694,1.2459593,-0.9406828
-0.1,-0.1,1.4,0.0,-0.5235987755982988,0,-0.31308022,-1.6122053,0.9550172,0.015028749,-0.10252777,1.0057309,-0.113814905,0.40496728,-0.58077097,-0.42569458,0.06812959,0.07550414,1.1869996,0.1420364
-0.1,-0.1,1.4,0.0,-0.5235987755982988,0,-0.31322655,-1.6108216,0.99536604,0.014917382,-0.10024016,1.0944543,0.45817885,0.40820962,-0.58067846,-0.43480045,0.09498109,0.036441937,1.3792417,-0.28830272
-0.1,-0.1,1.4,0.0,-0.5235987755982988,0,-0.3129829,-1.6114489,0.9680727,0.01697922,0.008077364,1.1740892,0.3928487,0.4008096,-0.5791573,-0.43443927,0.068919696,-0.07380072,1.2160556,0.45828065
-0.1,-0.1,1.4,0.0,-0.5235987755982988,0,-0.31465828,-1.6115341,0.94778377,0.01896917,0.02632532,1.107103,0.6739889,0.406054,-0.5813711,-0.44165984,0.09158786,-0.034152277,1.2945384,-0.85382
-0.1,-0.1,1.4,0.0,-0.5235987755982988,0,-0.31313193,-1.6116227,0.9661479,0.020451805,-0.043756854,1.184233,1.3378085,0.4130104,-0.5805472,-0.43645155,0.07239837,-0.092308626,1.2724165,-2.2244625
-0.1,-0.1,1.4,0.0,-0.5235987755982988,0,-0.31407183,-1.612628,0.97930044,0.02635976,-0.187717,1.1198759,0.4404547,0.40128285,-0.5796717,-0.4364582,0.054747887,-0.042653475,1.2583281,-0.43804145
-0.1,-0.1,1.4,0.0,-0.5235987755982988,0,-0.31180194,-1.6096779,0.9827649,0.021317478,0.12473063,1.1643318,0.5718438,0.40154228,-0.5815507,-0.4319162,0.05810792,0.03329507,1.1495248,-2.071774
-0.1,-0.1,1.4,0.0,-0.5235987755982988,0,-0.31424883,-1.61194,0.97933215,0.01963062,-0.093288794,1.0769079,0.81108147,0.40615502,-0.5836707,-0.4259054,0.0876162,0.024220588,1.1750902,1.6345733
-0.1,-0.1,1.4,0.0,-0.5235987755982988,0,-0.3120174,-1.6114382,0.96274304,0.018418603,0.21669076,1.1456375,0.8536352,0.4036437,-0.58162105,-0.42166725,0.087348185,0.008784693,1.2048186,0.3281717
-0.1,-0.1,1.4,0.0,-0.5235987755982988,0,-0.31314072,-1.6133024,0.97437024,0.022136169,0.23804393,1.0824083,0.5537489,0.39969334,-0.5809263,-0.43691766,0.0636752,-0.050326485,1.2296869,-0.40834785
-0.1,-0.1,1.4,0.0,-0.5235987755982988,0,-0.313848,-1.6109262,0.9652971,0.017717062,-0.14294252,1.1635406,0.44474006,0.39904708,-0.5798502,-0.43490115,0.05011151,-0.0026784565,1.2423339,-2.1041257
-0.1,-0.1,1.4,0.0,-0.5235987755982988,0,-0.31355667,-1.6111861,0.96020216,0.021596571,0.02799694,1.1228427,0.8957353,0.39682803,-0.58102643,-0.4242326,0.05725245,0.13599786,1.2207582,-0.5404857
-0.1,-0.1,1.4,0.0,-0.5235987755982988,0,-0.31331402,-1.6117337,0.9727199,0.015593396,-0.0605892,1.1108842,-0.0902756,0.4063286,-0.5813706,-0.42924553,0.09256512,-0.030779904,1.2448139,-1.0139018
-0.1,-0.1,1.4,0.0,-0.5235987755982988,0,-0.31348804,-1.6106304,0.97476226,0.012146421,-0.14531438,1.1068704,0.53457785,0.40253344,-0.5810309,-0.42950317,0.08356571,-0.031208675,1.1621002,-1.0813233
-0.1,-0.1,1.4,0.0,-0.5235987755982988,0,-0.31359452,-1.6116828,0.9837612,0.018445736,0.040494252,1.2020588,1.8120868,0.40206367,-0.58143723,-0.43699378,0.066690326,0.08682286,1.2531515,-0.13282813
-0.1,-0.1,1.4,0.0,-0.5235987755982988,0,-0.31326574,-1.6146399,0.9812908,0.019750247,-0.11328327,1.1709914,-0.3822579,0.40710884,-0.58164656,-0.43405822,0.091817394,0.12143682,1.1877996,-1.1302445
-0.1,-0.1,1.4,0.0,-0.5235987755982988,0,-0.31322163,-1.6105493,0.93751407,0.014764198,0.13110052,1.1903807,-0.24081385,0.4029445,-0.5802763,-0.43489328,0.0689738,0.023973221,1.2388806,-0.19374628
-0.1,-0.1,1.4,0.0,-0.5235987755982988,0,-0.31317276,-1.6102898,0.98884535,0.0192639,-0.039397895,1.031143,1.372913,0.40120775,-0.5811254,-0.43531704,0.072345115,-0.055111837,1.3747019,-2.1778126
-0.1,-0.1,1.4,0.0,-0.5235987755982988,0,-0.31340635,-1.6126083,0.95902336,0.014892385,-0.027732579,1.1647301,0.82070106,0.40514925,-0.5791766,-0.42549112,0.067346305,-0.100666195,1.1960129,-2.7941122
-0.1,-0.1,1.4,0.0,-0.5235987755982988,0,-0.3133802,-1.6113416,0.9436827,0.022759974,0.13489264,1.1148782,0.56173676,0.41332433,-0.5758872,-0.4346735,0.082015224,0.036780197,1.1942195,-0.44146824
-0.1,-0.1,1.4,0.0,-0.5235987755982988,0,-0.31224608,-1.6120634,0.9631924,0.025332732,-0.18552972,1.1737063,0.4058469,0.41684932,-0.57497,-0.4314224,0.07007212,0.029144028,1.1978512,-0.65103334
-0.1,-0.1,1.4,0.0,-0.5235987755982988,0,-0.3131184,-1.6100048,0.994264,0.020077316,-0.068470076,1.198591,0.13358395,0.4058778,-0.5753474,-0.43237725,0.07044849,0.13430054,1.1275796,-0.61007065
-0.1,-0.1,1.4,0.0,-0.5235987755982988,0,-0.31419584,-1.6099178,0.9651539,0.016949933,0.025619926,1.035945,0.41262865,0.40510106,-0.57558167,-0.43149424,0.075679034,0.1616784,1.2699287,-0.96457505
-0.1,-0.1,1.4,0.0,-0.5235987755982988,0,-0.31373224,-1.6106623,0.9614222,0.021337178,0.016374411,1.0853814,0.54004365,0.4073075,-0.5762041,-0.43236086,0.0774396,0.10241664,1.1298282,1.1045034
-0.1,-0.1,1.4,0.0,-0.5235987755982988,0,-0.31505758,-1.6128207,0.94236803,0.01360143,0.06422779,1.2073944,0.40696207,0.40468994,-0.5772982,-0.42557114,0.060252108,-0.071309626,1.2622688,-1.1268988
-0.1,-0.1,1.4,0.0,-0.5235987755982988,0,-0.31398365,-1.61034,0.96850884,0.02144001,-0.0057557365,1.1367506,0.82674354,0.40764827,-0.5776339,-0.4295205,0.05961809,0.06988369,1.0578854,-0.33496863
-0.1,-0.1,1.4,0.0,-0.5235987755982988,0,-0.3149716,-1.6120799,0.9913834,0.027636401,-0.11495602,1.1331717,0.0038121303,0.40625244,-0.5763707,-0.43452075,0.07996878,0.2506738,1.2795461,-0.61333925
-0.1,-0.1,1.4,0.0,-0.5235987755982988,0,-0.31364566,-1.6115161,0.97888917,0.018815499,-0.24248761,1.1506174,-0.078843325,0.41243744,-0.57924145,-0.42538688,0.09499593,0.19402792,1.3108116,-1.5877888
-0.1,-0.1,1.4,0.0,-0.5235987755982988,0,-0.31242344,-1.6108634,0.9776216,0.021528808,-0.18679085,1.2620455,0.9229463,0.4080879,-0.5739581,-0.42402786,0.052463785,0.03087156,1.2058414,1.3513287
-0.1,-0.1,1.4,0.0,-0.5235987755982988,0,-0.31548864,-1.6103573,0.9454227,0.02357112,0.112978145,1.1628925,1.2582781,0.40044403,-0.5796838,-0.4275085,0.067378856,-0.010058816,1.0833896,-0.85850877
-0.1,-0.1,1.4,0.0,-0.5235987755982988,0,-0.3136065,-1.611306,0.940677,0.025455631,0.012913695,1.0961308,0.4488417,0.40692225,-0.57912177,-0.4303758,0.08541154,-0.2966833,1.2093102,0.7523178
-0.1,-0.1,1.4,0.0,-0.5235987755982988,0,-0.31262165,-1.6099589,0.9531041,0.017268457,-0.25346947,1.1877767,0.24457149,0.40769815,-0.57699317,-0.43453902,0.08199882,-0.00035962273,1.0787209,0.63962024
-0.1,-0.1,1.4,0.0,-0.5235987755982988,0,-0.31331843,-1.6089501,0.92984384,0.024247147,-0.13738534,1.1424061,0.042618994,0.40270647,-0.5796631,-0.42545542,0.05822068,0.16138788,1.2682732,1.9979755
-0.1,-0.1,1.4,0.0,-0.5235987755982988,0,-0.31604958,-1.6106794,0.92658204,0.013859387,-0.11548611,1.2139903,0.02195681,0.40635943,-0.5808076,-0.4253357,0.079888545,0.17554927,1.2731333,-0.50575894
-0.1,-0.1,1.4,0.0,-0.5235987755982988,0,-0.31376615,-1.6120588,0.9602838,0.017963314,-0.066670075,1.0521226,0.23825558,0.40356708,-0.5802145,-0.43459204,0.081577614,0.18413483,1.0601511,-2.510571
-0.1,-0.1,1.4,0.0,-0.5235987755982988,0,-0.31374982,-1.6103798,0.9372123,0.021577187,-0.2637697,1.0709316,1.0223045,0.4020596,-0.579782,-0.43274435,0.07359839,0.14413348,1.0560565,1.2090564
-0.1,-0.1,1.4,0.0,-0.5235987755982988,0,-0.3140289,-1.6107719,0.9895811,0.014526233,-0.002707921,1.095513,0.95976746,0.41425186,-0.57407624,-0.4360943,0.055912603,0.28271255,1.3001956,-1.0864153
-0.1,-0.1,1.4,0.0,-0.5235987755982988,0,-0.3140154,-1.6104535,0.9679686,0.021978017,-0.12744218,1.0629623,0.925866,0.40192917,-0.5775219,-0.4309384,0.0727069,0.031271864,1.2427925,0.43911582
-0.1,-0.1,1.4,0.0,-0.5235987755982988,0,-0.31210905,-1.6118371,0.9629922,0.015560731,0.19877689,1.1624333,0.37484318,0.40468335,-0.57963294,-0.4282015,0.07171435,-0.08108155,1.0093577,-1.7967033
-0.1,-0.1,1.4,0.0,-0.5235987755982988,0,-0.31432706,-1.6090353,0.96925133,0.015108968,0.10536116,1.0933574,0.6184356,0.40513694,-0.5785577,-0.4313202,0.069018595,0.1829449,1.14489,-0.4016212
-0.1,-0.1,1.4,0.0,-0.5235987755982988,0,-0.31322035,-1.6102719,0.9675964,0.018152822,-0.1258793,1.0542779,0.26179403,0.40557295,-0.5778497,-0.43058515,0.061818358,0.15337966,1.2280167,-1.6436996
-0.1,-0.1,1.4,0.0,-0.5235987755982988,0,-0.31375375,-1.610063,0.9741314,0.02579096,-0.10091039,1.154067,0.11923624,0.40668333,-0.58000666,-0.43056107,0.0584612,0.34661186,1.2312214,-1.3843962
-0.1,-0.1,1.4,0.0,-0.5235987755982988,0,-0.31211329,-1.6112511,0.97379965,0.017489107,-0.009693117,1.1896505,0.5062222,0.40495706,-0.5724614,-0.43362978,0.06960118,-0.016493745,1.0945853,-1.4639479
-0.1,-0.1,1.4,0.0,-0.5235987755982988,0,-0.31374982,-1.6117842,0.9749056,0.025847357,-0.04656843,1.1804671,0.9761538,0.4099096,-0.58105445,-0.43572962,0.057915628,-0.24425723,1.1754292,-0.7185683
-0.1,-0.1,1.4,0.0,-0.5235987755982988,0,-0.31418064,-1.6125773,0.9804419,0.02160497,-0.025221791,1.2001686,-0.039830875,0.40172416,-0.5776088,-0.4296803,0.08545981,0.12410065,1.136806,0.36702532
-0.1,-0.1,1.4,0.0,-0.5235987755982988,0,-0.31553534,-1.6128788,0.957398,0.017682739,-0.0032494594,1.0807357,0.853459,0.4035307,-0.5802863,-0.43014327,0.07774683,0.12939551,0.9583534,0.3883781
-0.1,-0.1,1.4,0.0,-0.5235987755982988,0,-0.31325284,-1.6091343,0.95992255,0.024117745,0.079566024,1.1235783,0.62984157,0.4075882,-0.58079517,-0.43184978,0.07765254,0.14672738,1.1779948,-0.9276653
-0.1,-0.1,1.4,0.0,-0.5235987755982988,0,-0.31333038,-1.610892,0.95379794,0.025983298,-0.023319937,1.0238401,0.28768134,0.40420377,-0.58010507,-0.43371823,0.07242169,0.13427168,1.1686962,0.17172453
-0.1,-0.1,1.4,0.0,-0.5235987755982988,0,-0.3128569,-1.6115923,0.96819323,0.022171505,-0.12880802,1.1452147,0.3936568,0.40287024,-0.57957554,-0.43093413,0.07797713,0.06385089,1.1978209,-0.3888172
-0.1,-0.1,1.4,0.0,-0.5235987755982988,0,-0.31516165,-1.6120949,0.9349864,0.017120391,-0.22619796,1.1282388,0.8436648,0.40416643,-0.5802547,-0.43571532,0.073448,0.18217786,1.2583119,-0.38085443
-0.1,-0.1,1.4,0.0,-0.5235987755982988,0,-0.31281003,-1.6113647,0.9578362,0.017449174,-0.10649954,1.2324281,0.20200753,0.4038531,-0.58007723,-0.42907238,0.070661694,0.1811742,1.2070622,0.074418515
-0.1,-0.1,1.4,0.0,-0.5235987755982988,0,-0.31291017,-1.6108118,0.9712305,0.01891733,0.0003116681,1.2338758,-0.51365936,0.40549326,-0.57768846,-0.43633023,0.09680428,0.34595293,1.0945185,1.2938029
-0.1,-0.1,1.4,0.0,-0.5235987755982988,0,-0.3144163,-1.6102619,0.9697056,0.02076597,0.041343033,1.1586447,0.5115001,0.4093942,-0.58048487,-0.43695524,0.076622985,-0.04203935,1.3768569,0.6339577
-0.1,-0.1,1.4,0.0,-0.5235987755982988,0,-0.3143574,-1.6096815,0.9538128,0.018035877,0.041291114,1.1223897,1.0291657,0.40646443,-0.5788298,-0.43613783,0.07933907,0.059445623,1.1794037,-1.1757972
-0.1,-0.1,1.4,0.0,-0.5235987755982988,0,-0.31250042,-1.6109258,0.9724674,0.019769808,-0.195114,1.1234555,-0.08233005,0.4117564,-0.58215135,-0.4343756,0.057765882,-0.18600795,1.2695954,-2.1391585
-0.1,-0.1,1.4,0.0,-0.5235987755982988,0,-0.31166968,-1.6096116,0.9672492,0.009720634,-0.026034668,1.1111712,0.863987,0.4074464,-0.57517993,-0.42778552,0.07787304,-0.09635171,1.2580457,-0.1518563
-0.1,-0.1,1.4,0.0,-0.5235987755982988,0,-0.31528425,-1.6101913,0.97596073,0.015287013,-0.111248456,1.0362629,0.7958606,0.40531048,-0.5804328,-0.42960936,0.08384283,0.13832915,1.0512569,-0.76515174
-0.1,-0.1,1.4,0.0,-0.5235987755982988,0,-0.31233895,-1.6097425,0.9865502,0.022234906,-0.112192005,1.0773971,1.0808128,0.40321434,-0.5767606,-0.43786466,0.07524367,0.11191763,1.1947744,-0.88424987
-0.1,-0.1,1.4,0.0,-0.5235987755982988,0,-0.31420326,-1.6126406,0.96601987,0.015876994,0.028701661,1.2290035,-0.367574,0.40443167,-0.5789684,-0.42568776,0.04868595,0.13835041,1.1593251,-0.8853099
-0.1,-0.1,1.4,0.0,-0.5235987755982988,0,-0.31451222,-1.6099433,0.9560517,0.017768506,-0.12221651,1.195182,0.35758847,0.40556085,-0.58021,-0.44080448,0.08003745,0.13654642,1.2671418,-1.1288908
-0.1,-0.1,1.4,0.0,-0.5235987755982988,0,-0.3137907,-1.6109734,0.96750855,0.024800599,0.04615036,1.0634147,1.2343417,0.4020872,-0.5806921,-0.42875436,0.08225575,0.06812635,1.2109264,-0.47644657
-0.1,-0.1,1.4,0.0,-0.5235987755982988,0,-0.3138496,-1.6119457,0.9716711,0.023749342,0.13086163,1.1058818,0.6719824,0.40497503,-0.5797126,-0.43728444,0.068069935,0.064532444,1.2053783,-0.23734483
-0.1,-0.1,1.4,0.0,-0.5235987755982988,0,-0.31285018,-1.6105206,0.9875718,0.021096721,-0.002189344,1.1477368,0.5582088,0.40457168,-0.57924527,-0.43291757,0.059182853,-0.03244557,1.1645894,-1.321834
-0.1,-0.1,1.4,0.0,-0.5235987755982988,0,-0.31334454,-1.6117864,0.9560452,0.020080378,0.1124823,1.1493604,-0.1180353,0.40378195,-0.580827,-0.43649286,0.09838644,0.013019876,1.2074481,-1.1811559
-0.1,-0.1,1.4,0.0,-0.5235987755982988,0,-0.31295964,-1.6086562,0.97773427,0.017572999,0.051602863,1.0172883,1.0496142,0.40959832,-0.5806477,-0.42963988,0.08180874,0.20175643,1.2346408,-1.0467198
-0.1,-0.1,1.4,0.0,-0.5235987755982988,0,-0.3146476,-1.6107512,0.96029264,0.016460363,0.015617085,1.1111966,0.52946913,0.40047538,-0.5802102,-0.43300042,0.057622418,0.2229876,1.1732421,0.66335577
-0.1,-0.1,1.4,0.0,-0.5235987755982988,0,-0.31438795,-1.6114117,0.9670246,0.018829726,0.040236216,1.1303544,0.45404482,0.40224937,-0.57864696,-0.43334383,0.099627785,-0.16105005,1.158963,-1.2238786
-0.1,-0.1,1.4,0.0,-0.5235987755982988,0,-0.31337333,-1.609624,0.9587769,0.019038973,-0.092717685,1.0662913,1.3635669,0.4115032,-0.5783081,-0.42504862,0.061048627,-0.060106058,1.2289436,-0.24114643
-0.1,-0.1,1.4,0.0,-0.5235987755982988,0,-0.31433418,-1.6116072,0.955559,0.024918692,0.08751305,1.1703469,0.48320878,0.40379426,-0.57919383,-0.43085483,0.06981504,-0.047050156,1.2166463,-0.6048925
-0.1,-0.1,1.4,0.0,-0.5235987755982988,0,-0.3135762,-1.6103773,0.9586573,0.020594586,-0.214442,1.0787157,0.53039736,0.40287957,-0.57874304,-0.4361785,0.07267138,-0.14815116,1.174544,-0.14456083
-0.1,-0.1,1.4,0.0,-0.5235987755982988,0,-0.3132909,-1.6103224,0.9468427,0.017192062,0.06716447,1.1433095,0.25754988,0.40552557,-0.58089614,-0.4393569,0.060801014,-0.02462231,1.1216809,0.1775023
-0.1,-0.1,1.4,0.0,-0.5235987755982988,0,-0.31404695,-1.6103959,0.96400887,0.017644905,-0.08667578,1.1949404,-0.028483309,0.40209666,-0.5797166,-0.43858472,0.060885955,0.20712614,1.2466948,-0.5148784
-0.1,-0.1,1.4,0.0,-0.5235987755982988,0,-0.31456554,-1.6106836,0.9843436,0.019803971,0.1488579,1.0879598,0.9311552,0.4046042,-0.5787063,-0.43787196,0.08239841,-0.20547628,1.2932242,-0.98013455
-0.1,-0.1,1.4,0.0,-0.5235987755982988,0,-0.31464446,-1.6103305,0.98439425,0.016536908,0.007448661,1.174513,0.68307316,0.4085547,-0.58091646,-0.42810357,0.052614108,-0.028603986,1.2252407,-0.51220304
-0.1,-0.1,1.4,0.0,-0.5235987755982988,0,-0.31249118,-1.6107135,0.96922636,0.022802362,0.060852997,1.2183764,0.5302045,0.40569744,-0.581805,-0.432398,0.06810935,0.22450125,1.2959564,-0.762932
-0.1,-0.1,1.4,0.0,-0.5235987755982988,0,-0.31262627,-1.6103481,0.97677076,0.01736389,-0.0053675915,1.1031805,-0.13044119,0.40131122,-0.5789677,-0.4285281,0.08548285,-0.06807715,1.1735759,0.25204152
-0.1,-0.1,1.4,0.0,-0.5235987755982988,0,-0.31299442,-1.6082586,0.96257156,0.01782819,-0.13195981,1.1421897,-0.2403612,0.39859623,-0.5817128,-0.42876118,0.07481185,0.1444087,1.1414979,-1.5064803
-0.1,-0.1,1.4,0.0,-0.5235987755982988,0,-0.3120351,-1.6118817,0.9504382,0.023192637,0.019307628,1.1352031,1.5444255,0.40567327,-0.58133906,-0.42650557,0.062968545,-0.014714196,1.2828431,1.160789
-0.1,-0.1,1.4,0.0,-0.5235987755982988,0,-0.31338522,-1.6101481,0.97451514,0.021667864,-0.048513003,1.1212591,-0.57134336,0.40459827,-0.58179283,-0.4258345,0.08390893,0.14564386,1.242559,-0.5296478
-0.1,-0.1,1.4,0.0,-0.5235987755982988,0,-0.3132724,-1.6094913,0.9760635,0.02206627,-0.1798886,1.1535987,-0.014882116,0.4005973,-0.5810574,-0.43645975,0.07652681,0.1783036,1.1540803,-0.7372032
-0.1,-0.1,1.4,0.0,-0.5235987755982988,0,-0.3124449,-1.6099343,0.9533362,0.019894237,-0.09171251,1.0936924,1.0269232,0.40041983,-0.57866764,-0.4330097,0.07296445,-0.023570398,1.2128181,-0.43806627
-0.1,-0.1,1.4,0.0,-0.5235987755982988,0,-0.31258404,-1.6111131,0.9757789,0.025105055,-0.20239824,1.0564774,0.7821437,0.40050718,-0.57827705,-0.42988795,0.1021444,0.25641555,1.2635796,-0.017068924
-0.1,-0.1,1.4,0.0,-0.5235987755982988,0,-0.313554,-1.6115937,0.9520249,0.017050792,0.11057722,1.1676104,0.58168185,0.40924695,-0.5813332,-0.43740803,0.075709894,0.120598264,1.0899471,-0.11468647
-0.1,-0.1,1.4,0.0,-0.5235987755982988,0,-0.31385764,-1.6104971,0.9647068,0.015726034,-0.1011989,1.1522663,0.4029449,0.4002755,-0.5800098,-0.43876347,0.07998528,-0.05368138,1.1169639,0.20962745
-0.1,-0.1,1.4,0.0,-0.5235987755982988,0,-0.3137231,-1.610493,0.9817388,0.01828192,-0.023788175,1.0849985,0.9093533,0.40290236,-0.58179504,-0.4318814,0.087826245,-0.03207374,1.1310495,-1.4550412
-0.1,-0.1,1.4,0.0,-0.5235987755982988,0,-0.3143362,-1.6106967,0.9817083,0.013738201,-0.14062937,1.1476674,0.52248657,0.4033173,-0.58085865,-0.4335564,0.07171202,0.17647114,1.2569374,-2.1295135
-0.1,-0.1,1.4,0.0,-0.5235987755982988,0,-0.3128332,-1.6114587,0.9809866,0.021522611,-0.23435733,1.1863557,0.32545176,0.3979314,-0.5798228,-0.4380569,0.074595265,-0.036560822,1.212214,2.7703962
-0.1,-0.1,1.4,0.0,-0.5235987755982988,0,-0.31234682,-1.6128026,0.958333,0.01912233,-0.09363569,1.1306673,0.65727836,0.40690714,-0.5814065,-0.42180377,0.0818064,0.16231097,1.2750609,-0.79582816
-0.1,-0.1,1.4,0.0,-0.5235987755982988,0,-0.313607,-1.6116359,0.94391006,0.0192799,-0.045593586,1.1412069,-0.44683266,0.40105575,-0.5779758,-0.42655548,0.05708801,0.21363197,1.1413875,-0.91844654
-0.1,-0.1,1.4,0.0,-0.5235987755982988,0,-0.31345615,-1.6101847,0.96653765,0.010245574,0.101730384,0.9865548,0.31554332,0.40151852,-0.58249116,-0.43130606,0.04074798,-0.029580465,1.2811521,0.67929983
-0.1,-0.1,1.4,0.0,-0.5235987755982988,0,-0.31417766,-1.6109508,0.95203793,0.02039533,-0.22766212,1.121998,0.84127617,0.40069854,-0.5824979,-0.43167093,0.06282934,0.27348593,1.1748756,-0.9667213
-0.1,-0.1,1.4,0.0,-0.5235987755982988,0,-0.31369948,-1.6099414,0.9816526,0.022809781,-0.16233286,1.0340542,0.07487066,0.40333495,-0.57597595,-0.42893848,0.06000395,-0.100889556,1.2447927,-0.5050732
-0.1,-0.1,1.4,0.0,-0.5235987755982988,0,-0.31300226,-1.6097802,0.9760552,0.020493228,0.08642736,1.1648554,0.7265027,0.40954843,-0.57827383,-0.4350907,0.069411,-0.19410028,1.1861805,-0.5652387
