sanky1234/BimanualDexCatch/isaacgymenvs/cem_results/football_pose_-0.2_-0.2_1.4_0.0_0.0_0_2025-05-24.csv
x,y,z,roll,pitch,yaw,robot1/joint1,robot1/joint2,robot1/joint3,robot1/joint4,robot1/joint5,robot1/joint6,robot1/joint7,robot2/joint1,robot2/joint2,robot2/joint3,robot2/joint4,robot2/joint5,robot2/joint6,robot2/joint7
-0.2,-0.2,1.4,0.0,0.0,0,1.0712157,1.1613752,0.8197134,-0.17976868,0.2587544,1.0634893,0.21107565,-1.3805511,0.8684139,-1.018053,0.57310915,0.23073754,0.061592005,0.4213308
-0.2,-0.2,1.4,0.0,0.0,0,1.0529342,1.1229081,0.14292407,-0.1854968,-0.3410499,1.0715588,-0.06122367,-1.3807908,0.8442956,-1.0162549,0.5689463,0.14516048,0.07730159,-0.48135665
-0.2,-0.2,1.4,0.0,0.0,0,1.0383207,1.0056726,0.3124345,-0.07608962,-0.12363744,1.1300818,-1.4883314,-1.367912,0.8480682,-1.016304,0.5726624,0.16555393,0.108977325,-0.67130613
-0.2,-0.2,1.4,0.0,0.0,0,1.038961,1.453687,0.2709206,-0.04911969,-0.005868566,1.184845,1.1795188,-1.372826,0.84717965,-1.0170121,0.57221484,0.15962535,0.085914716,0.10322851
-0.2,-0.2,1.4,0.0,0.0,0,1.0785229,1.3548647,0.23734947,-0.0553006,0.07667434,1.0615736,0.2485626,-1.3749108,0.8598783,-1.0157397,0.57510227,0.125898,0.07290473,0.49406472
-0.2,-0.2,1.4,0.0,0.0,0,1.0656911,1.1326886,0.16771747,-0.050722,0.11606004,1.1356977,-0.4915397,-1.3714094,0.8514973,-1.0187933,0.57155555,0.13721667,0.14637507,0.11694839
-0.2,-0.2,1.4,0.0,0.0,0,1.0175402,1.0557837,0.5566325,-0.23865208,-0.00063521427,0.96822757,0.27594718,-1.3766615,0.85006183,-1.017424,0.5708014,0.19308202,0.07976637,0.70653164
-0.2,-0.2,1.4,0.0,0.0,0,1.101002,1.3540883,0.22885263,-0.16382529,-0.04239271,1.0741922,0.55107343,-1.3796587,0.84318495,-1.0141261,0.5706391,0.24079552,0.08460668,-0.044067334
-0.2,-0.2,1.4,0.0,0.0,0,1.0797582,1.3682119,0.0425224,-0.116967656,0.11900884,1.0993797,-1.755533,-1.377701,0.8461378,-1.0114915,0.56967103,0.10947071,0.09945223,0.111107446
-0.2,-0.2,1.4,0.0,0.0,0,1.0727352,1.4448069,0.031020144,0.12625675,0.07337129,1.1601515,0.038039993,-1.3734076,0.8551284,-1.0159539,0.5690441,0.1570583,0.073040634,-0.17541994
-0.2,-0.2,1.4,0.0,0.0,0,1.0670648,1.2719189,0.10344318,-0.061301567,-0.15552501,1.3166431,2.0434172,-1.3762413,0.8491185,-1.0171386,0.57113194,0.18325455,0.14337468,-0.66118205
-0.2,-0.2,1.4,0.0,0.0,0,1.1117022,1.213599,0.04150263,-0.09094484,0.11747682,1.0296324,-1.7401135,-1.3762844,0.8430468,-1.0174272,0.5695108,0.16196218,0.099393435,-0.12544443
-0.2,-0.2,1.4,0.0,0.0,0,1.0347089,1.2142717,0.12168763,-0.2033286,-0.3143679,1.0609843,-0.66439664,-1.3784422,0.8386984,-1.0147097,0.57475805,0.17932408,0.068090506,-0.17113452
-0.2,-0.2,1.4,0.0,0.0,0,1.0631965,1.2425506,0.07580422,-0.22480772,-0.10796142,1.3753995,0.14414391,-1.3782707,0.8525565,-1.016246,0.57116216,0.23105964,0.12526643,-0.13187428
-0.2,-0.2,1.4,0.0,0.0,0,1.0310222,1.0833833,0.48474517,-0.31126255,0.12370729,1.1827627,-0.00013084999,-1.3761212,0.85547835,-1.0203463,0.5705564,0.17773506,0.10273251,0.23251554
-0.2,-0.2,1.4,0.0,0.0,0,1.0426567,1.1114717,0.06939187,-0.07332779,-0.106632546,1.2127961,-0.27201083,-1.378833,0.84632534,-1.015715,0.56881285,0.16462386,0.16630805,1.275624
-0.2,-0.2,1.4,0.0,0.0,0,1.01601,1.1707234,0.107516736,-0.088693544,0.27258584,1.2225239,-0.7589345,-1.3742777,0.8505296,-1.0103023,0.5723938,0.2165321,0.13525291,-0.2200869
-0.2,-0.2,1.4,0.0,0.0,0,1.0213492,1.4995478,0.19770955,-0.15973045,0.44307062,1.0564818,0.24125613,-1.3748025,0.85251343,-1.0122854,0.5687037,0.16128354,0.15420352,0.037044488
-0.2,-0.2,1.4,0.0,0.0,0,1.0165684,1.2206892,-0.10153439,-0.020038068,-0.11662038,0.9842826,0.05125285,-1.3759319,0.8528022,-1.0168047,0.57210636,0.22960961,0.15128256,0.20213531
-0.2,-0.2,1.4,0.0,0.0,0,1.02555,1.1042504,0.4029564,-0.123187736,0.063107096,1.0911028,1.3357911,-1.3722773,0.8592236,-1.015439,0.5739353,0.13892083,0.1598849,0.40791568
-0.2,-0.2,1.4,0.0,0.0,0,1.0119008,1.1983795,-0.05127011,-0.24243407,0.31626,0.91179556,-0.50287473,-1.3757939,0.8443887,-1.0188687,0.5747194,0.21445471,0.082479045,-0.80748665
-0.2,-0.2,1.4,0.0,0.0,0,1.0534816,1.243642,0.22707652,-0.14529797,-0.046161514,1.1856757,-1.1370075,-1.3768703,0.856286,-1.0155987,0.56921214,0.17316863,0.0938293,-0.35335577
-0.2,-0.2,1.4,0.0,0.0,0,0.9911368,1.1556376,0.13957606,-0.046209756,-0.13599499,1.0032715,0.07578036,-1.3796225,0.8440285,-1.0189843,0.56978816,0.26305765,0.083404124,-0.77603304
-0.2,-0.2,1.4,0.0,0.0,0,1.0566128,1.4280275,0.0042306017,-0.21132722,0.32212773,1.3688599,-0.6883577,-1.3731676,0.8476754,-1.0147591,0.5712235,0.2284287,0.11055446,0.51206905
-0.2,-0.2,1.4,0.0,0.0,0,1.0837889,1.1372378,0.3244656,-0.06636964,-0.47614127,1.1166137,0.3567261,-1.3734217,0.84795976,-1.0149082,0.57341534,0.18941015,0.12575576,-0.3190364
-0.2,-0.2,1.4,0.0,0.0,0,1.049398,1.2429926,0.003148236,-0.15685296,-0.40106457,1.2604839,0.68597645,-1.3764412,0.86316186,-1.0132428,0.5716566,0.23439948,0.09388568,-0.33654496
-0.2,-0.2,1.4,0.0,0.0,0,1.0353009,1.0580027,-0.08778466,-0.090924226,-0.069996916,1.0913703,0.89918625,-1.3728126,0.8469221,-1.0140935,0.57225555,0.15670787,0.08669119,-0.17300014
-0.2,-0.2,1.4,0.0,0.0,0,1.0800582,1.5774897,0.2186401,-0.23136058,-0.057760295,1.1352682,-0.17644256,-1.3783637,0.8545552,-1.0180271,0.57153326,0.19554414,0.14016503,0.20053351
-0.2,-0.2,1.4,0.0,0.0,0,1.1013924,1.3116394,0.4060685,-0.053620156,-0.026140941,1.0747706,0.2640973,-1.3804051,0.84842825,-1.0122931,0.5705133,0.17783637,0.083445646,-0.20316793
-0.2,-0.2,1.4,0.0,0.0,0,1.0600966,1.2863735,-0.30765617,-0.020510089,-0.1776462,1.2579612,1.2664527,-1.3692796,0.8399577,-1.0246909,0.57051057,0.25485364,0.14846443,-0.19015692
-0.2,-0.2,1.4,0.0,0.0,0,1.0987316,1.1946374,0.062953755,-0.09759287,-0.0029841545,1.1996933,0.65635365,-1.3752466,0.8467165,-1.0161719,0.5707818,0.17936248,0.08954715,1.1906941
-0.2,-0.2,1.4,0.0,0.0,0,1.0304565,1.3037999,0.011896099,-0.11502008,-0.19560377,1.1865351,1.8448548,-1.380823,0.8543502,-1.0148963,0.5712983,0.16242465,0.06454815,0.40379447
-0.2,-0.2,1.4,0.0,0.0,0,1.0745364,1.2426409,0.016474308,-0.19963518,-0.13435592,1.1417456,0.76892585,-1.378538,0.85087043,-1.0148919,0.57206815,0.08509603,0.08514673,0.7173024
-0.2,-0.2,1.4,0.0,0.0,0,1.0148858,1.3529836,0.019877503,0.010528009,-0.16309607,1.1604168,-1.8291535,-1.3789356,0.83916634,-1.0167953,0.57355267,0.17742535,0.0254858,0.6183043
-0.2,-0.2,1.4,0.0,0.0,0,1.0068724,1.4028516,-0.0068593007,-0.024629451,-0.15931576,1.0829974,0.8430552,-1.3765537,0.84541076,-1.0188966,0.57177705,0.10041031,0.087814756,0.7216646
-0.2,-0.2,1.4,0.0,0.0,0,1.05575,1.1385282,0.18748493,-0.26464486,-0.21735527,1.3131708,0.8649053,-1.3756349,0.852088,-1.0207834,0.5687742,0.07145914,0.11102586,0.40799937
-0.2,-0.2,1.4,0.0,0.0,0,1.092805,1.4202224,0.32214114,-0.015703114,0.19041483,1.0808674,-0.24374092,-1.3693824,0.85093635,-1.0148493,0.57067,0.23111185,0.13321365,-0.64382523
-0.2,-0.2,1.4,0.0,0.0,0,1.1091238,1.242068,0.1578877,-0.14349462,0.09000024,1.1951872,-0.034079574,-1.374886,0.8537925,-1.0164934,0.5712556,0.16076387,0.1342104,-0.43827188
-0.2,-0.2,1.4,0.0,0.0,0,1.0460037,1.2219392,0.08082173,-0.11152524,0.02163823,1.2327839,0.16434973,-1.3728114,0.8422651,-1.0207292,0.5723038,0.24063592,0.1308671,1.4419271
-0.2,-0.2,1.4,0.0,0.0,0,1.0229703,1.1332859,-0.35541895,-0.02670232,-0.34019375,0.95695406,0.9557949,-1.3711003,0.8628821,-1.0194238,0.57277375,0.14095303,0.1106556,0.79889166
-0.2,-0.2,1.4,0.0,0.0,0,1.0438471,1.4138644,-0.04437128,-0.035102244,0.2508866,0.9065374,-0.18177025,-1.376733,0.84693587,-1.0108038,0.57525873,0.23533408,0.10853273,-0.16475137
-0.2,-0.2,1.4,0.0,0.0,0,1.1094383,1.2936437,0.53942645,-0.11040777,0.34890178,1.0214689,0.6378667,-1.373755,0.85548496,-1.0152576,0.57071537,0.15537299,0.12840997,-0.13199612
-0.2,-0.2,1.4,0.0,0.0,0,1.0575727,1.4076978,-0.04206245,-0.08588951,0.12843175,1.2497506,0.70771575,-1.3749707,0.84715706,-1.013585,0.56873703,0.16976266,0.13735504,0.19278862
-0.2,-0.2,1.4,0.0,0.0,0,1.000432,1.184887,0.25567105,-0.081561126,-0.1089636,1.1640812,-0.17951389,-1.3729722,0.8369423,-1.0155323,0.5729672,0.23850161,0.136392,-0.03949525
-0.2,-0.2,1.4,0.0,0.0,0,1.0465344,1.1511037,0.61059463,-0.021394769,0.23409374,1.1240437,-1.297423,-1.3795075,0.8532932,-1.0112482,0.57133645,0.10428871,0.08513008,-0.29162505
-0.2,-0.2,1.4,0.0,0.0,0,1.1194589,1.1895676,0.51756305,-0.1954208,-0.10605458,1.2799991,-1.1994078,-1.3732047,0.8506873,-1.0146149,0.5710434,0.20747545,0.108011715,-0.1294398
-0.2,-0.2,1.4,0.0,0.0,0,1.072524,1.3373934,-0.048467234,-0.09526533,-0.1058055,1.1364201,2.434761,-1.3743937,0.8368312,-1.0137893,0.571338,0.14615971,0.10066307,1.267091
-0.2,-0.2,1.4,0.0,0.0,0,1.0915806,1.153188,-0.017524881,-0.08986411,0.12719199,1.2779112,-1.6823987,-1.3729044,0.8431611,-1.0205226,0.57218957,0.17546032,0.08972319,0.766966
-0.2,-0.2,1.4,0.0,0.0,0,1.0362023,1.3495548,0.65800536,-0.23284064,0.16240138,1.2330357,0.3646243,-1.3757093,0.84024733,-1.0139505,0.57379156,0.20279719,0.061751883,0.4081083
-0.2,-0.2,1.4,0.0,0.0,0,1.0605949,1.1691223,-0.05089526,-0.16070957,0.25968596,1.3464129,1.4506018,-1.3809271,0.8432437,-1.018325,0.5719164,0.1538663,0.099773854,-0.3853231
-0.2,-0.2,1.4,0.0,0.0,0,1.1235065,0.9509036,0.86908466,0.1707438,0.13818003,1.1819105,-1.4642779,-1.3751539,0.8601424,-1.0187695,0.57507086,0.21727003,0.095849544,-0.08432765
-0.2,-0.2,1.4,0.0,0.0,0,1.0768783,1.2088606,-0.22880593,-0.08504487,-0.17056477,1.1992766,0.24418572,-1.3779747,0.8559124,-1.0215305,0.57098955,0.24641281,0.09296185,0.5943603
-0.2,-0.2,1.4,0.0,0.0,0,1.0592014,1.1523924,0.15277724,-0.10086387,0.0771578,1.0230204,1.837082,-1.3765521,0.8542533,-1.0191132,0.57041913,0.12171211,0.088089235,-0.32609636
-0.2,-0.2,1.4,0.0,0.0,0,1.0727613,1.297909,0.4394692,-0.14842978,0.029984966,1.1407378,-0.63440084,-1.3724568,0.85609853,-1.0176497,0.57067555,0.15031096,0.077503234,0.16189028
-0.2,-0.2,1.4,0.0,0.0,0,1.0568087,1.254751,-0.08987837,-0.025032556,-0.29292756,1.2515044,-0.12997356,-1.3731129,0.8548295,-1.0162014,0.5708785,0.15212817,0.13677704,-0.34323132
-0.2,-0.2,1.4,0.0,0.0,0,1.0482643,1.2087984,0.47134763,-0.041913703,-0.004944727,1.342537,-1.0913105,-1.3758823,0.8395944,-1.0116878,0.5731059,0.25189084,0.14004491,0.4086287
-0.2,-0.2,1.4,0.0,0.0,0,1.0572057,1.3077992,0.4118916,-0.16939451,0.07783172,1.2753867,-0.840971,-1.3801618,0.8467497,-1.0185883,0.5706651,0.17467232,0.11281651,0.050831094
-0.2,-0.2,1.4,0.0,0.0,0,1.0678873,1.1805412,0.6905215,-0.16347498,-0.12734063,1.0050036,-1.6628555,-1.3763373,0.86102664,-1.0124533,0.5697864,0.1827057,0.122890815,0.50261164
-0.2,-0.2,1.4,0.0,0.0,0,1.0257366,1.1406841,0.48742044,0.0563359,0.13971353,1.1823953,-0.8346255,-1.3725287,0.8598176,-1.0164899,0.56833905,0.09158196,0.1325556,0.88538164
-0.2,-0.2,1.4,0.0,0.0,0,1.0496491,1.2343768,-0.20488235,-0.07357072,0.045830257,1.160613,0.6219953,-1.3806461,0.83303714,-1.0164633,0.5702204,0.19471408,0.115950495,-1.0044407
-0.2,-0.2,1.4,0.0,0.0,0,1.0741183,1.1258732,-0.16312587,-0.12648098,-0.04093024,1.0845246,-0.75864035,-1.3796693,0.8493077,-1.0204625,0.5674638,0.2319154,0.12318194,0.07491569
-0.2,-0.2,1.4,0.0,0.0,0,1.0151409,1.272452,-0.083913445,-0.040511556,-0.10557478,1.1744195,-0.27943465,-1.3767248,0.85109955,-1.0208801,0.56971973,0.15320386,0.111053996,0.2204606
-0.2,-0.2,1.4,0.0,0.0,0,1.1174709,1.3648837,0.06357432,-0.065505765,0.10473488,1.3202585,0.4170029,-1.3762358,0.8551892,-1.0178812,0.5717516,0.12509128,0.15934141,-0.3215763
-0.2,-0.2,1.4,0.0,0.0,0,1.0573481,1.4013624,0.051598337,-0.02840663,-0.3496021,1.0965854,0.17611574,-1.3764981,0.8524226,-1.0095549,0.56885576,0.25580397,0.06930875,-0.037909858
-0.2,-0.2,1.4,0.0,0.0,0,1.0663856,1.1559684,0.48644662,-0.0014335803,0.27982742,1.1963446,-1.0955787,-1.3813154,0.86306703,-1.0177506,0.5684866,0.15854858,0.092899784,0.48020256
-0.2,-0.2,1.4,0.0,0.0,0,1.0744404,1.005056,0.07550287,-0.0291843,-0.017560074,1.0618376,-0.90678686,-1.3805051,0.8497586,-1.0115206,0.5722823,0.16618235,0.094058,0.19236383
-0.2,-0.2,1.4,0.0,0.0,0,1.114813,1.3470079,0.013068145,-0.2263332,0.0054316777,1.3067333,0.07853193,-1.3774931,0.8431173,-1.0167658,0.57082796,0.18148857,0.09449442,0.049469218
-0.2,-0.2,1.4,0.0,0.0,0,1.0053405,1.1707293,0.31611466,-0.048327412,-0.05449851,1.1858687,0.072528236,-1.3770746,0.8383328,-1.0135479,0.56780756,0.20198424,0.09206138,-0.5746523
-0.2,-0.2,1.4,0.0,0.0,0,1.0048313,0.98975384,0.26691797,-0.10919187,-0.197198,1.0571568,-1.1368903,-1.3758106,0.85606074,-1.0226537,0.57044053,0.26358366,0.13517301,0.33828554
-0.2,-0.2,1.4,0.0,0.0,0,1.0357451,1.1335062,0.17973927,-0.028880233,-0.06159722,1.0616724,0.7649897,-1.3723563,0.8520623,-1.0159198,0.5706525,0.1558519,0.08687837,0.16560423
-0.2,-0.2,1.4,0.0,0.0,0,1.0774902,1.2442912,-0.03068757,-0.02309816,-0.09355877,1.1446178,0.5740172,-1.3689057,0.84675264,-1.0211703,0.5703647,0.22036394,0.10716808,0.23312224
-0.2,-0.2,1.4,0.0,0.0,0,1.0450816,1.0228877,0.35363215,-0.02871368,-0.14557484,1.010428,1.3880591,-1.374643,0.84277576,-1.0152227,0.57106936,0.06349385,0.07603197,-0.63749826
-0.2,-0.2,1.4,0.0,0.0,0,0.9801551,1.2565918,0.65807396,-0.10456532,-0.04129009,1.1502495,0.61131805,-1.3784336,0.8482077,-1.0235628,0.5690727,0.1439692,0.0997816,0.2001261
-0.2,-0.2,1.4,0.0,0.0,0,1.0124412,1.2924489,0.043581497,-0.08771596,0.5161181,1.1283969,0.54028785,-1.3740057,0.85330385,-1.016452,0.5702657,0.14365828,0.096183136,-0.19376852
-0.2,-0.2,1.4,0.0,0.0,0,1.0692866,1.224224,-0.42037436,-0.17484896,0.0935348,1.1603425,1.0407952,-1.3800731,0.8406994,-1.016817,0.5699082,0.2015597,0.10047433,0.35005406
-0.2,-0.2,1.4,0.0,0.0,0,1.0261443,1.4121385,0.37842622,-0.030914588,0.00759352,1.0524746,0.3378989,-1.3792964,0.85071784,-1.0148507,0.57020116,0.19731942,0.12471726,-0.47439575
-0.2,-0.2,1.4,0.0,0.0,0,1.0163802,1.1405921,0.34738585,-0.16352393,-0.112537965,1.1320449,-1.0499696,-1.3746039,0.8479262,-1.0166061,0.57341385,0.21420363,0.11461365,-0.47300184
-0.2,-0.2,1.4,0.0,0.0,0,1.0587697,1.3890511,-0.34356564,0.03642201,0.06721221,0.96074796,2.089486,-1.3766215,0.85067844,-1.0139512,0.5688144,0.12792234,0.10036336,0.41756594
-0.2,-0.2,1.4,0.0,0.0,0,0.99807364,1.3613054,-0.11618149,-0.13274421,-0.053793877,1.1552322,-0.035339125,-1.3724257,0.84444666,-1.0167631,0.5715423,0.19452582,0.09498035,0.04502364
-0.2,-0.2,1.4,0.0,0.0,0,1.0862455,1.0348921,-0.026532944,-0.18464984,0.2300107,1.1450083,-0.74502534,-1.3790833,0.8460567,-1.0216689,0.5694053,0.17104663,0.11841324,0.7475766
-0.2,-0.2,1.4,0.0,0.0,0,1.033629,1.1491202,-0.0030227862,-0.16762178,0.15761004,1.0832219,0.31319496,-1.3762363,0.8447232,-1.0134352,0.56741726,0.15121189,0.06796341,-0.44639423
-0.2,-0.2,1.4,0.0,0.0,0,0.99506146,1.3139164,-0.18429394,-0.041164998,0.12782514,1.1753147,-0.38628188,-1.3827575,0.8501764,-1.0147458,0.57398003,0.15488052,0.093700655,-0.040552307
-0.2,-0.2,1.4,0.0,0.0,0,1.0568831,1.2576042,-0.19380264,-0.06581967,-0.110564016,1.0691507,-0.25236753,-1.378484,0.8453484,-1.019645,0.56994045,0.18152829,0.08083643,-0.25971085
-0.2,-0.2,1.4,0.0,0.0,0,1.0763005,1.314325,0.5547604,-0.2510414,-0.06829246,1.0225545,0.42043436,-1.3794923,0.8445573,-1.0132279,0.57168865,0.21578689,0.10538286,0.89724904
-0.2,-0.2,1.4,0.0,0.0,0,1.0722766,1.233926,-0.044483546,-0.17286079,-0.057425153,1.0811254,0.25142956,-1.3760736,0.8572478,-1.0168526,0.57174206,0.26320451,0.10682621,-0.22195673
-0.2,-0.2,1.4,0.0,0.0,0,1.0783226,1.2663147,0.60918254,-0.14030947,0.13366346,1.0449628,1.6808833,-1.3765981,0.85575885,-1.0147413,0.56915915,0.10778697,0.1380773,1.0576284
-0.2,-0.2,1.4,0.0,0.0,0,1.0375624,1.1172163,0.18492512,-0.109530136,0.1752319,1.1547071,1.1384236,-1.3814223,0.84496605,-1.0187411,0.57001615,0.1672575,0.09964464,0.15023907
-0.2,-0.2,1.4,0.0,0.0,0,1.0835499,1.217412,-0.16630891,-0.16271761,0.15794775,1.0533376,0.38159847,-1.3707336,0.8542503,-1.0151348,0.5706286,0.1786212,0.08503713,0.7383506
-0.2,-0.2,1.4,0.0,0.0,0,1.0826601,1.2222887,0.68870246,-0.1518186,0.09955998,1.048706,0.7559797,-1.3707863,0.85059744,-1.0196135,0.5724182,0.26818672,0.11691642,-0.24547014
-0.2,-0.2,1.4,0.0,0.0,0,1.0343292,1.2713689,0.03868902,-0.14942871,-0.037519105,1.3119676,1.1698298,-1.3763105,0.84255236,-1.0186042,0.57117754,0.065443374,0.0898262,0.105693385
-0.2,-0.2,1.4,0.0,0.0,0,1.0702436,1.2489219,0.2802271,-0.09828249,-0.039617866,1.0924914,1.2098659,-1.3813663,0.83565366,-1.0147575,0.5672548,0.14809054,0.09231944,0.077043936
-0.2,-0.2,1.4,0.0,0.0,0,1.0745242,1.3923148,0.14158128,0.092026226,-0.3511074,1.1704473,-0.99195236,-1.3733909,0.85426205,-1.0174181,0.5728867,0.15788296,0.10821361,-0.05230991
-0.2,-0.2,1.4,0.0,0.0,0,1.0816653,1.3057902,0.07356293,-0.12035207,0.38203764,1.0503104,-0.5175198,-1.3792447,0.8550065,-1.0164471,0.57174015,0.124495745,0.09119709,0.3804269
-0.2,-0.2,1.4,0.0,0.0,0,1.0838494,1.2779863,0.29393375,-0.034335077,-0.044788443,1.1212913,-0.6539111,-1.3746599,0.841691,-1.0148047,0.5689488,0.14035577,0.11522888,-0.1142972
-0.2,-0.2,1.4,0.0,0.0,0,1.0690364,1.1213753,0.30525666,-0.17983982,0.16187726,1.2013943,0.41582263,-1.3758372,0.8550944,-1.0165957,0.56701064,0.17717095,0.08926353,0.24257079
-0.2,-0.2,1.4,0.0,0.0,0,1.0833322,1.1448798,0.23394904,0.031568166,-0.25270084,1.3544323,0.6323083,-1.3737721,0.84726983,-1.0161206,0.5695137,0.27009246,0.11003858,0.679117
-0.2,-0.2,1.4,0.0,0.0,0,1.1163082,1.1610084,0.033490803,0.021920247,-0.1033068,1.1670521,-0.16978146,-1.3754472,0.85702944,-1.0172352,0.5662403,0.18558772,0.09296331,0.06598734
-0.2,-0.2,1.4,0.0,0.0,0,1.0151854,1.3282045,0.086918876,-0.04830019,0.046198577,1.2662258,-0.8384653,-1.3783337,0.83628047,-1.0160277,0.5718417,0.17684188,0.08511411,-0.035421714
-0.2,-0.2,1.4,0.0,0.0,0,1.1060896,1.1390637,-0.08282202,-0.1420214,0.024543975,1.0062747,-0.5081085,-1.3735268,0.85341907,-1.0142369,0.57018095,0.16551055,0.10794699,0.17856845
-0.2,-0.2,1.4,0.0,0.0,0,1.0915111,1.1911718,0.21232234,-0.20235382,0.20826633,1.2308775,0.52900517,-1.3798875,0.84503835,-1.0114906,0.57175374,0.2157728,0.060873214,0.21237709
-0.2,-0.2,1.4,0.0,0.0,0,1.0273473,1.1096869,-0.39701098,-0.1028027,0.0011084081,1.0456668,0.10591512,-1.3826618,0.8549111,-1.0166734,0.57180244,0.118914224,0.06068757,0.64497304
-0.2,-0.2,1.4,0.0,0.0,0,1.0772864,1.3842808,0.0050253808,-0.20613287,0.08363896,1.132271,-1.2198776,-1.377189,0.83252394,-1.0143232,0.57099307,0.18032485,0.07527138,0.10078214
-0.2,-0.2,1.4,0.0,0.0,0,1.0660449,1.2921584,0.05415224,-0.058374505,0.069778934,1.1849785,0.20039047,-1.3762865,0.84503305,-1.0146931,0.5696418,0.13707231,0.17265041,-0.3171502
-0.2,-0.2,1.4,0.0,0.0,0,1.0290987,1.3573954,0.28846085,-0.27099895,-0.13517816,1.1689312,-0.08966442,-1.3779894,0.8447923,-1.0187225,0.5732564,0.25976333,0.075456254,-0.16352764
-0.2,-0.2,1.4,0.0,0.0,0,1.039004,1.3393912,0.07884769,-0.12052572,-0.22208093,1.1631452,-1.1016252,-1.3801618,0.8431132,-1.018295,0.5710124,0.112679996,0.103037365,-0.18821615
-0.2,-0.2,1.4,0.0,0.0,0,1.0880647,1.2539713,-0.09182864,-0.13089219,-0.096530534,1.1020322,2.74929,-1.3741254,0.84979707,-1.0166711,0.5681563,0.11380286,0.021802282,0.1992956
-0.2,-0.2,1.4,0.0,0.0,0,1.0387665,1.1256583,0.17859067,-0.0141772255,0.08922015,1.1889802,0.25065675,-1.3762085,0.83689106,-1.0146106,0.57185996,0.1978184,0.080497205,0.07545129
-0.2,-0.2,1.4,0.0,0.0,0,1.0354522,1.3032376,-0.22304595,-0.04924595,0.022528978,1.2964702,0.65915227,-1.3688319,0.8520319,-1.0152818,0.57122564,0.20411828,0.11692001,-0.9517953
-0.2,-0.2,1.4,0.0,0.0,0,1.0540166,1.029997,0.105136134,-0.108093366,-0.20124108,1.2117733,0.7294569,-1.3736491,0.84431976,-1.0131445,0.57415724,0.22210412,0.1044341,-0.13340142
-0.2,-0.2,1.4,0.0,0.0,0,1.0629314,1.1690699,0.21242543,-0.23196618,-0.09709304,1.3467877,0.3447545,-1.3797319,0.8509811,-1.0195659,0.5689984,0.1949072,0.102206044,-0.50724894
-0.2,-0.2,1.4,0.0,0.0,0,1.0370637,1.1638507,0.34204614,-0.06357872,-0.20289189,1.1474823,0.6448616,-1.3713762,0.8420051,-1.0119754,0.5705591,0.20565493,0.15704343,0.0074938894
-0.2,-0.2,1.4,0.0,0.0,0,1.0210153,1.1082137,0.5928212,-0.085146956,0.21839532,1.2421538,-0.4707296,-1.3769699,0.8522441,-1.0142132,0.5681711,0.14556904,0.06424632,-0.10629131
-0.2,-0.2,1.4,0.0,0.0,0,1.039585,1.41201,0.18256633,-0.005391169,-0.36202982,0.93948805,-0.5523545,-1.3730133,0.8466379,-1.0172365,0.57283944,0.16976643,0.1384744,0.27854395
-0.2,-0.2,1.4,0.0,0.0,0,1.0833695,1.3259739,0.5067602,-0.13300273,-0.120512694,1.1239432,0.05784988,-1.3791564,0.8412678,-1.012578,0.57040054,0.119095445,0.09629995,-0.1122882
-0.2,-0.2,1.4,0.0,0.0,0,1.0059128,1.2051821,0.4592513,-0.05760021,-0.1464811,1.2320678,0.8864178,-1.3780158,0.850803,-1.0160054,0.5699407,0.172298,0.115869656,0.17791122
-0.2,-0.2,1.4,0.0,0.0,0,1.0686845,1.2938317,-0.010783904,-0.116143174,-0.033545252,1.2588598,-0.02442311,-1.3710066,0.8361495,-1.0188595,0.569865,0.18277396,0.14295672,1.1807557
-0.2,-0.2,1.4,0.0,0.0,0,1.1210151,1.3669461,-0.19368578,-0.18928845,-0.17546266,1.2905662,-0.3297689,-1.3823965,0.84418714,-1.01891,0.5694949,0.20626792,0.091609634,-0.04659673
-0.2,-0.2,1.4,0.0,0.0,0,1.0976756,1.1668117,-0.39808166,-0.016755497,0.018875662,1.1478416,-0.14374472,-1.3735138,0.8436577,-1.0186392,0.56730545,0.13845448,0.089228876,-0.33889362
-0.2,-0.2,1.4,0.0,0.0,0,1.0560173,1.3452444,0.1195439,-0.08571478,0.011682846,1.0873373,-0.7605329,-1.3716902,0.84454525,-1.0191271,0.57291675,0.1838099,0.114196755,0.5782964
-0.2,-0.2,1.4,0.0,0.0,0,1.026025,1.2962686,0.111941315,-0.12679783,-0.21593456,1.0135239,-0.3959531,-1.380487,0.8530801,-1.0176395,0.572773,0.124311715,0.064992696,0.030157523
-0.2,-0.2,1.4,0.0,0.0,0,1.1266146,1.1710223,-0.05397756,-0.15417787,0.019419003,1.3708161,-0.42001963,-1.3735644,0.84234124,-1.0110675,0.5709099,0.14938666,0.103531525,-0.31556344
-0.2,-0.2,1.4,0.0,0.0,0,1.08902,1.3709223,-0.39409992,-0.23736359,0.0021447134,1.1290773,-0.11268124,-1.3772874,0.8418117,-1.0127587,0.5709199,0.15932877,0.09433793,-0.46642923
-0.2,-0.2,1.4,0.0,0.0,0,0.99345124,1.2812768,0.44300088,-0.11853692,0.23269126,1.2637447,0.35932043,-1.3779458,0.8471225,-1.0167798,0.57073325,0.17967208,0.10730373,0.6833324
-0.2,-0.2,1.4,0.0,0.0,0,1.0702432,1.0649688,0.18966089,-0.10800197,0.018834913,1.2176918,0.111044034,-1.3771952,0.85236406,-1.0149904,0.57145053,0.13665666,0.12906586,-0.52387077
-0.2,-0.2,1.4,0.0,0.0,0,1.037336,1.2196773,0.13560475,-0.23734729,0.09422118,1.221567,0.44323775,-1.3736869,0.84069556,-1.0167829,0.5723177,0.21203999,0.12203695,-0.589104
-0.2,-0.2,1.4,0.0,0.0,0,0.9937084,1.2673583,0.646668,-0.100678235,-0.03791274,1.0868202,0.12613583,-1.3756152,0.84665567,-1.0200279,0.57125294,0.18282513,0.09819038,0.655682
-0.2,-0.2,1.4,0.0,0.0,0,1.1038514,1.2349342,-0.06511302,-0.05226165,-0.08926529,1.0255799,-0.21141961,-1.3724102,0.8479874,-1.0154961,0.57175076,0.094174266,0.13859908,-0.4201502
-0.2,-0.2,1.4,0.0,0.0,0,1.0265665,1.1775131,0.3159933,-0.13219929,-0.105765745,1.0412601,0.32034978,-1.3778446,0.8539601,-1.0124563,0.57085556,0.12312727,0.12338966,1.0967201
-0.2,-0.2,1.4,0.0,0.0,0,1.0588971,1.3055012,0.26297897,-0.27068293,-0.3103415,1.2761391,-1.9742719,-1.3797879,0.84484136,-1.0208658,0.5705751,0.16682608,0.08199427,0.3503189
-0.2,-0.2,1.4,0.0,0.0,0,1.0657531,1.2613637,-0.15998213,-0.08794382,-0.21516284,1.143977,-0.46520382,-1.3727735,0.85784006,-1.0210482,0.57136834,0.16595437,0.12870741,0.84534883
-0.2,-0.2,1.4,0.0,0.0,0,0.9970213,1.2050878,-0.06572421,-0.07083407,0.15293883,1.1670327,-0.16548753,-1.3717016,0.84879816,-1.0169882,0.56962234,0.1615984,0.104288064,-0.12104611
-0.2,-0.2,1.4,0.0,0.0,0,0.9997978,1.311416,0.0565816,-0.1971093,0.043322176,1.2083433,-1.4324974,-1.3752016,0.8311054,-1.012406,0.57208997,0.16148545,0.054600578,0.5554348
-0.2,-0.2,1.4,0.0,0.0,0,1.0604514,1.2098651,0.20317063,-0.20587187,-0.028509144,1.0438333,-1.0284404,-1.3785872,0.8507337,-1.0228583,0.5711523,0.14817774,0.12553436,-0.21553592
-0.2,-0.2,1.4,0.0,0.0,0,1.0459373,0.98883575,-0.35153145,0.026466358,0.03241171,1.2948996,1.1399605,-1.3696777,0.8408441,-1.015037,0.56913924,0.209286,0.10224241,-0.09755819
-0.2,-0.2,1.4,0.0,0.0,0,1.0623014,1.207738,0.23297475,-0.005406635,-0.32493505,1.2275382,-0.6328455,-1.3759053,0.8497128,-1.018214,0.5709564,0.18323533,0.1278615,-0.321477
-0.2,-0.2,1.4,0.0,0.0,0,1.0166436,1.2271849,-0.4036748,-0.0775473,0.23090966,1.156285,1.4670509,-1.37438,0.8433286,-1.0155311,0.573292,0.21807449,0.09698326,-0.33745745
-0.2,-0.2,1.4,0.0,0.0,0,1.0867745,1.0120173,-0.40970254,-0.19418502,0.22128126,1.2201452,0.5468246,-1.3777474,0.8539028,-1.0140637,0.57167125,0.087822236,0.111578465,-0.5806437
-0.2,-0.2,1.4,0.0,0.0,0,1.0985781,1.4047419,0.15927896,-0.18056664,0.11411608,1.0629281,-0.7917173,-1.3767314,0.84937364,-1.0148289,0.57225937,0.08966207,0.08368685,0.47567698
-0.2,-0.2,1.4,0.0,0.0,0,1.0210325,1.1861199,0.054067947,-0.1005802,-0.15234956,1.2108477,0.023007013,-1.3784412,0.8496094,-1.0145382,0.5722764,0.15039621,0.044983227,-0.33466282
-0.2,-0.2,1.4,0.0,0.0,0,1.0453023,1.2947063,-0.41292173,-0.2737781,-0.32925114,1.0184146,-0.6603565,-1.3762261,0.8405648,-1.0142356,0.57105005,0.20293672,0.12798844,0.5564011
-0.2,-0.2,1.4,0.0,0.0,0,1.0388832,1.1989286,0.22339685,-0.03819869,0.014695233,1.0916768,0.0034411054,-1.3750079,0.84527427,-1.0193238,0.5760784,0.23554946,0.10489024,1.0028124
-0.2,-0.2,1.4,0.0,0.0,0,1.0502452,1.3722532,0.72282434,-0.204879,0.014771346,1.2139516,0.10150636,-1.3782655,0.84636694,-1.014592,0.5696665,0.19403352,0.11256874,0.47438952
-0.2,-0.2,1.4,0.0,0.0,0,1.0743309,1.1709795,0.23459513,-0.05842646,-0.2614477,1.0918428,0.29982057,-1.3780695,0.8489704,-1.0148603,0.5695836,0.2475085,0.14769702,0.4016496
-0.2,-0.2,1.4,0.0,0.0,0,1.0334041,1.2495345,0.2955401,0.0516416,-0.12279431,1.0838046,-0.54689515,-1.3796616,0.84752464,-1.0194091,0.56980443,0.20843874,0.06993991,-0.25101537
-0.2,-0.2,1.4,0.0,0.0,0,1.0184916,1.2193182,0.08977477,-0.012453549,-0.19334707,1.147201,0.29329,-1.3821911,0.8572836,-1.0205052,0.57280105,0.1588927,0.095142856,0.8746282
-0.2,-0.2,1.4,0.0,0.0,0,1.0373231,1.2915082,0.76417756,-0.12370415,-0.009919342,1.2517227,-0.6996062,-1.3762441,0.8437776,-1.0153525,0.5702942,0.18186294,0.12566027,-0.5392261
-0.2,-0.2,1.4,0.0,0.0,0,1.0665778,1.1000192,-0.07804153,-0.018071307,0.03679158,1.1384059,1.2432914,-1.3739158,0.852868,-1.0155073,0.57109237,0.2047674,0.11763427,-0.3220147
-0.2,-0.2,1.4,0.0,0.0,0,1.0335077,1.391255,0.37421158,-0.23085682,-0.1384082,1.3018842,0.12890849,-1.3726934,0.8530686,-1.0157396,0.57268804,0.11738226,0.08267275,0.69886816
-0.2,-0.2,1.4,0.0,0.0,0,0.9914884,1.355265,0.11011998,-0.096777886,0.22851573,1.087135,0.44268504,-1.3775514,0.84863377,-1.0112153,0.5715352,0.26789883,0.079605475,-0.68118477
-0.2,-0.2,1.4,0.0,0.0,0,1.0626699,1.2521679,0.30860397,-0.12735835,-0.03483299,1.217775,0.90347487,-1.3758374,0.8423819,-1.0206087,0.5700266,0.19283749,0.08100038,0.8118533
-0.2,-0.2,1.4,0.0,0.0,0,1.0641478,1.1276352,-0.24397403,-0.11758015,-0.3454159,1.2343453,-1.3658487,-1.3754413,0.84548485,-1.0152285,0.57211536,0.16192682,0.11296589,0.4039594
-0.2,-0.2,1.4,0.0,0.0,0,1.095314,1.1787398,0.5405909,0.086611524,-0.27067834,1.2745373,0.07301827,-1.3801821,0.8474251,-1.0159436,0.57296395,0.17543772,0.13836661,-0.31429973
-0.2,-0.2,1.4,0.0,0.0,0,1.059234,1.2780124,0.226541,-0.07214441,-0.009131874,1.283453,1.1189423,-1.375653,0.84469736,-1.0159955,0.57273513,0.14257145,0.14959656,-0.64309573
-0.2,-0.2,1.4,0.0,0.0,0,1.0946554,1.4276633,-0.015098838,-0.25363404,-0.1953529,1.29812,-0.0481487,-1.3786286,0.8429901,-1.0210195,0.5691238,0.26978704,0.11152843,0.22901015
-0.2,-0.2,1.4,0.0,0.0,0,1.0864886,1.0616262,-0.093864135,-0.17871156,0.33079022,1.0406653,0.753768,-1.3803082,0.85089856,-1.0133532,0.5709374,0.08448225,0.14399388,0.4450006
-0.2,-0.2,1.4,0.0,0.0,0,1.0610355,1.1767184,0.49726912,-0.062194765,-0.11426361,1.3207461,-0.056723528,-1.3744984,0.8628647,-1.0120926,0.5723214,0.16530998,0.104709424,0.107131794
-0.2,-0.2,1.4,0.0,0.0,0,1.0947793,1.127894,0.20833857,-0.11191169,0.28382713,1.1143142,-0.116847456,-1.3774853,0.84570533,-1.0165964,0.5708499,0.13494729,0.13544892,-0.87955415
-0.2,-0.2,1.4,0.0,0.0,0,1.0218182,1.1873755,-0.42645642,-0.19000626,-0.25156754,1.2126951,1.0294489,-1.3768771,0.85222805,-1.0190058,0.5723216,0.16073577,0.20976654,0.4094228
-0.2,-0.2,1.4,0.0,0.0,0,1.0671731,1.3268431,0.01077226,0.08560482,0.009478719,1.0155102,0.15184587,-1.3805752,0.83641535,-1.019277,0.5689119,0.1361107,0.10160915,0.13129488
-0.2,-0.2,1.4,0.0,0.0,0,1.076864,1.2225865,0.116450235,-0.11689997,-0.18912026,0.87401974,0.65232986,-1.3802289,0.8487387,-1.015151,0.57162994,0.21087751,0.10221859,0.08212907
-0.2,-0.2,1.4,0.0,0.0,0,1.0761636,0.9284624,-0.124573275,-0.046669155,-0.091218285,1.1575427,-0.5065081,-1.3738916,0.85159594,-1.0151267,0.57206476,0.17506073,0.12098374,0.30454203
-0.2,-0.2,1.4,0.0,0.0,0,1.0912929,1.355259,-0.19966072,-0.16609639,-0.18403074,1.1916119,0.7473573,-1.3793252,0.84820414,-1.0174801,0.57199085,0.25473806,0.058608282,0.43686652
-0.2,-0.2,1.4,0.0,0.0,0,1.1236345,1.1804292,-0.2268944,-0.12150558,-0.12981066,1.1622417,1.72909,-1.3746241,0.84230125,-1.0155495,0.57157433,0.13746397,0.111246236,-0.08838136
-0.2,-0.2,1.4,0.0,0.0,0,1.1228745,1.1668131,0.36772725,-0.16249679,-0.038504004,1.1881719,-0.0920256,-1.3766899,0.85607046,-1.0148329,0.5709884,0.2024822,0.106351405,0.29785576
-0.2,-0.2,1.4,0.0,0.0,0,1.0427259,1.2374111,-0.00532119,-0.15661347,-0.18501437,1.1970947,0.2898411,-1.3773775,0.8502645,-1.016285,0.57044554,0.23088285,0.10907227,0.9826634
-0.2,-0.2,1.4,0.0,0.0,0,1.0434309,1.3048759,0.3460536,-0.23325238,-0.06048101,1.2849772,0.20131959,-1.3779223,0.84992623,-1.0156747,0.57096255,0.21349567,0.10501131,0.28772235
-0.2,-0.2,1.4,0.0,0.0,0,1.0350673,1.0420637,0.3793875,-0.20078024,-0.41679597,1.0915529,1.4965113,-1.3743426,0.844612,-1.0188571,0.5705959,0.17933595,0.115230046,0.4471611
-0.2,-0.2,1.4,0.0,0.0,0,1.0800966,1.1465114,-0.1931967,-0.16492666,0.06089245,1.1863669,1.0423342,-1.3767779,0.84622115,-1.0137306,0.5705765,0.14611682,0.060621046,-0.4620921
-0.2,-0.2,1.4,0.0,0.0,0,1.1013473,1.239431,0.26272535,-0.14859211,-0.06449806,1.2588316,-1.0138978,-1.3723068,0.83775556,-1.0200692,0.57158357,0.16985495,0.10650157,-0.17654851
-0.2,-0.2,1.4,0.0,0.0,0,1.0980637,1.4362103,-0.0029002365,-0.13960944,-0.24317636,1.1380903,1.146664,-1.3781354,0.8451151,-1.0146407,0.5690503,0.1064356,0.104661636,0.68151826
-0.2,-0.2,1.4,0.0,0.0,0,0.99308145,1.3382155,-0.33481908,-0.1837703,-0.1534888,1.2807337,-0.5622585,-1.3720489,0.8297279,-1.017778,0.5709783,0.14554887,0.11537845,-0.42170182
-0.2,-0.2,1.4,0.0,0.0,0,1.1023525,1.1371073,0.20057356,-0.099036835,0.06631597,1.1753451,0.8474014,-1.376791,0.8464878,-1.0139306,0.57184684,0.174504,0.11661532,-0.17030951
-0.2,-0.2,1.4,0.0,0.0,0,1.0571765,1.2602156,-0.0938067,-0.1689881,0.18398367,1.1593202,-0.6424663,-1.3756082,0.8507874,-1.0144994,0.5730217,0.07554051,0.12018566,-0.111811884
-0.2,-0.2,1.4,0.0,0.0,0,1.0334642,1.2999771,0.38888538,-0.23533331,0.3014516,1.0969595,0.8142764,-1.3774599,0.8502063,-1.0170614,0.5712498,0.21489058,0.12607485,0.10203042
-0.2,-0.2,1.4,0.0,0.0,0,1.0369455,1.5427015,0.57360697,-0.15987918,-0.2891261,1.214242,1.1204702,-1.3756639,0.8524578,-1.0146582,0.571337,0.11614968,0.10219014,-0.23058833
-0.2,-0.2,1.4,0.0,0.0,0,1.099398,1.3618392,-0.05514142,-0.14071421,0.046965197,1.0738494,-0.90621114,-1.3773099,0.8496744,-1.0157624,0.5738793,0.15251957,0.14971612,0.37515545
-0.2,-0.2,1.4,0.0,0.0,0,1.0584513,1.0838276,0.37074,-0.17233786,-0.3573167,1.1038342,-0.13144296,-1.3762311,0.8507006,-1.0204867,0.57221663,0.15444063,0.13250214,-0.31022885
-0.2,-0.2,1.4,0.0,0.0,0,1.0134829,1.3530295,0.38312697,-0.14458586,-0.065099135,1.1819082,0.7444059,-1.3764597,0.8509605,-1.0214611,0.57162285,0.16401547,0.10236393,0.1282267
-0.2,-0.2,1.4,0.0,0.0,0,1.1337014,1.2140354,0.105871424,-0.033735882,0.12846233,1.0560728,-0.7966545,-1.3778327,0.85250217,-1.0182977,0.5730584,0.15328893,0.09706724,0.63829875
-0.2,-0.2,1.4,0.0,0.0,0,1.0308114,1.1035782,0.14468633,-0.039666697,0.02222691,1.1265198,-0.18104878,-1.3782271,0.8505946,-1.0169345,0.5690864,0.12516004,0.12901524,-0.2946114
-0.2,-0.2,1.4,0.0,0.0,0,1.0726813,1.4950643,0.12658988,-0.17981853,-0.061877266,1.1412623,0.080048606,-1.3728173,0.8508706,-1.0169797,0.57014453,0.12836969,0.05905391,0.29740024
-0.2,-0.2,1.4,0.0,0.0,0,1.0437566,1.2510887,0.33362865,-0.15913334,-0.09099695,1.1260045,0.35209894,-1.3726218,0.85153234,-1.0108973,0.5710228,0.09359933,0.16348256,0.43175614
-0.2,-0.2,1.4,0.0,0.0,0,1.0668209,1.2862171,0.22515726,-0.0021292167,0.01972919,1.2689339,0.45160377,-1.3727019,0.8466697,-1.0171211,0.575758,0.1521491,0.08289826,0.12628709
-0.2,-0.2,1.4,0.0,0.0,0,1.0055405,1.2544228,0.09593058,-0.112164594,-0.07979808,1.2041934,-0.097290106,-1.3725369,0.85006344,-1.0184425,0.57237756,0.16785468,0.14594033,1.1804357
-0.2,-0.2,1.4,0.0,0.0,0,1.0902966,1.4156576,0.028727433,-0.15139604,0.12577336,1.0282254,0.3176535,-1.3754858,0.85118914,-1.0157515,0.5727477,0.0822458,0.096196644,-1.0421875
-0.2,-0.2,1.4,0.0,0.0,0,1.0913785,1.3825653,-0.043003246,-0.21509546,-0.13338877,1.1525601,-0.435435,-1.3724952,0.85280186,-1.0193005,0.57154334,0.112427376,0.08675037,0.48691618
-0.2,-0.2,1.4,0.0,0.0,0,1.0640875,1.18179,-0.010962158,-0.047215648,-0.010397939,0.9917536,1.9131277,-1.3735318,0.8438892,-1.0178987,0.57041955,0.18501309,0.12150972,-0.008306761
-0.2,-0.2,1.4,0.0,0.0,0,1.0426518,1.1507041,0.3409047,-0.048848953,-0.2328577,1.2255749,2.5051386,-1.3771296,0.84172523,-1.0149094,0.5705535,0.21323013,0.15735659,-0.1736998
-0.2,-0.2,1.4,0.0,0.0,0,1.0474378,1.1191437,0.3804478,-0.06720845,0.17036848,1.0883166,1.6961384,-1.3766756,0.8509777,-1.0155848,0.57069874,0.19348213,0.15688995,0.70800966
-0.2,-0.2,1.4,0.0,0.0,0,1.0181587,1.2108052,-0.071328744,-0.09936406,-0.09139881,1.2647153,1.1250664,-1.3740071,0.84332216,-1.0127485,0.572093,0.1803739,0.1149679,0.12955736
-0.2,-0.2,1.4,0.0,0.0,0,1.0965859,1.1142623,-0.07027375,-0.04266366,-0.2844166,1.1996467,1.5727098,-1.3779037,0.84334546,-1.0177298,0.57119507,0.20415959,0.13361943,0.3173108
-0.2,-0.2,1.4,0.0,0.0,0,1.0656115,1.2882032,0.10959646,-0.14889699,0.2519348,1.2576332,0.34454027,-1.378739,0.8614119,-1.0179415,0.5689088,0.19675495,0.0998808,0.6958286
-0.2,-0.2,1.4,0.0,0.0,0,1.0509633,1.1420577,0.021944875,-0.22578184,-0.15018521,1.2350276,0.4260764,-1.3705717,0.8504434,-1.011831,0.5709503,0.12651971,0.10709844,-0.91739106
-0.2,-0.2,1.4,0.0,0.0,0,1.060502,1.3777248,0.30228713,-0.012139952,-0.22832212,1.1652695,0.1573784,-1.3753672,0.84404975,-1.0169888,0.5744763,0.23707953,0.13417308,0.23265624
-0.2,-0.2,1.4,0.0,0.0,0,1.0987968,1.1596334,0.35341132,-0.10463735,0.15011385,1.0430342,-0.23598416,-1.3790916,0.8478507,-1.017025,0.5707382,0.11777255,0.029835252,0.4365022
-0.2,-0.2,1.4,0.0,0.0,0,1.0056515,1.0904031,0.131168,0.048441388,0.14675756,1.1491148,0.6888685,-1.3732069,0.85403115,-1.0131495,0.5688904,0.13030554,0.050786555,-0.529225
-0.2,-0.2,1.4,0.0,0.0,0,0.9834761,1.0829891,0.05331919,-0.14878678,-0.14599784,1.0972403,0.7520056,-1.380097,0.85622,-1.0129057,0.57094014,0.106147334,0.0953661,0.66989404
-0.2,-0.2,1.4,0.0,0.0,0,1.0811099,1.3852352,0.60593027,-0.09602829,0.31192407,1.1023133,-2.3042164,-1.3733474,0.8476123,-1.0193429,0.5708908,0.14292316,0.14945887,-0.53581816
-0.2,-0.2,1.4,0.0,0.0,0,1.0885571,1.2249323,0.24549925,-0.17617832,0.05376325,1.1401517,0.17297354,-1.3810544,0.8596442,-1.0094645,0.57057345,0.15874423,0.12622675,0.97829145
-0.2,-0.2,1.4,0.0,0.0,0,1.0613569,1.0802052,0.4629018,-0.07856838,-0.09120332,1.1577238,0.6509404,-1.3825419,0.84812784,-1.0145615,0.5686672,0.22792563,0.09892752,0.7242922
-0.2,-0.2,1.4,0.0,0.0,0,0.9627828,1.1846578,-0.05282448,-0.105496325,0.27514592,0.98758763,1.1623139,-1.3786213,0.85074645,-1.0164585,0.5715786,0.19670656,0.09020633,0.25167704
-0.2,-0.2,1.4,0.0,0.0,0,1.000127,0.9055287,0.25108775,-0.107252344,-0.06931667,1.2027602,-0.53636193,-1.369654,0.84365857,-1.0210749,0.570057,0.14228646,0.16326816,0.73121566
-0.2,-0.2,1.4,0.0,0.0,0,1.0235115,1.0584788,0.11251098,-0.11260894,-0.0918413,1.1045831,-1.4964856,-1.3763217,0.84840596,-1.0208611,0.57224506,0.18040085,0.06327857,0.48170242
-0.2,-0.2,1.4,0.0,0.0,0,1.0293026,1.5337864,0.13315511,0.08446697,-0.12712827,1.1156344,-0.24584508,-1.3744601,0.85082513,-1.0201432,0.5713711,0.1405957,0.08115496,0.28536513
-0.2,-0.2,1.4,0.0,0.0,0,1.0660201,1.238532,0.33960852,-0.029376486,-0.258282,1.1885699,0.4988148,-1.3748628,0.8451721,-1.0179727,0.5715112,0.1134637,0.14500818,0.22452408
-0.2,-0.2,1.4,0.0,0.0,0,1.0973614,1.0654724,0.36947376,-0.06344839,-0.055691812,0.9080733,0.46381718,-1.3729572,0.8434036,-1.0119313,0.57495564,0.26140913,0.13670185,-0.10674757
-0.2,-0.2,1.4,0.0,0.0,0,1.0433699,1.0423807,-0.16364741,-0.21645582,-0.037581936,1.0445151,0.110142335,-1.3767115,0.8508752,-1.0158174,0.56607735,0.1374805,0.12764172,0.445969
-0.2,-0.2,1.4,0.0,0.0,0,1.0547563,1.2958167,0.2570689,-0.12348658,-0.09751091,1.150423,0.03236745,-1.3803271,0.8520027,-1.0180312,0.57198596,0.13486211,0.14144209,0.16418809
-0.2,-0.2,1.4,0.0,0.0,0,1.0742298,1.1136307,0.29780838,0.048236724,0.29351676,1.4011542,1.1991414,-1.3749247,0.84229267,-1.0173926,0.5718953,0.17246121,0.109509185,0.3161338
-0.2,-0.2,1.4,0.0,0.0,0,1.032092,1.2625365,0.5591781,-0.18441519,-0.0200159,1.2937623,-0.63333297,-1.3726939,0.8494185,-1.0198478,0.56753176,0.16265227,0.11958383,0.012720872
-0.2,-0.2,1.4,0.0,0.0,0,1.0994602,1.4040903,0.10887587,-0.10164522,-0.010357563,1.1144567,0.7938888,-1.3808796,0.8502387,-1.0160997,0.5695055,0.10686822,0.088676035,-0.24696451
-0.2,-0.2,1.4,0.0,0.0,0,1.0466967,1.2546085,0.45813027,-0.050991204,0.12372167,1.2864237,1.6311761,-1.3780904,0.8428003,-1.0116395,0.5697115,0.11047987,0.12096545,0.08287267
-0.2,-0.2,1.4,0.0,0.0,0,1.044013,1.4117967,0.038367186,-0.16872153,-0.2907783,0.9757849,0.48733798,-1.3722615,0.8483924,-1.0126376,0.57076466,0.20711619,0.14740592,0.074591875
-0.2,-0.2,1.4,0.0,0.0,0,1.0454015,1.3784748,0.22065441,-0.26971298,0.046769656,1.0349488,1.401462,-1.3754737,0.84668684,-1.018401,0.5712476,0.15086247,0.10111487,-0.60989416
-0.2,-0.2,1.4,0.0,0.0,0,1.0886858,1.3896037,0.54607654,-0.0038696965,-0.29763556,1.1805366,-0.335118,-1.380388,0.8543796,-1.0137681,0.5708894,0.112818286,0.11191921,0.28804147
-0.2,-0.2,1.4,0.0,0.0,0,1.0239867,1.2283114,0.5591826,-0.094389774,-0.12300414,1.1740206,0.32562348,-1.3770529,0.85281557,-1.0183923,0.5707418,0.18837954,0.101495035,0.27295837
-0.2,-0.2,1.4,0.0,0.0,0,1.1243855,1.3254578,0.014541001,0.021128321,0.08542239,1.0034397,-0.10534482,-1.3809141,0.8456807,-1.0151315,0.57418066,0.15026543,0.041150946,0.37956724
-0.2,-0.2,1.4,0.0,0.0,0,1.1086694,1.2252287,0.19326352,-0.050824136,-0.15092811,1.234783,0.23110496,-1.373276,0.8509163,-1.0141603,0.57288486,0.082270004,0.119403355,-0.14765659
-0.2,-0.2,1.4,0.0,0.0,0,1.015112,1.3604238,0.30250967,-0.052177303,-0.17639005,1.1403316,0.10215352,-1.3706253,0.84519565,-1.0208589,0.5683467,0.15688477,0.115756415,0.156828
-0.2,-0.2,1.4,0.0,0.0,0,1.0334582,1.2919688,-0.09368075,-0.22547077,0.42892632,1.2117895,1.5260682,-1.3747633,0.8581299,-1.0166599,0.5717477,0.12815341,0.10444721,0.2956055
-0.2,-0.2,1.4,0.0,0.0,0,1.0900763,1.208888,0.28291386,-0.14340429,-0.30460298,0.8768917,0.8555199,-1.3760343,0.84831214,-1.0149839,0.5736666,0.18948027,0.10544376,-0.23734638
-0.2,-0.2,1.4,0.0,0.0,0,1.0710931,1.3679597,0.22287823,0.037321765,-0.15277928,1.0502163,0.3703613,-1.3771422,0.8502312,-1.0150084,0.5695885,0.14175011,0.081799574,0.199766
-0.2,-0.2,1.4,0.0,0.0,0,1.0668705,1.1932771,-0.11132926,-0.2261616,0.09604506,0.99207884,1.924555,-1.3749713,0.8532042,-1.0188454,0.57241017,0.18240035,0.09239603,-0.41884208
-0.2,-0.2,1.4,0.0,0.0,0,1.0757567,1.208427,0.057759736,-0.053885024,-0.2236803,1.1412681,0.5451823,-1.3720514,0.8439662,-1.0174131,0.5718349,0.18750186,0.13162115,-0.19661884
-0.2,-0.2,1.4,0.0,0.0,0,1.0233886,1.3574567,0.44250458,-0.26658484,-0.23008691,1.2144821,-1.3890592,-1.3754694,0.8406395,-1.0167602,0.57240725,0.2614559,0.074653715,0.04802223
-0.2,-0.2,1.4,0.0,0.0,0,1.1037744,1.0548985,-0.02881455,-0.10109441,-0.0090248715,1.0848515,0.49914697,-1.3802824,0.85417396,-1.0172848,0.5686376,0.17668161,0.10222259,0.1607326
-0.2,-0.2,1.4,0.0,0.0,0,1.0980552,1.2430594,0.050369706,-0.056673996,0.20587951,1.2655592,1.7370958,-1.3746606,0.8501956,-1.0171338,0.5711216,0.105990775,0.08397886,-0.24629587
-0.2,-0.2,1.4,0.0,0.0,0,1.1439707,1.3351318,0.056167,-0.17339431,0.14336696,1.3143799,0.19321097,-1.3716185,0.8365925,-1.0185384,0.5699523,0.21613628,0.14628105,0.54561883
-0.2,-0.2,1.4,0.0,0.0,0,1.124226,1.3703357,0.16630353,-0.18926157,0.098721534,1.10959,0.09260619,-1.3808174,0.85489774,-1.0187478,0.56957984,0.044321764,0.14144038,-0.09573497
-0.2,-0.2,1.4,0.0,0.0,0,1.0493927,1.4282393,-0.12260624,-0.13958299,0.122404054,1.1403762,0.14561729,-1.3758991,0.8555147,-1.0172673,0.57188994,0.12743711,0.16302402,-0.025921596
-0.2,-0.2,1.4,0.0,0.0,0,1.0405617,1.3051493,-0.49403214,-0.125109,0.032913424,1.26389,-0.79049563,-1.3729337,0.846028,-1.015118,0.57076323,0.19229554,0.107376374,-0.23273733
-0.2,-0.2,1.4,0.0,0.0,0,1.1269646,1.2360036,-0.10189582,-0.005921114,0.07346742,1.2314204,-1.2151011,-1.377159,0.84460837,-1.0152472,0.5718833,0.11662245,0.07217742,0.10751844
-0.2,-0.2,1.4,0.0,0.0,0,1.0498441,1.310627,0.0464463,-0.015414864,0.13113645,1.2392691,0.5644924,-1.3757235,0.8617323,-1.0182507,0.571454,0.18751884,0.09236342,0.15522301
-0.2,-0.2,1.4,0.0,0.0,0,1.0178658,1.3157773,-0.31859788,-0.09764513,-0.057634313,0.90742457,0.35443234,-1.3744643,0.842322,-1.0162979,0.5683553,0.1784244,0.11121495,0.3136406
-0.2,-0.2,1.4,0.0,0.0,0,1.0429153,1.4224561,0.21651244,-0.06367245,0.42244467,1.1598269,1.6563672,-1.3804477,0.85602176,-1.0133476,0.5710128,0.19198875,0.14950173,-0.57979083
-0.2,-0.2,1.4,0.0,0.0,0,1.0777178,1.4593245,0.14833394,-0.141715,-0.39300936,1.2386374,-1.8072315,-1.3777616,0.8438995,-1.0131835,0.57122076,0.14824997,0.11034505,0.2977521
-0.2,-0.2,1.4,0.0,0.0,0,1.0490865,1.1362007,0.5173229,-0.13960193,-0.11768776,1.0595846,-0.94393396,-1.3749131,0.8548368,-1.0135447,0.5704906,0.13998094,0.122840114,0.17001039
-0.2,-0.2,1.4,0.0,0.0,0,1.0442305,1.261067,0.11462213,-0.10606377,0.20890184,1.1055789,-0.09115041,-1.3758937,0.84750634,-1.0159674,0.5728305,0.1452675,0.117465906,0.16128987
-0.2,-0.2,1.4,0.0,0.0,0,1.1203865,1.1888613,0.09682566,-0.07039888,-0.12515993,1.3290017,0.1885805,-1.3746885,0.8450253,-1.0128344,0.5704841,0.17901638,0.095819525,0.6944522
-0.2,-0.2,1.4,0.0,0.0,0,1.0066979,1.2200904,0.38448066,-0.114369184,-0.14433767,1.0965219,0.46749112,-1.3759183,0.86008316,-1.0175482,0.56949437,0.14265904,0.09538912,-0.4649881
-0.2,-0.2,1.4,0.0,0.0,0,1.081766,1.3346494,0.02183087,-0.09527894,0.07263436,1.0495514,0.16483508,-1.3723651,0.847937,-1.0196356,0.5713238,0.10001444,0.1215956,-0.90830004
-0.2,-0.2,1.4,0.0,0.0,0,1.0076927,1.3365037,0.00015997795,-0.100943826,0.2884187,1.3230953,-0.9204417,-1.3766574,0.8659823,-1.0166988,0.5719462,0.13683607,0.10528963,-0.41491768
-0.2,-0.2,1.4,0.0,0.0,0,1.032635,1.1783001,-0.18651503,-0.11667124,-0.035083693,1.3084038,-1.6880386,-1.3805646,0.8486961,-1.018761,0.57365227,0.23924656,0.1784121,0.06273552
-0.2,-0.2,1.4,0.0,0.0,0,1.0897607,1.3907328,0.13572542,-0.042045042,-0.07622465,0.97847897,0.18690005,-1.3773633,0.8498157,-1.0177383,0.5728444,0.11557182,0.070542894,-0.24553703
-0.2,-0.2,1.4,0.0,0.0,0,1.1226244,1.0845445,-0.5292971,-0.1952921,0.041895956,1.1782742,-1.57369,-1.3759689,0.8486463,-1.0162795,0.571684,0.09876396,0.1338156,0.019771446
-0.2,-0.2,1.4,0.0,0.0,0,1.0827814,1.2697278,0.036881812,-0.19791415,-0.039735433,0.9887169,-1.3467077,-1.3718851,0.84669197,-1.020383,0.57109195,0.12690678,0.117250934,0.23210016
-0.2,-0.2,1.4,0.0,0.0,0,1.075031,1.2808669,0.39659765,-0.31844833,-0.23056391,1.1658475,0.87987685,-1.3747988,0.8606403,-1.0208138,0.57246965,0.15688592,0.1798897,0.6881106
-0.2,-0.2,1.4,0.0,0.0,0,1.09426,1.1622525,0.07906857,-0.18476693,-0.16249064,1.1465775,-0.20837711,-1.3781533,0.8424367,-1.0140399,0.57281315,0.10684829,0.10753049,-0.35605314
-0.2,-0.2,1.4,0.0,0.0,0,1.1329383,1.3467146,0.34692833,-0.14585626,-0.14475581,1.0866238,0.51120514,-1.3750458,0.84287226,-1.0186,0.5697703,0.14022785,0.15779798,-0.38926086
-0.2,-0.2,1.4,0.0,0.0,0,1.0155389,1.3311473,0.10226472,-0.1884705,0.011180181,1.1442549,-0.6060429,-1.3683795,0.84486914,-1.0212166,0.5731818,0.13031949,0.10700972,0.36740246
-0.2,-0.2,1.4,0.0,0.0,0,1.0925314,1.3834277,0.56801933,-0.040921498,-0.12575476,1.2496827,-0.34960255,-1.3731887,0.8502032,-1.0095135,0.5695021,0.13413544,0.10488681,0.2574649
-0.2,-0.2,1.4,0.0,0.0,0,1.0198568,1.050608,-0.41757873,-0.14514644,-0.1506097,1.0967568,-0.23530708,-1.3743793,0.84228253,-1.018455,0.5709674,0.11731736,0.06577527,0.43160155
-0.2,-0.2,1.4,0.0,0.0,0,1.0944104,1.1571195,0.66561747,-0.08175491,0.39901674,1.1828128,0.25094497,-1.372907,0.85305876,-1.0154568,0.5703134,0.19834995,0.09258637,0.6096988
-0.2,-0.2,1.4,0.0,0.0,0,1.0901209,1.358693,0.26986802,-0.006863292,-0.028952653,1.1510289,0.08875343,-1.3787547,0.84928566,-1.0165066,0.57039,0.22990707,0.14265509,-0.16188148
-0.2,-0.2,1.4,0.0,0.0,0,1.1199657,1.3915159,0.1423311,-0.047826443,-0.0145933265,0.95901525,0.53638315,-1.3775309,0.8363296,-1.0173293,0.5700926,0.19635554,0.14829545,0.23029807
-0.2,-0.2,1.4,0.0,0.0,0,1.000394,1.1197925,-0.29351103,-0.2197649,0.0460112,1.1179072,-0.371115,-1.3774686,0.83498836,-1.0129739,0.57186276,0.20333178,0.113772675,0.42113414
