sanky1234/BimanualDexCatch/isaacgymenvs/cem_results/football_pose_-0.1_0.1_1.2999999999999998_0.0_-0.5235987755982988_0_2025-05-26.csv
x,y,z,roll,pitch,yaw,robot1/joint1,robot1/joint2,robot1/joint3,robot1/joint4,robot1/joint5,robot1/joint6,robot1/joint7,robot2/joint1,robot2/joint2,robot2/joint3,robot2/joint4,robot2/joint5,robot2/joint6,robot2/joint7
-0.1,0.1,1.2999999999999998,0.0,-0.5235987755982988,0,0.4694469,-0.32111907,1.2085103,0.6818376,-0.13247451,0.5138837,0.4453117,0.6473439,-1.4774573,-0.54785347,-0.0515107,0.28914568,1.1031647,0.94999146
-0.1,0.1,1.2999999999999998,0.0,-0.5235987755982988,0,0.46784872,-0.3224246,1.2101319,0.6796484,-0.1150066,0.33776152,0.49181372,0.654789,-1.4542395,-0.5650471,0.030080115,0.13530536,1.0752265,1.2579839
-0.1,0.1,1.2999999999999998,0.0,-0.5235987755982988,0,0.46732202,-0.32070312,1.2103513,0.68222827,-0.101170346,0.20315608,1.0904785,0.651486,-1.4549791,-0.6855883,0.017338796,-0.061428275,1.08894,-0.4756239
-0.1,0.1,1.2999999999999998,0.0,-0.5235987755982988,0,0.46764648,-0.32265723,1.2094287,0.67998517,-0.1209626,0.5603483,0.88708353,0.64168596,-1.4644096,-0.60583365,-0.08032748,-0.09682422,1.0663198,-0.5699256
-0.1,0.1,1.2999999999999998,0.0,-0.5235987755982988,0,0.47128674,-0.31992343,1.2096101,0.6823685,-0.11033224,0.4619475,0.37297055,0.5953809,-1.4358879,-0.5993433,-0.039963394,0.074204445,1.1935145,0.4290908
-0.1,0.1,1.2999999999999998,0.0,-0.5235987755982988,0,0.46895015,-0.3222431,1.2094746,0.6826386,-0.09074447,0.4315679,0.3289329,0.65199834,-1.4482262,-0.6414914,-0.0396118,0.13084382,1.0521524,0.21011712
-0.1,0.1,1.2999999999999998,0.0,-0.5235987755982988,0,0.46915448,-0.32005683,1.2118118,0.6810504,-0.046606757,0.25704053,-0.08781141,0.6520069,-1.4427849,-0.35542038,-0.09443929,0.12514193,1.0910602,-0.54444045
-0.1,0.1,1.2999999999999998,0.0,-0.5235987755982988,0,0.4696473,-0.32108834,1.2087644,0.68330324,-0.15021299,0.49168545,0.5107723,0.6314149,-1.4572349,-0.44726047,-0.10130419,0.111460686,1.1400547,-0.021268457
-0.1,0.1,1.2999999999999998,0.0,-0.5235987755982988,0,0.4696899,-0.32191938,1.2080699,0.6839823,-0.10519538,0.487594,0.29912674,0.6337737,-1.4457947,-0.42730644,-0.056523174,-0.0135137,1.1182775,0.5304833
-0.1,0.1,1.2999999999999998,0.0,-0.5235987755982988,0,0.46842483,-0.32346362,1.2092538,0.67989045,-0.14289092,0.34714326,0.972714,0.6270294,-1.4440604,-0.6787697,-0.071820274,-0.015943581,1.1807977,-0.26535907
-0.1,0.1,1.2999999999999998,0.0,-0.5235987755982988,0,0.4682982,-0.32345095,1.206917,0.68291456,-0.1283023,0.47655064,0.5320107,0.642967,-1.4445107,-0.7386508,-0.03790497,0.118505575,1.0606501,0.44345385
-0.1,0.1,1.2999999999999998,0.0,-0.5235987755982988,0,0.4708813,-0.32024503,1.2104598,0.6821317,-0.13052882,0.5027735,1.466406,0.65241677,-1.4589757,-0.63914454,-0.09993208,0.15703267,1.1496418,0.91876185
-0.1,0.1,1.2999999999999998,0.0,-0.5235987755982988,0,0.46924692,-0.3219165,1.2076573,0.68510723,-0.060338374,0.483756,1.1012194,0.6458688,-1.4529184,-0.39387995,-0.037037246,0.15567613,1.1506226,-0.7097107
-0.1,0.1,1.2999999999999998,0.0,-0.5235987755982988,0,0.46951178,-0.32080835,1.209394,0.6824398,-0.06200134,0.40718037,0.43139863,0.6633794,-1.474387,-0.57911587,-0.024633221,0.041400783,1.1311903,0.3907677
-0.1,0.1,1.2999999999999998,0.0,-0.5235987755982988,0,0.46811637,-0.3217459,1.2103745,0.6783008,-0.18804333,0.19384232,0.07197776,0.6642027,-1.4664922,-0.42709196,-0.08401603,-0.06032301,1.1396763,-0.98906744
-0.1,0.1,1.2999999999999998,0.0,-0.5235987755982988,0,0.46997908,-0.32215765,1.2081047,0.6822242,-0.123393446,0.34782714,1.3157645,0.6551812,-1.4632069,-0.5305755,-0.011274826,0.18696788,1.122078,-1.6087886
-0.1,0.1,1.2999999999999998,0.0,-0.5235987755982988,0,0.46845907,-0.32332447,1.2097224,0.6792936,-0.08644264,0.3407309,0.6007295,0.63122845,-1.4529681,-0.44178614,-0.060823143,0.15296677,1.1061933,0.4893897
-0.1,0.1,1.2999999999999998,0.0,-0.5235987755982988,0,0.46821055,-0.32164088,1.210088,0.68361425,-0.09440327,0.34640807,0.5057134,0.65895677,-1.4579444,-0.555351,-0.081229135,-0.0044358815,1.1288952,0.10495213
-0.1,0.1,1.2999999999999998,0.0,-0.5235987755982988,0,0.4687896,-0.32241455,1.2097703,0.68361604,-0.10357571,0.35972413,0.434274,0.6596946,-1.460905,-0.4938325,-0.02282419,0.20066105,1.113581,0.91267365
-0.1,0.1,1.2999999999999998,0.0,-0.5235987755982988,0,0.46797466,-0.3241252,1.2089456,0.6778527,-0.086965926,0.41355723,0.9181613,0.67374337,-1.4603244,-0.6206251,0.031397354,0.114816874,1.1038494,-0.21879351
-0.1,0.1,1.2999999999999998,0.0,-0.5235987755982988,0,0.4712113,-0.3221503,1.2083415,0.68051726,-0.11850278,0.38856092,1.2095252,0.6531179,-1.4485127,-0.5968235,-0.03572888,0.13173369,1.0897945,-0.22431284
-0.1,0.1,1.2999999999999998,0.0,-0.5235987755982988,0,0.4693405,-0.32283646,1.2081611,0.6820725,-0.07510219,0.4992455,1.0573761,0.6669789,-1.4313505,-0.53426456,-0.09613531,-0.043984096,1.0659996,-0.6583107
-0.1,0.1,1.2999999999999998,0.0,-0.5235987755982988,0,0.4691792,-0.32219467,1.2092615,0.6775238,-0.130608,0.38544947,0.14675143,0.6678942,-1.4615095,-0.69194466,-0.013627948,-0.058301713,1.1151788,1.0747497
-0.1,0.1,1.2999999999999998,0.0,-0.5235987755982988,0,0.46855178,-0.32106933,1.2112118,0.6801826,-0.12504806,0.42104164,1.3564035,0.65138453,-1.4389267,-0.6770852,0.0069368607,-0.065488175,1.1892998,0.17874768
-0.1,0.1,1.2999999999999998,0.0,-0.5235987755982988,0,0.46829256,-0.32107267,1.2090529,0.68524855,-0.21370219,0.38056412,1.3827652,0.6468017,-1.4631221,-0.4999351,0.007855726,0.0016823956,1.030426,0.012168655
-0.1,0.1,1.2999999999999998,0.0,-0.5235987755982988,0,0.4698237,-0.32003185,1.2110351,0.6786177,-0.098958015,0.39791468,0.5847986,0.67180634,-1.4807597,-0.63473386,-0.047616143,-0.14502956,1.1972028,-0.006395816
-0.1,0.1,1.2999999999999998,0.0,-0.5235987755982988,0,0.46953493,-0.32244757,1.2095581,0.68455577,-0.121168464,0.40202704,0.7999376,0.6709645,-1.443166,-0.5858286,0.003981942,0.1794261,1.0996021,0.09334866
-0.1,0.1,1.2999999999999998,0.0,-0.5235987755982988,0,0.46802142,-0.32123938,1.2097018,0.6822817,-0.115518816,0.40654927,0.7514716,0.6508825,-1.4532921,-0.5040999,0.009546138,0.07098452,1.0659972,-0.16963533
-0.1,0.1,1.2999999999999998,0.0,-0.5235987755982988,0,0.4682288,-0.32313484,1.2091905,0.6851769,-0.093083434,0.3682876,0.34506726,0.6756373,-1.4448725,-0.5514612,-0.04092064,0.0259908,1.0586894,0.070443414
-0.1,0.1,1.2999999999999998,0.0,-0.5235987755982988,0,0.46663615,-0.32375494,1.2100732,0.6824903,-0.10730823,0.4033114,0.36530766,0.62223023,-1.4637141,-0.6121359,-0.09244869,0.09270508,1.1206825,0.4118926
-0.1,0.1,1.2999999999999998,0.0,-0.5235987755982988,0,0.47069353,-0.32330707,1.2071745,0.68193585,-0.15376942,0.35793808,0.44950035,0.62864155,-1.4609804,-0.5551085,-0.10796149,0.055974368,1.1609228,-0.58835703
-0.1,0.1,1.2999999999999998,0.0,-0.5235987755982988,0,0.46867183,-0.3212866,1.2094984,0.6824161,-0.0975453,0.32260785,1.1540873,0.6506027,-1.4564764,-0.57270664,-0.078415684,0.23880029,1.0488355,-0.5745697
-0.1,0.1,1.2999999999999998,0.0,-0.5235987755982988,0,0.46848541,-0.3217129,1.2107009,0.6805816,-0.14457053,0.47061467,0.027764574,0.67879075,-1.4661549,-0.7031562,-0.018084567,0.03600083,1.1064805,0.42441246
-0.1,0.1,1.2999999999999998,0.0,-0.5235987755982988,0,0.46908966,-0.32363164,1.2084913,0.6823022,-0.12994458,0.33275688,0.9776706,0.6537789,-1.4426866,-0.6879993,-0.04283666,0.03266331,1.144401,-0.40125656
-0.1,0.1,1.2999999999999998,0.0,-0.5235987755982988,0,0.46864545,-0.32339412,1.2066782,0.68185186,-0.098382145,0.4512315,0.5461094,0.61976814,-1.4409531,-0.58763605,-0.048518978,-0.13719024,1.103673,-0.39782584
-0.1,0.1,1.2999999999999998,0.0,-0.5235987755982988,0,0.46934402,-0.3224871,1.2090747,0.68226916,-0.13032262,0.3908613,0.45718837,0.62735754,-1.4510238,-0.42080393,-0.012024604,0.17737797,1.0439378,-1.0480018
-0.1,0.1,1.2999999999999998,0.0,-0.5235987755982988,0,0.46846628,-0.32230908,1.2096146,0.6807593,-0.13056684,0.40221825,1.2937212,0.6358071,-1.4550995,-0.6160027,-0.07457576,-0.18386829,1.1861305,0.5116022
-0.1,0.1,1.2999999999999998,0.0,-0.5235987755982988,0,0.46903345,-0.323009,1.2092897,0.679223,-0.1256209,0.4750169,1.216779,0.6632997,-1.466482,-0.78287935,-0.10551756,0.06252079,1.1346793,-0.9987783
-0.1,0.1,1.2999999999999998,0.0,-0.5235987755982988,0,0.46683732,-0.32165325,1.2098411,0.68169117,-0.14717244,0.3449057,0.6082887,0.6657608,-1.438926,-0.47171113,-0.11356608,-0.095445745,1.0000606,0.3082357
-0.1,0.1,1.2999999999999998,0.0,-0.5235987755982988,0,0.46849465,-0.32305998,1.2096578,0.68378234,-0.120157644,0.39114544,0.16256347,0.6611064,-1.4515194,-0.72340375,-0.0603971,0.28564242,1.0740995,-0.61480576
-0.1,0.1,1.2999999999999998,0.0,-0.5235987755982988,0,0.46971813,-0.32152113,1.2096845,0.6849947,-0.11634545,0.32358512,0.06198109,0.63322806,-1.4433949,-0.71500534,-0.0346094,-0.031157985,1.1127137,-0.94446355
-0.1,0.1,1.2999999999999998,0.0,-0.5235987755982988,0,0.4691888,-0.32162896,1.2105461,0.68232423,-0.12440969,0.3717421,0.90153974,0.66633546,-1.4505379,-0.549953,-0.032899372,0.07969306,1.1103516,0.58290786
-0.1,0.1,1.2999999999999998,0.0,-0.5235987755982988,0,0.4681127,-0.32248065,1.2095021,0.68340594,-0.032579526,0.40908372,0.625961,0.6646926,-1.4597605,-0.5851699,-0.03267117,0.10793977,1.0490917,0.88585675
-0.1,0.1,1.2999999999999998,0.0,-0.5235987755982988,0,0.4676188,-0.3217358,1.2093904,0.68044996,-0.13874674,0.40057486,1.1233858,0.63955665,-1.4641429,-0.552088,-0.08046819,0.2862249,1.1633087,-0.26395378
-0.1,0.1,1.2999999999999998,0.0,-0.5235987755982988,0,0.47088674,-0.32058382,1.2087455,0.68391,-0.14908208,0.5205388,-0.19871484,0.65571743,-1.4584539,-0.49068603,-0.05099066,-0.04358341,1.1369423,0.119865015
-0.1,0.1,1.2999999999999998,0.0,-0.5235987755982988,0,0.46939766,-0.32010186,1.2094766,0.6822176,-0.14196335,0.37521285,0.70079,0.6163686,-1.4542717,-0.3315173,-0.12860891,0.112080544,1.1928079,0.13704225
-0.1,0.1,1.2999999999999998,0.0,-0.5235987755982988,0,0.46837083,-0.32162386,1.2109368,0.6804547,-0.08570104,0.3976331,0.5508554,0.63565195,-1.4592212,-0.49601585,-0.06039484,0.095948525,1.145136,-0.812653
-0.1,0.1,1.2999999999999998,0.0,-0.5235987755982988,0,0.46657562,-0.3214335,1.2101026,0.6842346,-0.11772836,0.32285872,1.2037952,0.632778,-1.4570969,-0.72894657,-0.024205131,0.19112448,1.092068,0.027614852
-0.1,0.1,1.2999999999999998,0.0,-0.5235987755982988,0,0.4687628,-0.3237033,1.2082874,0.6826769,-0.08603921,0.36141568,0.12676299,0.6475754,-1.4518765,-0.60744363,-0.11515747,-0.023311606,1.0837352,-0.663662
-0.1,0.1,1.2999999999999998,0.0,-0.5235987755982988,0,0.46695763,-0.323405,1.2084475,0.6807183,-0.10908163,0.46832794,0.09253505,0.654083,-1.4608372,-0.5590723,-0.096770056,0.04213362,1.0889142,0.2321505
-0.1,0.1,1.2999999999999998,0.0,-0.5235987755982988,0,0.46810424,-0.32028282,1.2104102,0.6766942,-0.12481816,0.2770967,0.7964875,0.65082335,-1.465234,-0.706553,-0.04794976,-0.057980426,1.057134,-0.3692497
-0.1,0.1,1.2999999999999998,0.0,-0.5235987755982988,0,0.46864754,-0.3197586,1.2091709,0.6824034,-0.096542194,0.55278707,1.8381449,0.68299454,-1.4537649,-0.6488659,-0.012944817,-0.12360422,0.9578521,0.36368254
-0.1,0.1,1.2999999999999998,0.0,-0.5235987755982988,0,0.46939608,-0.32008854,1.2102345,0.6815159,-0.09655452,0.42030948,0.5129697,0.670343,-1.4526609,-0.58971775,-0.039571792,0.10988212,1.125071,-0.13197495
-0.1,0.1,1.2999999999999998,0.0,-0.5235987755982988,0,0.470636,-0.32181975,1.2064272,0.68418115,-0.17571324,0.21925229,0.6480911,0.64236444,-1.4397678,-0.41583002,-0.038693827,0.040287204,1.0463873,-0.26593995
-0.1,0.1,1.2999999999999998,0.0,-0.5235987755982988,0,0.46876118,-0.32524458,1.2083932,0.68047696,-0.121643454,0.42211056,0.97567546,0.6152201,-1.4504279,-0.42926502,-0.050987083,0.06595676,1.1019295,-0.6199548
-0.1,0.1,1.2999999999999998,0.0,-0.5235987755982988,0,0.46639168,-0.32260516,1.2083538,0.68213695,-0.17635435,0.38192567,-0.048123382,0.6497707,-1.4402957,-0.5371713,0.007112241,0.31452104,1.1121618,-0.6799532
-0.1,0.1,1.2999999999999998,0.0,-0.5235987755982988,0,0.46839726,-0.3205694,1.2092085,0.67651486,-0.058155324,0.19420835,1.1420758,0.66068304,-1.4441041,-0.5055072,-0.054626748,0.31935683,1.20258,-0.051818345
-0.1,0.1,1.2999999999999998,0.0,-0.5235987755982988,0,0.4676877,-0.32156187,1.209055,0.6795952,-0.1448931,0.40945575,0.5596836,0.6433216,-1.45305,-0.40657902,0.0035926404,0.12975568,1.0820165,-0.49732122
-0.1,0.1,1.2999999999999998,0.0,-0.5235987755982988,0,0.47005272,-0.31798822,1.2099295,0.6816535,-0.07323552,0.2857838,0.5161295,0.6550165,-1.4450922,-0.5393477,-0.01261967,0.25910673,1.0655342,1.3716377
-0.1,0.1,1.2999999999999998,0.0,-0.5235987755982988,0,0.46785977,-0.32172054,1.2077558,0.6832026,-0.10215504,0.3295173,0.8417604,0.66204125,-1.460037,-0.51392573,-0.011848748,-0.1700524,1.071209,0.8811923
-0.1,0.1,1.2999999999999998,0.0,-0.5235987755982988,0,0.4668261,-0.32369837,1.2072831,0.68096936,-0.16157511,0.53381586,-0.13651712,0.66326606,-1.4527347,-0.4894825,-0.06670775,0.06421842,1.0295783,-0.4957811
-0.1,0.1,1.2999999999999998,0.0,-0.5235987755982988,0,0.46740088,-0.32187328,1.208214,0.6821744,-0.14524505,0.4016868,1.015352,0.67216796,-1.4692639,-0.53892183,-0.09478194,0.105398215,1.0289967,0.028980503
-0.1,0.1,1.2999999999999998,0.0,-0.5235987755982988,0,0.46855035,-0.32180032,1.20811,0.68152195,-0.17293672,0.4738645,0.5033202,0.64291763,-1.477021,-0.5877643,-0.040920876,0.294567,1.131229,0.026626863
-0.1,0.1,1.2999999999999998,0.0,-0.5235987755982988,0,0.4682155,-0.3227224,1.206388,0.6824672,-0.10604777,0.26587933,0.5724391,0.6637377,-1.4662166,-0.55563796,-0.07407302,0.28079635,1.1524,-0.19415097
-0.1,0.1,1.2999999999999998,0.0,-0.5235987755982988,0,0.46713892,-0.32247773,1.2080182,0.68355745,-0.079526566,0.3907698,-0.027320901,0.6464492,-1.4511474,-0.685109,-0.03314452,-0.09810808,1.1112604,0.40372786
-0.1,0.1,1.2999999999999998,0.0,-0.5235987755982988,0,0.4679281,-0.3211391,1.2077438,0.6822804,-0.17547736,0.2557841,0.09673064,0.64167184,-1.441604,-0.6629333,-0.04995925,0.054975286,1.1858972,0.5389907
-0.1,0.1,1.2999999999999998,0.0,-0.5235987755982988,0,0.4669987,-0.32207048,1.2080745,0.6825084,-0.13116093,0.32718864,0.4971523,0.6469809,-1.4442167,-0.6816586,0.070394315,0.04533379,1.1658206,-0.10823726
-0.1,0.1,1.2999999999999998,0.0,-0.5235987755982988,0,0.46822357,-0.3227425,1.2064587,0.68267083,-0.0810727,0.3912296,0.00088947796,0.616044,-1.4434434,-0.48366395,-0.103174515,0.0752205,1.0668674,0.31260753
-0.1,0.1,1.2999999999999998,0.0,-0.5235987755982988,0,0.46745265,-0.32166743,1.2091857,0.6808429,-0.11933702,0.32517353,1.4252766,0.6277421,-1.4569484,-0.5401055,-0.0026191715,0.13838094,1.0467288,0.3954374
-0.1,0.1,1.2999999999999998,0.0,-0.5235987755982988,0,0.4696836,-0.3227085,1.2081234,0.68207103,-0.060193975,0.37295142,1.1307831,0.6310939,-1.460054,-0.6490732,-0.040282167,0.14900401,1.2397043,0.50677454
-0.1,0.1,1.2999999999999998,0.0,-0.5235987755982988,0,0.46803308,-0.32257563,1.2099683,0.68288606,-0.08985759,0.25505185,0.5981951,0.61949074,-1.4648436,-0.77419835,-0.05229383,-0.030581832,1.1271278,0.1959793
-0.1,0.1,1.2999999999999998,0.0,-0.5235987755982988,0,0.47033736,-0.32219467,1.208784,0.6821951,-0.1085773,0.26532307,0.8160922,0.6678623,-1.4635168,-0.48516706,-0.084193334,0.07357656,1.1204058,0.1823706
-0.1,0.1,1.2999999999999998,0.0,-0.5235987755982988,0,0.4687362,-0.32347596,1.2089872,0.68280554,-0.15096799,0.33331352,1.8497939,0.6556736,-1.4538999,-0.6029877,-0.0076564457,-0.07276196,0.98796046,-0.014536497
-0.1,0.1,1.2999999999999998,0.0,-0.5235987755982988,0,0.4693749,-0.32289708,1.2090439,0.68292546,-0.15619741,0.36163616,0.24560346,0.67218834,-1.450891,-0.45645323,-0.0045460854,0.09315223,1.1905853,-0.3177755
-0.1,0.1,1.2999999999999998,0.0,-0.5235987755982988,0,0.46933472,-0.32286787,1.2093191,0.6819698,-0.13069673,0.3060622,-0.18266721,0.6668351,-1.4695822,-0.48378342,-0.07468087,-0.049720895,1.0954885,0.107399724
-0.1,0.1,1.2999999999999998,0.0,-0.5235987755982988,0,0.4675818,-0.32131588,1.2123811,0.68353057,-0.15965807,0.3884336,2.1156359,0.6535544,-1.4687204,-0.5819491,0.028065128,-0.044867475,1.1747203,-0.3923313
-0.1,0.1,1.2999999999999998,0.0,-0.5235987755982988,0,0.46978033,-0.32264277,1.210448,0.6827883,-0.16097067,0.30470383,0.5780357,0.652673,-1.4653325,-0.59364116,-0.0353555,0.017199451,1.1613746,0.5333306
-0.1,0.1,1.2999999999999998,0.0,-0.5235987755982988,0,0.46867558,-0.322997,1.2094895,0.6783979,-0.14723809,0.38674736,-0.16828999,0.66701686,-1.4475356,-0.5837157,0.00807108,0.061778035,1.2297453,-0.3795427
-0.1,0.1,1.2999999999999998,0.0,-0.5235987755982988,0,0.47083005,-0.32294476,1.2091489,0.6810635,-0.1677581,0.4184238,-0.16163999,0.6727037,-1.4642166,-0.6479262,-0.10558919,0.055038236,1.1093087,0.05018612
-0.1,0.1,1.2999999999999998,0.0,-0.5235987755982988,0,0.47116098,-0.323437,1.2088993,0.6819685,-0.17522877,0.42964283,0.005704179,0.6711683,-1.439293,-0.40873888,-0.09002941,-0.12505664,1.1471964,-0.2946574
-0.1,0.1,1.2999999999999998,0.0,-0.5235987755982988,0,0.46976516,-0.32411492,1.207922,0.6798535,-0.12776281,0.4176462,0.6621195,0.6606074,-1.4487227,-0.45911565,-0.047049653,-0.09083271,1.0989274,-0.5792832
-0.1,0.1,1.2999999999999998,0.0,-0.5235987755982988,0,0.46972957,-0.3218069,1.2110298,0.68028456,-0.12066146,0.3967338,0.6360033,0.66876745,-1.4517838,-0.63263327,-0.024885887,-0.024861267,1.0799265,-0.5782931
-0.1,0.1,1.2999999999999998,0.0,-0.5235987755982988,0,0.4699641,-0.32335252,1.2077165,0.681711,-0.06688401,0.50708973,0.2916609,0.6911551,-1.4465982,-0.53119004,-0.10476702,0.083868064,1.1396888,0.10805036
-0.1,0.1,1.2999999999999998,0.0,-0.5235987755982988,0,0.46933827,-0.32168654,1.209972,0.68161464,-0.100126065,0.46953925,1.8167437,0.64365387,-1.4371748,-0.668844,-0.14605497,-0.103440836,1.0302583,-1.1570314
-0.1,0.1,1.2999999999999998,0.0,-0.5235987755982988,0,0.46940646,-0.3232136,1.2079093,0.68210375,-0.11227351,0.61420476,0.89460367,0.63269895,-1.4564732,-0.39163992,-0.023452546,0.11095432,1.0960032,0.31865355
-0.1,0.1,1.2999999999999998,0.0,-0.5235987755982988,0,0.46822596,-0.32217395,1.2102164,0.68165517,-0.11605668,0.44701344,-0.5137813,0.62808883,-1.4650913,-0.693787,-0.061868217,0.11723547,1.107725,-0.018094959
-0.1,0.1,1.2999999999999998,0.0,-0.5235987755982988,0,0.4684902,-0.32240835,1.2094296,0.68099535,-0.071590945,0.45219678,0.44054538,0.6478039,-1.4724915,-0.41894442,-0.097363584,0.017419223,1.1027155,-0.2980844
-0.1,0.1,1.2999999999999998,0.0,-0.5235987755982988,0,0.46929365,-0.3233273,1.2075449,0.68191856,-0.09036674,0.384082,0.6843191,0.6567052,-1.4515005,-0.57922757,-0.026302591,-0.19853987,1.1763453,-1.5096183
-0.1,0.1,1.2999999999999998,0.0,-0.5235987755982988,0,0.46931523,-0.32163286,1.2098831,0.6819674,-0.13184522,0.37258372,1.063759,0.6300646,-1.4739238,-0.5547674,-0.035352252,0.07649774,1.0909389,-0.58807945
-0.1,0.1,1.2999999999999998,0.0,-0.5235987755982988,0,0.46902135,-0.3222471,1.2093563,0.68168855,-0.15232098,0.43261966,0.4596849,0.6784775,-1.4567975,-0.40346915,-0.09749536,-0.13539486,1.1107196,-0.23300762
-0.1,0.1,1.2999999999999998,0.0,-0.5235987755982988,0,0.4691722,-0.32299986,1.2094605,0.68317896,-0.16867138,0.31171012,0.5017172,0.63175654,-1.4658211,-0.5859838,-0.053706963,0.06796291,1.1287851,0.11650205
-0.1,0.1,1.2999999999999998,0.0,-0.5235987755982988,0,0.46764526,-0.32328534,1.2088743,0.68068755,-0.07757589,0.3356094,1.6775261,0.6335115,-1.4724587,-0.6341489,-0.11607419,-0.13829869,1.0324191,-0.19538492
-0.1,0.1,1.2999999999999998,0.0,-0.5235987755982988,0,0.4700887,-0.3224912,1.2083168,0.6817052,-0.11726903,0.35172462,-0.20399298,0.6695794,-1.4405937,-0.7274903,-0.05930083,-0.03126307,1.0903211,0.72077686
-0.1,0.1,1.2999999999999998,0.0,-0.5235987755982988,0,0.4693569,-0.32179743,1.2096455,0.68182164,-0.054227762,0.33397028,0.39091885,0.64412415,-1.452477,-0.5849862,-0.049954727,0.2061136,1.1625073,0.95094836
-0.1,0.1,1.2999999999999998,0.0,-0.5235987755982988,0,0.47003108,-0.32229534,1.2091345,0.6798123,-0.17725202,0.39991134,1.0613639,0.65921676,-1.4458154,-0.51635236,-0.05977497,0.17114604,1.0165603,-0.916566
-0.1,0.1,1.2999999999999998,0.0,-0.5235987755982988,0,0.46698913,-0.32347465,1.2092239,0.6806807,-0.14345576,0.39185762,0.96346897,0.6615851,-1.4487307,-0.53446174,-0.010123882,0.12390172,1.0862046,-0.89653176
-0.1,0.1,1.2999999999999998,0.0,-0.5235987755982988,0,0.4675145,-0.3226035,1.2104985,0.6796544,-0.089581124,0.46158022,-0.38838196,0.6692764,-1.474225,-0.6053383,-0.03131537,0.08623387,1.1216029,-0.86862504
-0.1,0.1,1.2999999999999998,0.0,-0.5235987755982988,0,0.4683905,-0.324632,1.208969,0.68384945,-0.13176234,0.4314056,-0.3314084,0.6462074,-1.4608288,-0.6910006,-0.06519358,0.14438288,1.0847926,-0.8322049
-0.1,0.1,1.2999999999999998,0.0,-0.5235987755982988,0,0.46749908,-0.32247174,1.2106452,0.6807492,-0.12115737,0.36091274,2.1381986,0.67721885,-1.4504265,-0.7927585,-0.09172441,-0.01903561,1.1294514,-0.64676416
-0.1,0.1,1.2999999999999998,0.0,-0.5235987755982988,0,0.4691004,-0.3226183,1.2108587,0.6833008,-0.14109907,0.40451494,0.9620241,0.66663116,-1.452824,-0.6920937,-0.030199831,0.0036940684,1.102838,-0.542214
-0.1,0.1,1.2999999999999998,0.0,-0.5235987755982988,0,0.46952155,-0.32431522,1.2096848,0.67938024,-0.159281,0.33259186,0.33441216,0.64553505,-1.435952,-0.4407005,-0.07888377,0.26372543,1.0881833,-0.56672114
-0.1,0.1,1.2999999999999998,0.0,-0.5235987755982988,0,0.46896586,-0.32141653,1.2083389,0.6819171,-0.17111102,0.4506486,-0.1467738,0.63844246,-1.463611,-0.49534968,-0.0042820144,-0.0726352,1.0984706,0.42883137
-0.1,0.1,1.2999999999999998,0.0,-0.5235987755982988,0,0.46960855,-0.32172033,1.2097272,0.6811572,-0.0799036,0.49894044,1.4115429,0.6988991,-1.4497389,-0.62322795,-0.09458045,0.117941216,1.1025238,0.09613432
-0.1,0.1,1.2999999999999998,0.0,-0.5235987755982988,0,0.46842006,-0.32220137,1.2100407,0.68049425,-0.1695204,0.28629893,0.30396333,0.6755086,-1.4305493,-0.5747962,-0.020202832,0.095472895,1.125321,1.3818783
-0.1,0.1,1.2999999999999998,0.0,-0.5235987755982988,0,0.47077218,-0.32020614,1.2089325,0.68176687,-0.120100595,0.35364735,0.52855974,0.6766164,-1.4601185,-0.7638054,0.017665993,0.004529698,1.1402912,-0.6856654
-0.1,0.1,1.2999999999999998,0.0,-0.5235987755982988,0,0.46881065,-0.32403916,1.20992,0.6809671,-0.13242328,0.41688883,0.32506227,0.68484837,-1.4394661,-0.5091245,-0.032339476,-0.040090572,1.0212216,-0.22055785
-0.1,0.1,1.2999999999999998,0.0,-0.5235987755982988,0,0.46913484,-0.32463816,1.2108729,0.68162185,-0.1955173,0.5502613,0.86593723,0.60759306,-1.4440454,-0.5851147,-0.028859938,0.25839576,1.2166536,0.17381535
-0.1,0.1,1.2999999999999998,0.0,-0.5235987755982988,0,0.4676083,-0.32388312,1.2091554,0.6788678,-0.09500835,0.28894448,1.3926256,0.65481055,-1.4701782,-0.53277147,-0.09778398,0.068629354,1.1021842,0.19686526
-0.1,0.1,1.2999999999999998,0.0,-0.5235987755982988,0,0.46853086,-0.3204267,1.2100831,0.67984104,-0.1016721,0.49818128,0.49000344,0.64860344,-1.464578,-0.5627849,-0.08538646,0.15538219,1.1767676,0.5093003
-0.1,0.1,1.2999999999999998,0.0,-0.5235987755982988,0,0.46879327,-0.32062033,1.2098532,0.6843068,-0.12643842,0.38506764,0.4356926,0.6611032,-1.451177,-0.6573926,0.04533383,-0.10166719,1.1060905,0.076134436
-0.1,0.1,1.2999999999999998,0.0,-0.5235987755982988,0,0.4683605,-0.32001385,1.2103375,0.6840393,-0.11729287,0.34459943,1.1647197,0.69637495,-1.4598281,-0.54404926,-0.112320624,0.13975812,1.130025,-0.11542146
-0.1,0.1,1.2999999999999998,0.0,-0.5235987755982988,0,0.46822584,-0.3219635,1.2097275,0.6832877,-0.11012656,0.4701326,0.3980474,0.6584921,-1.4530861,-0.61034745,-0.07637022,0.018479308,1.1476772,-0.81552935
-0.1,0.1,1.2999999999999998,0.0,-0.5235987755982988,0,0.46770218,-0.3222603,1.2096815,0.68321455,-0.18182957,0.13940486,1.2640109,0.6523337,-1.4613941,-0.62964255,-0.0637339,0.15328164,1.1762649,-0.90004545
-0.1,0.1,1.2999999999999998,0.0,-0.5235987755982988,0,0.4692204,-0.322761,1.210108,0.68467134,0.020024192,0.5031813,0.48968866,0.6717699,-1.45648,-0.48560548,-0.05770755,0.06419847,1.107385,-0.876683
-0.1,0.1,1.2999999999999998,0.0,-0.5235987755982988,0,0.46716523,-0.32212055,1.2077825,0.6781821,-0.14304824,0.27954736,0.2619639,0.63384527,-1.4592026,-0.62009746,-0.088397436,0.10510062,1.0718863,1.0155078
-0.1,0.1,1.2999999999999998,0.0,-0.5235987755982988,0,0.4685755,-0.32101175,1.2083744,0.6795292,-0.13644972,0.41482684,1.1654695,0.6689771,-1.4664104,-0.6006949,-0.093978174,-0.101588175,1.0581369,-0.46394786
-0.1,0.1,1.2999999999999998,0.0,-0.5235987755982988,0,0.47003174,-0.3218755,1.2103347,0.6793162,-0.098427534,0.44298956,0.43854773,0.65021735,-1.4639919,-0.57072335,-0.08580817,-0.04639288,1.0355737,-0.11730974
-0.1,0.1,1.2999999999999998,0.0,-0.5235987755982988,0,0.46871197,-0.32236698,1.2081078,0.67984396,-0.10073424,0.3981524,0.053046856,0.6653623,-1.4618691,-0.6377315,-0.004891598,0.15297583,1.1022042,0.3417044
-0.1,0.1,1.2999999999999998,0.0,-0.5235987755982988,0,0.47009698,-0.32111084,1.2111572,0.68114114,-0.055987325,0.31316185,0.11854782,0.627196,-1.4699711,-0.52040046,0.013893265,0.41624048,1.0867165,-0.3886701
-0.1,0.1,1.2999999999999998,0.0,-0.5235987755982988,0,0.46819064,-0.3228208,1.2072138,0.6804484,-0.10784923,0.35370296,0.5256619,0.65195495,-1.4504005,-0.6064839,0.0136178825,0.15181792,1.2838601,-0.51070905
-0.1,0.1,1.2999999999999998,0.0,-0.5235987755982988,0,0.46832353,-0.32106838,1.207379,0.67913103,-0.1581169,0.32386935,0.027553558,0.63474226,-1.4337969,-0.42707735,-0.037859503,-0.19241013,1.106962,-0.28782138
-0.1,0.1,1.2999999999999998,0.0,-0.5235987755982988,0,0.4673458,-0.32097766,1.207173,0.67800134,-0.11231298,0.4075342,0.37860283,0.6578039,-1.4540266,-0.5920403,-0.118383504,0.1028216,1.1093619,0.15232217
-0.1,0.1,1.2999999999999998,0.0,-0.5235987755982988,0,0.46864754,-0.3218671,1.2072618,0.6826154,-0.13551587,0.53147924,0.6873852,0.6512001,-1.4626966,-0.61533135,-0.12449526,0.15951325,1.0812947,-0.3533738
-0.1,0.1,1.2999999999999998,0.0,-0.5235987755982988,0,0.46794593,-0.32084846,1.2098914,0.6813571,-0.10155504,0.24418344,0.6159321,0.6648184,-1.4717889,-0.6147223,-0.009063467,0.16429256,1.0045805,-0.21526085
-0.1,0.1,1.2999999999999998,0.0,-0.5235987755982988,0,0.4662161,-0.32089067,1.2088295,0.678241,-0.12702696,0.3819773,0.88318795,0.6458131,-1.4497463,-0.60297436,-0.031863883,-0.05897532,1.15246,-0.5223711
-0.1,0.1,1.2999999999999998,0.0,-0.5235987755982988,0,0.46660408,-0.32138303,1.2097375,0.6784239,-0.13373707,0.30854017,0.6839705,0.65436286,-1.4341393,-0.57912415,-0.045230918,0.21966977,1.0575877,-0.7913258
-0.1,0.1,1.2999999999999998,0.0,-0.5235987755982988,0,0.46660048,-0.318997,1.2095836,0.68156666,-0.097404726,0.32474914,0.079331115,0.6410694,-1.4539454,-0.60196656,-0.007883512,0.17061616,1.0725583,0.46724588
-0.1,0.1,1.2999999999999998,0.0,-0.5235987755982988,0,0.46772453,-0.32264626,1.207726,0.6818957,-0.16568561,0.34722158,0.035263885,0.6594064,-1.4576315,-0.50658226,-0.07180732,0.198901,1.1414096,0.07838313
-0.1,0.1,1.2999999999999998,0.0,-0.5235987755982988,0,0.46834356,-0.31966725,1.2082992,0.68014264,-0.14025298,0.45299795,0.8998059,0.6665637,-1.4413893,-0.797649,0.037623633,0.06472954,1.0558227,0.025609633
-0.1,0.1,1.2999999999999998,0.0,-0.5235987755982988,0,0.46653137,-0.32292008,1.2047448,0.6808009,-0.14078529,0.37068927,0.8890548,0.65517443,-1.4691072,-0.56806284,-0.008359185,-0.141713,0.9780111,-1.2814455
-0.1,0.1,1.2999999999999998,0.0,-0.5235987755982988,0,0.46757683,-0.32157162,1.2098764,0.67799777,-0.115376584,0.3161983,0.6873826,0.6500354,-1.4540106,-0.6319006,-0.036090814,0.04461262,1.0601035,-0.43020862
-0.1,0.1,1.2999999999999998,0.0,-0.5235987755982988,0,0.4684552,-0.32397482,1.2081707,0.6853795,-0.12148479,0.24121623,0.6849022,0.668479,-1.4594932,-0.63887906,-0.11330608,0.13868366,1.0617191,0.71873254
-0.1,0.1,1.2999999999999998,0.0,-0.5235987755982988,0,0.46947098,-0.3214991,1.2084968,0.6830519,-0.09273637,0.36396846,0.5314537,0.65144974,-1.4588017,-0.4718611,0.0012728927,-0.04461991,1.0697596,-0.42978266
-0.1,0.1,1.2999999999999998,0.0,-0.5235987755982988,0,0.46929857,-0.3211596,1.2095728,0.677566,-0.085318685,0.49182296,1.0865344,0.63991714,-1.4553907,-0.66677547,-0.11505704,-0.01584171,1.0940231,-0.05766115
-0.1,0.1,1.2999999999999998,0.0,-0.5235987755982988,0,0.46832168,-0.32241195,1.2089174,0.68363607,-0.09507061,0.28174043,0.8819282,0.65978765,-1.4532875,-0.5965174,-0.02827599,0.11821411,0.9992709,0.10013742
-0.1,0.1,1.2999999999999998,0.0,-0.5235987755982988,0,0.46759596,-0.31921637,1.2098937,0.6818369,-0.11262672,0.38699815,0.9224568,0.63213634,-1.4598196,-0.47028077,0.0063984175,0.016192544,1.0578746,0.8642292
-0.1,0.1,1.2999999999999998,0.0,-0.5235987755982988,0,0.4691948,-0.32229388,1.2088624,0.68190086,-0.10716837,0.26048693,0.63716394,0.61836284,-1.4654769,-0.44694173,-0.05541524,-0.04701261,1.1342846,-0.8164667
-0.1,0.1,1.2999999999999998,0.0,-0.5235987755982988,0,0.47166654,-0.32333416,1.2072717,0.6793047,-0.06915286,0.2863643,1.0909785,0.6839604,-1.4527177,-0.5280322,-0.021520061,0.26123103,1.0801731,-0.5945764
-0.1,0.1,1.2999999999999998,0.0,-0.5235987755982988,0,0.4682649,-0.32273635,1.2082604,0.6819472,-0.15365545,0.2762139,0.84634364,0.6534232,-1.4380225,-0.44980237,-0.031839963,0.11609686,1.0613878,0.16657598
-0.1,0.1,1.2999999999999998,0.0,-0.5235987755982988,0,0.46923378,-0.32047653,1.2099869,0.67936623,-0.100112766,0.33026123,0.92987597,0.6812852,-1.477715,-0.4133316,0.0051358715,0.09583646,1.041188,-0.8539423
-0.1,0.1,1.2999999999999998,0.0,-0.5235987755982988,0,0.47017878,-0.32178923,1.2060832,0.68538284,-0.09872338,0.407191,0.1294822,0.650924,-1.4436868,-0.49933448,-0.036515247,0.033544246,1.0706469,0.96612173
-0.1,0.1,1.2999999999999998,0.0,-0.5235987755982988,0,0.4687757,-0.32184556,1.2078038,0.682315,-0.12979487,0.46685636,-0.48425034,0.6495664,-1.4494808,-0.457278,-0.04473487,0.06920277,1.2146794,-0.034125343
-0.1,0.1,1.2999999999999998,0.0,-0.5235987755982988,0,0.470663,-0.31898817,1.208579,0.68363214,-0.16193621,0.35446942,1.1312307,0.65100837,-1.4541122,-0.64908093,-0.023050964,-0.06858671,1.1683207,-0.42469656
-0.1,0.1,1.2999999999999998,0.0,-0.5235987755982988,0,0.468442,-0.3228164,1.2078184,0.68174464,-0.15068376,0.32456955,1.0589503,0.65107435,-1.4533666,-0.47953546,-0.033711717,0.036126975,1.0277349,-0.13027686
-0.1,0.1,1.2999999999999998,0.0,-0.5235987755982988,0,0.46955183,-0.3205235,1.2091932,0.6827849,-0.11635935,0.3086073,1.2358803,0.66583675,-1.4533136,-0.59722775,-0.021444289,0.31217393,1.1503394,-0.30944622
-0.1,0.1,1.2999999999999998,0.0,-0.5235987755982988,0,0.46903294,-0.320278,1.2104359,0.68024546,-0.13504027,0.2796837,1.0985014,0.6406389,-1.4537518,-0.6043027,-0.040126063,-0.07990012,1.0879687,-1.0200549
-0.1,0.1,1.2999999999999998,0.0,-0.5235987755982988,0,0.4664002,-0.32373407,1.2080339,0.68339604,-0.101670526,0.3549632,1.31335,0.6336509,-1.4756554,-0.559789,-0.049027923,0.20487493,1.1453702,-0.6913781
-0.1,0.1,1.2999999999999998,0.0,-0.5235987755982988,0,0.46763164,-0.3221849,1.2080959,0.68026686,-0.057571407,0.2750939,-0.019356672,0.6676574,-1.4452558,-0.6775505,-0.035837464,-0.07055001,1.1358111,-0.5021051
-0.1,0.1,1.2999999999999998,0.0,-0.5235987755982988,0,0.46662402,-0.31982926,1.2088963,0.68281573,-0.1411828,0.4664565,0.043615706,0.6453015,-1.460567,-0.7423766,0.0038585707,0.10347582,1.108816,0.39553046
-0.1,0.1,1.2999999999999998,0.0,-0.5235987755982988,0,0.47198585,-0.3209192,1.2094512,0.6816153,-0.08497559,0.48572725,1.0343049,0.64221555,-1.4572692,-0.48277372,-0.032993916,0.021596584,1.088468,-0.7587226
-0.1,0.1,1.2999999999999998,0.0,-0.5235987755982988,0,0.46926448,-0.32300705,1.2078799,0.6820287,-0.07870374,0.3944879,1.1936492,0.65895575,-1.4655756,-0.5144685,-0.0066041294,-0.075411394,1.0455033,-0.15609002
-0.1,0.1,1.2999999999999998,0.0,-0.5235987755982988,0,0.46732694,-0.32208705,1.2097553,0.6813987,-0.024674019,0.43447903,0.98367804,0.64430237,-1.4711312,-0.6170622,-0.05284454,0.040399138,1.167192,-0.21617092
-0.1,0.1,1.2999999999999998,0.0,-0.5235987755982988,0,0.4673397,-0.322143,1.2109358,0.68191767,-0.123578325,0.46209064,0.6964616,0.6543149,-1.4596375,-0.49887016,-0.070487164,0.12015011,1.2066097,-0.40432534
-0.1,0.1,1.2999999999999998,0.0,-0.5235987755982988,0,0.4709258,-0.32006288,1.2101557,0.68313503,-0.040139176,0.48209974,1.2173028,0.63590395,-1.4570291,-0.6344329,-0.057389587,-0.04620869,1.1114733,-0.1235688
-0.1,0.1,1.2999999999999998,0.0,-0.5235987755982988,0,0.46799368,-0.32342866,1.2093475,0.6780156,-0.1397159,0.40499464,1.7203883,0.63178897,-1.4583231,-0.60692954,-0.101653576,0.1128462,1.0483062,-0.4348785
-0.1,0.1,1.2999999999999998,0.0,-0.5235987755982988,0,0.46818346,-0.3210535,1.211419,0.68031204,-0.052662004,0.6041171,1.0187947,0.6354936,-1.4511383,-0.45830503,-0.061944786,0.0892455,1.106689,0.37960693
-0.1,0.1,1.2999999999999998,0.0,-0.5235987755982988,0,0.468351,-0.32084912,1.2091484,0.6829242,-0.092347436,0.5090549,0.76372796,0.64620155,-1.4365131,-0.5425472,-0.05290843,0.014183736,1.165493,0.52004415
-0.1,0.1,1.2999999999999998,0.0,-0.5235987755982988,0,0.46848172,-0.319456,1.2063814,0.67989194,-0.06853768,0.38367108,0.5293637,0.67360604,-1.4718353,-0.5714009,-0.021151349,-0.09918618,1.0230713,0.7655343
-0.1,0.1,1.2999999999999998,0.0,-0.5235987755982988,0,0.4661721,-0.32009342,1.2069101,0.6849471,-0.1497187,0.42867628,0.41487658,0.66144675,-1.4688075,-0.50746226,-0.0043078423,-0.12704574,1.2020708,-0.11000293
-0.1,0.1,1.2999999999999998,0.0,-0.5235987755982988,0,0.46825695,-0.31997222,1.2068343,0.67728317,-0.11464188,0.48407423,0.2008229,0.6597668,-1.4780376,-0.81313044,-0.13944043,0.08698495,1.0342944,0.31493264
-0.1,0.1,1.2999999999999998,0.0,-0.5235987755982988,0,0.46950194,-0.3207224,1.2064875,0.68122786,-0.08672247,0.3627089,0.4954952,0.62917334,-1.457645,-0.69303006,-0.0030374145,0.15861312,1.0299227,0.87855154
-0.1,0.1,1.2999999999999998,0.0,-0.5235987755982988,0,0.46801114,-0.31987908,1.206274,0.6813824,-0.13792337,0.40814954,0.89818066,0.6774221,-1.4652681,-0.72832054,0.0070588933,0.06892358,1.1291447,-0.62673527
-0.1,0.1,1.2999999999999998,0.0,-0.5235987755982988,0,0.46826276,-0.32035714,1.2061776,0.67942107,-0.11133225,0.26277372,0.98445326,0.6432918,-1.4451358,-0.8225182,-0.02528427,0.09039738,1.1407396,-0.48177454
-0.1,0.1,1.2999999999999998,0.0,-0.5235987755982988,0,0.46847355,-0.31741017,1.2113843,0.6822287,-0.11448531,0.3643585,0.045281433,0.6669115,-1.4642655,-0.48881608,-0.016495226,-0.0022885795,1.097248,0.40616873
-0.1,0.1,1.2999999999999998,0.0,-0.5235987755982988,0,0.46645153,-0.32142812,1.2087227,0.67792517,-0.15953536,0.48494467,1.1743171,0.6785905,-1.4766588,-0.6926264,-0.016553931,-0.19000974,1.1907991,-0.7491253
-0.1,0.1,1.2999999999999998,0.0,-0.5235987755982988,0,0.46796644,-0.32219487,1.2066861,0.6778314,-0.14446041,0.31244,0.0990528,0.67456704,-1.4623605,-0.65660995,-0.08400677,-0.012437813,1.1383766,0.43443367
-0.1,0.1,1.2999999999999998,0.0,-0.5235987755982988,0,0.46836746,-0.31955752,1.2083211,0.6815622,-0.15078941,0.34573132,-0.18939261,0.62648124,-1.4403795,-0.5291935,-0.016571112,0.16788624,1.1427265,0.41882178
-0.1,0.1,1.2999999999999998,0.0,-0.5235987755982988,0,0.46797928,-0.31976357,1.2089204,0.6793003,-0.11111109,0.43577537,0.12453431,0.61734784,-1.453077,-0.707667,-0.042417556,0.09196729,1.1044844,0.06815866
-0.1,0.1,1.2999999999999998,0.0,-0.5235987755982988,0,0.4682976,-0.32061404,1.2080163,0.68624777,-0.1441819,0.35795483,0.2944573,0.66140616,-1.4459621,-0.6526983,-0.06579538,-0.17175618,1.1707228,-0.7404208
-0.1,0.1,1.2999999999999998,0.0,-0.5235987755982988,0,0.46835408,-0.3204892,1.210069,0.6786224,-0.1263208,0.59112865,1.3439211,0.648823,-1.4487566,-0.4993981,-0.06300099,0.088447586,1.0975415,-0.1994253
-0.1,0.1,1.2999999999999998,0.0,-0.5235987755982988,0,0.46882713,-0.32082283,1.209478,0.67799443,-0.12531522,0.43747646,1.0861644,0.60892993,-1.4448102,-0.69825596,-0.0697628,0.089511245,1.1267811,0.62908584
-0.1,0.1,1.2999999999999998,0.0,-0.5235987755982988,0,0.46891698,-0.32171828,1.205837,0.6791034,-0.17204833,0.3003906,0.96087176,0.6576966,-1.4589137,-0.39838022,-0.055398535,0.042250913,1.1010207,-1.150737
-0.1,0.1,1.2999999999999998,0.0,-0.5235987755982988,0,0.46996775,-0.31974193,1.2065079,0.67935675,-0.106432185,0.29253775,0.95406103,0.6740164,-1.4655688,-0.51279294,-0.025016269,0.19386026,1.1356534,-0.13312171
-0.1,0.1,1.2999999999999998,0.0,-0.5235987755982988,0,0.46902266,-0.32190272,1.2076991,0.6788313,-0.14918484,0.43110165,0.42232788,0.6342714,-1.4645369,-0.67826337,-0.027876915,0.0027300855,1.1702538,0.3758513
-0.1,0.1,1.2999999999999998,0.0,-0.5235987755982988,0,0.46775675,-0.3223829,1.2090628,0.6819318,-0.1381256,0.36489415,1.9371407,0.640675,-1.440305,-0.42117745,-0.09480447,0.17532614,1.0577773,-0.09721731
-0.1,0.1,1.2999999999999998,0.0,-0.5235987755982988,0,0.46759242,-0.3213266,1.2076135,0.68454957,-0.09424759,0.51863945,1.3266045,0.60357857,-1.4504318,-0.43450233,0.01204454,0.09526769,1.1872101,-0.6995019
-0.1,0.1,1.2999999999999998,0.0,-0.5235987755982988,0,0.4671888,-0.3217091,1.2066623,0.6823344,-0.11175072,0.24440616,1.0175678,0.6428677,-1.4566373,-0.530403,-0.057359613,0.10272758,1.1757596,-0.43940124
-0.1,0.1,1.2999999999999998,0.0,-0.5235987755982988,0,0.46812743,-0.3203035,1.2069805,0.6851182,-0.04847451,0.31456366,0.9138196,0.6534765,-1.4546427,-0.5171205,-0.06862115,0.037194975,1.0990111,0.10971453
-0.1,0.1,1.2999999999999998,0.0,-0.5235987755982988,0,0.46814445,-0.32085237,1.2077575,0.6815189,-0.09461044,0.2778703,0.27367842,0.6318369,-1.4562787,-0.646094,-0.078341015,-0.020180032,1.0241586,-0.37029147
-0.1,0.1,1.2999999999999998,0.0,-0.5235987755982988,0,0.46872732,-0.3220053,1.206625,0.6788356,-0.12149649,0.4449679,0.5564217,0.6820557,-1.4466991,-0.4460739,-0.07459874,-0.0046626125,0.96045643,-0.7549393
-0.1,0.1,1.2999999999999998,0.0,-0.5235987755982988,0,0.46892637,-0.32226852,1.2074982,0.6808348,-0.14628343,0.19440474,0.8824287,0.6631183,-1.4595281,-0.580155,-0.057706133,-0.02411528,1.1374816,1.1484872
-0.1,0.1,1.2999999999999998,0.0,-0.5235987755982988,0,0.46780163,-0.31904033,1.2107844,0.68283635,-0.030983217,0.28128907,-0.1874064,0.66004765,-1.452883,-0.41953722,-0.07401536,-0.20507897,0.92187864,0.07595296
-0.1,0.1,1.2999999999999998,0.0,-0.5235987755982988,0,0.46804732,-0.32013252,1.2095792,0.67958486,-0.06864053,0.43302584,0.37245005,0.6661394,-1.4295186,-0.60075027,0.016923249,0.10687411,0.95997065,-1.2883042
-0.1,0.1,1.2999999999999998,0.0,-0.5235987755982988,0,0.46831465,-0.32030347,1.2099884,0.6797336,-0.15436485,0.3805378,0.7732231,0.6370494,-1.4681821,-0.53467435,-0.021671193,0.119867265,1.115746,-0.56798714
-0.1,0.1,1.2999999999999998,0.0,-0.5235987755982988,0,0.46788192,-0.32096216,1.2081467,0.6817782,-0.12584785,0.36188194,1.3590771,0.6333294,-1.4561393,-0.6826425,-0.056952246,-0.18343042,1.1366917,-0.2813555
-0.1,0.1,1.2999999999999998,0.0,-0.5235987755982988,0,0.46666166,-0.32201824,1.209656,0.68033004,-0.09488366,0.36234862,1.541294,0.6579447,-1.4513639,-0.4328526,-0.029267587,-0.0849597,1.0603166,-0.66621894
-0.1,0.1,1.2999999999999998,0.0,-0.5235987755982988,0,0.46744788,-0.32143235,1.2102022,0.6806851,-0.14941666,0.4258185,0.245753,0.6399399,-1.4639118,-0.36583242,-0.078661814,-0.18748161,1.0793172,-0.8570862
-0.1,0.1,1.2999999999999998,0.0,-0.5235987755982988,0,0.46869496,-0.32186076,1.2086575,0.6837953,-0.08814833,0.27129346,1.401779,0.6579408,-1.4327865,-0.7466515,-0.002592578,-0.11511257,1.1278576,-0.35754466
-0.1,0.1,1.2999999999999998,0.0,-0.5235987755982988,0,0.4684941,-0.3221315,1.208434,0.6804652,-0.13509052,0.4423788,0.9073291,0.63451797,-1.4554958,-0.5534016,0.029759789,0.025989192,1.0416403,-0.17069626
-0.1,0.1,1.2999999999999998,0.0,-0.5235987755982988,0,0.46958533,-0.32206243,1.207979,0.6820922,-0.10017853,0.41634563,0.73547935,0.6677774,-1.4488983,-0.6382185,-0.06552933,0.18394086,1.1108098,-0.38845292
-0.1,0.1,1.2999999999999998,0.0,-0.5235987755982988,0,0.46742144,-0.32072046,1.211033,0.68557537,-0.112971336,0.46747416,-0.0023726872,0.64842504,-1.4574534,-0.77367604,-0.06342846,-0.0019643784,1.1566252,-0.9736031
-0.1,0.1,1.2999999999999998,0.0,-0.5235987755982988,0,0.4687379,-0.3203541,1.2083973,0.6845907,-0.14317445,0.43463966,0.71051556,0.6609784,-1.4539855,-0.6835376,-0.09491261,0.028687334,1.2001846,-0.01781876
-0.1,0.1,1.2999999999999998,0.0,-0.5235987755982988,0,0.46806732,-0.32255733,1.2082741,0.6822602,-0.057260707,0.30339324,0.4388287,0.6560313,-1.4705689,-0.55128723,-0.028205521,0.26270434,1.1152276,-0.41338077
-0.1,0.1,1.2999999999999998,0.0,-0.5235987755982988,0,0.4682998,-0.31941417,1.2104757,0.68299776,-0.14365728,0.37194476,1.9375995,0.6750497,-1.4590777,-0.55746466,-0.014296962,-0.061677985,1.0863172,0.2971775
-0.1,0.1,1.2999999999999998,0.0,-0.5235987755982988,0,0.4678785,-0.3217898,1.2095724,0.68302864,-0.12124596,0.33881912,0.53734773,0.6660985,-1.4571377,-0.72550654,-0.03188769,0.033931617,1.0719082,0.8979501
-0.1,0.1,1.2999999999999998,0.0,-0.5235987755982988,0,0.4676254,-0.3218511,1.2101355,0.6810186,-0.08047102,0.40155357,0.8908529,0.6570223,-1.4617556,-0.6047432,-0.05461731,0.22676484,1.0543886,-0.70603114
-0.1,0.1,1.2999999999999998,0.0,-0.5235987755982988,0,0.46861944,-0.32104853,1.2070302,0.681205,-0.09140414,0.5106271,0.8126379,0.6693021,-1.4559412,-0.6060555,-0.015585654,-0.019067025,1.06378,-0.053893205
-0.1,0.1,1.2999999999999998,0.0,-0.5235987755982988,0,0.46767032,-0.32139346,1.2087717,0.6797981,-0.21345687,0.28690493,0.12792102,0.6585602,-1.4748834,-0.48869905,-0.112773634,0.21042389,1.2008098,0.06278893
-0.1,0.1,1.2999999999999998,0.0,-0.5235987755982988,0,0.46759483,-0.321035,1.2088696,0.68204296,-0.08778863,0.36081842,0.3944551,0.64961576,-1.4412537,-0.64596736,-0.046718642,-0.05384096,1.0361933,-0.05136854
-0.1,0.1,1.2999999999999998,0.0,-0.5235987755982988,0,0.4677019,-0.3222015,1.2070503,0.6836404,-0.13821307,0.40807498,0.62112886,0.646238,-1.4851142,-0.8015555,-0.096070744,0.17498189,1.2189734,0.49733838
-0.1,0.1,1.2999999999999998,0.0,-0.5235987755982988,0,0.46880302,-0.3197461,1.2100377,0.68124783,-0.07155928,0.35637438,0.7002862,0.638592,-1.4620155,-0.6820228,-0.038417824,0.23204793,0.99054754,-1.1539024
-0.1,0.1,1.2999999999999998,0.0,-0.5235987755982988,0,0.4681857,-0.32217872,1.2096447,0.68268645,-0.18394162,0.41567147,1.234073,0.6654281,-1.470815,-0.584203,-0.08564131,0.2259199,1.0317771,0.40065056
-0.1,0.1,1.2999999999999998,0.0,-0.5235987755982988,0,0.46999666,-0.32098886,1.2074006,0.68057567,-0.15823199,0.38157836,0.69692415,0.6408489,-1.4605055,-0.7019895,-0.08354563,-0.005483632,1.0856105,1.2376829
-0.1,0.1,1.2999999999999998,0.0,-0.5235987755982988,0,0.4696724,-0.3206726,1.2102228,0.6796099,-0.13916133,0.5241254,0.5810975,0.6555225,-1.4598057,-0.59824556,-0.03690071,0.1839137,0.98694545,-1.5487609
-0.1,0.1,1.2999999999999998,0.0,-0.5235987755982988,0,0.47114572,-0.32154945,1.2082765,0.68057126,-0.12827663,0.30838457,1.0819606,0.6622952,-1.4460245,-0.4718781,-0.027643833,-0.20807688,1.2339092,-0.0410323
-0.1,0.1,1.2999999999999998,0.0,-0.5235987755982988,0,0.4673388,-0.32158598,1.209213,0.68302554,-0.08247389,0.51771164,0.9259269,0.67480224,-1.4586508,-0.49932033,-0.005267826,0.0680077,1.1702787,0.17683381
-0.1,0.1,1.2999999999999998,0.0,-0.5235987755982988,0,0.47060928,-0.31870893,1.2104357,0.6835919,-0.12992507,0.24534532,1.7877213,0.6622548,-1.4587574,-0.7034899,-0.07532562,0.014626841,1.0268371,0.021043008
-0.1,0.1,1.2999999999999998,0.0,-0.5235987755982988,0,0.46956176,-0.32209843,1.2083205,0.6810355,-0.14145708,0.27814066,0.05590492,0.6463388,-1.4511796,-0.623092,-0.0018685261,0.3040841,1.1542511,0.4159223
-0.1,0.1,1.2999999999999998,0.0,-0.5235987755982988,0,0.4690785,-0.32169104,1.2075987,0.68088514,-0.0546747,0.34248683,-0.4056335,0.6704339,-1.446201,-0.7544134,-0.04265252,-0.1346834,1.1095794,-1.0490853
-0.1,0.1,1.2999999999999998,0.0,-0.5235987755982988,0,0.47010267,-0.32126573,1.2075576,0.68277335,-0.08978928,0.5041487,1.3117495,0.6264421,-1.4603701,-0.550963,0.037731603,-0.08207111,1.1937418,0.358052
-0.1,0.1,1.2999999999999998,0.0,-0.5235987755982988,0,0.4679219,-0.32077575,1.2096192,0.6820958,-0.10185246,0.55236375,0.7400451,0.65890205,-1.44342,-0.659726,-0.11058128,0.18578246,1.1393274,0.14088328
-0.1,0.1,1.2999999999999998,0.0,-0.5235987755982988,0,0.46937415,-0.3217407,1.2095066,0.6808792,-0.11047197,0.4313836,0.5041204,0.6547912,-1.4566821,-0.5336774,-0.10016455,-0.052105308,1.1036588,-0.40874025
-0.1,0.1,1.2999999999999998,0.0,-0.5235987755982988,0,0.4710714,-0.32108834,1.2093917,0.6822487,-0.049402032,0.4402577,0.10113168,0.63946074,-1.456121,-0.5358907,-0.08248925,-0.08903122,1.117725,0.32806924
-0.1,0.1,1.2999999999999998,0.0,-0.5235987755982988,0,0.46900493,-0.32176462,1.2097759,0.6807427,-0.10884817,0.34759635,0.77315617,0.6319684,-1.4640995,-0.5729365,-0.111345485,-0.15039818,1.0788324,0.49669963
-0.1,0.1,1.2999999999999998,0.0,-0.5235987755982988,0,0.4679753,-0.32066783,1.209925,0.6814551,-0.112140276,0.30490276,0.32877508,0.6588579,-1.4512513,-0.6066929,-0.04970617,0.0016674653,1.181806,0.5461146
-0.1,0.1,1.2999999999999998,0.0,-0.5235987755982988,0,0.46822423,-0.32139453,1.2084532,0.6827183,-0.107701555,0.5549035,0.07320106,0.62526274,-1.4472332,-0.42787728,-0.122379474,0.12265264,1.0717293,-0.11144922
-0.1,0.1,1.2999999999999998,0.0,-0.5235987755982988,0,0.46872973,-0.32083985,1.2089287,0.683672,-0.15394337,0.5226767,0.2629138,0.604137,-1.4570006,-0.5002882,-0.029985067,0.20420039,1.0874887,1.2316489
-0.1,0.1,1.2999999999999998,0.0,-0.5235987755982988,0,0.46651864,-0.3219596,1.2102324,0.6859946,-0.105172254,0.2963481,0.95727915,0.64991283,-1.4549997,-0.75887525,-0.05690905,0.23270276,1.0622938,-0.8981302
-0.1,0.1,1.2999999999999998,0.0,-0.5235987755982988,0,0.46971518,-0.32141247,1.208322,0.68044734,-0.112825304,0.26619253,-0.31341118,0.64117354,-1.4487137,-0.6144644,-0.13682912,0.28344408,1.1177273,0.19865862
-0.1,0.1,1.2999999999999998,0.0,-0.5235987755982988,0,0.46709588,-0.32290447,1.2082132,0.6788288,-0.13696656,0.45036936,-0.69396204,0.6188838,-1.4358451,-0.5886402,-0.013922844,0.027732845,1.0991377,0.017398387
-0.1,0.1,1.2999999999999998,0.0,-0.5235987755982988,0,0.46772552,-0.32286763,1.2070426,0.68294036,-0.10429371,0.30030468,0.9948718,0.6646448,-1.465508,-0.6421108,-0.030788409,0.13511823,1.1346679,0.88514394
-0.1,0.1,1.2999999999999998,0.0,-0.5235987755982988,0,0.46792206,-0.3231504,1.2080591,0.68497247,-0.1685661,0.2886417,0.5370765,0.6628173,-1.4888775,-0.56033283,0.020262744,0.29383335,0.99310124,-0.53221047
-0.1,0.1,1.2999999999999998,0.0,-0.5235987755982988,0,0.46856865,-0.32150754,1.2091993,0.6799815,-0.096101984,0.32422385,1.0735785,0.61728346,-1.4548544,-0.5006438,-0.020255681,0.039655484,1.1631331,-0.27715135
-0.1,0.1,1.2999999999999998,0.0,-0.5235987755982988,0,0.46940324,-0.32173976,1.2098662,0.679396,-0.058306433,0.40734142,0.5628356,0.6315822,-1.4545966,-0.6127618,-0.11725388,0.07409284,1.1074802,0.031236356
-0.1,0.1,1.2999999999999998,0.0,-0.5235987755982988,0,0.46931127,-0.3209707,1.2095548,0.6823832,-0.045604113,0.4876614,1.0248886,0.61719406,-1.4754587,-0.8070202,-0.016291283,0.14171079,1.2384357,-0.26880684
-0.1,0.1,1.2999999999999998,0.0,-0.5235987755982988,0,0.46984535,-0.32279485,1.2086772,0.6781008,-0.15221547,0.3506012,0.7102812,0.6264459,-1.437109,-0.7242868,-0.041628562,0.04511134,1.1059077,0.53181845
-0.1,0.1,1.2999999999999998,0.0,-0.5235987755982988,0,0.47008714,-0.32110062,1.2105123,0.6838755,-0.13088176,0.3586407,0.23914914,0.6758319,-1.4622574,-0.65669626,-0.003459737,0.06453355,1.1100818,-0.5516317
-0.1,0.1,1.2999999999999998,0.0,-0.5235987755982988,0,0.46842858,-0.3212567,1.2093745,0.6820058,-0.14462721,0.22338268,1.0705891,0.67493,-1.4491233,-0.44297224,-0.016057797,0.06883434,1.1367341,-0.56497324
-0.1,0.1,1.2999999999999998,0.0,-0.5235987755982988,0,0.46844047,-0.32038656,1.2113268,0.6807821,-0.14752306,0.438062,1.260369,0.65234184,-1.439462,-0.720164,-0.04782308,0.13995805,1.1528056,0.1519795
-0.1,0.1,1.2999999999999998,0.0,-0.5235987755982988,0,0.4685737,-0.32166225,1.2088681,0.68092346,-0.14995526,0.41239578,1.0957263,0.62827057,-1.4519426,-0.5312665,-0.075248055,0.03255659,1.0595152,-0.010076757
-0.1,0.1,1.2999999999999998,0.0,-0.5235987755982988,0,0.47010842,-0.32268402,1.2089944,0.6848868,-0.17142937,0.41546825,0.07021214,0.61318636,-1.455889,-0.67818576,-0.020167992,0.03661007,1.1102269,-0.48618713
-0.1,0.1,1.2999999999999998,0.0,-0.5235987755982988,0,0.46766353,-0.32252255,1.20895,0.6815087,-0.08996656,0.3493777,0.31383517,0.65258545,-1.4485943,-0.58599955,-0.025186969,0.09875912,1.0154704,-0.7966061
-0.1,0.1,1.2999999999999998,0.0,-0.5235987755982988,0,0.46837035,-0.32053822,1.210804,0.6810321,-0.1358289,0.43424994,0.16221604,0.674861,-1.4654042,-0.4720795,-0.014495342,0.09233446,1.1070442,0.131793
-0.1,0.1,1.2999999999999998,0.0,-0.5235987755982988,0,0.46906686,-0.32229316,1.2091748,0.6850082,-0.0877459,0.41656342,0.8127612,0.6986439,-1.4563948,-0.6348611,-0.054421563,-0.04747358,1.1257879,-0.024195272
-0.1,0.1,1.2999999999999998,0.0,-0.5235987755982988,0,0.47012284,-0.3218429,1.2079841,0.682906,-0.090296626,0.2586607,0.12777267,0.69244426,-1.4469514,-0.503855,-0.030307034,0.28154838,1.3115108,-1.0667584
-0.1,0.1,1.2999999999999998,0.0,-0.5235987755982988,0,0.46705687,-0.32383615,1.2088224,0.6769002,-0.12815975,0.37324324,1.1899254,0.6393136,-1.45983,-0.6669133,-0.06429425,0.02804176,1.139161,-0.17536005
-0.1,0.1,1.2999999999999998,0.0,-0.5235987755982988,0,0.46888247,-0.32100397,1.2100574,0.68345726,-0.07830544,0.21342988,0.6324517,0.6452441,-1.4538198,-0.7419713,-0.10014467,0.22045943,1.1651518,0.991684
-0.1,0.1,1.2999999999999998,0.0,-0.5235987755982988,0,0.46564963,-0.32343704,1.209445,0.6828601,-0.1477077,0.46951202,0.9715978,0.64022785,-1.4622135,-0.60615885,-0.05514098,0.22049572,1.1056321,-0.88668007
-0.1,0.1,1.2999999999999998,0.0,-0.5235987755982988,0,0.47071046,-0.32262,1.2084471,0.68349224,-0.09570313,0.53183764,-0.25595993,0.6024399,-1.4483056,-0.72002673,-0.04084224,0.09854856,1.1644127,-0.21064894
-0.1,0.1,1.2999999999999998,0.0,-0.5235987755982988,0,0.46851915,-0.31995112,1.2070161,0.67986923,-0.11561749,0.47813216,-0.23364045,0.63226676,-1.4444422,-0.38015005,-0.1090005,0.14230624,1.1494286,-0.3191867
-0.1,0.1,1.2999999999999998,0.0,-0.5235987755982988,0,0.46910837,-0.32210153,1.2118006,0.6814969,-0.102546975,0.47405592,0.26264316,0.6449344,-1.4678826,-0.71981794,-0.04231901,-0.09611025,1.1280152,0.5508162
-0.1,0.1,1.2999999999999998,0.0,-0.5235987755982988,0,0.46999547,-0.32337406,1.2093002,0.68044245,-0.14930181,0.32452676,0.80996585,0.6635156,-1.4315705,-0.5906927,-0.054320008,0.27463713,1.0426891,1.2520055
-0.1,0.1,1.2999999999999998,0.0,-0.5235987755982988,0,0.47051793,-0.3226164,1.2107697,0.6814091,-0.10089039,0.4469054,-0.12612003,0.67307067,-1.4621034,-0.62181765,-0.0033056838,0.2625092,1.1918297,0.8318879
-0.1,0.1,1.2999999999999998,0.0,-0.5235987755982988,0,0.4699522,-0.32277474,1.2120249,0.68367434,-0.08980883,0.33444843,-0.28208667,0.6613244,-1.4529111,-0.5127835,-0.029446762,0.016800454,1.137899,-0.9841743
-0.1,0.1,1.2999999999999998,0.0,-0.5235987755982988,0,0.4708079,-0.32359383,1.2087716,0.6802587,-0.046369992,0.45997217,0.33142033,0.6458721,-1.4555278,-0.570207,-0.06388911,-0.11449914,1.1378777,-0.88434863
-0.1,0.1,1.2999999999999998,0.0,-0.5235987755982988,0,0.4711198,-0.32212174,1.2101426,0.6799239,-0.15832765,0.50553626,1.1931406,0.6623329,-1.4537319,-0.5978231,-0.11522836,0.18237153,1.3092598,-0.5936805
-0.1,0.1,1.2999999999999998,0.0,-0.5235987755982988,0,0.46826762,-0.32419452,1.2094219,0.6796884,-0.090084754,0.31085008,1.0087485,0.6696546,-1.4374465,-0.61708355,-0.04131164,0.18444407,1.109328,-0.072691105
-0.1,0.1,1.2999999999999998,0.0,-0.5235987755982988,0,0.4694657,-0.32283,1.2108594,0.6791935,-0.105617926,0.43322638,1.1949966,0.6636855,-1.452664,-0.53591627,-0.054229677,0.09759669,1.0377063,1.0426384
-0.1,0.1,1.2999999999999998,0.0,-0.5235987755982988,0,0.47010332,-0.32238182,1.2102294,0.67971593,-0.05433291,0.28453562,0.19346076,0.61902595,-1.4508436,-0.455089,-0.07454234,0.21067883,1.0972295,-0.62085474
-0.1,0.1,1.2999999999999998,0.0,-0.5235987755982988,0,0.4701432,-0.32214704,1.2091393,0.68201417,-0.1015617,0.38780177,-0.42002183,0.6491907,-1.4495871,-0.64635897,-0.122988656,0.11457702,1.0934198,-0.31437883
-0.1,0.1,1.2999999999999998,0.0,-0.5235987755982988,0,0.46779945,-0.32258072,1.2104104,0.6788922,-0.10238419,0.46823585,-0.08779379,0.63698596,-1.4513258,-0.55275434,-0.027880117,0.21244383,1.0810549,-0.13526808
-0.1,0.1,1.2999999999999998,0.0,-0.5235987755982988,0,0.46950638,-0.3225764,1.2075484,0.68017393,-0.109313734,0.40539443,0.1909023,0.6565841,-1.4512359,-0.6496809,-0.068078384,-0.019327257,1.0798148,0.3516512
-0.1,0.1,1.2999999999999998,0.0,-0.5235987755982988,0,0.4669934,-0.3224584,1.2096872,0.6791264,-0.11701765,0.16896594,1.0573606,0.66175944,-1.4848356,-0.5793098,-0.13055088,0.028102243,1.2147367,0.16214924
-0.1,0.1,1.2999999999999998,0.0,-0.5235987755982988,0,0.46746778,-0.32200256,1.20758,0.6778283,-0.08248158,0.36335927,0.3982099,0.6568461,-1.4509939,-0.5093132,-0.01591678,0.060089238,1.0016906,0.83142763
-0.1,0.1,1.2999999999999998,0.0,-0.5235987755982988,0,0.46686953,-0.32373944,1.2062114,0.6806813,-0.14957142,0.50086856,1.3373584,0.6271917,-1.4725817,-0.44663125,-0.05424775,-0.038639683,1.1252664,-0.19728947
-0.1,0.1,1.2999999999999998,0.0,-0.5235987755982988,0,0.46884257,-0.3217173,1.2091818,0.6833713,-0.13302048,0.3938933,1.2357904,0.66974384,-1.4581896,-0.5414804,-0.008701245,0.15135218,1.1126617,0.2721718
