sanky1234/BimanualDexCatch/isaacgymenvs/cem_results/football_pose_0.1_-0.1_0.9999999999999999_0.0_0.0_0_2025-05-26.csv
x,y,z,roll,pitch,yaw,robot1/joint1,robot1/joint2,robot1/joint3,robot1/joint4,robot1/joint5,robot1/joint6,robot1/joint7,robot2/joint1,robot2/joint2,robot2/joint3,robot2/joint4,robot2/joint5,robot2/joint6,robot2/joint7
0.1,-0.1,0.9999999999999999,0.0,0.0,0,-1.873639,1.1600776,-0.06839095,0.806553,-1.1481987,1.343605,-0.14043339,-0.07037108,-1.0157183,1.2906206,1.183466,0.334741,1.4537169,-2.0435958
0.1,-0.1,0.9999999999999999,0.0,0.0,0,-1.9532546,1.1596683,-0.060319334,0.7841886,-1.2298554,1.343964,-0.11799525,-0.0796976,-1.0113713,1.3034276,1.1583399,0.29505146,1.4558425,-1.344292
0.1,-0.1,0.9999999999999999,0.0,0.0,0,-1.9057108,1.1524383,-0.05305515,0.75918174,-1.1226616,1.3640802,-0.028620945,-0.07919887,-1.0024794,1.2746484,1.1935357,0.3830212,1.5228469,-0.59873277
0.1,-0.1,0.9999999999999999,0.0,0.0,0,-1.9491752,1.1778101,-0.06598261,0.78685236,-1.3103095,1.3230631,-0.020769356,-0.090058856,-1.005053,1.3008128,1.1611857,0.39299455,1.4518577,-0.9777923
0.1,-0.1,0.9999999999999999,0.0,0.0,0,-1.878661,1.1487632,-0.058840413,0.7667151,-1.3094788,1.3436646,-0.10246665,-0.076012306,-1.004976,1.305903,1.1310977,0.36877766,1.4071178,-1.2964821
0.1,-0.1,0.9999999999999999,0.0,0.0,0,-1.9687257,1.1483711,-0.04566657,0.7650374,-1.2599082,1.3659004,-0.09580508,-0.107285745,-1.0077425,1.270299,1.2079657,0.3418118,1.4728392,-1.7234172
0.1,-0.1,0.9999999999999999,0.0,0.0,0,-1.9325064,1.1631855,-0.05867967,0.7598411,-1.2131617,1.3731287,0.024429385,-0.07868525,-1.0067979,1.2731991,1.1308944,0.5328416,1.470202,-1.2890491
0.1,-0.1,0.9999999999999999,0.0,0.0,0,-1.8658528,1.1688625,-0.07048538,0.76776177,-1.2860688,1.3398192,-0.21401879,-0.044767566,-1.008373,1.2554698,1.1551819,0.33016017,1.4982045,-1.3350027
0.1,-0.1,0.9999999999999999,0.0,0.0,0,-1.8894107,1.160314,-0.037246525,0.76849514,-1.2734245,1.3333744,-0.025456415,-0.07747153,-1.0176941,1.2755257,1.1380007,0.49315366,1.4884188,-1.5369174
0.1,-0.1,0.9999999999999999,0.0,0.0,0,-1.8886156,1.1614529,-0.080487855,0.76425993,-1.3533332,1.3397789,-0.35824293,-0.091203704,-1.0119851,1.281159,1.1832976,0.4182968,1.4222258,-1.2145599
0.1,-0.1,0.9999999999999999,0.0,0.0,0,-2.0019531,1.1587014,-0.09351915,0.7830077,-1.3171297,1.3688482,-0.012738877,-0.06126541,-1.0171577,1.2599444,1.1639773,0.41006634,1.5002526,-1.5877407
0.1,-0.1,0.9999999999999999,0.0,0.0,0,-1.899912,1.1630772,-0.07878871,0.7448698,-1.2691189,1.3530284,-0.28116918,-0.11077642,-1.0216651,1.3204304,1.1665478,0.48069164,1.488778,-1.523664
0.1,-0.1,0.9999999999999999,0.0,0.0,0,-1.9333328,1.1932034,-0.07643256,0.76678115,-1.284582,1.3589717,-0.071371794,-0.08176435,-1.006646,1.268541,1.156336,0.4510697,1.4253405,-1.1092486
0.1,-0.1,0.9999999999999999,0.0,0.0,0,-1.8874834,1.1410382,-0.09032352,0.7512403,-1.1976988,1.3068001,-0.14846039,-0.09346638,-1.0211619,1.2727641,1.2063451,0.38966322,1.4093527,-1.4910376
0.1,-0.1,0.9999999999999999,0.0,0.0,0,-1.9579208,1.1663024,-0.06749806,0.75376576,-1.2256687,1.3572506,-0.2554949,-0.07535382,-1.0204513,1.2747185,1.199753,0.33562747,1.4805789,-1.7703499
0.1,-0.1,0.9999999999999999,0.0,0.0,0,-1.946246,1.159425,-0.07146189,0.75538146,-1.2280507,1.3613538,0.08191418,-0.06325372,-1.0091941,1.2866886,1.1643057,0.42268872,1.5099529,-1.5900265
0.1,-0.1,0.9999999999999999,0.0,0.0,0,-1.8761462,1.1601717,-0.064091645,0.77177703,-1.2222854,1.3560994,0.069420144,-0.03022736,-1.018526,1.2885957,1.1254995,0.4977672,1.46782,-0.89873654
0.1,-0.1,0.9999999999999999,0.0,0.0,0,-1.8818551,1.1676409,-0.108498424,0.75544226,-1.2732271,1.368499,-0.3726176,-0.048954148,-0.9954152,1.2857671,1.1488057,0.3755866,1.4820952,-0.87764454
0.1,-0.1,0.9999999999999999,0.0,0.0,0,-1.9353507,1.1477624,-0.07018956,0.75763124,-1.2680664,1.3474039,-0.17007853,-0.077957906,-1.0134069,1.2582102,1.1495216,0.39757812,1.4576662,-1.0168637
0.1,-0.1,0.9999999999999999,0.0,0.0,0,-1.9250091,1.151058,-0.08778425,0.7601392,-1.1588132,1.3576318,-0.016985752,-0.1052466,-1.0044938,1.2854488,1.157758,0.39959863,1.4190753,-1.481868
0.1,-0.1,0.9999999999999999,0.0,0.0,0,-1.8744118,1.1824989,-0.10464812,0.7559232,-1.2025522,1.3448625,-0.02597521,-0.07164289,-1.0184752,1.2876859,1.1791753,0.45071724,1.4815444,-1.366795
0.1,-0.1,0.9999999999999999,0.0,0.0,0,-1.889962,1.160866,-0.08293914,0.75195664,-1.1914482,1.3550578,-0.16163848,-0.06348286,-1.0002052,1.265423,1.1433007,0.52192104,1.4137925,-1.3342611
0.1,-0.1,0.9999999999999999,0.0,0.0,0,-1.9412899,1.1682191,-0.13062309,0.7531479,-1.2750629,1.3265705,-0.23065871,-0.08739049,-1.011168,1.2580336,1.1355445,0.5038077,1.5309759,-0.5472236
0.1,-0.1,0.9999999999999999,0.0,0.0,0,-1.9206476,1.1783944,-0.07935903,0.7488123,-1.311354,1.3616441,0.0067286678,-0.09484221,-1.0252911,1.2771109,1.1480007,0.35342118,1.4456327,-1.4816052
0.1,-0.1,0.9999999999999999,0.0,0.0,0,-1.9356067,1.1741676,-0.07164169,0.801495,-1.2232882,1.3723388,-0.15021439,-0.063588046,-1.0066404,1.2910984,1.1634697,0.34353617,1.4351287,-0.88093305
0.1,-0.1,0.9999999999999999,0.0,0.0,0,-1.9679818,1.1602123,-0.04371976,0.7835201,-1.2001818,1.3915585,-0.051867995,-0.08117462,-1.0216994,1.2898831,1.1825782,0.35761192,1.4337385,-0.8559428
0.1,-0.1,0.9999999999999999,0.0,0.0,0,-1.9372735,1.1762192,-0.050544795,0.7797928,-1.1568853,1.3473673,-0.15345703,-0.08967529,-1.0072377,1.2880491,1.1262811,0.34925047,1.4452277,-1.5850064
0.1,-0.1,0.9999999999999999,0.0,0.0,0,-1.9453021,1.1587685,-0.07101717,0.76596844,-1.2523279,1.340519,-0.008767013,-0.06652712,-1.0150756,1.2909138,1.1854169,0.42095202,1.4442445,-1.3643104
0.1,-0.1,0.9999999999999999,0.0,0.0,0,-1.9511597,1.1612238,-0.053899515,0.74915916,-1.1935637,1.3532848,-0.21901721,-0.093531094,-1.0049826,1.2555256,1.1194136,0.48199162,1.5534486,-1.1876662
0.1,-0.1,0.9999999999999999,0.0,0.0,0,-1.9273143,1.1527485,-0.06977845,0.784278,-1.2894379,1.3346798,-0.22856893,-0.07596647,-1.0053656,1.2572435,1.1971998,0.29583684,1.4541001,-1.1884984
0.1,-0.1,0.9999999999999999,0.0,0.0,0,-1.925115,1.1600255,-0.05523769,0.7706115,-1.2394518,1.3621633,-0.19529672,-0.07682379,-1.0126792,1.2855006,1.1744406,0.49384153,1.5235747,-1.7663677
0.1,-0.1,0.9999999999999999,0.0,0.0,0,-1.9294313,1.1539057,-0.0685507,0.7435692,-1.2557393,1.3295432,-0.034472756,-0.06347105,-1.0141459,1.2478306,1.1934514,0.44776362,1.4556284,-1.216128
0.1,-0.1,0.9999999999999999,0.0,0.0,0,-1.9295912,1.1594499,-0.06570386,0.7236145,-1.1547745,1.3514384,-0.2720546,-0.060489047,-1.0143427,1.2660133,1.1482245,0.37308395,1.4498818,-1.3679047
0.1,-0.1,0.9999999999999999,0.0,0.0,0,-1.9526772,1.1706972,-0.07439243,0.7628873,-1.2569033,1.3268943,-0.06503385,-0.050538518,-1.0155832,1.3114437,1.1459292,0.4462625,1.4111147,-1.6919949
0.1,-0.1,0.9999999999999999,0.0,0.0,0,-1.9458251,1.1498609,-0.058898076,0.7551037,-1.2660993,1.3628991,-0.1570727,-0.08790518,-1.0172356,1.2866879,1.1272573,0.395548,1.4813044,-1.1153269
0.1,-0.1,0.9999999999999999,0.0,0.0,0,-1.9735717,1.180949,-0.04979125,0.749168,-1.2482184,1.3574044,-0.16281372,-0.110740066,-1.0018868,1.257261,1.1436217,0.38376024,1.4114473,-1.0188047
0.1,-0.1,0.9999999999999999,0.0,0.0,0,-1.9051405,1.1669987,-0.0767683,0.74546444,-1.2978652,1.3563372,-0.19506396,-0.042843927,-1.0167048,1.3072581,1.149859,0.31660515,1.4822327,-1.0367322
0.1,-0.1,0.9999999999999999,0.0,0.0,0,-1.923154,1.1646681,-0.07773039,0.76192856,-1.171747,1.3542453,-0.09390705,-0.08609144,-0.99110746,1.2838235,1.1683009,0.5350306,1.5595131,-1.655845
0.1,-0.1,0.9999999999999999,0.0,0.0,0,-1.913429,1.1694334,-0.08063395,0.7768806,-1.2291636,1.3427366,-0.3948952,-0.084088184,-1.0102693,1.2794518,1.1662548,0.50674176,1.4280443,-0.80492103
0.1,-0.1,0.9999999999999999,0.0,0.0,0,-1.9657806,1.1986003,-0.071102686,0.7365587,-1.2474804,1.334918,-0.17600715,-0.09569368,-1.0090477,1.2849407,1.1577781,0.36086634,1.4029435,-1.53762
0.1,-0.1,0.9999999999999999,0.0,0.0,0,-1.95281,1.1812128,-0.07441777,0.7778273,-1.2552022,1.3408102,-0.17594603,-0.060418032,-1.0163654,1.2720371,1.102531,0.39332077,1.4479486,-1.3292997
0.1,-0.1,0.9999999999999999,0.0,0.0,0,-1.8874155,1.1810539,-0.07908423,0.7708741,-1.2657162,1.3474987,0.10113356,-0.035811193,-1.0254003,1.2610987,1.1613146,0.40775952,1.4551064,-1.5683211
0.1,-0.1,0.9999999999999999,0.0,0.0,0,-1.9565644,1.1707537,-0.061867956,0.80475324,-1.2271824,1.3724741,-0.016960612,-0.07034363,-1.007649,1.3145341,1.1703737,0.5530605,1.4726293,-0.912153
0.1,-0.1,0.9999999999999999,0.0,0.0,0,-1.9926386,1.1828622,-0.064787485,0.7905176,-1.2383542,1.3622769,-0.2186225,-0.08912902,-1.016649,1.3010793,1.1456345,0.4192209,1.48076,-1.0568969
0.1,-0.1,0.9999999999999999,0.0,0.0,0,-1.9253576,1.1630768,-0.038905714,0.74362814,-1.1326277,1.3454932,-0.30506504,-0.039333716,-1.0129225,1.2731969,1.1524115,0.43710873,1.4773394,-1.0444514
0.1,-0.1,0.9999999999999999,0.0,0.0,0,-1.9184313,1.1882906,-0.065590575,0.7752793,-1.2992973,1.3498914,-0.07672671,-0.0841711,-1.0117642,1.2495128,1.1543881,0.52116853,1.4770467,-1.548827
0.1,-0.1,0.9999999999999999,0.0,0.0,0,-1.9607495,1.1688781,-0.04599187,0.77755356,-1.1977793,1.330259,-0.06872559,-0.0894138,-1.0197058,1.3043962,1.1817943,0.40681016,1.4583782,-2.0221422
0.1,-0.1,0.9999999999999999,0.0,0.0,0,-1.8543034,1.1679919,-0.08800182,0.767512,-1.1703606,1.331947,-0.05568062,-0.066069394,-1.0066969,1.3051051,1.137585,0.39183527,1.520372,-0.93108505
0.1,-0.1,0.9999999999999999,0.0,0.0,0,-1.9324702,1.1706458,-0.07497445,0.81754637,-1.227061,1.3351687,-0.056756586,-0.08644707,-1.010458,1.269751,1.1330228,0.4982856,1.4863715,-0.5692336
0.1,-0.1,0.9999999999999999,0.0,0.0,0,-1.9436278,1.1815035,-0.12727964,0.7343936,-1.1736841,1.3296406,-0.17797984,-0.07681733,-1.0013553,1.2870913,1.1457623,0.48816058,1.4799923,-1.5388741
0.1,-0.1,0.9999999999999999,0.0,0.0,0,-1.9477262,1.1781361,-0.0769515,0.7529403,-1.1921312,1.3627641,-0.040863533,-0.13159767,-1.0239805,1.2961565,1.1735748,0.41932705,1.4378706,-1.0106367
0.1,-0.1,0.9999999999999999,0.0,0.0,0,-1.8944148,1.1611329,-0.05870654,0.77294785,-1.3367944,1.3710883,-0.20807235,-0.047605157,-1.0102636,1.308523,1.1650369,0.40519655,1.448159,-2.0052783
0.1,-0.1,0.9999999999999999,0.0,0.0,0,-1.864293,1.1812335,-0.052945685,0.79347605,-1.2333679,1.3486617,-0.21441032,-0.07494417,-1.0102646,1.2919014,1.1420904,0.42153212,1.4425141,-1.4410561
0.1,-0.1,0.9999999999999999,0.0,0.0,0,-1.8235115,1.1791688,-0.058311928,0.75826377,-1.184196,1.3396281,-0.091672,-0.100496665,-1.0189172,1.2509483,1.179209,0.46519762,1.4393582,-1.3636571
0.1,-0.1,0.9999999999999999,0.0,0.0,0,-1.8377985,1.1834986,-0.06552354,0.73583096,-1.2517937,1.3474842,-0.28378335,-0.09129371,-1.0067871,1.2490631,1.1532797,0.36470392,1.4397203,-0.70074606
0.1,-0.1,0.9999999999999999,0.0,0.0,0,-1.8376342,1.174843,-0.07275392,0.77511704,-1.1863245,1.3303435,-0.15096864,-0.060465712,-1.0067464,1.2936007,1.1182303,0.5650828,1.4459504,-1.7250165
0.1,-0.1,0.9999999999999999,0.0,0.0,0,-1.7859297,1.1913564,-0.04146443,0.7777261,-1.2239096,1.3309344,-0.14464936,-0.09048486,-1.0176275,1.2651393,1.1453623,0.3818457,1.4259466,-1.1758994
0.1,-0.1,0.9999999999999999,0.0,0.0,0,-1.8792086,1.1634257,-0.033915218,0.77571094,-1.2937988,1.3503613,0.040910713,-0.09076374,-1.0133408,1.2660861,1.2177737,0.41118002,1.5071831,-1.4008621
0.1,-0.1,0.9999999999999999,0.0,0.0,0,-1.7307941,1.1773313,-0.07822376,0.75442725,-1.2108285,1.3617837,-0.0076806415,-0.06470879,-1.0121228,1.2754691,1.1647844,0.36574635,1.4460771,-1.038038
0.1,-0.1,0.9999999999999999,0.0,0.0,0,-1.8656682,1.2047484,-0.08029687,0.77388036,-1.176636,1.3522767,-0.304542,-0.05752922,-1.0195193,1.2938135,1.157415,0.41668686,1.4224266,-0.8156198
0.1,-0.1,0.9999999999999999,0.0,0.0,0,-1.8833057,1.1770271,-0.049658604,0.79285604,-1.1813496,1.3547149,-0.07687395,-0.088080354,-1.0208604,1.2879895,1.1577244,0.3575124,1.5031035,-1.5910796
0.1,-0.1,0.9999999999999999,0.0,0.0,0,-1.8708072,1.1740806,-0.0753055,0.74313045,-1.2465993,1.373945,0.115456596,-0.09182678,-1.0050488,1.275352,1.15175,0.31906018,1.4415631,-0.99699956
0.1,-0.1,0.9999999999999999,0.0,0.0,0,-1.8872327,1.1668766,-0.045064714,0.76802427,-1.2469068,1.3583424,0.06696806,-0.060772937,-1.0136987,1.2944751,1.1544094,0.3725988,1.4729525,-1.5674206
0.1,-0.1,0.9999999999999999,0.0,0.0,0,-1.9484686,1.1576648,-0.07244649,0.7738247,-1.2237344,1.3400283,-0.12335428,-0.091913484,-1.0083629,1.2806175,1.1403601,0.41649726,1.4215788,-0.64274895
0.1,-0.1,0.9999999999999999,0.0,0.0,0,-1.8016672,1.1730062,-0.06665273,0.77074134,-1.2672395,1.3639141,-0.34568995,-0.04597511,-1.0052762,1.3072404,1.108099,0.42770973,1.5025353,-1.638652
0.1,-0.1,0.9999999999999999,0.0,0.0,0,-1.8621248,1.1752721,-0.07167339,0.77042264,-1.1612595,1.3486706,-0.032547835,-0.054755747,-1.0024561,1.2884163,1.1472018,0.46231586,1.4031296,-1.6163677
0.1,-0.1,0.9999999999999999,0.0,0.0,0,-1.7998888,1.1666383,-0.035947904,0.74569565,-1.2043556,1.3612876,-0.38667575,-0.11225063,-1.0206863,1.3151106,1.1310743,0.42470732,1.472887,-1.607428
0.1,-0.1,0.9999999999999999,0.0,0.0,0,-1.9487445,1.1518689,-0.06522436,0.7788505,-1.1706086,1.3416557,-0.1443832,-0.060250286,-1.002472,1.2947928,1.1109062,0.3723806,1.4753793,-0.6848146
0.1,-0.1,0.9999999999999999,0.0,0.0,0,-1.8939608,1.1601963,-0.09151013,0.7848993,-1.2787813,1.3348234,-0.18365888,-0.07432153,-1.0129906,1.2634419,1.2022603,0.41206846,1.4270356,-1.6338105
0.1,-0.1,0.9999999999999999,0.0,0.0,0,-1.9239057,1.1623496,-0.06018901,0.7596653,-1.2760392,1.3490865,-0.10225254,-0.110628456,-1.006463,1.3004316,1.188656,0.44465318,1.4229441,-1.9295974
0.1,-0.1,0.9999999999999999,0.0,0.0,0,-1.799371,1.1593472,-0.033315282,0.7819488,-1.2212029,1.3286797,-0.08774259,-0.093131036,-1.0256675,1.2903581,1.1390483,0.36855975,1.446987,-1.6092649
0.1,-0.1,0.9999999999999999,0.0,0.0,0,-1.9116515,1.1894635,-0.057210784,0.76468384,-1.2320573,1.3430507,-0.15757361,-0.09686629,-1.0147012,1.2943168,1.1619138,0.42907262,1.4286878,-0.86269736
0.1,-0.1,0.9999999999999999,0.0,0.0,0,-1.801081,1.1597406,-0.05354078,0.76425004,-1.236553,1.3356533,-0.37782374,-0.0797993,-1.0090982,1.2895912,1.1471659,0.34976804,1.4886917,-0.52269256
0.1,-0.1,0.9999999999999999,0.0,0.0,0,-1.90377,1.189926,-0.0297564,0.7627566,-1.2352549,1.3264503,-0.06945464,-0.051499613,-1.018901,1.2332369,1.1195412,0.34892136,1.4450008,-1.2321223
0.1,-0.1,0.9999999999999999,0.0,0.0,0,-1.88505,1.1696904,-0.06083465,0.747291,-1.2961937,1.349654,0.037218086,-0.0868657,-0.98800117,1.2838649,1.1462085,0.39568585,1.4723219,-0.7898195
0.1,-0.1,0.9999999999999999,0.0,0.0,0,-1.8631728,1.1839967,-0.03107286,0.78574663,-1.2578492,1.3639649,-0.022261078,-0.09364101,-1.0100521,1.2822604,1.1118437,0.44380966,1.4183393,-1.37694
0.1,-0.1,0.9999999999999999,0.0,0.0,0,-1.7980264,1.1887108,-0.084966674,0.7589928,-1.2607911,1.3465749,-0.12705763,-0.0584781,-1.0296878,1.2874273,1.1286775,0.32175723,1.4910953,-0.5832335
0.1,-0.1,0.9999999999999999,0.0,0.0,0,-1.8846618,1.1636937,-0.066284694,0.79692173,-1.1815013,1.3400741,0.042199284,-0.07506078,-1.0034779,1.2497559,1.13918,0.4147653,1.4527,-1.6564053
0.1,-0.1,0.9999999999999999,0.0,0.0,0,-1.9114105,1.1590295,-0.053005643,0.8008324,-1.2685931,1.3482733,-0.24727976,-0.091775075,-1.0115007,1.2912754,1.1344296,0.4187617,1.4371526,-1.1778059
0.1,-0.1,0.9999999999999999,0.0,0.0,0,-1.8021656,1.1496973,-0.066325925,0.72954917,-1.3484885,1.3628798,-0.18959592,-0.06275509,-1.0240076,1.2623725,1.1440681,0.3931379,1.473324,-1.2865657
0.1,-0.1,0.9999999999999999,0.0,0.0,0,-1.8982384,1.1660647,-0.045875516,0.7524233,-1.2863463,1.3399826,-0.34022108,-0.04071962,-1.0150889,1.2700279,1.1491538,0.3596711,1.4799345,-1.099142
0.1,-0.1,0.9999999999999999,0.0,0.0,0,-1.8061793,1.1374723,-0.05805211,0.7814725,-1.2355615,1.35856,0.010268516,-0.12174702,-1.0079355,1.2990515,1.1763613,0.45096356,1.4505461,-1.2261742
0.1,-0.1,0.9999999999999999,0.0,0.0,0,-1.8076626,1.1836876,-0.040715843,0.78208584,-1.2005687,1.344381,-0.071193874,-0.076889336,-1.0058515,1.2931868,1.130699,0.36684436,1.4174848,-1.3392739
0.1,-0.1,0.9999999999999999,0.0,0.0,0,-1.8857661,1.2025782,-0.0396259,0.7887469,-1.2630745,1.3407524,0.06540625,-0.0548865,-1.0152882,1.2945372,1.1191418,0.45687634,1.478724,-0.7306389
0.1,-0.1,0.9999999999999999,0.0,0.0,0,-1.8125775,1.1481208,-0.055305444,0.7735736,-1.256215,1.3288095,-0.056968942,-0.09493613,-1.014234,1.2599521,1.1938199,0.4011003,1.4640474,-0.28613225
0.1,-0.1,0.9999999999999999,0.0,0.0,0,-1.798754,1.1817821,-0.07702359,0.7429115,-1.2963033,1.3505744,-0.27410105,-0.10289867,-1.0105923,1.2741559,1.1877425,0.32548994,1.4589474,-1.4749843
0.1,-0.1,0.9999999999999999,0.0,0.0,0,-1.905272,1.1566666,-0.066482626,0.7661306,-1.2595192,1.3378893,-0.23783736,-0.083739296,-1.0224627,1.2841927,1.154449,0.3866274,1.460306,-1.0858692
0.1,-0.1,0.9999999999999999,0.0,0.0,0,-1.8132364,1.1851373,-0.038275994,0.7544681,-1.2134588,1.3621362,0.048205294,-0.12337234,-1.007077,1.2656131,1.1876221,0.5022714,1.4708686,-1.071521
0.1,-0.1,0.9999999999999999,0.0,0.0,0,-1.8766679,1.1659244,-0.07548824,0.78303266,-1.2342683,1.3413352,-0.079911806,-0.09186991,-1.0065949,1.2205096,1.1321485,0.46762645,1.4883765,-1.4884702
0.1,-0.1,0.9999999999999999,0.0,0.0,0,-1.8026649,1.1791406,-0.07054418,0.76315475,-1.1417694,1.3282807,-0.03203379,-0.09554933,-1.0058856,1.2692285,1.1784402,0.37021756,1.5005442,-0.8191203
0.1,-0.1,0.9999999999999999,0.0,0.0,0,-1.8229408,1.1612161,-0.03832632,0.75430834,-1.3394147,1.3405912,-0.08768591,-0.08554268,-1.0047795,1.2638819,1.1551931,0.40026006,1.5091158,-0.8966086
0.1,-0.1,0.9999999999999999,0.0,0.0,0,-1.8048757,1.161148,-0.078958124,0.7849172,-1.2452165,1.3248363,0.1303397,-0.11731615,-1.0023772,1.2786735,1.1069908,0.41663042,1.5251808,-1.3875271
0.1,-0.1,0.9999999999999999,0.0,0.0,0,-1.8166649,1.165314,-0.0649474,0.77178776,-1.1786242,1.3366073,-0.12005017,-0.07535114,-1.0014751,1.2750875,1.1449833,0.46285227,1.4672965,-1.1854639
0.1,-0.1,0.9999999999999999,0.0,0.0,0,-1.9341763,1.1626636,-0.06563636,0.78660154,-1.3271346,1.357848,-0.036413327,-0.08740743,-0.9977261,1.3151664,1.1369135,0.47779506,1.4477068,-1.3674375
0.1,-0.1,0.9999999999999999,0.0,0.0,0,-1.8336053,1.15087,-0.06402704,0.7747973,-1.2126168,1.3540367,0.033381745,-0.046408884,-1.0160397,1.3176087,1.1619781,0.55649626,1.4424164,-1.0365684
0.1,-0.1,0.9999999999999999,0.0,0.0,0,-1.8101314,1.1871845,-0.060513366,0.77706796,-1.1849756,1.3097217,-0.17114434,-0.06501555,-1.0065132,1.2712324,1.1212301,0.3898709,1.5131236,-0.44992974
0.1,-0.1,0.9999999999999999,0.0,0.0,0,-1.8196354,1.1503322,-0.075194165,0.7959314,-1.1527799,1.346644,-0.3685972,-0.09241058,-0.99808717,1.2873119,1.152969,0.5569445,1.4394791,-1.2773359
0.1,-0.1,0.9999999999999999,0.0,0.0,0,-1.7766242,1.1909,-0.053446297,0.75107634,-1.1545088,1.3170241,-0.21770054,-0.09445264,-1.0127401,1.3455707,1.1357197,0.3294232,1.4703116,-0.79906076
0.1,-0.1,0.9999999999999999,0.0,0.0,0,-1.8426756,1.1675985,-0.05275518,0.7658165,-1.2942177,1.3361917,0.10343957,-0.05282326,-1.01749,1.3052126,1.1680877,0.42133966,1.4213656,-1.0868852
0.1,-0.1,0.9999999999999999,0.0,0.0,0,-1.8890654,1.185659,-0.08720777,0.745149,-1.2186092,1.3396424,0.064722046,-0.09576755,-0.9957257,1.2825853,1.1077046,0.40335262,1.484539,-1.1298392
0.1,-0.1,0.9999999999999999,0.0,0.0,0,-1.8921938,1.1883327,-0.08233702,0.78687656,-1.2482744,1.3635613,-0.063325025,-0.0831445,-1.0051775,1.2620156,1.1065086,0.307068,1.4786704,-1.3295443
0.1,-0.1,0.9999999999999999,0.0,0.0,0,-1.8401507,1.1823721,-0.052373037,0.7460603,-1.1494083,1.3431079,-0.28253463,-0.08634793,-0.9949603,1.2628673,1.16322,0.46206963,1.4277966,-1.545418
0.1,-0.1,0.9999999999999999,0.0,0.0,0,-1.8108863,1.1497188,-0.06783223,0.7727302,-1.2381792,1.3639911,-0.035338596,-0.11976131,-1.0188596,1.2798065,1.1313475,0.40989056,1.4969954,-1.1247797
0.1,-0.1,0.9999999999999999,0.0,0.0,0,-1.7836914,1.1584978,-0.08014135,0.76818824,-1.3173288,1.3454047,-0.2388331,-0.07330492,-1.023681,1.3052232,1.1432917,0.36953074,1.487041,-0.68606836
0.1,-0.1,0.9999999999999999,0.0,0.0,0,-1.8216319,1.1816316,-0.04862518,0.7672288,-1.2112796,1.332863,-0.17954361,-0.09682196,-1.0050272,1.289192,1.1731788,0.5998145,1.3824028,-1.9226822
0.1,-0.1,0.9999999999999999,0.0,0.0,0,-1.8330932,1.1611887,-0.079495974,0.7893499,-1.3336055,1.3415806,-0.015340758,-0.075988404,-0.9824467,1.2631245,1.1800475,0.40089953,1.4753573,-1.8528728
0.1,-0.1,0.9999999999999999,0.0,0.0,0,-1.7878946,1.1745981,-0.07981378,0.77286917,-1.2933564,1.3408155,-0.13180313,-0.07576838,-1.02777,1.2969236,1.203168,0.3811863,1.4186407,-1.9080163
0.1,-0.1,0.9999999999999999,0.0,0.0,0,-1.7931112,1.1696215,-0.06697116,0.7666663,-1.2599401,1.3334926,-0.3248778,-0.13825366,-1.0179378,1.3015385,1.1097856,0.38633123,1.4317452,-1.6862468
0.1,-0.1,0.9999999999999999,0.0,0.0,0,-1.8044255,1.1774163,-0.052041415,0.7731277,-1.2230533,1.3560917,0.100377515,-0.06283451,-1.0179137,1.3191308,1.1864613,0.3766158,1.4308596,-1.2999566
0.1,-0.1,0.9999999999999999,0.0,0.0,0,-1.8162397,1.1574233,-0.04624813,0.78123456,-1.1650455,1.3387252,-0.24019048,-0.103044115,-0.9998142,1.3294152,1.1682733,0.47741246,1.4464854,-0.6182708
0.1,-0.1,0.9999999999999999,0.0,0.0,0,-1.7899953,1.1768179,-0.08990486,0.760469,-1.2329569,1.3642179,-0.047526337,-0.11094032,-1.0196053,1.2911091,1.1393927,0.3204093,1.4101952,-1.237239
0.1,-0.1,0.9999999999999999,0.0,0.0,0,-1.7995167,1.1987557,-0.0797592,0.78094226,-1.226625,1.367719,0.056298457,-0.08963818,-1.0135492,1.3117119,1.1579007,0.4829273,1.4555954,-1.5691732
0.1,-0.1,0.9999999999999999,0.0,0.0,0,-1.8084574,1.1773058,-0.06933653,0.76269615,-1.2634624,1.3599868,-0.111865304,-0.08204219,-1.0264018,1.2898195,1.1814398,0.44046444,1.4396037,-1.3674117
0.1,-0.1,0.9999999999999999,0.0,0.0,0,-1.8071818,1.1561017,-0.072745994,0.7232325,-1.1441225,1.3270102,-0.08529298,-0.10623831,-1.0107086,1.3093888,1.1621443,0.5778071,1.4951059,-0.9991426
0.1,-0.1,0.9999999999999999,0.0,0.0,0,-1.8095298,1.1607742,-0.0678891,0.7715618,-1.1696247,1.342714,-0.03810863,-0.0869283,-1.0233605,1.281938,1.1671213,0.43778363,1.4390707,-2.051729
0.1,-0.1,0.9999999999999999,0.0,0.0,0,-1.7974137,1.1872542,-0.07670951,0.7470307,-1.2496114,1.3250909,-0.021043714,-0.11876381,-1.0043743,1.2982723,1.1429086,0.452234,1.4389453,-1.662737
0.1,-0.1,0.9999999999999999,0.0,0.0,0,-1.8114669,1.1814115,-0.07539806,0.7792041,-1.2045332,1.3639948,0.004124572,-0.04701245,-1.0068768,1.3253897,1.2104121,0.4819085,1.4611623,-1.5340215
0.1,-0.1,0.9999999999999999,0.0,0.0,0,-1.7949312,1.1659195,-0.086422,0.7627687,-1.2550274,1.3529596,0.043765396,-0.052500807,-1.0218443,1.2772574,1.1683347,0.47055593,1.4865854,-2.0231457
0.1,-0.1,0.9999999999999999,0.0,0.0,0,-1.8138268,1.168124,-0.0700743,0.7852663,-1.2263666,1.3441702,-0.11257857,-0.10142001,-1.0139676,1.2834973,1.1916746,0.5080091,1.4585334,-0.9001596
0.1,-0.1,0.9999999999999999,0.0,0.0,0,-1.8013403,1.173679,-0.08516982,0.76976067,-1.2866198,1.363108,-0.11047291,-0.09359337,-1.0146294,1.282718,1.1839157,0.45258158,1.4251095,-1.3723911
0.1,-0.1,0.9999999999999999,0.0,0.0,0,-1.8196583,1.1723359,-0.055580262,0.7652663,-1.2457992,1.348201,-0.006354335,-0.0820543,-1.009898,1.2970014,1.1237187,0.32526794,1.4968299,-1.2750667
0.1,-0.1,0.9999999999999999,0.0,0.0,0,-1.8114939,1.1806871,-0.075318374,0.7343719,-1.2499686,1.3386472,-0.18780433,-0.07660848,-1.0069361,1.3049636,1.1966258,0.42506644,1.4457804,-1.4890169
0.1,-0.1,0.9999999999999999,0.0,0.0,0,-1.8247355,1.1617484,-0.049174152,0.74538434,-1.1584054,1.3244991,-0.15472798,-0.062798455,-1.0153747,1.2897084,1.173087,0.39978066,1.4575528,-1.4484577
0.1,-0.1,0.9999999999999999,0.0,0.0,0,-1.8286676,1.1745554,-0.038899872,0.76728266,-1.1540895,1.3394783,0.15936656,-0.041889753,-1.0170394,1.2851626,1.121312,0.37304297,1.4464916,-2.2459812
0.1,-0.1,0.9999999999999999,0.0,0.0,0,-1.8240756,1.1743495,-0.068776496,0.7809986,-1.2069718,1.3464693,-0.26063886,-0.11805297,-1.0115285,1.2557983,1.1163081,0.4783865,1.4153943,-1.31461
0.1,-0.1,0.9999999999999999,0.0,0.0,0,-1.8074605,1.1670165,-0.09504617,0.7707302,-1.2070668,1.3618479,-0.17761007,-0.041347794,-0.9956034,1.3133564,1.1542323,0.3791107,1.4772037,-0.66287804
0.1,-0.1,0.9999999999999999,0.0,0.0,0,-1.8423804,1.1555039,-0.056954082,0.803651,-1.2976775,1.3559136,-0.12192807,-0.05787027,-0.9897682,1.2649876,1.1150517,0.32769537,1.4727254,-1.0722755
0.1,-0.1,0.9999999999999999,0.0,0.0,0,-1.8149695,1.1658577,-0.07126518,0.7357675,-1.1907539,1.3623792,0.122018695,-0.08624584,-0.9967463,1.281814,1.2004882,0.381657,1.4275898,-0.8967887
0.1,-0.1,0.9999999999999999,0.0,0.0,0,-1.8173313,1.187038,-0.076126285,0.81884724,-1.2572957,1.322206,-0.41344944,-0.09315089,-1.0036346,1.280483,1.1845409,0.34690732,1.4632715,-1.7636614
0.1,-0.1,0.9999999999999999,0.0,0.0,0,-1.8235216,1.1844984,-0.058936648,0.76040864,-1.2627732,1.3362929,-0.02688776,-0.06581124,-1.0163116,1.2802458,1.1664178,0.36973977,1.4919709,-1.0490791
0.1,-0.1,0.9999999999999999,0.0,0.0,0,-1.8252157,1.1624557,-0.0582271,0.8112937,-1.1847718,1.369949,-0.08206236,-0.041771937,-0.9986168,1.2948089,1.1714282,0.35823718,1.4778826,-1.6121767
0.1,-0.1,0.9999999999999999,0.0,0.0,0,-1.8223532,1.1774895,-0.06166306,0.7246944,-1.2308574,1.367813,-0.34820786,-0.097378306,-1.0128906,1.2706008,1.1421628,0.387621,1.4855428,-0.8372943
0.1,-0.1,0.9999999999999999,0.0,0.0,0,-1.8175622,1.1777709,-0.07251778,0.7905457,-1.2471898,1.3462855,-0.036707863,-0.09330917,-1.0005964,1.2845901,1.15163,0.4226504,1.4722469,-1.0014844
0.1,-0.1,0.9999999999999999,0.0,0.0,0,-1.8343118,1.1749763,-0.054491814,0.7640747,-1.2342807,1.3448914,0.053808913,-0.07100293,-1.00472,1.2767824,1.1440667,0.41034877,1.4949298,-1.5516179
0.1,-0.1,0.9999999999999999,0.0,0.0,0,-1.8318415,1.1872268,-0.05692887,0.77244276,-1.2345561,1.337551,-0.16572647,-0.057836555,-1.0115912,1.2649348,1.1526011,0.37319264,1.5015265,-1.5655768
0.1,-0.1,0.9999999999999999,0.0,0.0,0,-1.8167676,1.1936576,-0.084351905,0.7811675,-1.2832181,1.3311453,-0.095871724,-0.050222617,-1.0079527,1.2629215,1.1628815,0.46545726,1.4752344,-1.0888988
0.1,-0.1,0.9999999999999999,0.0,0.0,0,-1.8362015,1.1735672,-0.06102097,0.73486006,-1.2484865,1.3595419,0.06874158,-0.07889361,-1.0137268,1.3006366,1.1148922,0.45834735,1.4905837,-1.5126952
0.1,-0.1,0.9999999999999999,0.0,0.0,0,-1.9646068,1.1763421,-0.043471213,0.7667073,-1.2871907,1.3406425,-0.2813944,-0.10174919,-0.9972872,1.2674229,1.1427609,0.3814261,1.4931631,-1.6583734
0.1,-0.1,0.9999999999999999,0.0,0.0,0,-1.9318745,1.1446613,-0.07808973,0.77164084,-1.3167704,1.35039,-0.2315396,-0.07945748,-1.0267729,1.2770185,1.188015,0.33375323,1.4937638,-1.5382861
0.1,-0.1,0.9999999999999999,0.0,0.0,0,-1.9456792,1.1675484,-0.025253767,0.73859614,-1.2415576,1.3376461,-0.051070277,-0.09134919,-1.0213798,1.2998658,1.1348629,0.37658712,1.4622933,-1.290123
0.1,-0.1,0.9999999999999999,0.0,0.0,0,-1.7750851,1.1700462,-0.07291931,0.7981232,-1.2706974,1.33874,-0.113264896,-0.0653602,-1.0035045,1.2746464,1.1558211,0.32728013,1.4567717,-1.9210327
0.1,-0.1,0.9999999999999999,0.0,0.0,0,-1.8331327,1.1671079,-0.07158191,0.73255503,-1.1907681,1.3591267,-0.07755674,-0.07376879,-1.0019953,1.247328,1.1787066,0.4124494,1.4524189,-0.6537834
0.1,-0.1,0.9999999999999999,0.0,0.0,0,-1.9100583,1.1766409,-0.077797785,0.75904715,-1.2646885,1.3781861,-0.0035888113,-0.075357296,-1.0005612,1.3334601,1.1938118,0.40766868,1.4805214,-1.6756617
0.1,-0.1,0.9999999999999999,0.0,0.0,0,-1.8274287,1.1920418,-0.039321374,0.7809292,-1.278329,1.3402839,-0.053134464,-0.052339062,-1.0171329,1.3024648,1.2069336,0.3494006,1.5398308,-1.686036
0.1,-0.1,0.9999999999999999,0.0,0.0,0,-1.9534665,1.1625828,-0.06325915,0.77607715,-1.2649775,1.3614385,0.016752942,-0.07871859,-1.0120053,1.2653568,1.1417156,0.40132913,1.487491,-1.5658424
0.1,-0.1,0.9999999999999999,0.0,0.0,0,-1.8581583,1.1566603,-0.06991564,0.7153169,-1.2183392,1.3459519,-0.23957102,-0.072850905,-1.0092539,1.2832451,1.1595069,0.36718294,1.5090513,-1.2146716
0.1,-0.1,0.9999999999999999,0.0,0.0,0,-1.8427904,1.1590296,-0.032627773,0.7875037,-1.2161376,1.3614863,-0.29602507,-0.08993152,-1.0062193,1.2680943,1.1453382,0.37565175,1.4278358,-1.9230995
0.1,-0.1,0.9999999999999999,0.0,0.0,0,-1.8679378,1.1617712,-0.10882449,0.73563606,-1.1671386,1.3628992,-0.3951787,-0.04835044,-1.0042964,1.2888705,1.1507509,0.47303507,1.5249053,-1.5956935
0.1,-0.1,0.9999999999999999,0.0,0.0,0,-1.8871809,1.1720992,-0.022465931,0.7558886,-1.2215791,1.3601823,-0.14539263,-0.08904451,-1.0105543,1.2794608,1.1472775,0.43489134,1.5147179,-1.5896484
0.1,-0.1,0.9999999999999999,0.0,0.0,0,-1.8504381,1.1641613,-0.057960615,0.7972376,-1.2847948,1.3519751,0.017444294,-0.071211696,-1.0259398,1.3273002,1.1703119,0.47847807,1.4647305,-1.2880176
0.1,-0.1,0.9999999999999999,0.0,0.0,0,-1.9151778,1.1813401,-0.053278375,0.7364359,-1.1046599,1.3275994,-0.08568259,-0.0805599,-1.0053374,1.2864696,1.1656653,0.33805943,1.4779575,-1.8275512
0.1,-0.1,0.9999999999999999,0.0,0.0,0,-1.9289033,1.1981622,-0.018900376,0.7475833,-1.2730076,1.3476894,-0.3681264,-0.099736065,-1.005574,1.2850881,1.168163,0.42680526,1.5000621,-0.69600904
0.1,-0.1,0.9999999999999999,0.0,0.0,0,-1.895136,1.1530178,-0.060088776,0.7656626,-1.2289742,1.3353484,-0.08849855,-0.058132943,-1.012213,1.2764271,1.1865058,0.49166083,1.5479474,-1.5530372
0.1,-0.1,0.9999999999999999,0.0,0.0,0,-1.80254,1.1523474,-0.0872299,0.7580134,-1.175659,1.323695,0.14700127,-0.06679183,-1.0192971,1.3142948,1.1476543,0.43685985,1.4621695,-0.49279165
0.1,-0.1,0.9999999999999999,0.0,0.0,0,-1.961635,1.1769667,-0.056319866,0.7759169,-1.1916573,1.3296566,0.018201774,-0.09083883,-1.0091127,1.2919976,1.1940688,0.40000257,1.4867659,-1.020596
0.1,-0.1,0.9999999999999999,0.0,0.0,0,-1.9867245,1.1691997,-0.08107726,0.77622586,-1.3031923,1.3469017,0.07454634,-0.07398673,-1.0022738,1.2540935,1.1640995,0.42902708,1.5006716,-1.331802
0.1,-0.1,0.9999999999999999,0.0,0.0,0,-1.886809,1.1565855,-0.07233435,0.7707273,-1.0140389,1.3358513,-0.3646425,-0.108660094,-1.009983,1.2998415,1.2075653,0.5637356,1.497297,-1.6398023
0.1,-0.1,0.9999999999999999,0.0,0.0,0,-1.8678659,1.1514138,-0.05887888,0.76155245,-1.2823436,1.3523539,-0.066864476,-0.07556301,-1.019967,1.2698421,1.162088,0.41191366,1.465157,-1.444749
0.1,-0.1,0.9999999999999999,0.0,0.0,0,-1.8448744,1.1992079,-0.06653578,0.7674866,-1.2208995,1.3467978,-0.09842921,-0.09637355,-1.0211414,1.2803239,1.1746662,0.38457134,1.4867821,-0.9257099
0.1,-0.1,0.9999999999999999,0.0,0.0,0,-1.8767356,1.166994,-0.058575816,0.7570879,-1.2474502,1.3213309,-0.042213853,-0.10114272,-0.99788076,1.2908866,1.1581161,0.41003582,1.4544525,-1.1280429
0.1,-0.1,0.9999999999999999,0.0,0.0,0,-1.8630084,1.1724511,-0.067962185,0.74371076,-1.1913118,1.3449708,-0.2662417,-0.08438139,-1.0179533,1.2964536,1.1770053,0.43543833,1.4678091,-1.2489387
0.1,-0.1,0.9999999999999999,0.0,0.0,0,-1.8989966,1.1559476,-0.03576974,0.77566093,-1.2393701,1.3309448,0.07170849,-0.069503896,-1.0079007,1.29625,1.1768748,0.4210546,1.5248929,-1.1642462
0.1,-0.1,0.9999999999999999,0.0,0.0,0,-1.9058223,1.1581371,-0.06923344,0.77461207,-1.1715608,1.3793715,-0.15644634,-0.0740067,-1.0189005,1.2991233,1.1590877,0.47427604,1.4710658,-1.1914908
0.1,-0.1,0.9999999999999999,0.0,0.0,0,-1.9134386,1.1810584,-0.0767793,0.77771145,-1.1633377,1.3262911,-0.023585878,-0.0733895,-1.0063418,1.2860878,1.1925359,0.39794153,1.5149555,-1.6144534
0.1,-0.1,0.9999999999999999,0.0,0.0,0,-1.8431796,1.1562712,-0.05982016,0.78582907,-1.1198846,1.3268164,0.0011957216,-0.07411163,-1.0040054,1.278021,1.1567101,0.41946575,1.4690642,-1.4623604
0.1,-0.1,0.9999999999999999,0.0,0.0,0,-1.8887368,1.1813745,-0.06891402,0.7424745,-1.2021316,1.3826435,-0.07365768,-0.09563548,-1.0058703,1.3150249,1.1547998,0.26049381,1.4604276,-1.3066137
0.1,-0.1,0.9999999999999999,0.0,0.0,0,-1.9350157,1.1841208,-0.07855415,0.78667045,-1.1132665,1.3635327,-0.19871989,-0.077175714,-1.0086739,1.2453173,1.1518483,0.35152456,1.5044055,-1.434237
0.1,-0.1,0.9999999999999999,0.0,0.0,0,-1.8886352,1.2001578,-0.08616338,0.7612151,-1.2194608,1.3616319,-0.24920434,-0.058328655,-1.0111594,1.2821958,1.1583246,0.37729567,1.4717209,-1.747722
0.1,-0.1,0.9999999999999999,0.0,0.0,0,-1.9162421,1.1924309,-0.054299723,0.762494,-1.1582549,1.3473738,-0.2908157,-0.070070624,-1.0085875,1.2907608,1.1673759,0.43571502,1.4922614,-1.0986779
0.1,-0.1,0.9999999999999999,0.0,0.0,0,-1.937581,1.1736654,-0.055238158,0.7589385,-1.3328106,1.3627602,-0.039755486,-0.08625391,-1.0129216,1.2914063,1.170515,0.40137234,1.4479153,-0.62047005
0.1,-0.1,0.9999999999999999,0.0,0.0,0,-1.9134957,1.1842932,-0.089027815,0.7776861,-1.2561758,1.3599782,-0.16014604,-0.068728045,-1.0274161,1.2738607,1.1650819,0.47344875,1.4755608,-1.8235734
0.1,-0.1,0.9999999999999999,0.0,0.0,0,-1.9296236,1.1629112,-0.07792985,0.7462423,-1.2945693,1.3365294,0.10546742,-0.06510385,-1.0168062,1.2815964,1.1612484,0.40910748,1.4543014,-1.0612164
0.1,-0.1,0.9999999999999999,0.0,0.0,0,-1.8769109,1.1620914,-0.10167225,0.76016736,-1.176639,1.3603127,-0.20311478,-0.08201228,-1.0203784,1.2907895,1.1967345,0.39724934,1.4593064,-1.0287043
0.1,-0.1,0.9999999999999999,0.0,0.0,0,-1.9214296,1.1476014,-0.05131788,0.7835938,-1.2278476,1.3378899,-0.36492515,-0.09167844,-1.0177785,1.300443,1.173101,0.49463233,1.4308842,-2.2032185
0.1,-0.1,0.9999999999999999,0.0,0.0,0,-2.009073,1.1719136,-0.07392499,0.7851463,-1.2262733,1.3596694,-0.16306408,-0.06861967,-1.0063049,1.3268602,1.164467,0.42626324,1.4616115,-1.33999
0.1,-0.1,0.9999999999999999,0.0,0.0,0,-1.9067122,1.1704606,-0.054003187,0.7438041,-1.1558686,1.3410165,-0.3656369,-0.061878916,-1.0127516,1.2726326,1.1525257,0.44953611,1.462583,-1.2925273
0.1,-0.1,0.9999999999999999,0.0,0.0,0,-1.9031934,1.1758138,-0.049232084,0.7455686,-1.1901519,1.3492472,-0.11730662,-0.08051548,-1.0147759,1.3194996,1.1941236,0.5850332,1.4152559,-0.9540211
0.1,-0.1,0.9999999999999999,0.0,0.0,0,-1.9916072,1.1417333,-0.028050093,0.75395787,-1.2185395,1.3548467,-0.089305565,-0.050047897,-1.0139321,1.2873476,1.1368023,0.33798316,1.4626648,-0.7269258
0.1,-0.1,0.9999999999999999,0.0,0.0,0,-1.9410431,1.1784414,-0.056377124,0.7335229,-1.2522675,1.3264029,-0.16852136,-0.06352709,-1.0295228,1.2577293,1.1931239,0.32174292,1.4597911,-1.64538
0.1,-0.1,0.9999999999999999,0.0,0.0,0,-1.9429681,1.1895572,-0.07958927,0.7817241,-1.311287,1.3932655,-0.22257698,-0.09701306,-0.9958314,1.2970016,1.1688981,0.38272926,1.5034957,-1.3755525
0.1,-0.1,0.9999999999999999,0.0,0.0,0,-1.9979599,1.139379,-0.09065857,0.7623608,-1.1706369,1.3377289,0.068596795,-0.044858206,-1.0076164,1.2479079,1.1851997,0.320607,1.4860505,-1.3236575
0.1,-0.1,0.9999999999999999,0.0,0.0,0,-1.954093,1.1641037,-0.06287856,0.7445496,-1.2378222,1.3574362,-0.16495568,-0.117442966,-1.0102065,1.2777056,1.2047821,0.40693682,1.465213,-1.3049896
0.1,-0.1,0.9999999999999999,0.0,0.0,0,-1.9052643,1.1672461,-0.10810351,0.7822094,-1.1935767,1.3446811,-0.23885441,-0.10732947,-1.0157627,1.3065456,1.1526898,0.2923416,1.5255468,-0.9144364
0.1,-0.1,0.9999999999999999,0.0,0.0,0,-1.9559312,1.1772205,-0.066627756,0.7494521,-1.2662868,1.3451213,-0.26569098,-0.060738973,-1.0069065,1.3042234,1.177354,0.42100567,1.4192398,-1.4956893
0.1,-0.1,0.9999999999999999,0.0,0.0,0,-1.9002271,1.1618704,-0.03897857,0.74905086,-1.214137,1.3364651,-0.23079976,-0.084375836,-0.9926907,1.2753024,1.2107451,0.48406154,1.4313987,-1.7355607
0.1,-0.1,0.9999999999999999,0.0,0.0,0,-1.9494127,1.1550885,-0.07382492,0.7485507,-1.2464061,1.3429155,-0.16869886,-0.08206259,-0.99765015,1.3149936,1.1394044,0.43735746,1.4774946,-0.76956385
0.1,-0.1,0.9999999999999999,0.0,0.0,0,-1.9364058,1.1662614,-0.08269219,0.7813784,-1.2370037,1.3487929,-0.17679287,-0.02918955,-1.003675,1.2867382,1.1430495,0.40117797,1.4785694,-1.5164462
0.1,-0.1,0.9999999999999999,0.0,0.0,0,-1.8366789,1.1680759,-0.046760105,0.76834804,-1.2216241,1.3515595,-0.03315912,-0.053414427,-1.0046151,1.281485,1.1634597,0.27935567,1.4397432,-1.4595281
0.1,-0.1,0.9999999999999999,0.0,0.0,0,-1.8993771,1.1690321,-0.06255325,0.76062995,-1.230422,1.3701453,-0.32205015,-0.059619833,-1.0015458,1.2986988,1.1293586,0.44084933,1.431136,-0.9811065
0.1,-0.1,0.9999999999999999,0.0,0.0,0,-1.9554666,1.1760387,-0.055902395,0.7735786,-1.1793905,1.3254862,-0.13533854,-0.11525762,-1.0065229,1.2863578,1.1277523,0.43351352,1.5498517,-1.373183
0.1,-0.1,0.9999999999999999,0.0,0.0,0,-1.9217736,1.1650872,-0.11207769,0.7658353,-1.3009427,1.3518035,-0.30297732,-0.096841276,-1.0009387,1.2869513,1.2249373,0.47196525,1.5030723,-1.4799452
0.1,-0.1,0.9999999999999999,0.0,0.0,0,-1.9280119,1.1514901,-0.083093375,0.7897125,-1.2153277,1.3320885,-0.027423847,-0.09089174,-1.0158211,1.3118198,1.1709436,0.44953623,1.4946952,-1.3501276
0.1,-0.1,0.9999999999999999,0.0,0.0,0,-1.8154379,1.1799362,-0.05867082,0.7674186,-1.161588,1.3394338,-0.18246904,-0.10717813,-1.0161965,1.3020756,1.1706644,0.2373619,1.4734919,-1.2402997
0.1,-0.1,0.9999999999999999,0.0,0.0,0,-1.8454299,1.1731926,-0.061600696,0.7436209,-1.1336068,1.3582678,-0.21492063,-0.07899985,-1.0092691,1.2832437,1.1405894,0.312687,1.4881238,-1.4776368
0.1,-0.1,0.9999999999999999,0.0,0.0,0,-1.946897,1.1696633,-0.063751675,0.7830889,-1.1613344,1.3385471,-0.0074698855,-0.07387206,-1.0081803,1.2862078,1.1722498,0.44731998,1.5040541,-0.73367983
0.1,-0.1,0.9999999999999999,0.0,0.0,0,-1.956433,1.1972438,-0.11058065,0.78338134,-1.2193692,1.3596913,-0.3176431,-0.09548026,-1.0018594,1.3074887,1.1804925,0.3948983,1.5550069,-1.8534368
0.1,-0.1,0.9999999999999999,0.0,0.0,0,-1.9490608,1.1702533,-0.054554462,0.7589635,-1.2040565,1.3480146,-0.16888614,-0.080051884,-1.0091659,1.2664183,1.1689547,0.41731632,1.477478,-1.024242
0.1,-0.1,0.9999999999999999,0.0,0.0,0,-1.850068,1.1397308,-0.103091046,0.7320764,-1.3291788,1.3278266,-0.17137872,-0.084058695,-1.0122473,1.2630379,1.1895199,0.40800813,1.5075212,-1.2709386
0.1,-0.1,0.9999999999999999,0.0,0.0,0,-1.9603468,1.1488084,-0.07824595,0.7726727,-1.2069257,1.3279485,-0.020900112,-0.045563724,-1.004691,1.3115759,1.1344715,0.38380802,1.5145593,-1.3641658
0.1,-0.1,0.9999999999999999,0.0,0.0,0,-1.8850986,1.1900938,-0.06264561,0.7441302,-1.1718309,1.3431319,-0.25687966,-0.08552653,-1.0080647,1.2688072,1.1641004,0.52954763,1.4946644,-1.621291
0.1,-0.1,0.9999999999999999,0.0,0.0,0,-1.8874227,1.1770492,-0.07973739,0.75241184,-1.2534052,1.3385735,-0.15476143,-0.035442688,-1.0046992,1.2869663,1.1352854,0.3784823,1.44626,-0.6768123
0.1,-0.1,0.9999999999999999,0.0,0.0,0,-1.876852,1.1780303,-0.07160512,0.78158885,-1.229395,1.3333199,0.13130993,-0.0782691,-1.0243434,1.28239,1.1506848,0.35099325,1.4526916,-0.97180814
0.1,-0.1,0.9999999999999999,0.0,0.0,0,-1.921281,1.15987,-0.05359249,0.77190846,-1.3227707,1.3393638,-0.0775618,-0.09446941,-1.0151029,1.2580984,1.1641141,0.4110746,1.4395677,-0.97387475
0.1,-0.1,0.9999999999999999,0.0,0.0,0,-1.9800756,1.1552536,-0.08533326,0.7672925,-1.3361956,1.3326732,-0.064373046,-0.038188897,-1.0155268,1.3142598,1.1638429,0.40634635,1.4389472,-1.7149924
0.1,-0.1,0.9999999999999999,0.0,0.0,0,-1.9231739,1.1869131,-0.087901056,0.79366547,-1.2884938,1.3133924,-0.19058764,-0.10395712,-1.0138149,1.2808735,1.2067207,0.44043484,1.5385982,-1.500884
0.1,-0.1,0.9999999999999999,0.0,0.0,0,-1.8428028,1.1533033,-0.03799313,0.74839926,-1.2257466,1.3411543,-0.2691912,-0.07798257,-1.0218549,1.2571944,1.1343198,0.44143644,1.4336112,-1.6101699
0.1,-0.1,0.9999999999999999,0.0,0.0,0,-1.8563336,1.1779289,-0.041187894,0.7914508,-1.1488165,1.3322836,-0.32985863,-0.05081056,-0.9926106,1.2487564,1.1518841,0.4095298,1.4210567,-0.829513
0.1,-0.1,0.9999999999999999,0.0,0.0,0,-1.8614986,1.1615583,-0.07162975,0.76887214,-1.1743829,1.3412462,-0.05702158,-0.084318966,-1.0166355,1.2721733,1.1489705,0.37713742,1.4532878,-1.1359124
0.1,-0.1,0.9999999999999999,0.0,0.0,0,-1.8913814,1.2006049,-0.047662724,0.74959964,-1.2239013,1.330921,-0.09802249,-0.05136462,-1.0040768,1.2662094,1.1622356,0.41305563,1.476913,-1.1552608
0.1,-0.1,0.9999999999999999,0.0,0.0,0,-1.9435943,1.1715639,-0.072532654,0.8068974,-1.2105386,1.3369743,-0.21190572,-0.080482855,-0.98932207,1.2991507,1.1543273,0.48454338,1.5013126,-0.7596438
0.1,-0.1,0.9999999999999999,0.0,0.0,0,-1.8382677,1.1782169,-0.08506049,0.7615425,-1.2813977,1.3268322,-0.24883477,-0.07391059,-1.0126481,1.2535236,1.12288,0.40900308,1.4825069,-0.25647455
0.1,-0.1,0.9999999999999999,0.0,0.0,0,-1.8151183,1.1715827,-0.059433784,0.77596563,-1.263373,1.355789,-0.16338575,-0.046904374,-1.0082461,1.3004893,1.1738245,0.39652535,1.4361373,-1.0927994
0.1,-0.1,0.9999999999999999,0.0,0.0,0,-1.9018027,1.1781572,-0.03409285,0.76847893,-1.2448454,1.3511591,0.10136053,-0.090193324,-0.99934316,1.2865512,1.151685,0.5094097,1.4672214,-1.5229781
0.1,-0.1,0.9999999999999999,0.0,0.0,0,-1.8063606,1.1655585,-0.08146303,0.76691484,-1.2495958,1.3261508,-0.068845935,-0.06004026,-1.0053631,1.2964342,1.1996479,0.24416189,1.4928014,-1.5743452
0.1,-0.1,0.9999999999999999,0.0,0.0,0,-1.9056631,1.1505823,-0.074917436,0.77319217,-1.2631967,1.320403,-0.21520312,-0.10277313,-1.0103277,1.2570854,1.15602,0.3739657,1.5024688,-1.5791544
0.1,-0.1,0.9999999999999999,0.0,0.0,0,-1.8921686,1.149202,-0.058043707,0.79483324,-1.3859013,1.3580037,0.032075927,-0.090237,-1.0089129,1.2490848,1.1770387,0.3645124,1.5277843,-0.844805
0.1,-0.1,0.9999999999999999,0.0,0.0,0,-1.8752271,1.1825887,-0.06910124,0.79281914,-1.2850728,1.3643922,-0.29560873,-0.09911675,-1.0140243,1.2974192,1.1277174,0.3421087,1.5277685,-1.5251032
0.1,-0.1,0.9999999999999999,0.0,0.0,0,-1.8602179,1.1658076,-0.06691682,0.7959389,-1.1702476,1.3474307,-0.066746905,-0.050842986,-0.9942497,1.2456518,1.1685334,0.36381713,1.4438888,-0.9483746
0.1,-0.1,0.9999999999999999,0.0,0.0,0,-1.9089899,1.1693997,-0.031571697,0.7695914,-1.168528,1.3484703,-0.044359714,-0.077683516,-1.0008675,1.27714,1.1863347,0.40666,1.4223303,-1.6904811
0.1,-0.1,0.9999999999999999,0.0,0.0,0,-1.8925468,1.1847556,-0.07983006,0.76556945,-1.2470587,1.3298199,-0.0026920885,-0.07732704,-1.0101633,1.3027308,1.1754031,0.35308257,1.4557536,-1.1359268
0.1,-0.1,0.9999999999999999,0.0,0.0,0,-1.8568103,1.1736168,-0.058887456,0.75638515,-1.1833661,1.3490058,-0.097647,-0.08596553,-1.0167452,1.2609601,1.1508787,0.380445,1.4489198,-1.7209371
0.1,-0.1,0.9999999999999999,0.0,0.0,0,-1.7952881,1.1727417,-0.056031004,0.7767021,-1.1244498,1.3135518,0.019286137,-0.105409846,-1.0267848,1.2822186,1.1301831,0.3706199,1.4457144,-1.4759693
0.1,-0.1,0.9999999999999999,0.0,0.0,0,-1.7925161,1.1629696,-0.07419017,0.75215584,-1.3253076,1.3692673,-0.27824888,-0.08271512,-1.0139939,1.2860974,1.172822,0.45402327,1.4100591,-0.7877643
0.1,-0.1,0.9999999999999999,0.0,0.0,0,-1.8009782,1.17639,-0.063423164,0.7487983,-1.201416,1.3661406,-0.046459634,-0.05372328,-1.0256841,1.3088087,1.1465895,0.51932013,1.4818963,-1.439719
0.1,-0.1,0.9999999999999999,0.0,0.0,0,-1.7974046,1.1602787,-0.06319204,0.76715785,-1.2750726,1.3499796,-0.24611105,-0.11304066,-1.0057957,1.3052639,1.1867114,0.38065508,1.4867166,-1.4413713
0.1,-0.1,0.9999999999999999,0.0,0.0,0,-1.7992221,1.1738925,-0.06058438,0.7451278,-1.1359332,1.3315051,-0.097970106,-0.070647486,-1.0092149,1.315828,1.1571077,0.4507232,1.5317855,-1.7401099
0.1,-0.1,0.9999999999999999,0.0,0.0,0,-1.8194981,1.1537154,-0.044651393,0.7991312,-1.2729445,1.3390021,0.06989098,-0.112665385,-1.0213258,1.2838172,1.1853613,0.34999356,1.4929229,-0.8840964
0.1,-0.1,0.9999999999999999,0.0,0.0,0,-1.8052415,1.1665401,-0.06518266,0.77214634,-1.2499534,1.332716,-0.036712453,-0.1020773,-1.0092033,1.298151,1.1685246,0.4047016,1.4490966,-1.1264713
0.1,-0.1,0.9999999999999999,0.0,0.0,0,-1.8196933,1.1657479,-0.036687385,0.7411765,-1.2149446,1.3432822,-0.20127445,-0.070185736,-1.0122187,1.3044732,1.1736318,0.3676411,1.4681576,-0.49900445
0.1,-0.1,0.9999999999999999,0.0,0.0,0,-1.821743,1.1746166,-0.06283649,0.7331181,-1.2359611,1.3293699,-0.0114740655,-0.0667784,-1.0120033,1.2862737,1.1025534,0.5019012,1.4133928,-1.3131158
0.1,-0.1,0.9999999999999999,0.0,0.0,0,-1.8260355,1.1757921,-0.051301572,0.7794854,-1.216998,1.343237,-0.13014264,-0.09098536,-1.0034564,1.2757436,1.1642853,0.38138512,1.4299711,-0.8098828
0.1,-0.1,0.9999999999999999,0.0,0.0,0,-1.8249929,1.1701158,-0.05398422,0.7736435,-1.2949642,1.3527793,-0.11723446,-0.07106149,-1.0012147,1.2835102,1.1369015,0.38175917,1.4690063,-1.2553935
0.1,-0.1,0.9999999999999999,0.0,0.0,0,-1.8327329,1.1807892,-0.052095428,0.7733862,-1.1724797,1.3735108,-0.056406364,-0.05623867,-1.0085677,1.2754464,1.1625094,0.37131262,1.459669,-1.1529013
0.1,-0.1,0.9999999999999999,0.0,0.0,0,-1.8258052,1.1556636,-0.06703745,0.76341647,-1.1335664,1.3917633,0.066001765,-0.0675192,-1.0076057,1.2701414,1.199195,0.4710046,1.4813118,-1.0040227
0.1,-0.1,0.9999999999999999,0.0,0.0,0,-1.9246039,1.1862284,-0.077685334,0.73533386,-1.1661316,1.2916528,-0.133529,-0.11291996,-1.0050927,1.3005395,1.1589658,0.3505627,1.4509135,-1.5244106
0.1,-0.1,0.9999999999999999,0.0,0.0,0,-1.814678,1.1774467,-0.059914008,0.7812191,-1.2568978,1.3423369,0.053348158,-0.08196432,-1.002689,1.3008254,1.1808631,0.33845323,1.4422998,-1.4715846
0.1,-0.1,0.9999999999999999,0.0,0.0,0,-1.8345507,1.1651338,-0.05897807,0.7867959,-1.3040421,1.3567076,-0.09327882,-0.12610705,-0.99525434,1.2331227,1.1773138,0.38129732,1.4538015,-1.5552971
0.1,-0.1,0.9999999999999999,0.0,0.0,0,-1.9300479,1.1605477,-0.08305488,0.7584199,-1.3065485,1.3360803,-0.24883568,-0.04998842,-1.0090578,1.3333192,1.2045228,0.26550528,1.5011951,-1.9783589
0.1,-0.1,0.9999999999999999,0.0,0.0,0,-1.9380258,1.1800659,-0.059246443,0.75884354,-1.2687061,1.3357813,-0.082542695,-0.032438714,-1.0099425,1.2957646,1.1702995,0.45914868,1.4779357,-0.7851062
0.1,-0.1,0.9999999999999999,0.0,0.0,0,-1.9186368,1.1809219,-0.07291692,0.7977942,-1.0931216,1.3773156,-0.2942453,-0.0788234,-1.0233017,1.2784101,1.179551,0.3382322,1.4932965,-1.5698723
0.1,-0.1,0.9999999999999999,0.0,0.0,0,-1.8632207,1.1845574,-0.08417581,0.7673375,-1.2391964,1.3290681,0.16198084,-0.06273328,-1.0172349,1.3028913,1.1081809,0.33088148,1.5412312,-1.2174801
0.1,-0.1,0.9999999999999999,0.0,0.0,0,-1.8978041,1.1957277,-0.12463584,0.74016064,-1.3333335,1.3488473,-0.17711082,-0.073396176,-1.0112504,1.2935466,1.1592581,0.34971222,1.4874699,-1.0710706
0.1,-0.1,0.9999999999999999,0.0,0.0,0,-1.8014548,1.160957,-0.07747953,0.8081871,-1.2335513,1.3533275,-0.020947725,-0.075339414,-1.0078073,1.3079829,1.1606417,0.46650448,1.4350157,-0.94231135
0.1,-0.1,0.9999999999999999,0.0,0.0,0,-1.9039522,1.1701967,-0.10223772,0.7757086,-1.191529,1.3274887,-0.1429981,-0.0960921,-0.9985349,1.2916167,1.2034042,0.43671197,1.4075735,-1.2827678
0.1,-0.1,0.9999999999999999,0.0,0.0,0,-1.8698379,1.1582385,-0.04937704,0.74648666,-1.2130896,1.3272251,0.08383451,-0.084414266,-0.99856126,1.2923809,1.1238822,0.3353997,1.491171,-1.3879516
0.1,-0.1,0.9999999999999999,0.0,0.0,0,-1.911567,1.1947589,-0.08473509,0.7165862,-1.1638079,1.3720409,-0.18175492,-0.092212155,-1.0196567,1.270942,1.1844937,0.5100639,1.4682142,-1.8225172
0.1,-0.1,0.9999999999999999,0.0,0.0,0,-1.8609396,1.1572886,-0.07232466,0.78015256,-1.2065455,1.3556173,-0.046761625,-0.06481122,-1.0089517,1.2813843,1.1388847,0.4418725,1.444727,-1.0272827
0.1,-0.1,0.9999999999999999,0.0,0.0,0,-1.841675,1.1703403,-0.07615524,0.8161549,-1.2255808,1.3180285,-0.02571031,-0.08950118,-1.0088875,1.3008716,1.1099354,0.3788206,1.4647012,-1.5481215
0.1,-0.1,0.9999999999999999,0.0,0.0,0,-1.9863834,1.168143,-0.06589676,0.7582528,-1.2299421,1.3590822,0.026138078,-0.069720164,-1.0128776,1.2966564,1.15263,0.4104262,1.4652965,-1.3139338
0.1,-0.1,0.9999999999999999,0.0,0.0,0,-1.8609952,1.1626647,-0.058561355,0.8102906,-1.1468328,1.3717833,-0.19948433,-0.06794402,-1.0098239,1.2675827,1.1334218,0.42213964,1.5067562,-1.4071246
0.1,-0.1,0.9999999999999999,0.0,0.0,0,-1.9558668,1.1632694,-0.036072336,0.76673406,-1.1137935,1.3627928,0.055306636,-0.09004739,-1.0044056,1.2838521,1.1762072,0.40890393,1.4970524,-0.78427964
0.1,-0.1,0.9999999999999999,0.0,0.0,0,-1.780712,1.1758418,-0.115147375,0.76662976,-1.1084586,1.3191614,-0.18587095,-0.086195484,-1.0098284,1.2808489,1.1613189,0.40623084,1.5104346,-1.487177
0.1,-0.1,0.9999999999999999,0.0,0.0,0,-1.8899808,1.1758356,-0.05644425,0.7869524,-1.1778343,1.3438419,-0.3395756,-0.09148376,-1.0206254,1.2935903,1.1599368,0.48084754,1.4122694,-1.2101505
0.1,-0.1,0.9999999999999999,0.0,0.0,0,-1.728307,1.166444,-0.052132063,0.7759101,-1.2945998,1.3403779,-0.19147679,-0.05637506,-1.0249641,1.2873412,1.191483,0.40632257,1.4454147,-0.8842516
0.1,-0.1,0.9999999999999999,0.0,0.0,0,-1.9689621,1.1798111,-0.04274007,0.76256484,-1.1927388,1.3503156,-0.115235634,-0.070816435,-1.0225726,1.2848595,1.0978018,0.3535384,1.5188959,-1.9825679
0.1,-0.1,0.9999999999999999,0.0,0.0,0,-1.943192,1.153014,-0.048727255,0.75645405,-1.2792332,1.33852,-0.12974003,-0.04232283,-1.0063864,1.3081608,1.163916,0.39709237,1.4961185,-1.1915725
