sanky1234/BimanualDexCatch/isaacgymenvs/cem_results/football_pose_-0.2_-0.1_0.6_-0.5235987755982988_0.5235987755982988_0_2025-05-24.csv
x,y,z,roll,pitch,yaw,robot1/joint1,robot1/joint2,robot1/joint3,robot1/joint4,robot1/joint5,robot1/joint6,robot1/joint7,robot2/joint1,robot2/joint2,robot2/joint3,robot2/joint4,robot2/joint5,robot2/joint6,robot2/joint7
-0.2,-0.1,0.6,-0.5235987755982988,0.5235987755982988,0,0.8842964,1.5419608,0.30278394,0.075613275,0.1482127,0.9780695,0.40089086,-0.33154306,1.8509918,-0.30881497,-1.116927,-0.41055304,1.4112495,-0.11257061
-0.2,-0.1,0.6,-0.5235987755982988,0.5235987755982988,0,0.89015687,1.5492074,0.33304292,0.07139361,0.132979,0.9691852,0.4126878,-0.31437978,1.8708215,-0.23295301,-1.12669,-0.35683224,1.3865556,0.41245872
-0.2,-0.1,0.6,-0.5235987755982988,0.5235987755982988,0,0.8877543,1.5525193,0.28535065,0.069674894,0.14058396,0.9775819,0.34655562,-0.36168915,1.842319,-0.2701996,-1.1250904,-0.41442665,1.4332051,0.16210419
-0.2,-0.1,0.6,-0.5235987755982988,0.5235987755982988,0,0.8950167,1.5449299,0.31043872,0.0658428,0.13237336,0.98505694,0.40953037,-0.3568339,1.85305,-0.23623417,-1.1243396,-0.33565545,1.382052,0.76961166
-0.2,-0.1,0.6,-0.5235987755982988,0.5235987755982988,0,0.8750178,1.5380038,0.31198162,0.070895396,0.14076865,0.99284446,0.41697344,-0.3516721,1.847761,-0.2518158,-1.1197654,-0.3382186,1.4021281,0.44644508
-0.2,-0.1,0.6,-0.5235987755982988,0.5235987755982988,0,0.8805821,1.5365356,0.30977848,0.0646224,0.17171793,0.9502642,0.41833016,-0.37367946,1.8694636,-0.23415056,-1.1639193,-0.33572033,1.3711823,0.8654359
-0.2,-0.1,0.6,-0.5235987755982988,0.5235987755982988,0,0.86621004,1.5412122,0.30083165,0.06300931,0.119826935,0.9872668,0.52426445,-0.34257,1.8454623,-0.2953526,-1.1213816,-0.3403037,1.397947,0.21552883
-0.2,-0.1,0.6,-0.5235987755982988,0.5235987755982988,0,0.87856036,1.5516223,0.31383964,0.07274483,0.19531806,0.9825141,0.36727935,-0.36227697,1.8559557,-0.24021943,-1.1148813,-0.35004675,1.3810043,0.44160423
-0.2,-0.1,0.6,-0.5235987755982988,0.5235987755982988,0,0.87104684,1.5448248,0.31824705,0.06711898,0.1134118,0.97002417,0.43685803,-0.3538184,1.8533776,-0.28369784,-1.1199443,-0.316639,1.3997805,0.4111852
-0.2,-0.1,0.6,-0.5235987755982988,0.5235987755982988,0,0.8701574,1.5379492,0.30597296,0.05447588,0.116104566,0.9758688,0.48560026,-0.37122238,1.8434381,-0.28890085,-1.1471413,-0.3582277,1.3956488,0.5771681
-0.2,-0.1,0.6,-0.5235987755982988,0.5235987755982988,0,0.88331866,1.5423857,0.3230795,0.05407144,0.12368691,0.9980637,0.35543874,-0.34385216,1.8523506,-0.26285154,-1.156005,-0.33930328,1.4191759,0.5517955
-0.2,-0.1,0.6,-0.5235987755982988,0.5235987755982988,0,0.8715645,1.5397106,0.31834427,0.05236538,0.08669109,0.94878733,0.50458086,-0.31791663,1.8518933,-0.28415197,-1.1004955,-0.3363758,1.383837,0.72545713
-0.2,-0.1,0.6,-0.5235987755982988,0.5235987755982988,0,0.8729335,1.5387032,0.3124491,0.04834366,0.09925822,0.97287905,0.39844194,-0.37975052,1.8611491,-0.23324978,-1.1546826,-0.49865592,1.42901,0.42942736
-0.2,-0.1,0.6,-0.5235987755982988,0.5235987755982988,0,0.88193995,1.5495813,0.30342737,0.08732595,0.093784444,0.9821268,0.39959297,-0.37097403,1.8552223,-0.30675352,-1.1301726,-0.39168793,1.4234157,0.313966
-0.2,-0.1,0.6,-0.5235987755982988,0.5235987755982988,0,0.8917908,1.5494418,0.33252478,0.06180583,0.113619715,0.97959036,0.32499966,-0.40064386,1.843881,-0.31227905,-1.137098,-0.3832921,1.4097147,0.49894437
-0.2,-0.1,0.6,-0.5235987755982988,0.5235987755982988,0,0.88687015,1.5381566,0.3354742,0.065937765,0.16420332,1.0114989,0.44804928,-0.3717667,1.8597718,-0.2289818,-1.1243159,-0.35291392,1.3888636,0.5669331
-0.2,-0.1,0.6,-0.5235987755982988,0.5235987755982988,0,0.8758414,1.5270517,0.30966678,0.07623882,0.12182559,0.98920345,0.30253178,-0.36241165,1.864123,-0.25909415,-1.1506693,-0.39414838,1.4246342,-0.11311466
-0.2,-0.1,0.6,-0.5235987755982988,0.5235987755982988,0,0.8782145,1.5515178,0.3081159,0.07029124,0.1161326,0.9964108,0.49250025,-0.34806997,1.8482985,-0.24604242,-1.1494766,-0.2843309,1.4158652,0.87411606
-0.2,-0.1,0.6,-0.5235987755982988,0.5235987755982988,0,0.88775945,1.5485089,0.31287423,0.06913066,0.13462555,0.9823329,0.35453287,-0.3764128,1.8557259,-0.25934386,-1.1546605,-0.36338595,1.4093637,0.17167884
-0.2,-0.1,0.6,-0.5235987755982988,0.5235987755982988,0,0.8774017,1.5382113,0.30782634,0.075837,0.080771245,0.9662961,0.37457255,-0.37541914,1.8642739,-0.22850546,-1.1039768,-0.32473722,1.4030873,0.77342343
-0.2,-0.1,0.6,-0.5235987755982988,0.5235987755982988,0,0.86603785,1.550102,0.32408482,0.07709522,0.086608276,0.96919787,0.37323856,-0.34047428,1.8484714,-0.27416053,-1.104662,-0.41904235,1.3854026,0.6681861
-0.2,-0.1,0.6,-0.5235987755982988,0.5235987755982988,0,0.87698203,1.5521637,0.32325917,0.08750109,0.1298889,0.9829748,0.38365206,-0.3703264,1.8518189,-0.22552931,-1.1096023,-0.31108987,1.3970554,0.56527466
-0.2,-0.1,0.6,-0.5235987755982988,0.5235987755982988,0,0.87189263,1.5452111,0.31930467,0.0630451,0.10625129,0.9588862,0.38557371,-0.3957095,1.8698862,-0.25373924,-1.1068752,-0.48059657,1.3826963,0.45195377
-0.2,-0.1,0.6,-0.5235987755982988,0.5235987755982988,0,0.8921794,1.5367198,0.33888084,0.07174326,0.09263173,1.0075979,0.3329237,-0.3671241,1.8650436,-0.2177632,-1.1164688,-0.5036111,1.3944029,0.34041402
-0.2,-0.1,0.6,-0.5235987755982988,0.5235987755982988,0,0.86506987,1.5333209,0.33210063,0.06758453,0.0833052,0.98450214,0.45390314,-0.34097683,1.8475332,-0.27588394,-1.1334348,-0.43037638,1.4177231,0.3088269
-0.2,-0.1,0.6,-0.5235987755982988,0.5235987755982988,0,0.8657656,1.528329,0.31305787,0.07270019,0.10998631,0.988863,0.3623411,-0.3879271,1.8579907,-0.2786166,-1.1225281,-0.3864357,1.4122293,0.70715636
-0.2,-0.1,0.6,-0.5235987755982988,0.5235987755982988,0,0.87248224,1.5483576,0.30691403,0.059613105,0.112714946,0.9664686,0.38639402,-0.3559656,1.8667164,-0.29427344,-1.1164184,-0.37593278,1.4063663,0.46025148
-0.2,-0.1,0.6,-0.5235987755982988,0.5235987755982988,0,0.87529546,1.557038,0.30828932,0.054416366,0.09086151,0.9757771,0.43173528,-0.34685397,1.8449769,-0.2854829,-1.1163932,-0.33678985,1.407046,0.5022519
-0.2,-0.1,0.6,-0.5235987755982988,0.5235987755982988,0,0.88188326,1.5543308,0.3517793,0.075366,0.114857346,0.97343004,0.38882497,-0.37305838,1.8676727,-0.29746738,-1.1260524,-0.31626007,1.3854448,0.31775826
-0.2,-0.1,0.6,-0.5235987755982988,0.5235987755982988,0,0.8606752,1.5386504,0.30986997,0.06925185,0.11980949,0.97601664,0.3479393,-0.3529641,1.8582444,-0.271067,-1.0935882,-0.38154966,1.4217591,0.6658817
-0.2,-0.1,0.6,-0.5235987755982988,0.5235987755982988,0,0.8822326,1.5511167,0.3240031,0.05735967,0.12912057,1.0012242,0.2318993,-0.38269973,1.8443561,-0.27077633,-1.1271461,-0.40577534,1.410408,0.4669927
-0.2,-0.1,0.6,-0.5235987755982988,0.5235987755982988,0,0.89808816,1.5346094,0.32741857,0.06334026,0.117025755,0.9789971,0.45165157,-0.37392932,1.8671199,-0.23672575,-1.1322248,-0.39173853,1.4410964,0.39209723
-0.2,-0.1,0.6,-0.5235987755982988,0.5235987755982988,0,0.8769777,1.541328,0.31584185,0.06101177,0.08970911,1.0063081,0.4545225,-0.36326912,1.848801,-0.2824643,-1.1077745,-0.36002776,1.4158849,0.5324292
-0.2,-0.1,0.6,-0.5235987755982988,0.5235987755982988,0,0.8928276,1.5433314,0.31607553,0.06929049,0.107402354,0.9482778,0.39751372,-0.3612287,1.8609595,-0.2630465,-1.1288738,-0.37354842,1.4029963,0.6746558
-0.2,-0.1,0.6,-0.5235987755982988,0.5235987755982988,0,0.8741712,1.5444509,0.31994334,0.056012504,0.17045182,0.9817824,0.5501204,-0.36129606,1.8549443,-0.2733389,-1.1114966,-0.3920012,1.404788,0.35074463
-0.2,-0.1,0.6,-0.5235987755982988,0.5235987755982988,0,0.8804606,1.550745,0.30381048,0.0708285,0.10654379,0.94126344,0.48009652,-0.34193552,1.8464524,-0.26361173,-1.1077853,-0.36796045,1.4292468,0.53588647
-0.2,-0.1,0.6,-0.5235987755982988,0.5235987755982988,0,0.86522543,1.5489603,0.3053373,0.056637015,0.13125801,0.98978376,0.36710164,-0.32506114,1.8644199,-0.25030056,-1.1001253,-0.36690694,1.4109633,0.63884115
-0.2,-0.1,0.6,-0.5235987755982988,0.5235987755982988,0,0.870292,1.5470732,0.3113634,0.057304837,0.14498805,1.0089787,0.41289246,-0.34674934,1.8632444,-0.29476085,-1.1210924,-0.42814797,1.43395,0.6619542
-0.2,-0.1,0.6,-0.5235987755982988,0.5235987755982988,0,0.8785023,1.5412294,0.3142262,0.072685,0.102529764,0.9748803,0.39802876,-0.3754239,1.8573223,-0.2320015,-1.1361763,-0.3848407,1.4037116,0.6888416
-0.2,-0.1,0.6,-0.5235987755982988,0.5235987755982988,0,0.8764849,1.5438745,0.31982034,0.07555472,0.11684345,0.97526765,0.33337966,-0.37184432,1.8637528,-0.20338437,-1.1251826,-0.2720761,1.4031161,0.60777444
-0.2,-0.1,0.6,-0.5235987755982988,0.5235987755982988,0,0.87372667,1.5534369,0.30999005,0.061223734,0.102686875,0.9781619,0.48470998,-0.37192637,1.8481838,-0.28732145,-1.1208423,-0.2899398,1.398612,0.96802557
-0.2,-0.1,0.6,-0.5235987755982988,0.5235987755982988,0,0.89002407,1.5362097,0.31301355,0.07181925,0.096747056,0.98130983,0.32179832,-0.38008934,1.8473924,-0.25586355,-1.1173769,-0.35243884,1.4233289,0.5049767
-0.2,-0.1,0.6,-0.5235987755982988,0.5235987755982988,0,0.88334507,1.5443261,0.32570162,0.07403147,0.1316024,0.9739134,0.3805584,-0.38728338,1.8599199,-0.22318542,-1.1146853,-0.37280175,1.4276104,0.6599722
-0.2,-0.1,0.6,-0.5235987755982988,0.5235987755982988,0,0.86946017,1.5512359,0.3272196,0.06834233,0.13275567,0.9719699,0.44187978,-0.33879787,1.8597219,-0.27076966,-1.1145021,-0.31923518,1.4082162,0.80960506
-0.2,-0.1,0.6,-0.5235987755982988,0.5235987755982988,0,0.8798431,1.5553198,0.33331457,0.063908026,0.104025185,0.982729,0.41393214,-0.33556315,1.8664644,-0.27944383,-1.1398193,-0.31086978,1.4210287,0.84348845
-0.2,-0.1,0.6,-0.5235987755982988,0.5235987755982988,0,0.9101303,1.5309433,0.3155438,0.062416807,0.15288633,0.9851042,0.36331314,-0.32143956,1.8623922,-0.26402545,-1.0867013,-0.4359088,1.4283203,0.590487
-0.2,-0.1,0.6,-0.5235987755982988,0.5235987755982988,0,0.8648737,1.5453657,0.31523082,0.08423817,0.10645737,0.98891795,0.4547179,-0.36128056,1.8656136,-0.28288412,-1.1015477,-0.32965538,1.3911353,0.81341916
-0.2,-0.1,0.6,-0.5235987755982988,0.5235987755982988,0,0.8744856,1.5619804,0.33743027,0.053860642,0.097183086,0.97903293,0.36953822,-0.38524443,1.8510462,-0.25223404,-1.1221576,-0.33208388,1.4359472,0.67251325
-0.2,-0.1,0.6,-0.5235987755982988,0.5235987755982988,0,0.88580054,1.5363966,0.3285899,0.07440697,0.14671534,0.99845076,0.32567787,-0.3949377,1.8374615,-0.23463763,-1.1384182,-0.4362323,1.3994006,0.30403084
-0.2,-0.1,0.6,-0.5235987755982988,0.5235987755982988,0,0.8722273,1.5463932,0.30860695,0.071451046,0.14822777,0.9573399,0.4503722,-0.35309657,1.8453318,-0.2534077,-1.1404574,-0.3800297,1.3868406,0.32737342
-0.2,-0.1,0.6,-0.5235987755982988,0.5235987755982988,0,0.8641085,1.5403254,0.29815555,0.067156136,0.10120427,0.9871815,0.37518153,-0.3653949,1.851445,-0.25248608,-1.1482446,-0.32216543,1.4049693,0.5342693
-0.2,-0.1,0.6,-0.5235987755982988,0.5235987755982988,0,0.86015534,1.5424577,0.30770665,0.07988347,0.11444823,0.9544607,0.35234392,-0.3585694,1.8531847,-0.28612533,-1.1436902,-0.39539462,1.3877356,0.5055889
-0.2,-0.1,0.6,-0.5235987755982988,0.5235987755982988,0,0.88982856,1.540126,0.30182213,0.056068856,0.15499923,0.99116486,0.40307456,-0.36325514,1.8604236,-0.28081352,-1.169478,-0.40862942,1.4269177,0.05151808
-0.2,-0.1,0.6,-0.5235987755982988,0.5235987755982988,0,0.88243556,1.5355738,0.30086192,0.070183024,0.11964487,0.96341604,0.49268985,-0.36930913,1.8468267,-0.2703714,-1.1553817,-0.3606591,1.4206111,0.3234844
-0.2,-0.1,0.6,-0.5235987755982988,0.5235987755982988,0,0.89243615,1.5285157,0.30761427,0.07187821,0.15935984,0.97618794,0.4243452,-0.35146046,1.8482242,-0.2721937,-1.1265205,-0.45441478,1.3762921,0.18584932
-0.2,-0.1,0.6,-0.5235987755982988,0.5235987755982988,0,0.8774998,1.5383656,0.32263708,0.078696005,0.12567744,0.9468786,0.40101522,-0.36939287,1.8458371,-0.26746866,-1.1156201,-0.43786958,1.4067373,0.50379455
-0.2,-0.1,0.6,-0.5235987755982988,0.5235987755982988,0,0.87495875,1.5533463,0.31464556,0.053782865,0.124818906,0.98367864,0.38758337,-0.37500623,1.8599452,-0.26437175,-1.1430076,-0.40086913,1.3724413,0.4415303
-0.2,-0.1,0.6,-0.5235987755982988,0.5235987755982988,0,0.871131,1.5457098,0.32402563,0.07691687,0.13530262,0.978504,0.31576025,-0.34465337,1.8461804,-0.25454468,-1.1380746,-0.38241318,1.3987098,0.74202114
-0.2,-0.1,0.6,-0.5235987755982988,0.5235987755982988,0,0.86306465,1.5409781,0.32913935,0.07147643,0.111729786,0.9748062,0.41787675,-0.38519314,1.8560642,-0.25961158,-1.1332312,-0.43385845,1.391099,0.3802019
-0.2,-0.1,0.6,-0.5235987755982988,0.5235987755982988,0,0.8853387,1.541892,0.3039875,0.06958057,0.060284525,0.9524203,0.3520404,-0.37431055,1.8588912,-0.26406577,-1.1180339,-0.45031112,1.4062456,0.34019193
-0.2,-0.1,0.6,-0.5235987755982988,0.5235987755982988,0,0.8687146,1.5453819,0.33581525,0.054858405,0.11293217,0.9759034,0.35833022,-0.36041144,1.8458972,-0.2529056,-1.1616918,-0.396408,1.4105877,0.64222366
-0.2,-0.1,0.6,-0.5235987755982988,0.5235987755982988,0,0.8843788,1.5452543,0.2986861,0.072889216,0.1068156,0.9484371,0.39146557,-0.37812743,1.8500755,-0.23814712,-1.1522216,-0.30154854,1.4207983,0.18296452
-0.2,-0.1,0.6,-0.5235987755982988,0.5235987755982988,0,0.8826971,1.5449262,0.31333217,0.07767642,0.11186574,0.9326978,0.40982455,-0.32676756,1.8615378,-0.25251845,-1.1702431,-0.39864135,1.393972,0.67380756
-0.2,-0.1,0.6,-0.5235987755982988,0.5235987755982988,0,0.86555403,1.5537664,0.33001417,0.07022736,0.072837904,0.9838925,0.36946023,-0.39187238,1.8729854,-0.22199987,-1.1888503,-0.3500536,1.4045753,0.22227858
-0.2,-0.1,0.6,-0.5235987755982988,0.5235987755982988,0,0.88548416,1.5496958,0.32645676,0.03580485,0.0835291,0.9836459,0.42958674,-0.35501495,1.8529533,-0.22751044,-1.1520547,-0.45125526,1.4024774,0.7431
-0.2,-0.1,0.6,-0.5235987755982988,0.5235987755982988,0,0.8867597,1.5331662,0.30649585,0.053447757,0.100046076,0.9904744,0.49994147,-0.32136533,1.8471246,-0.20133077,-1.108872,-0.3636863,1.3933387,0.48764247
-0.2,-0.1,0.6,-0.5235987755982988,0.5235987755982988,0,0.8884089,1.5538436,0.32627854,0.05777564,0.09101171,0.96520174,0.44716832,-0.32748878,1.8478462,-0.31762472,-1.1225202,-0.41294068,1.4135442,0.9395291
-0.2,-0.1,0.6,-0.5235987755982988,0.5235987755982988,0,0.8738374,1.5435828,0.29483002,0.04369546,0.15022154,0.95374876,0.38189864,-0.3876672,1.8516716,-0.23268017,-1.1530013,-0.27941877,1.4005234,0.38811576
-0.2,-0.1,0.6,-0.5235987755982988,0.5235987755982988,0,0.8704474,1.5426553,0.2949375,0.053562436,0.12120221,0.96217906,0.42367026,-0.3467636,1.8453298,-0.23356137,-1.1195859,-0.4299532,1.4150043,0.6685312
-0.2,-0.1,0.6,-0.5235987755982988,0.5235987755982988,0,0.8746742,1.5507663,0.3359649,0.05427618,0.17505462,0.9658393,0.3689902,-0.3506982,1.8648478,-0.27289155,-1.1685822,-0.47312245,1.402505,0.36704773
-0.2,-0.1,0.6,-0.5235987755982988,0.5235987755982988,0,0.87104964,1.5552448,0.30505115,0.07815959,0.091089316,0.95429087,0.4341525,-0.33272913,1.8585243,-0.22188613,-1.1166006,-0.41285482,1.4088072,0.31028324
-0.2,-0.1,0.6,-0.5235987755982988,0.5235987755982988,0,0.88726217,1.5438969,0.32588157,0.05944929,0.10210312,0.9551273,0.408341,-0.33063224,1.8379849,-0.25372073,-1.1368363,-0.43217194,1.4385912,0.59492475
-0.2,-0.1,0.6,-0.5235987755982988,0.5235987755982988,0,0.88079923,1.5340445,0.3108691,0.053972434,0.1019921,0.9942076,0.41357988,-0.35100582,1.8646641,-0.23482142,-1.1627268,-0.41453364,1.3972405,0.46073243
-0.2,-0.1,0.6,-0.5235987755982988,0.5235987755982988,0,0.89180255,1.545768,0.30094478,0.06432056,0.08182251,0.96270555,0.39882997,-0.35943347,1.8680836,-0.25790253,-1.1177051,-0.34634513,1.4247664,0.41986802
-0.2,-0.1,0.6,-0.5235987755982988,0.5235987755982988,0,0.8735394,1.5399078,0.33169222,0.06201308,0.08480026,0.9566421,0.41220707,-0.3422123,1.8626829,-0.23209052,-1.095655,-0.34453717,1.4135699,0.13588771
-0.2,-0.1,0.6,-0.5235987755982988,0.5235987755982988,0,0.88878495,1.5533241,0.32282758,0.060476568,0.12836082,0.9758167,0.47184944,-0.33482987,1.8485689,-0.25206888,-1.1266638,-0.45827946,1.4111983,0.15928148
-0.2,-0.1,0.6,-0.5235987755982988,0.5235987755982988,0,0.86843896,1.5368141,0.31372494,0.06734075,0.109696984,1.0013367,0.48538527,-0.38059378,1.8506709,-0.28679603,-1.1140691,-0.39900237,1.4263197,0.5537117
-0.2,-0.1,0.6,-0.5235987755982988,0.5235987755982988,0,0.8967276,1.5446888,0.3031773,0.07315004,0.12468841,0.9644307,0.48191074,-0.37738803,1.8487908,-0.29849997,-1.1488254,-0.34112796,1.4308167,0.267122
-0.2,-0.1,0.6,-0.5235987755982988,0.5235987755982988,0,0.8844202,1.5639313,0.30899614,0.045762118,0.12811945,0.9974196,0.4043964,-0.31678653,1.857628,-0.27435115,-1.1692473,-0.4224933,1.3984188,0.736094
-0.2,-0.1,0.6,-0.5235987755982988,0.5235987755982988,0,0.8926649,1.5313655,0.29912376,0.055961426,0.09687015,0.9612508,0.4656661,-0.38379866,1.8557816,-0.24596423,-1.174385,-0.4241983,1.385427,0.6399634
-0.2,-0.1,0.6,-0.5235987755982988,0.5235987755982988,0,0.8763977,1.5420505,0.3067534,0.057445157,0.09499842,0.9814112,0.43821153,-0.36747837,1.8708166,-0.2936313,-1.1453863,-0.33304355,1.3805918,0.40142533
-0.2,-0.1,0.6,-0.5235987755982988,0.5235987755982988,0,0.8787196,1.5429897,0.30894044,0.06412619,0.12413308,0.96761614,0.39245218,-0.33156812,1.8556076,-0.25364283,-1.1727346,-0.34860164,1.409627,0.39051813
-0.2,-0.1,0.6,-0.5235987755982988,0.5235987755982988,0,0.8892884,1.5341622,0.31510362,0.06772789,0.12274947,0.97570586,0.41113603,-0.35316378,1.8651372,-0.2572896,-1.1362242,-0.44974196,1.3953094,0.19228378
-0.2,-0.1,0.6,-0.5235987755982988,0.5235987755982988,0,0.88067234,1.537724,0.28613937,0.054423913,0.15984903,0.9514569,0.39469334,-0.32860023,1.8509847,-0.2700286,-1.1099861,-0.36977494,1.3910912,0.5724224
-0.2,-0.1,0.6,-0.5235987755982988,0.5235987755982988,0,0.8728799,1.5583781,0.30461738,0.07065816,0.122393414,0.96152455,0.30072007,-0.34981355,1.845052,-0.25547162,-1.1579547,-0.36447182,1.3913281,0.8264642
-0.2,-0.1,0.6,-0.5235987755982988,0.5235987755982988,0,0.8791217,1.529223,0.3232299,0.064808466,0.100857385,0.96662235,0.38755268,-0.35752547,1.8657078,-0.26910913,-1.1521173,-0.43863672,1.3914472,0.62744594
-0.2,-0.1,0.6,-0.5235987755982988,0.5235987755982988,0,0.8877374,1.5386497,0.3075816,0.058676295,0.100906014,0.9598557,0.3804609,-0.38451266,1.8630998,-0.25980607,-1.2315707,-0.33733124,1.3888277,0.76766324
-0.2,-0.1,0.6,-0.5235987755982988,0.5235987755982988,0,0.8742609,1.549097,0.30757666,0.06750798,0.054684255,0.9874768,0.4783835,-0.37135926,1.8575212,-0.262112,-1.0928576,-0.44224852,1.4275073,-0.17379025
-0.2,-0.1,0.6,-0.5235987755982988,0.5235987755982988,0,0.86543083,1.5407348,0.31449166,0.07086053,0.121350035,0.94538695,0.3935395,-0.35442895,1.8428338,-0.251371,-1.1432772,-0.40765062,1.3989042,0.8011164
-0.2,-0.1,0.6,-0.5235987755982988,0.5235987755982988,0,0.89412606,1.5315483,0.3250796,0.05845523,0.11888555,0.9780217,0.44890943,-0.3717967,1.851041,-0.26025406,-1.1698363,-0.36537758,1.4278501,0.60387987
-0.2,-0.1,0.6,-0.5235987755982988,0.5235987755982988,0,0.8839338,1.539648,0.32659528,0.040461812,0.09727597,0.97320133,0.43569046,-0.3771221,1.8521309,-0.27876368,-1.1526128,-0.373074,1.383124,0.5837812
-0.2,-0.1,0.6,-0.5235987755982988,0.5235987755982988,0,0.88326365,1.5310702,0.3324077,0.039804958,0.13004896,0.9818987,0.44577014,-0.36216384,1.8584963,-0.284271,-1.1387004,-0.43212238,1.3912259,0.4091438
-0.2,-0.1,0.6,-0.5235987755982988,0.5235987755982988,0,0.8740231,1.5493827,0.31501618,0.0817021,0.14119697,0.9563765,0.3444641,-0.36652642,1.8540114,-0.23436737,-1.1420382,-0.36094597,1.4021958,0.8421692
-0.2,-0.1,0.6,-0.5235987755982988,0.5235987755982988,0,0.87907934,1.5436794,0.30213317,0.06503002,0.100739844,0.9710465,0.4413291,-0.380522,1.8522302,-0.27188933,-1.1669525,-0.4072835,1.431409,0.33044624
-0.2,-0.1,0.6,-0.5235987755982988,0.5235987755982988,0,0.89288974,1.5379372,0.31339684,0.055508915,0.086822025,0.9498018,0.35470363,-0.34931606,1.8444574,-0.26378894,-1.1861104,-0.3373045,1.3973439,0.5135185
-0.2,-0.1,0.6,-0.5235987755982988,0.5235987755982988,0,0.89548105,1.5348849,0.3158821,0.060007647,0.14454888,0.9658043,0.45998713,-0.3694607,1.8561424,-0.23312443,-1.1204368,-0.41901177,1.3912355,0.44611892
-0.2,-0.1,0.6,-0.5235987755982988,0.5235987755982988,0,0.88544095,1.5453607,0.34978345,0.06297405,0.094591506,0.9765486,0.4041822,-0.3364311,1.853707,-0.23864286,-1.166338,-0.4699814,1.408491,0.76207983
-0.2,-0.1,0.6,-0.5235987755982988,0.5235987755982988,0,0.8715552,1.5419792,0.33056036,0.05695154,0.10813203,0.98577875,0.42546555,-0.34023777,1.8543022,-0.21935564,-1.1583256,-0.4129216,1.4068445,0.5076988
-0.2,-0.1,0.6,-0.5235987755982988,0.5235987755982988,0,0.90238506,1.5325662,0.31115973,0.06532434,0.16768906,0.9706928,0.39860356,-0.3654696,1.8531317,-0.2395693,-1.165864,-0.43971416,1.3888947,0.17885005
-0.2,-0.1,0.6,-0.5235987755982988,0.5235987755982988,0,0.8758875,1.5466762,0.29953757,0.070059665,0.116667084,0.99816835,0.42913565,-0.3485078,1.8637127,-0.25945258,-1.1704041,-0.42656624,1.4020354,0.77110106
-0.2,-0.1,0.6,-0.5235987755982988,0.5235987755982988,0,0.8867369,1.5396507,0.2987361,0.04337621,0.09880748,0.9851432,0.35560924,-0.34896204,1.8374472,-0.31274623,-1.143045,-0.34050977,1.3896585,0.83926105
-0.2,-0.1,0.6,-0.5235987755982988,0.5235987755982988,0,0.8789646,1.5322888,0.3141631,0.07164905,0.1142233,0.9426604,0.3649826,-0.34815088,1.8547454,-0.24451065,-1.1080933,-0.39982626,1.428962,-0.031155145
-0.2,-0.1,0.6,-0.5235987755982988,0.5235987755982988,0,0.8776728,1.5387279,0.29937917,0.07672703,0.09140268,0.987899,0.4416803,-0.35756904,1.849962,-0.25795382,-1.1201838,-0.42825112,1.4061733,0.3470702
-0.2,-0.1,0.6,-0.5235987755982988,0.5235987755982988,0,0.90623385,1.5416596,0.32070032,0.049279038,0.10152656,0.9955197,0.39222446,-0.34468657,1.8505999,-0.2663076,-1.1615515,-0.43818974,1.4014057,0.6694226
-0.2,-0.1,0.6,-0.5235987755982988,0.5235987755982988,0,0.8806985,1.5338631,0.3067623,0.07834219,0.10075053,0.97940665,0.42432198,-0.33998674,1.8491089,-0.19910178,-1.1310601,-0.33416626,1.4028708,0.35751042
-0.2,-0.1,0.6,-0.5235987755982988,0.5235987755982988,0,0.8740952,1.5474167,0.32705113,0.07153432,0.11859311,0.97952276,0.46225253,-0.33031467,1.8508894,-0.26802456,-1.1391177,-0.28283697,1.4082712,0.6433069
-0.2,-0.1,0.6,-0.5235987755982988,0.5235987755982988,0,0.8781478,1.55101,0.32827377,0.052166153,0.11924479,0.967832,0.41962773,-0.33141506,1.8567679,-0.26886043,-1.1158558,-0.38638002,1.3883563,0.61836267
-0.2,-0.1,0.6,-0.5235987755982988,0.5235987755982988,0,0.88642013,1.5536349,0.3208319,0.046590894,0.15589115,1.0059901,0.4839184,-0.32728797,1.862457,-0.29668668,-1.122734,-0.3842143,1.3903668,0.6418923
-0.2,-0.1,0.6,-0.5235987755982988,0.5235987755982988,0,0.88552785,1.5405403,0.31535608,0.06533828,0.12253442,0.984291,0.29556167,-0.3383189,1.8340088,-0.25613993,-1.1424913,-0.40574163,1.4017336,0.36537692
-0.2,-0.1,0.6,-0.5235987755982988,0.5235987755982988,0,0.86019206,1.5498533,0.31997934,0.07158383,0.12351644,0.9852812,0.43710634,-0.33961964,1.8517523,-0.24374704,-1.1700093,-0.4557366,1.380068,1.0232685
-0.2,-0.1,0.6,-0.5235987755982988,0.5235987755982988,0,0.8816079,1.5395108,0.33937466,0.06629751,0.10658706,0.9743096,0.50179607,-0.3880459,1.8630996,-0.25854862,-1.1561162,-0.41482887,1.4222976,0.35953808
-0.2,-0.1,0.6,-0.5235987755982988,0.5235987755982988,0,0.88213503,1.5454999,0.3036134,0.039472956,0.1623087,0.98368365,0.46964997,-0.33154517,1.8485696,-0.2608532,-1.1829464,-0.4492178,1.4053723,0.8870103
-0.2,-0.1,0.6,-0.5235987755982988,0.5235987755982988,0,0.87960047,1.5373282,0.301891,0.063827895,0.14168872,0.9501564,0.53439635,-0.36073226,1.864313,-0.23945059,-1.1545588,-0.37812775,1.419603,1.0362942
-0.2,-0.1,0.6,-0.5235987755982988,0.5235987755982988,0,0.86141676,1.545991,0.30506676,0.079707354,0.09256789,0.9783692,0.3563607,-0.33233094,1.8671986,-0.28766567,-1.1449394,-0.44982693,1.4105368,0.46592677
-0.2,-0.1,0.6,-0.5235987755982988,0.5235987755982988,0,0.9031701,1.5321892,0.32572716,0.06882078,0.11358338,0.9680148,0.32378104,-0.3658354,1.8574073,-0.24179429,-1.135437,-0.4356281,1.3798324,0.14101613
-0.2,-0.1,0.6,-0.5235987755982988,0.5235987755982988,0,0.876993,1.5503713,0.30838138,0.058927156,0.13202995,0.9817057,0.4764554,-0.37706068,1.8455341,-0.28021085,-1.1390982,-0.26808634,1.4187739,0.7126485
-0.2,-0.1,0.6,-0.5235987755982988,0.5235987755982988,0,0.88996774,1.5416945,0.30101386,0.07794251,0.07295185,0.97328424,0.4335326,-0.3650466,1.852959,-0.24412706,-1.1294255,-0.35261637,1.3828576,0.6223769
-0.2,-0.1,0.6,-0.5235987755982988,0.5235987755982988,0,0.88745123,1.5354874,0.32535666,0.06030684,0.16054231,1.0190614,0.33088335,-0.33500433,1.8564868,-0.24200945,-1.1437539,-0.3426083,1.389794,0.5100296
-0.2,-0.1,0.6,-0.5235987755982988,0.5235987755982988,0,0.8766717,1.5372177,0.3166281,0.07983356,0.087241,0.98845905,0.38204077,-0.3563008,1.8557286,-0.22568054,-1.1120546,-0.27094123,1.4050488,0.56415844
-0.2,-0.1,0.6,-0.5235987755982988,0.5235987755982988,0,0.8724069,1.5478235,0.29873818,0.05602559,0.1066287,0.9849707,0.39344716,-0.3431223,1.8503959,-0.23637238,-1.1310623,-0.3990967,1.4024333,0.9509712
-0.2,-0.1,0.6,-0.5235987755982988,0.5235987755982988,0,0.8581309,1.5490695,0.32900962,0.051926944,0.13914208,0.9335055,0.4367955,-0.37004992,1.8670608,-0.2592252,-1.1459253,-0.44611973,1.3864799,0.6738964
-0.2,-0.1,0.6,-0.5235987755982988,0.5235987755982988,0,0.8888115,1.5478576,0.33579767,0.081375755,0.13726765,0.9677768,0.3954942,-0.37493926,1.8541137,-0.22901945,-1.1291713,-0.37565923,1.397766,0.009773198
-0.2,-0.1,0.6,-0.5235987755982988,0.5235987755982988,0,0.8849274,1.5441221,0.3070328,0.068458,0.13950795,0.95488924,0.41921005,-0.35719818,1.8475841,-0.2807197,-1.1663076,-0.41449103,1.3908898,0.66611725
-0.2,-0.1,0.6,-0.5235987755982988,0.5235987755982988,0,0.87192804,1.5302792,0.31120092,0.0729157,0.0783043,1.0063388,0.33668825,-0.33785123,1.8551646,-0.26218483,-1.1425362,-0.48937052,1.4235516,0.35720298
-0.2,-0.1,0.6,-0.5235987755982988,0.5235987755982988,0,0.87327695,1.5410521,0.31438023,0.072280474,0.14215422,0.9521514,0.38597703,-0.351926,1.8412861,-0.27480924,-1.144418,-0.37194794,1.4120535,0.7708053
-0.2,-0.1,0.6,-0.5235987755982988,0.5235987755982988,0,0.886417,1.5504237,0.3403197,0.0716224,0.11356197,0.95026314,0.47210148,-0.37093443,1.8625801,-0.25707164,-1.1413368,-0.37504107,1.4036168,0.22906886
-0.2,-0.1,0.6,-0.5235987755982988,0.5235987755982988,0,0.8768935,1.5490922,0.3134421,0.08658008,0.1608062,0.94387877,0.40030816,-0.35281155,1.8599792,-0.26089093,-1.1496162,-0.41675022,1.3910744,0.542489
-0.2,-0.1,0.6,-0.5235987755982988,0.5235987755982988,0,0.86496806,1.5328258,0.3148773,0.059801448,0.123035766,0.99328095,0.32194847,-0.34363207,1.8712188,-0.24028647,-1.102019,-0.34243935,1.3969179,0.5116153
-0.2,-0.1,0.6,-0.5235987755982988,0.5235987755982988,0,0.86961246,1.5587201,0.32406905,0.06887681,0.11279039,0.9924727,0.3914184,-0.37808144,1.8494,-0.25964832,-1.1257277,-0.3744429,1.4132708,0.96019834
-0.2,-0.1,0.6,-0.5235987755982988,0.5235987755982988,0,0.8687034,1.5402352,0.3276962,0.06628787,0.10113756,0.9603311,0.39804396,-0.3709089,1.8504074,-0.2570245,-1.1520497,-0.36309272,1.4092447,0.4756224
-0.2,-0.1,0.6,-0.5235987755982988,0.5235987755982988,0,0.8752463,1.5557,0.30254948,0.08035352,0.10356911,0.99115986,0.35009968,-0.37572807,1.8504771,-0.2659815,-1.1354163,-0.33821607,1.3970613,0.40472594
-0.2,-0.1,0.6,-0.5235987755982988,0.5235987755982988,0,0.8854421,1.5618702,0.3119562,0.058231693,0.11901341,0.9867114,0.39189568,-0.36666676,1.863646,-0.28211015,-1.1320909,-0.39921218,1.3929076,0.44783887
-0.2,-0.1,0.6,-0.5235987755982988,0.5235987755982988,0,0.8945235,1.5327939,0.33353776,0.07310122,0.14992894,0.9918374,0.42128542,-0.37416074,1.8553705,-0.2955515,-1.1286517,-0.39667198,1.3689082,1.0210549
-0.2,-0.1,0.6,-0.5235987755982988,0.5235987755982988,0,0.89542073,1.5433236,0.3213922,0.06618126,0.10973286,0.989804,0.3591075,-0.36235243,1.8549855,-0.23645552,-1.1532656,-0.43734464,1.4051455,0.73590475
-0.2,-0.1,0.6,-0.5235987755982988,0.5235987755982988,0,0.88377714,1.5406276,0.27630928,0.06698565,0.1211253,0.9608243,0.44056764,-0.37317356,1.8528618,-0.26636147,-1.1556855,-0.38021415,1.4088839,0.8424302
-0.2,-0.1,0.6,-0.5235987755982988,0.5235987755982988,0,0.8740193,1.5436476,0.32286263,0.043887787,0.14332154,0.9882983,0.44440612,-0.38058704,1.8595299,-0.30604565,-1.146293,-0.4460508,1.3928043,0.5245555
-0.2,-0.1,0.6,-0.5235987755982988,0.5235987755982988,0,0.87689054,1.5458603,0.34406853,0.07215718,0.11417243,0.95663905,0.45807928,-0.3683219,1.8516394,-0.29471254,-1.1270558,-0.37390518,1.3980477,0.39465946
-0.2,-0.1,0.6,-0.5235987755982988,0.5235987755982988,0,0.8581436,1.5462968,0.3362227,0.05809962,0.1127217,0.9657425,0.502209,-0.33429644,1.8622152,-0.23343945,-1.1516054,-0.37601817,1.4305882,0.86794394
-0.2,-0.1,0.6,-0.5235987755982988,0.5235987755982988,0,0.87773746,1.559051,0.3061302,0.0631092,0.13232411,0.97922754,0.34220976,-0.36836934,1.8619215,-0.26542413,-1.1392233,-0.43070844,1.4121802,0.19565813
-0.2,-0.1,0.6,-0.5235987755982988,0.5235987755982988,0,0.8787447,1.5428789,0.32806963,0.060267016,0.11088792,0.96648145,0.39892712,-0.36150637,1.8550019,-0.22100288,-1.1421537,-0.44267887,1.4087913,0.4467884
-0.2,-0.1,0.6,-0.5235987755982988,0.5235987755982988,0,0.8712488,1.5369259,0.3290293,0.07320682,0.08263597,0.9912175,0.334935,-0.34713104,1.8540854,-0.25548893,-1.1295228,-0.30217734,1.3862824,0.35144374
-0.2,-0.1,0.6,-0.5235987755982988,0.5235987755982988,0,0.875484,1.5534759,0.29966116,0.074158296,0.13815986,0.9820328,0.37183166,-0.3695689,1.8651276,-0.2377708,-1.1554377,-0.39524314,1.4143103,0.47722834
-0.2,-0.1,0.6,-0.5235987755982988,0.5235987755982988,0,0.86855924,1.5437334,0.30408368,0.058556683,0.1011945,0.967238,0.48553783,-0.37005028,1.85618,-0.2828168,-1.1544375,-0.34758142,1.3825672,0.8158725
-0.2,-0.1,0.6,-0.5235987755982988,0.5235987755982988,0,0.8816086,1.5437669,0.31517178,0.07441167,0.12014512,0.97530055,0.3426802,-0.36418283,1.8640342,-0.2645858,-1.1283976,-0.41864166,1.3832772,0.11378758
-0.2,-0.1,0.6,-0.5235987755982988,0.5235987755982988,0,0.87955356,1.5331436,0.32512525,0.05059877,0.10401581,0.9823191,0.43961477,-0.36771408,1.8536904,-0.26636556,-1.1386055,-0.35220596,1.4053316,0.9687759
-0.2,-0.1,0.6,-0.5235987755982988,0.5235987755982988,0,0.88930804,1.5541807,0.3103681,0.068746366,0.16780294,0.9425331,0.48621294,-0.40414974,1.8542819,-0.2920426,-1.1533077,-0.38278803,1.4191486,0.35267922
-0.2,-0.1,0.6,-0.5235987755982988,0.5235987755982988,0,0.86802304,1.54033,0.30372804,0.06017637,0.12774429,0.9879432,0.33226886,-0.35180607,1.8526278,-0.2520069,-1.1527132,-0.40254676,1.4097724,0.7418378
-0.2,-0.1,0.6,-0.5235987755982988,0.5235987755982988,0,0.893191,1.5583012,0.2943324,0.06056899,0.12970343,0.95940804,0.4469782,-0.36590767,1.8478016,-0.23533818,-1.1427743,-0.37347835,1.4032191,0.67646503
-0.2,-0.1,0.6,-0.5235987755982988,0.5235987755982988,0,0.85318977,1.5407094,0.3232198,0.0505137,0.09389974,0.94980365,0.37003037,-0.35720843,1.8389415,-0.24324557,-1.1163731,-0.46308514,1.428111,0.63249385
-0.2,-0.1,0.6,-0.5235987755982988,0.5235987755982988,0,0.90247995,1.5351297,0.29968745,0.069305666,0.13518009,0.99083227,0.45081055,-0.3473347,1.8556079,-0.24897896,-1.1337714,-0.34850037,1.441911,0.26371628
-0.2,-0.1,0.6,-0.5235987755982988,0.5235987755982988,0,0.869467,1.5490199,0.30906418,0.058298923,0.113338456,0.9747622,0.3725609,-0.35938656,1.8562262,-0.27680102,-1.1313454,-0.35613644,1.407574,0.5027171
-0.2,-0.1,0.6,-0.5235987755982988,0.5235987755982988,0,0.8770208,1.5524217,0.33840877,0.059516143,0.12329113,0.99390996,0.38986185,-0.32433745,1.8421383,-0.28998715,-1.1506248,-0.32685888,1.4212414,0.4516354
-0.2,-0.1,0.6,-0.5235987755982988,0.5235987755982988,0,0.87332356,1.5401903,0.31248027,0.062221043,0.13930035,0.9625257,0.37455726,-0.37256238,1.8470155,-0.2557327,-1.1343832,-0.32613653,1.415946,1.0876845
-0.2,-0.1,0.6,-0.5235987755982988,0.5235987755982988,0,0.8852237,1.53956,0.33508718,0.09152984,0.083986625,0.9359101,0.41045734,-0.3600377,1.8480633,-0.20539467,-1.161216,-0.3713818,1.3968114,0.7824124
-0.2,-0.1,0.6,-0.5235987755982988,0.5235987755982988,0,0.8789622,1.544101,0.2974147,0.09276163,0.07665584,0.96382487,0.44643465,-0.38976663,1.8530295,-0.25966695,-1.1421341,-0.3804678,1.3978381,0.56682765
-0.2,-0.1,0.6,-0.5235987755982988,0.5235987755982988,0,0.87738067,1.5381047,0.30894387,0.07099397,0.14604044,0.98430187,0.5225213,-0.36250833,1.8533766,-0.26873046,-1.1346813,-0.40873796,1.4137802,0.54503876
-0.2,-0.1,0.6,-0.5235987755982988,0.5235987755982988,0,0.8738277,1.551533,0.3113496,0.062917694,0.13448343,0.97767437,0.36897868,-0.36623362,1.8389503,-0.27062333,-1.0987966,-0.45124775,1.3920361,0.9044811
-0.2,-0.1,0.6,-0.5235987755982988,0.5235987755982988,0,0.8767259,1.5431422,0.30666777,0.047894765,0.1560607,0.9694337,0.46280545,-0.35483545,1.8585461,-0.23093429,-1.0976253,-0.42576712,1.3879615,0.6330892
-0.2,-0.1,0.6,-0.5235987755982988,0.5235987755982988,0,0.8953807,1.5330184,0.3155126,0.053682696,0.13639615,0.986508,0.40302968,-0.37876457,1.8541545,-0.21691802,-1.1530598,-0.3944633,1.3957793,0.6311346
-0.2,-0.1,0.6,-0.5235987755982988,0.5235987755982988,0,0.88229793,1.5470697,0.3086239,0.05249857,0.08862213,1.0144862,0.39395297,-0.36318305,1.8614144,-0.2775765,-1.1219372,-0.45997393,1.4054792,0.10565004
-0.2,-0.1,0.6,-0.5235987755982988,0.5235987755982988,0,0.8871488,1.5459043,0.31991357,0.06845761,0.10173386,1.015501,0.47861204,-0.34778616,1.8622081,-0.26465523,-1.1634523,-0.32003576,1.4146824,0.6526521
-0.2,-0.1,0.6,-0.5235987755982988,0.5235987755982988,0,0.886993,1.537378,0.31799683,0.07629527,0.16947223,0.9652467,0.3683937,-0.34052378,1.8726637,-0.21253769,-1.1453855,-0.44218174,1.4266046,0.3972142
-0.2,-0.1,0.6,-0.5235987755982988,0.5235987755982988,0,0.8764545,1.5465429,0.3380606,0.07343745,0.09854694,0.9729381,0.3569979,-0.33042955,1.848422,-0.28711042,-1.1307102,-0.37238362,1.4273553,0.21344183
-0.2,-0.1,0.6,-0.5235987755982988,0.5235987755982988,0,0.8839998,1.5458015,0.3221766,0.051755182,0.09546744,0.9833281,0.42985094,-0.3708117,1.8468484,-0.28196076,-1.105053,-0.43793392,1.3823793,0.52809155
-0.2,-0.1,0.6,-0.5235987755982988,0.5235987755982988,0,0.87547207,1.5470967,0.3238108,0.049464494,0.11178407,1.0016124,0.43107986,-0.34566125,1.868691,-0.27549857,-1.150866,-0.3318526,1.4199651,0.8426241
-0.2,-0.1,0.6,-0.5235987755982988,0.5235987755982988,0,0.8754769,1.5479717,0.32016394,0.061773557,0.116570994,0.9772049,0.38072538,-0.39838812,1.856102,-0.28839767,-1.1709012,-0.41872138,1.3868859,0.70918006
-0.2,-0.1,0.6,-0.5235987755982988,0.5235987755982988,0,0.8849966,1.5458907,0.30339226,0.06832822,0.1137868,0.9985744,0.379749,-0.38276663,1.8398918,-0.27760184,-1.1430166,-0.3536185,1.4261441,0.16677465
-0.2,-0.1,0.6,-0.5235987755982988,0.5235987755982988,0,0.88696337,1.5562073,0.31398404,0.058163114,0.08442835,1.005754,0.41747487,-0.33661354,1.8460546,-0.29551995,-1.1301764,-0.317858,1.387343,0.5516555
-0.2,-0.1,0.6,-0.5235987755982988,0.5235987755982988,0,0.88540924,1.5341592,0.34571415,0.05185685,0.07608111,0.9715662,0.43769467,-0.33940226,1.8509378,-0.2499225,-1.1016213,-0.39813682,1.4130636,0.23133019
-0.2,-0.1,0.6,-0.5235987755982988,0.5235987755982988,0,0.87022686,1.5413134,0.31607947,0.06168321,0.11835951,0.98950976,0.450529,-0.37165573,1.8517336,-0.28075826,-1.1239084,-0.41319475,1.3830972,0.6501015
-0.2,-0.1,0.6,-0.5235987755982988,0.5235987755982988,0,0.8788172,1.5445635,0.29396835,0.07227643,0.12497503,1.0026495,0.35523427,-0.39696044,1.855587,-0.25160688,-1.1351333,-0.38537914,1.410282,0.39963582
-0.2,-0.1,0.6,-0.5235987755982988,0.5235987755982988,0,0.870453,1.5326962,0.32026604,0.07788255,0.07157,1.010101,0.3737672,-0.34883535,1.860892,-0.23797537,-1.1420972,-0.4173942,1.3865241,0.7577401
-0.2,-0.1,0.6,-0.5235987755982988,0.5235987755982988,0,0.88546795,1.5534139,0.33199802,0.056339726,0.14817107,0.9843555,0.36113045,-0.34288204,1.8472958,-0.20585518,-1.1441154,-0.34089112,1.4182433,0.4941545
-0.2,-0.1,0.6,-0.5235987755982988,0.5235987755982988,0,0.86078054,1.5414733,0.32601938,0.053240806,0.12807575,0.96519053,0.41577193,-0.35723847,1.867709,-0.22732766,-1.1779821,-0.45647505,1.4282156,0.76187325
-0.2,-0.1,0.6,-0.5235987755982988,0.5235987755982988,0,0.8699531,1.5358963,0.30665812,0.06983963,0.114679486,0.96612716,0.4032294,-0.36606148,1.8535783,-0.30725658,-1.1198825,-0.35887903,1.399531,0.3713785
-0.2,-0.1,0.6,-0.5235987755982988,0.5235987755982988,0,0.883145,1.5437306,0.32000327,0.06901319,0.1072268,1.0157173,0.36534098,-0.36105528,1.8536316,-0.27181935,-1.1434817,-0.3089542,1.4019744,0.6034642
-0.2,-0.1,0.6,-0.5235987755982988,0.5235987755982988,0,0.8736673,1.5570706,0.3191567,0.07630108,0.10457794,0.96283585,0.43373317,-0.34676704,1.8493989,-0.24898987,-1.1173528,-0.46838936,1.4024947,0.45562372
-0.2,-0.1,0.6,-0.5235987755982988,0.5235987755982988,0,0.88533026,1.5419351,0.31008673,0.08453224,0.12735656,0.9792937,0.43535808,-0.36261383,1.8501928,-0.22732311,-1.1277181,-0.3722458,1.398465,0.66831064
-0.2,-0.1,0.6,-0.5235987755982988,0.5235987755982988,0,0.88452065,1.5391278,0.30249768,0.082562335,0.13359886,0.9689684,0.41322917,-0.36394206,1.8686159,-0.26006308,-1.1588188,-0.30308318,1.3965757,0.71582586
-0.2,-0.1,0.6,-0.5235987755982988,0.5235987755982988,0,0.88417524,1.5578402,0.31913063,0.05748862,0.10951325,0.97037864,0.37559322,-0.37578988,1.8525685,-0.26389366,-1.129892,-0.28404084,1.4198598,0.5764878
-0.2,-0.1,0.6,-0.5235987755982988,0.5235987755982988,0,0.87046766,1.5489789,0.31756952,0.092002615,0.10549784,0.94833946,0.35591632,-0.37134007,1.8483613,-0.23338802,-1.136678,-0.42276347,1.4001067,0.7225219
-0.2,-0.1,0.6,-0.5235987755982988,0.5235987755982988,0,0.87480515,1.5392227,0.33124107,0.057021048,0.10989213,0.9667676,0.3567026,-0.3327428,1.8616152,-0.25256905,-1.1403137,-0.4121488,1.412194,0.663708
-0.2,-0.1,0.6,-0.5235987755982988,0.5235987755982988,0,0.89247185,1.5447836,0.3062334,0.064807996,0.08467479,1.0031637,0.35382888,-0.36553612,1.8490332,-0.24417727,-1.1306722,-0.2858389,1.4114759,0.77399516
-0.2,-0.1,0.6,-0.5235987755982988,0.5235987755982988,0,0.88361627,1.5377891,0.31969187,0.07275214,0.103256084,0.9682984,0.42313084,-0.3755716,1.8608996,-0.24365528,-1.1076808,-0.40510693,1.4204971,0.3426058
-0.2,-0.1,0.6,-0.5235987755982988,0.5235987755982988,0,0.8763312,1.5402833,0.3130183,0.07264261,0.13707557,0.96996325,0.45769286,-0.34675354,1.8527274,-0.24250937,-1.1002767,-0.36203262,1.3840232,0.9159366
-0.2,-0.1,0.6,-0.5235987755982988,0.5235987755982988,0,0.8999613,1.5397459,0.3211041,0.06644109,0.11258496,0.98863614,0.34940535,-0.34088114,1.8584788,-0.27232814,-1.1052345,-0.5055794,1.390125,0.6950995
-0.2,-0.1,0.6,-0.5235987755982988,0.5235987755982988,0,0.87078947,1.5431036,0.3158009,0.05148105,0.14305402,1.0028192,0.41753617,-0.3718744,1.8605936,-0.24260701,-1.1455591,-0.37814248,1.4333637,0.4530818
-0.2,-0.1,0.6,-0.5235987755982988,0.5235987755982988,0,0.89969516,1.5418271,0.27862316,0.07957929,0.113002755,0.9541887,0.3598727,-0.37569082,1.848487,-0.28410038,-1.1550231,-0.42315188,1.4226197,0.3382103
-0.2,-0.1,0.6,-0.5235987755982988,0.5235987755982988,0,0.88648814,1.5316726,0.31503248,0.06960597,0.14545225,0.9563163,0.41673282,-0.33936715,1.8724887,-0.27458832,-1.123109,-0.35356274,1.3948683,0.5147252
-0.2,-0.1,0.6,-0.5235987755982988,0.5235987755982988,0,0.8814274,1.540022,0.33907956,0.06942956,0.112811774,0.9916477,0.4427852,-0.36291897,1.858628,-0.25288808,-1.115128,-0.40303078,1.4066801,0.35965404
-0.2,-0.1,0.6,-0.5235987755982988,0.5235987755982988,0,0.8955644,1.5536457,0.3189717,0.06159796,0.11754296,0.984428,0.45805627,-0.38154474,1.8616339,-0.26570755,-1.147409,-0.34120786,1.4022703,0.8553257
-0.2,-0.1,0.6,-0.5235987755982988,0.5235987755982988,0,0.86074066,1.5371054,0.33076122,0.081955165,0.08460169,0.9563967,0.38318595,-0.3494322,1.8396976,-0.27056205,-1.0966338,-0.41313118,1.4013135,0.509387
-0.2,-0.1,0.6,-0.5235987755982988,0.5235987755982988,0,0.8786971,1.5419462,0.31349102,0.07432467,0.15377618,0.9983634,0.36936584,-0.3527692,1.8461598,-0.24546412,-1.130166,-0.3231443,1.42742,0.74559945
-0.2,-0.1,0.6,-0.5235987755982988,0.5235987755982988,0,0.87533575,1.5464792,0.3144761,0.075376645,0.12377839,0.99185735,0.41696343,-0.33918542,1.8423431,-0.2687515,-1.1135031,-0.32131386,1.3868994,0.9039545
-0.2,-0.1,0.6,-0.5235987755982988,0.5235987755982988,0,0.89783823,1.552798,0.32017764,0.053081702,0.13200058,0.9786001,0.48969465,-0.3487303,1.8677329,-0.2575982,-1.0776471,-0.33924574,1.3881177,0.10551811
-0.2,-0.1,0.6,-0.5235987755982988,0.5235987755982988,0,0.8846864,1.5593606,0.31149873,0.048186634,0.1493787,1.0141417,0.43511975,-0.37172547,1.8438483,-0.26198328,-1.1027536,-0.35007882,1.402376,0.67231286
-0.2,-0.1,0.6,-0.5235987755982988,0.5235987755982988,0,0.8708776,1.5522636,0.29604045,0.057791695,0.1409435,0.9995047,0.3725873,-0.37349015,1.8484508,-0.22211961,-1.103686,-0.25505072,1.4180331,0.6278692
-0.2,-0.1,0.6,-0.5235987755982988,0.5235987755982988,0,0.87558347,1.5250889,0.3163435,0.080237344,0.10578935,0.9834039,0.47028974,-0.3657687,1.8347325,-0.3002048,-1.1318252,-0.38139552,1.4240195,0.3163093
-0.2,-0.1,0.6,-0.5235987755982988,0.5235987755982988,0,0.8820752,1.5380132,0.28871313,0.05507047,0.14145805,0.9766999,0.4288619,-0.37002948,1.8418224,-0.2719114,-1.0963851,-0.40232503,1.4211997,0.6237692
-0.2,-0.1,0.6,-0.5235987755982988,0.5235987755982988,0,0.881287,1.5424863,0.31730273,0.074032925,0.11976426,0.9825586,0.46115145,-0.32724229,1.8302257,-0.246686,-1.0577353,-0.33492276,1.4079409,0.38145682
-0.2,-0.1,0.6,-0.5235987755982988,0.5235987755982988,0,0.86484575,1.5387229,0.3289918,0.073518455,0.09859926,1.0093523,0.45874646,-0.350876,1.8643283,-0.2547564,-1.1681083,-0.353557,1.4213619,0.8729828
-0.2,-0.1,0.6,-0.5235987755982988,0.5235987755982988,0,0.8897137,1.5472594,0.30848736,0.06651944,0.10112019,1.0065218,0.38846016,-0.34863442,1.8563608,-0.25000724,-1.0873147,-0.4423387,1.4092379,0.70286864
-0.2,-0.1,0.6,-0.5235987755982988,0.5235987755982988,0,0.8713392,1.5487747,0.2965278,0.07112223,0.14310403,0.971065,0.30733222,-0.36700308,1.8392978,-0.26293972,-1.1281176,-0.32494402,1.3960608,0.7228853
-0.2,-0.1,0.6,-0.5235987755982988,0.5235987755982988,0,0.87593824,1.5485322,0.31852072,0.068411455,0.10846622,0.99720997,0.47863072,-0.3589036,1.868807,-0.2812481,-1.1276147,-0.42582986,1.3885578,1.2276545
-0.2,-0.1,0.6,-0.5235987755982988,0.5235987755982988,0,0.8885093,1.5504547,0.32595903,0.085055634,0.14354734,0.985357,0.38610598,-0.37941682,1.8506613,-0.2490847,-1.1051824,-0.35154256,1.4149857,0.94121075
-0.2,-0.1,0.6,-0.5235987755982988,0.5235987755982988,0,0.87317765,1.5394963,0.28483427,0.074286245,0.13625553,1.0050906,0.39797843,-0.38193673,1.8550507,-0.21756835,-1.0998466,-0.41288072,1.4206272,0.98235273
-0.2,-0.1,0.6,-0.5235987755982988,0.5235987755982988,0,0.8898593,1.5575868,0.34129107,0.07340573,0.120404676,0.997762,0.54034555,-0.36292195,1.8537233,-0.28456545,-1.1612456,-0.28593665,1.4600255,0.6121443
-0.2,-0.1,0.6,-0.5235987755982988,0.5235987755982988,0,0.8623747,1.5423129,0.3022272,0.057506047,0.08294543,0.9908897,0.41461754,-0.3712504,1.8617312,-0.25335535,-1.1344937,-0.5208559,1.3994794,0.2706229
-0.2,-0.1,0.6,-0.5235987755982988,0.5235987755982988,0,0.8959362,1.5513531,0.31140843,0.066190355,0.1318564,0.9713617,0.47910327,-0.3468192,1.8358488,-0.23764491,-1.1438687,-0.35628375,1.4085927,0.7604439
-0.2,-0.1,0.6,-0.5235987755982988,0.5235987755982988,0,0.8811277,1.5540738,0.31207332,0.058524072,0.10501893,0.9824533,0.40046751,-0.32842034,1.8494824,-0.23849681,-1.1374938,-0.38259503,1.4009295,0.69571835
-0.2,-0.1,0.6,-0.5235987755982988,0.5235987755982988,0,0.8789243,1.5449481,0.351378,0.0729798,0.08301323,0.9627034,0.41208538,-0.36578736,1.8698797,-0.26437497,-1.0959121,-0.39240596,1.3726039,0.22435623
-0.2,-0.1,0.6,-0.5235987755982988,0.5235987755982988,0,0.86975944,1.5436524,0.3260545,0.06297561,0.124458924,0.98229814,0.4905766,-0.3481572,1.8589476,-0.28915372,-1.1174947,-0.30523777,1.4015566,0.17021944
-0.2,-0.1,0.6,-0.5235987755982988,0.5235987755982988,0,0.88480604,1.5493234,0.29882935,0.060484722,0.13908984,0.9898843,0.31165466,-0.33873808,1.8618625,-0.27359384,-1.1494815,-0.30507097,1.3765198,0.736271
-0.2,-0.1,0.6,-0.5235987755982988,0.5235987755982988,0,0.8833878,1.5415264,0.325548,0.04089392,0.07056464,0.993912,0.39191994,-0.38433692,1.8526317,-0.24862535,-1.1612055,-0.48044777,1.3864293,0.3957272
-0.2,-0.1,0.6,-0.5235987755982988,0.5235987755982988,0,0.90622056,1.5430425,0.3345419,0.07763613,0.08456491,0.9792914,0.41102394,-0.3458207,1.8586125,-0.25963813,-1.1703662,-0.37870494,1.4000877,0.4743827
-0.2,-0.1,0.6,-0.5235987755982988,0.5235987755982988,0,0.8889639,1.5377467,0.3340808,0.0652818,0.12921146,0.9643669,0.39010334,-0.3944025,1.8505508,-0.22370827,-1.1181296,-0.40163603,1.3859661,0.48125964
-0.2,-0.1,0.6,-0.5235987755982988,0.5235987755982988,0,0.8884135,1.538992,0.31840086,0.06731458,0.16040471,1.0028077,0.40393203,-0.3349422,1.8545431,-0.26763096,-1.1322863,-0.5098473,1.3703023,0.7573419
-0.2,-0.1,0.6,-0.5235987755982988,0.5235987755982988,0,0.86276495,1.5313064,0.32090157,0.051175747,0.16459219,0.9781159,0.38540968,-0.3505856,1.8514506,-0.25626785,-1.1495471,-0.4627776,1.4045864,0.3524011
-0.2,-0.1,0.6,-0.5235987755982988,0.5235987755982988,0,0.89711636,1.5359341,0.3114401,0.07109458,0.13310719,0.9822549,0.38801408,-0.38460732,1.8625739,-0.24329245,-1.142985,-0.37271178,1.3911828,0.6665958
-0.2,-0.1,0.6,-0.5235987755982988,0.5235987755982988,0,0.8551114,1.545217,0.3218637,0.050866522,0.13378078,0.9890889,0.4132415,-0.3229937,1.8609722,-0.28691685,-1.0964252,-0.44997627,1.3610731,0.5569832
-0.2,-0.1,0.6,-0.5235987755982988,0.5235987755982988,0,0.87821,1.5556797,0.31442758,0.054230515,0.15932916,0.9884122,0.4061958,-0.37494665,1.8486394,-0.25510934,-1.1120731,-0.446754,1.3946447,0.15911163
-0.2,-0.1,0.6,-0.5235987755982988,0.5235987755982988,0,0.88408077,1.550108,0.3095698,0.062135845,0.08818248,0.97221965,0.47328323,-0.39050004,1.859774,-0.2483172,-1.0798366,-0.3374186,1.426939,0.832789
-0.2,-0.1,0.6,-0.5235987755982988,0.5235987755982988,0,0.88288736,1.5551901,0.2922873,0.04554018,0.12691888,0.9418791,0.4414463,-0.37313733,1.8571364,-0.20551926,-1.1853793,-0.4961745,1.4047793,0.69005585
-0.2,-0.1,0.6,-0.5235987755982988,0.5235987755982988,0,0.8936826,1.5407716,0.31524122,0.035340883,0.07422,0.9951914,0.41944408,-0.32142258,1.8644121,-0.30154955,-1.1398382,-0.41534293,1.4188277,0.4033443
-0.2,-0.1,0.6,-0.5235987755982988,0.5235987755982988,0,0.89168787,1.5547973,0.3329732,0.06382856,0.16619703,0.960272,0.38246322,-0.3661669,1.8391904,-0.2500283,-1.1079113,-0.29710415,1.3941001,0.2795266
-0.2,-0.1,0.6,-0.5235987755982988,0.5235987755982988,0,0.894775,1.5484574,0.32870817,0.051853817,0.13330667,0.9746389,0.38411084,-0.36316293,1.8541619,-0.31870034,-1.122695,-0.42073426,1.4051377,0.84756446
-0.2,-0.1,0.6,-0.5235987755982988,0.5235987755982988,0,0.87154174,1.5381253,0.33562064,0.07183938,0.10946337,0.9845186,0.44022495,-0.36368805,1.8594035,-0.30292088,-1.1465383,-0.33908534,1.3968873,0.65231514
-0.2,-0.1,0.6,-0.5235987755982988,0.5235987755982988,0,0.89060766,1.5400605,0.32840687,0.048032835,0.11814369,0.95657253,0.31545672,-0.38261086,1.8470254,-0.25800633,-1.1752031,-0.40776998,1.4298544,0.7295315
-0.2,-0.1,0.6,-0.5235987755982988,0.5235987755982988,0,0.86906105,1.5450954,0.34082177,0.04298861,0.12350465,0.97381014,0.4389705,-0.38020203,1.8584311,-0.25750428,-1.1400883,-0.30880457,1.4020457,0.49745962
-0.2,-0.1,0.6,-0.5235987755982988,0.5235987755982988,0,0.8862853,1.5402358,0.3238563,0.08149447,0.12458549,0.96625024,0.2832665,-0.39844462,1.8638724,-0.25429678,-1.1483736,-0.45003203,1.4145036,0.6981354
-0.2,-0.1,0.6,-0.5235987755982988,0.5235987755982988,0,0.880435,1.5442411,0.3277808,0.06908607,0.14760074,0.99334294,0.39060646,-0.36570358,1.849646,-0.26926824,-1.1367667,-0.41364747,1.4019599,0.5512685
-0.2,-0.1,0.6,-0.5235987755982988,0.5235987755982988,0,0.8551958,1.5428432,0.3050559,0.060996693,0.120162025,0.99613637,0.38499337,-0.33532897,1.8551927,-0.20989206,-1.1588594,-0.31705588,1.4197059,0.7650069
-0.2,-0.1,0.6,-0.5235987755982988,0.5235987755982988,0,0.8923521,1.5465522,0.3391158,0.051946282,0.13093807,0.97502154,0.3677677,-0.37073532,1.8619269,-0.24392527,-1.1569567,-0.39326626,1.3914931,0.4371384
-0.2,-0.1,0.6,-0.5235987755982988,0.5235987755982988,0,0.8736978,1.5471456,0.32665887,0.060394526,0.11104336,0.9663413,0.38008395,-0.3849451,1.8623674,-0.26417935,-1.1114776,-0.48213485,1.4128656,0.35627827
-0.2,-0.1,0.6,-0.5235987755982988,0.5235987755982988,0,0.8675384,1.5411971,0.30894673,0.057141412,0.15361588,0.96592665,0.39236337,-0.35669592,1.8572415,-0.25164992,-1.1247859,-0.37343335,1.3989571,0.790509
-0.2,-0.1,0.6,-0.5235987755982988,0.5235987755982988,0,0.86748236,1.5462903,0.33814138,0.031575378,0.124935664,0.9901039,0.36876163,-0.3418594,1.8539028,-0.2518079,-1.105656,-0.31955793,1.4396989,0.35216832
-0.2,-0.1,0.6,-0.5235987755982988,0.5235987755982988,0,0.8580377,1.5351938,0.32302517,0.082178965,0.15671691,0.97028494,0.34009483,-0.35990515,1.8593738,-0.22607867,-1.1544995,-0.32348543,1.4113389,0.58180416
-0.2,-0.1,0.6,-0.5235987755982988,0.5235987755982988,0,0.87995267,1.560787,0.32957655,0.068136655,0.16782103,0.97190464,0.3875641,-0.3478905,1.8560488,-0.28927714,-1.138105,-0.3334824,1.4029049,0.59315574
-0.2,-0.1,0.6,-0.5235987755982988,0.5235987755982988,0,0.8618207,1.5416541,0.3291206,0.058914736,0.1025792,0.9617296,0.3953592,-0.33407503,1.8516939,-0.22233367,-1.0808318,-0.33971682,1.3809545,0.52611095
-0.2,-0.1,0.6,-0.5235987755982988,0.5235987755982988,0,0.8836014,1.5343813,0.3183479,0.06520612,0.09120035,0.9877364,0.4918917,-0.3467753,1.8430425,-0.2852326,-1.1146274,-0.39055857,1.4008722,0.6598617
-0.2,-0.1,0.6,-0.5235987755982988,0.5235987755982988,0,0.877101,1.5532844,0.3365458,0.048108257,0.104060516,0.98418695,0.41871238,-0.37108034,1.8421832,-0.23006058,-1.113341,-0.3515563,1.4319166,0.18748443
-0.2,-0.1,0.6,-0.5235987755982988,0.5235987755982988,0,0.87158275,1.5361605,0.32208365,0.045273248,0.12941588,0.9865259,0.48474434,-0.34504753,1.8673663,-0.2948347,-1.1200769,-0.3179985,1.4131426,0.4597906
-0.2,-0.1,0.6,-0.5235987755982988,0.5235987755982988,0,0.8845419,1.5282433,0.31436503,0.05994375,0.097666174,0.9764436,0.38340187,-0.361706,1.8453974,-0.24124551,-1.1105385,-0.31457284,1.399393,0.97461736
-0.2,-0.1,0.6,-0.5235987755982988,0.5235987755982988,0,0.88013136,1.5415128,0.31788144,0.06506946,0.14137521,1.0023198,0.39234844,-0.35857266,1.8471361,-0.25578845,-1.1297716,-0.3679932,1.4067932,0.92354375
-0.2,-0.1,0.6,-0.5235987755982988,0.5235987755982988,0,0.87924045,1.5386133,0.32365662,0.07906947,0.13345668,0.98301214,0.49253443,-0.35478482,1.8669256,-0.24510255,-1.1240009,-0.3693684,1.4074062,0.50317425
-0.2,-0.1,0.6,-0.5235987755982988,0.5235987755982988,0,0.881689,1.5392528,0.3041126,0.04669953,0.102740556,0.99540615,0.4704166,-0.32358903,1.8505876,-0.27793643,-1.0902653,-0.4587072,1.4243655,0.166714
-0.2,-0.1,0.6,-0.5235987755982988,0.5235987755982988,0,0.86852074,1.5432867,0.29551703,0.058898002,0.14713915,0.9697754,0.3221707,-0.37963608,1.8505111,-0.27824736,-1.1119756,-0.41748017,1.4107821,0.67153686
-0.2,-0.1,0.6,-0.5235987755982988,0.5235987755982988,0,0.875772,1.5328904,0.32289767,0.068050064,0.14115982,0.99802333,0.3982805,-0.33385998,1.8546829,-0.25385177,-1.0822792,-0.38255095,1.3976095,0.22995453
-0.2,-0.1,0.6,-0.5235987755982988,0.5235987755982988,0,0.87974435,1.5345099,0.32069606,0.0700193,0.1494242,0.97992337,0.40920368,-0.3487274,1.8519025,-0.28202742,-1.1478995,-0.42018357,1.4715855,0.5105642
-0.2,-0.1,0.6,-0.5235987755982988,0.5235987755982988,0,0.8597591,1.5333377,0.32500786,0.081500664,0.120712206,0.9712554,0.45396844,-0.35219672,1.8676466,-0.31201512,-1.1266453,-0.4382178,1.4311026,0.81253976
-0.2,-0.1,0.6,-0.5235987755982988,0.5235987755982988,0,0.8871088,1.5363686,0.30267054,0.07430873,0.12319485,0.96093047,0.33297127,-0.34832817,1.852604,-0.23263754,-1.1021249,-0.44166303,1.4519018,0.7188459
-0.2,-0.1,0.6,-0.5235987755982988,0.5235987755982988,0,0.8690241,1.5372199,0.31552795,0.078394756,0.13142386,0.9891771,0.3743282,-0.366837,1.8479689,-0.2586923,-1.1428616,-0.4182534,1.4243612,0.7556393
-0.2,-0.1,0.6,-0.5235987755982988,0.5235987755982988,0,0.8899619,1.5467039,0.32193816,0.061156813,0.1808574,0.9761386,0.4952387,-0.35615778,1.8663335,-0.22943273,-1.0987828,-0.3097166,1.3895401,0.74950343
-0.2,-0.1,0.6,-0.5235987755982988,0.5235987755982988,0,0.9024056,1.5456561,0.29501805,0.06338716,0.1260878,0.98590785,0.5000501,-0.37946355,1.8593588,-0.2646114,-1.1380672,-0.48731205,1.4353505,0.4273716
-0.2,-0.1,0.6,-0.5235987755982988,0.5235987755982988,0,0.8680176,1.5457573,0.3064238,0.051844537,0.107049294,1.0062438,0.4567849,-0.3611163,1.8571376,-0.26120532,-1.1325678,-0.40179405,1.407681,0.7317057
-0.2,-0.1,0.6,-0.5235987755982988,0.5235987755982988,0,0.8769688,1.534437,0.31897542,0.073087916,0.1364872,0.98626095,0.32540703,-0.3687971,1.8428708,-0.26361546,-1.0940322,-0.3257795,1.4424117,0.38820538
