sanky1234/BimanualDexCatch/isaacgymenvs/cem_results/football_pose_-0.2_-0.2_1.4_0.0_0.5235987755982988_0_2025-05-24.csv
x,y,z,roll,pitch,yaw,robot1/joint1,robot1/joint2,robot1/joint3,robot1/joint4,robot1/joint5,robot1/joint6,robot1/joint7,robot2/joint1,robot2/joint2,robot2/joint3,robot2/joint4,robot2/joint5,robot2/joint6,robot2/joint7
-0.2,-0.2,1.4,0.0,0.5235987755982988,0,1.7810811,-1.7358707,0.39398426,-0.0665004,-0.017869893,1.2291479,0.035067502,0.20113406,-1.054378,-0.9519828,0.2913263,0.27874509,0.89143896,-0.13460003
-0.2,-0.2,1.4,0.0,0.5235987755982988,0,1.7860761,-1.6996549,0.15377983,-0.09269837,0.18183564,1.1392577,0.26250184,0.20122062,-1.0542017,-0.95185494,0.2910428,0.24296153,0.9147357,-0.19989513
-0.2,-0.2,1.4,0.0,0.5235987755982988,0,1.7858377,-1.7581301,0.20073381,-0.059767503,0.06562177,1.2113371,0.13380899,0.2009075,-1.0542035,-0.95175487,0.29130223,0.2876169,0.9524406,-1.2451123
-0.2,-0.2,1.4,0.0,0.5235987755982988,0,1.7682042,-1.6789706,-0.5425527,-0.04496199,-0.14089532,1.2360264,-0.0829525,0.20142773,-1.0542386,-0.95183104,0.2910711,0.283646,0.9115782,-0.76986265
-0.2,-0.2,1.4,0.0,0.5235987755982988,0,1.7975028,-1.7299157,-0.079938315,-0.15292436,-0.09416415,1.19162,0.6660735,0.20124128,-1.0543796,-0.9514165,0.29126638,0.2973006,0.898893,-0.4440085
-0.2,-0.2,1.4,0.0,0.5235987755982988,0,1.7865065,-1.7087846,0.2767055,-0.064030364,-0.17551367,1.2465854,0.46148306,0.20150192,-1.0543064,-0.95154124,0.29120594,0.32690176,0.9189126,-1.4282919
-0.2,-0.2,1.4,0.0,0.5235987755982988,0,1.7961787,-1.6959043,0.1160709,-0.12130104,-0.10690175,1.1669384,-0.18732171,0.2011327,-1.0546013,-0.95147496,0.29135078,0.35105622,0.9518328,-0.88798136
-0.2,-0.2,1.4,0.0,0.5235987755982988,0,1.782294,-1.753522,0.13123214,-0.04386704,-0.050623167,1.2181784,0.37339094,0.20090178,-1.0542295,-0.95218223,0.29118636,0.28213945,0.94457155,-0.76567364
-0.2,-0.2,1.4,0.0,0.5235987755982988,0,1.7920301,-1.7192836,-0.31968623,-0.13655847,-0.060852572,1.1970689,0.52174234,0.20131364,-1.0543708,-0.95202947,0.2909995,0.27918452,0.83234584,-1.2555183
-0.2,-0.2,1.4,0.0,0.5235987755982988,0,1.7800877,-1.7004651,-0.17498492,-0.06960204,0.021083359,1.2229179,0.7550368,0.20083067,-1.0541362,-0.9521822,0.2912797,0.31666574,0.91206753,-0.29318255
-0.2,-0.2,1.4,0.0,0.5235987755982988,0,1.7885163,-1.7282377,0.08415329,-0.08039868,-0.1203673,1.209173,-0.25456858,0.20137243,-1.0544406,-0.95163745,0.2911422,0.33097836,0.95171595,-0.9665718
-0.2,-0.2,1.4,0.0,0.5235987755982988,0,1.7861946,-1.7283441,-0.20700268,-0.059880987,0.012101105,1.1501601,0.40603185,0.2009208,-1.0542506,-0.951797,0.2911031,0.24131648,0.8970957,-0.4971704
-0.2,-0.2,1.4,0.0,0.5235987755982988,0,1.8120354,-1.7360033,0.19872932,-0.102484,0.14146604,1.2337943,0.07505707,0.20095463,-1.0545015,-0.9518117,0.29095477,0.2397821,0.8648133,-0.61346245
-0.2,-0.2,1.4,0.0,0.5235987755982988,0,1.7838395,-1.7427486,-0.1420205,-0.0946565,-0.053612795,1.1186416,0.306822,0.2011566,-1.0546468,-0.951359,0.29114416,0.2858011,0.9255646,-1.6859885
-0.2,-0.2,1.4,0.0,0.5235987755982988,0,1.7956235,-1.7643968,-0.20503402,-0.12659213,-0.11825559,1.2139536,0.06928394,0.20133232,-1.0542954,-0.9515955,0.29117924,0.31017378,0.9601306,-1.4228902
-0.2,-0.2,1.4,0.0,0.5235987755982988,0,1.7876749,-1.717074,0.5062525,-0.094668865,0.0054153213,1.181125,-0.07789732,0.2010421,-1.0542135,-0.9521184,0.2913789,0.3407486,0.90224975,-0.63884085
-0.2,-0.2,1.4,0.0,0.5235987755982988,0,1.7783263,-1.6908065,-0.33556986,-0.12217842,-0.023718722,1.2401603,-0.04670339,0.20124625,-1.0543089,-0.9514596,0.29134813,0.21118516,0.9648726,-1.6792305
-0.2,-0.2,1.4,0.0,0.5235987755982988,0,1.77522,-1.7313249,-0.0093810195,-0.122859225,-0.23391981,1.1376971,0.63094926,0.20101793,-1.0543531,-0.9513709,0.29126832,0.30552796,0.9099835,-1.6200025
-0.2,-0.2,1.4,0.0,0.5235987755982988,0,1.7905742,-1.7041717,-0.08199186,-0.037937205,0.02759897,1.1893842,0.47492465,0.20089258,-1.0541974,-0.9518924,0.29115963,0.31452346,0.93455416,0.1048812
-0.2,-0.2,1.4,0.0,0.5235987755982988,0,1.7753692,-1.7050899,0.050223034,-0.041402232,0.026628397,1.2340204,0.47842777,0.20079699,-1.0544152,-0.95180386,0.29144529,0.30338544,0.89760214,-0.5584819
-0.2,-0.2,1.4,0.0,0.5235987755982988,0,1.7881228,-1.673742,0.18676232,-0.08572463,-0.021063419,1.216197,0.23529851,0.20107542,-1.0544087,-0.9518482,0.2912127,0.26419744,0.907329,-1.8780649
-0.2,-0.2,1.4,0.0,0.5235987755982988,0,1.7896029,-1.7275677,0.00700276,-0.15589143,-0.16165487,1.2441845,0.8343738,0.20140737,-1.0544394,-0.9518554,0.29125136,0.31234762,0.8885685,-0.9568332
-0.2,-0.2,1.4,0.0,0.5235987755982988,0,1.7690005,-1.7507368,0.14752758,-0.10516354,-0.15621895,1.187655,0.42486975,0.20073463,-1.0542822,-0.95194715,0.29127803,0.31371215,0.93349576,-1.2941104
-0.2,-0.2,1.4,0.0,0.5235987755982988,0,1.7982135,-1.6669903,-0.302563,-0.08618032,0.062409986,1.1603799,0.62365955,0.20153832,-1.0543829,-0.9514993,0.291551,0.31279862,0.9111591,-0.40307173
-0.2,-0.2,1.4,0.0,0.5235987755982988,0,1.8024278,-1.8093967,-0.05038242,0.0138464505,-0.055792615,1.240566,0.7686273,0.20110978,-1.0543312,-0.9519071,0.29118922,0.31896174,0.9056505,-1.4710104
-0.2,-0.2,1.4,0.0,0.5235987755982988,0,1.8025109,-1.7635942,-0.5552835,-0.028976277,-0.0075271595,1.2314543,0.37360105,0.20129868,-1.0542884,-0.9512072,0.29147923,0.19949144,0.90358883,-1.4332525
-0.2,-0.2,1.4,0.0,0.5235987755982988,0,1.7911817,-1.7289982,-0.05694293,-0.105029576,-0.036863472,1.2376978,0.25460762,0.2010788,-1.0544251,-0.9517676,0.2910281,0.3226895,0.9209899,-0.5004982
-0.2,-0.2,1.4,0.0,0.5235987755982988,0,1.7759454,-1.7200551,0.023741627,-0.12279525,-0.14767358,1.2671936,0.62624687,0.2011691,-1.0540392,-0.9517664,0.29101548,0.30965057,0.93532705,-0.95066386
-0.2,-0.2,1.4,0.0,0.5235987755982988,0,1.7745252,-1.6819142,-0.090113595,-0.09499003,-0.023607397,1.2641847,-0.05285524,0.20136759,-1.0540931,-0.95155275,0.2911343,0.22319594,0.93272245,-0.44329455
-0.2,-0.2,1.4,0.0,0.5235987755982988,0,1.7905773,-1.7227459,0.24168722,-0.11411328,-0.07593421,1.1926925,-0.39441773,0.20089029,-1.0543607,-0.951859,0.2913108,0.26503265,0.9228973,-0.9459503
-0.2,-0.2,1.4,0.0,0.5235987755982988,0,1.7631415,-1.6970639,-0.019850008,-0.08803546,-0.0778413,1.1863178,0.09850367,0.2011389,-1.0543069,-0.9515238,0.29089233,0.2747446,0.9222547,-0.7381214
-0.2,-0.2,1.4,0.0,0.5235987755982988,0,1.7774259,-1.7607816,-0.16398016,-0.041806683,-0.24368942,1.2343653,-0.38350874,0.20088269,-1.0542303,-0.95162845,0.29112694,0.25871047,0.8992989,-1.9898425
-0.2,-0.2,1.4,0.0,0.5235987755982988,0,1.7763073,-1.7040755,0.19393463,-0.051593784,-0.06687665,1.2051903,0.045107543,0.20103166,-1.0544034,-0.95220745,0.2913031,0.30366915,0.95148116,-2.1272302
-0.2,-0.2,1.4,0.0,0.5235987755982988,0,1.7876254,-1.7328393,0.27956137,-0.08660569,0.0512141,1.2607809,0.27651522,0.20122142,-1.0544981,-0.9520626,0.29134947,0.25203916,0.96533555,-2.008558
-0.2,-0.2,1.4,0.0,0.5235987755982988,0,1.7838643,-1.6893208,-0.030061876,-0.05487101,-0.077807575,1.2209903,-0.13612147,0.2011823,-1.054252,-0.95188665,0.2911245,0.2805449,0.942427,-2.3496885
-0.2,-0.2,1.4,0.0,0.5235987755982988,0,1.7916871,-1.7331166,-0.09889126,-0.12433577,-0.17865974,1.2304312,0.59150195,0.2013224,-1.0542911,-0.95206225,0.29137465,0.27398738,0.90314114,-2.047335
-0.2,-0.2,1.4,0.0,0.5235987755982988,0,1.7992512,-1.7287354,0.20160437,-0.12267666,-0.06744398,1.1528869,0.10741125,0.2012416,-1.0543426,-0.9518908,0.29113156,0.2892825,0.9172386,-0.15154226
-0.2,-0.2,1.4,0.0,0.5235987755982988,0,1.8024065,-1.6865274,0.3562592,-0.087844074,-0.08713115,1.218376,-0.0837107,0.20150538,-1.0543581,-0.95195496,0.291494,0.310519,0.93292737,-1.6314985
-0.2,-0.2,1.4,0.0,0.5235987755982988,0,1.798486,-1.7069184,-0.17231885,-0.04468261,-0.16886531,1.2360395,0.021864217,0.20125566,-1.054199,-0.95150703,0.2913745,0.23834054,0.91212314,-1.8734502
-0.2,-0.2,1.4,0.0,0.5235987755982988,0,1.7823511,-1.7498277,0.039750695,-0.097618684,-0.11047577,1.1819628,0.957164,0.20098361,-1.0543984,-0.9517114,0.2912174,0.22822945,0.8883993,-1.006512
-0.2,-0.2,1.4,0.0,0.5235987755982988,0,1.7809356,-1.7380537,0.15501563,-0.049533557,-0.04964043,1.2461683,0.060931765,0.20136705,-1.0542874,-0.95193166,0.29131874,0.23459296,0.91664153,-0.75430965
-0.2,-0.2,1.4,0.0,0.5235987755982988,0,1.7854598,-1.7210563,0.01699279,-0.131328,-0.0836047,1.2229738,0.35367164,0.2009943,-1.0542468,-0.95217025,0.29142886,0.30910465,0.92908716,-0.6868243
-0.2,-0.2,1.4,0.0,0.5235987755982988,0,1.7820616,-1.7580127,0.23889518,-0.040862437,0.081000224,1.2496926,0.10831092,0.2010242,-1.0542808,-0.951732,0.29131263,0.2753995,0.93585587,-0.6205904
-0.2,-0.2,1.4,0.0,0.5235987755982988,0,1.7855538,-1.8209031,0.14612848,-0.15647146,-0.04817873,1.2435817,0.27286267,0.2012675,-1.0543545,-0.9510492,0.2907976,0.2358722,0.9592692,-1.0402815
-0.2,-0.2,1.4,0.0,0.5235987755982988,0,1.7911214,-1.7001348,-0.34944183,-0.06656809,0.053817403,1.1450527,0.4791269,0.2012109,-1.0542984,-0.9519262,0.29112628,0.31361893,0.87232655,-0.89343405
-0.2,-0.2,1.4,0.0,0.5235987755982988,0,1.774373,-1.7347167,0.068394564,-0.0494971,-0.09664183,1.2196046,0.12909012,0.2011524,-1.0543336,-0.9516004,0.29121357,0.24124885,0.9041402,-1.6744677
-0.2,-0.2,1.4,0.0,0.5235987755982988,0,1.8080659,-1.681198,0.012002333,-0.08880991,-0.08685807,1.1746724,0.24376419,0.20078036,-1.0543725,-0.95162284,0.29128644,0.24354249,0.9643346,-1.9011225
-0.2,-0.2,1.4,0.0,0.5235987755982988,0,1.7842355,-1.7237502,0.034727376,-0.079025,-0.16932088,1.264903,0.4347916,0.2011671,-1.0544952,-0.9515585,0.29116324,0.2984872,0.9614636,-2.284932
-0.2,-0.2,1.4,0.0,0.5235987755982988,0,1.7859937,-1.7941523,0.12110745,-0.08945145,0.028145613,1.1620522,0.26545343,0.20124014,-1.0542912,-0.9520147,0.291145,0.17383023,0.9246765,-2.2755275
-0.2,-0.2,1.4,0.0,0.5235987755982988,0,1.7861736,-1.7655774,-0.28629017,-0.08275745,-0.05485021,1.1683431,0.2348246,0.20104358,-1.0541966,-0.9519276,0.29114243,0.3710107,0.9261559,-0.47852328
-0.2,-0.2,1.4,0.0,0.5235987755982988,0,1.7687981,-1.7212983,-0.29101953,-0.1448632,-0.09478256,1.2325717,0.46639717,0.20099397,-1.0543367,-0.9516551,0.2909402,0.26568192,0.9142935,-0.7990225
-0.2,-0.2,1.4,0.0,0.5235987755982988,0,1.7894999,-1.7285993,-0.056510676,-0.043378938,-0.056342516,1.1888463,0.19169793,0.20113333,-1.0541751,-0.9520887,0.2912403,0.32174754,0.8669637,-2.1179059
-0.2,-0.2,1.4,0.0,0.5235987755982988,0,1.7703668,-1.7440474,0.37218556,-0.10603482,0.14226912,1.2244402,-0.032309532,0.20113678,-1.0542198,-0.9517045,0.29120463,0.23021443,0.94976884,-1.3884194
-0.2,-0.2,1.4,0.0,0.5235987755982988,0,1.7826421,-1.7353209,0.08361673,-0.0724469,-0.048315067,1.2225275,0.15191549,0.20111181,-1.0544816,-0.95207417,0.2915613,0.24928398,0.94801414,-1.0351623
-0.2,-0.2,1.4,0.0,0.5235987755982988,0,1.7890552,-1.7978864,-0.14099626,-0.0720665,-0.12617776,1.1732411,-0.3507127,0.2008187,-1.0544164,-0.95139223,0.29089943,0.303597,0.9746653,-1.8299327
-0.2,-0.2,1.4,0.0,0.5235987755982988,0,1.7841614,-1.7682612,-0.06214137,-0.06538217,-0.09081195,1.2066889,0.7541138,0.20083942,-1.054488,-0.95105624,0.2912207,0.21464439,0.87700844,-0.97517115
-0.2,-0.2,1.4,0.0,0.5235987755982988,0,1.7812815,-1.7042935,-0.123521455,-0.08300711,-0.19944002,1.1737132,-0.5063784,0.20099215,-1.0543244,-0.9517123,0.29096475,0.24494468,0.89718175,-1.3080264
-0.2,-0.2,1.4,0.0,0.5235987755982988,0,1.7822869,-1.769614,-0.27348933,-0.13115323,0.020884663,1.1738504,0.71878356,0.2010274,-1.0542579,-0.9516649,0.29135886,0.16579254,0.9096994,-1.5479126
-0.2,-0.2,1.4,0.0,0.5235987755982988,0,1.7914529,-1.7366158,0.23550014,-0.04764011,-0.045878623,1.1977612,0.40163207,0.20111035,-1.0543591,-0.95214534,0.29148653,0.27771568,0.92305195,-1.9370178
-0.2,-0.2,1.4,0.0,0.5235987755982988,0,1.7968055,-1.7841253,-0.0038742358,-0.104071975,0.07531837,1.2632744,0.7109694,0.20104499,-1.0542401,-0.9516747,0.2914858,0.28243697,0.982412,-0.7319303
-0.2,-0.2,1.4,0.0,0.5235987755982988,0,1.7846973,-1.7704275,-0.109307826,-0.08363038,-0.24654996,1.2627981,0.059390537,0.20104621,-1.0542666,-0.95177233,0.2910393,0.22821747,0.8797848,-1.574379
-0.2,-0.2,1.4,0.0,0.5235987755982988,0,1.7939355,-1.7183498,0.50119656,-0.037773687,-0.11760251,1.1868576,0.9490505,0.20147124,-1.0543809,-0.95126927,0.2913382,0.34815842,0.84568655,-0.50488275
-0.2,-0.2,1.4,0.0,0.5235987755982988,0,1.8013257,-1.7677757,0.024652625,-0.07590808,-0.05587417,1.2177885,0.9285109,0.20165847,-1.0542828,-0.95194924,0.2914419,0.2652173,0.92135584,-1.3310637
-0.2,-0.2,1.4,0.0,0.5235987755982988,0,1.7947187,-1.7626013,-0.13594748,-0.061350003,0.047858108,1.2287993,0.541869,0.20134254,-1.0543643,-0.9516349,0.2914439,0.30415124,0.93301034,-1.756454
-0.2,-0.2,1.4,0.0,0.5235987755982988,0,1.7853999,-1.7548146,-0.26345912,-0.08724648,-0.2255039,1.2257744,-0.15145224,0.20120706,-1.0542539,-0.9513599,0.2913388,0.24519767,0.90672934,-1.262771
-0.2,-0.2,1.4,0.0,0.5235987755982988,0,1.7832639,-1.7384796,-0.22684313,-0.076988325,-0.031294182,1.1658585,0.9425738,0.20131688,-1.0542144,-0.9519823,0.29114062,0.24778143,0.92032343,-2.1335323
-0.2,-0.2,1.4,0.0,0.5235987755982988,0,1.8011677,-1.6948997,0.06537589,-0.07678743,0.00474725,1.1645175,0.87550306,0.20110635,-1.0541457,-0.952161,0.29110405,0.20231679,0.9630378,-0.9979766
-0.2,-0.2,1.4,0.0,0.5235987755982988,0,1.7869502,-1.7140707,-0.12617722,-0.13748406,-0.039624996,1.1978753,-0.073624544,0.20116393,-1.0541779,-0.95137537,0.29107162,0.23981033,0.9289872,-1.1457942
-0.2,-0.2,1.4,0.0,0.5235987755982988,0,1.7696956,-1.744836,-0.11922799,-0.07825868,-0.23352772,1.2732806,0.6163532,0.2011327,-1.0543879,-0.95176166,0.291254,0.2106361,0.9271058,-1.4415029
-0.2,-0.2,1.4,0.0,0.5235987755982988,0,1.8018363,-1.7262573,-0.33926064,-0.0758748,0.006097357,1.2358218,0.3238415,0.20131594,-1.0543213,-0.95192975,0.29128394,0.26990628,0.9667202,-1.3846401
-0.2,-0.2,1.4,0.0,0.5235987755982988,0,1.7747047,-1.7397938,-0.34766695,-0.055856094,0.0071334895,1.2040381,0.63510466,0.20140168,-1.0543436,-0.95212686,0.29124558,0.33284628,0.8835852,-1.9489291
-0.2,-0.2,1.4,0.0,0.5235987755982988,0,1.7780806,-1.7363404,-0.11259304,-0.10677261,-0.118635714,1.2404516,0.5072657,0.20122635,-1.05438,-0.9520296,0.29106212,0.2512904,1.001723,-1.6217314
-0.2,-0.2,1.4,0.0,0.5235987755982988,0,1.7916921,-1.6970559,-0.59527886,-0.08551718,0.06412586,1.2013525,0.46456096,0.20129627,-1.0541774,-0.95188063,0.2912944,0.2609464,0.9249972,-0.32827953
-0.2,-0.2,1.4,0.0,0.5235987755982988,0,1.7966646,-1.7463559,0.037121266,-0.100461595,-0.010129544,1.2344725,0.506113,0.20117594,-1.0541846,-0.9520771,0.29111877,0.23261443,0.89792156,-0.71016085
-0.2,-0.2,1.4,0.0,0.5235987755982988,0,1.8007516,-1.7063482,0.1561747,-0.086234935,-0.06992567,1.275821,0.35722625,0.20107557,-1.0542898,-0.95174557,0.29161495,0.19142017,0.89999807,-2.2631254
-0.2,-0.2,1.4,0.0,0.5235987755982988,0,1.7936639,-1.7344288,-0.23314722,-0.14418569,-0.24746045,1.1763041,0.6873954,0.2009941,-1.0543404,-0.9517734,0.29126182,0.16672716,0.89412355,-1.4288739
-0.2,-0.2,1.4,0.0,0.5235987755982988,0,1.7983367,-1.6731309,0.2014713,-0.08433392,-0.21511155,1.2166877,0.5369815,0.20142175,-1.054244,-0.9521029,0.29141632,0.27107713,0.9283166,-0.6774476
-0.2,-0.2,1.4,0.0,0.5235987755982988,0,1.7855221,-1.6702234,0.15950084,-0.06861337,-0.058281053,1.2293003,0.40566579,0.20138878,-1.0543737,-0.95155394,0.2913329,0.23760416,0.87092805,-1.915693
-0.2,-0.2,1.4,0.0,0.5235987755982988,0,1.7955395,-1.7251474,0.3330395,-0.05134747,-0.045754965,1.2109426,0.6025192,0.20132373,-1.0544001,-0.9518248,0.2912904,0.22552633,0.92101747,-1.3735967
-0.2,-0.2,1.4,0.0,0.5235987755982988,0,1.7961161,-1.6942754,-0.034727678,-0.044757206,-0.101064526,1.2076552,0.44809604,0.20135601,-1.0541358,-0.9523946,0.29159603,0.28190163,0.9063576,-1.4559147
-0.2,-0.2,1.4,0.0,0.5235987755982988,0,1.7935656,-1.7018669,-0.031163089,-0.113859124,-0.0073564113,1.1697428,0.23446542,0.20152514,-1.0541567,-0.9519794,0.29105243,0.19588737,0.92681557,-1.0738595
-0.2,-0.2,1.4,0.0,0.5235987755982988,0,1.8020663,-1.7297524,-0.015759926,-0.15599555,-0.0723044,1.1740737,0.07262654,0.20111658,-1.0543765,-0.95211035,0.29141107,0.22997485,0.91031575,-1.8560531
-0.2,-0.2,1.4,0.0,0.5235987755982988,0,1.803244,-1.6375674,0.11638549,-0.0142835835,-0.02803722,1.195459,0.20102727,0.20116413,-1.0543528,-0.9518766,0.29143238,0.3340071,0.90810513,-0.9995883
-0.2,-0.2,1.4,0.0,0.5235987755982988,0,1.7910308,-1.8030026,-0.3498603,-0.08342893,-0.06421949,1.182974,0.28212938,0.20104565,-1.0541837,-0.9514472,0.29121155,0.24024074,0.9437459,-0.710381
-0.2,-0.2,1.4,0.0,0.5235987755982988,0,1.7836484,-1.7271794,-0.39767873,-0.058796193,-0.017012816,1.1765443,-0.1412115,0.20126328,-1.0542765,-0.952081,0.29134405,0.26678535,0.95972216,-1.2871612
-0.2,-0.2,1.4,0.0,0.5235987755982988,0,1.7972455,-1.7770824,-0.15010345,-0.026321713,-0.055483006,1.1994933,0.4728908,0.20134379,-1.0541859,-0.9512524,0.291428,0.28561378,0.91858155,0.029806
-0.2,-0.2,1.4,0.0,0.5235987755982988,0,1.7867135,-1.7103589,0.051759798,-0.12230883,-0.18643495,1.1463151,0.39456135,0.20119745,-1.0544324,-0.9517013,0.29125273,0.2204779,0.947499,-0.46239302
-0.2,-0.2,1.4,0.0,0.5235987755982988,0,1.7661952,-1.7725389,0.22388554,-0.11852583,0.032100115,1.2347538,-0.0748731,0.20124795,-1.0542821,-0.9520474,0.291194,0.2962373,0.9861751,-1.4613559
-0.2,-0.2,1.4,0.0,0.5235987755982988,0,1.7899997,-1.7505345,-0.19223392,-0.12045722,-0.05962229,1.1621699,0.31383148,0.20096423,-1.0542582,-0.95166874,0.29137215,0.2967714,0.9119707,-0.6816555
-0.2,-0.2,1.4,0.0,0.5235987755982988,0,1.7889676,-1.6924942,0.04714767,-0.04612266,0.13713665,1.2420092,0.8237949,0.20112236,-1.0544415,-0.951773,0.29119405,0.26085773,0.8909489,-0.21664287
-0.2,-0.2,1.4,0.0,0.5235987755982988,0,1.7742736,-1.7624897,0.06353062,-0.10924075,-0.18255351,1.2484573,0.6616767,0.20119287,-1.0542912,-0.95141983,0.29152307,0.1852871,0.94851077,-1.3503743
-0.2,-0.2,1.4,0.0,0.5235987755982988,0,1.7854141,-1.6607724,0.17848624,-0.08764029,-0.11492183,1.1909872,-0.17375055,0.2009646,-1.0542796,-0.9519284,0.29153067,0.23881753,0.90884715,-0.8888684
-0.2,-0.2,1.4,0.0,0.5235987755982988,0,1.790176,-1.6707362,0.07468673,-0.119177744,0.09965966,1.1819881,0.7183645,0.20130077,-1.0540862,-0.95165414,0.29102975,0.28083244,0.8939082,-1.7540152
-0.2,-0.2,1.4,0.0,0.5235987755982988,0,1.7743341,-1.7642031,0.037460085,-0.10719564,-0.1441489,1.2074867,0.47963384,0.20105276,-1.0543242,-0.9518037,0.2913929,0.2387566,0.98265153,-1.0282778
-0.2,-0.2,1.4,0.0,0.5235987755982988,0,1.7959131,-1.6888278,-0.09753782,-0.068513386,-0.0033275555,1.190596,0.095221184,0.20098764,-1.0543869,-0.95135427,0.29141897,0.22949189,0.8653057,-1.0781482
-0.2,-0.2,1.4,0.0,0.5235987755982988,0,1.7955407,-1.7211072,0.16965395,-0.087810315,-0.08800445,1.099308,0.2130089,0.20087305,-1.0544535,-0.95176,0.2917215,0.21572238,0.910092,-1.6178929
-0.2,-0.2,1.4,0.0,0.5235987755982988,0,1.8062868,-1.7042917,0.36239228,-0.14254315,0.087705806,1.2563877,0.13390799,0.20120528,-1.0544573,-0.9521448,0.29130816,0.2910116,0.8938488,-1.2505745
-0.2,-0.2,1.4,0.0,0.5235987755982988,0,1.7743752,-1.7933639,-0.09301621,-0.06987119,-0.10735974,1.1668882,-0.2031289,0.20180872,-1.0544114,-0.9521811,0.2912883,0.3130185,0.98888505,-1.0800966
-0.2,-0.2,1.4,0.0,0.5235987755982988,0,1.7876214,-1.7638401,-0.043916382,-0.04497152,-0.115058325,1.1629289,0.28885433,0.20117782,-1.0543821,-0.95211077,0.2913952,0.28839105,0.9305757,-2.2983246
-0.2,-0.2,1.4,0.0,0.5235987755982988,0,1.8005276,-1.7829053,0.042365264,-0.015738867,0.07306634,1.2578026,0.36172357,0.20150296,-1.0543083,-0.9520932,0.2910162,0.2669081,0.9402086,-1.8285865
-0.2,-0.2,1.4,0.0,0.5235987755982988,0,1.7839221,-1.7295353,-0.1555571,-0.047237873,-0.07246658,1.1661309,0.24581464,0.20125385,-1.0541881,-0.95185333,0.29151016,0.32162738,0.9374447,-0.7763293
-0.2,-0.2,1.4,0.0,0.5235987755982988,0,1.7898268,-1.7179332,-0.03378818,-0.09927185,-0.2292478,1.2021178,0.28194967,0.20126793,-1.0543835,-0.95200616,0.2912749,0.31368357,0.8905652,-1.5697663
-0.2,-0.2,1.4,0.0,0.5235987755982988,0,1.7827636,-1.756904,0.09561295,-0.04305302,0.026882906,1.273712,-0.3125381,0.20132248,-1.0541978,-0.9516527,0.2912159,0.21185102,0.9524519,-0.9908309
-0.2,-0.2,1.4,0.0,0.5235987755982988,0,1.7847762,-1.7417355,0.23114635,-0.08968457,-0.0997983,1.2571012,0.5597691,0.20106845,-1.0544926,-0.9522562,0.29145685,0.21364115,0.92247903,-0.9329368
-0.2,-0.2,1.4,0.0,0.5235987755982988,0,1.7886782,-1.7527894,0.14453197,-0.07765276,0.029931745,1.1654665,0.37799817,0.20098594,-1.0543959,-0.951642,0.29105273,0.21557845,0.9476865,-1.6232446
-0.2,-0.2,1.4,0.0,0.5235987755982988,0,1.7852447,-1.7018358,-0.087228246,-0.12744834,-0.15487371,1.2518334,0.55752605,0.20107117,-1.0542568,-0.9515693,0.29133928,0.29662177,0.971287,-0.4892647
-0.2,-0.2,1.4,0.0,0.5235987755982988,0,1.8078814,-1.77603,-0.12900755,-0.1267544,0.003853963,1.1936587,0.67383975,0.2009728,-1.0542129,-0.9518127,0.29101437,0.20827158,0.91326904,-1.0889738
-0.2,-0.2,1.4,0.0,0.5235987755982988,0,1.7755835,-1.7432107,0.027174192,-0.065515965,-0.11582504,1.2244638,0.42346323,0.2007681,-1.0542921,-0.9518265,0.29118642,0.26814565,0.9038441,-0.5366251
-0.2,-0.2,1.4,0.0,0.5235987755982988,0,1.7856439,-1.710724,0.19863875,-0.1849229,-0.1297074,1.19458,0.1784479,0.2012928,-1.0543795,-0.95209664,0.29140306,0.28323027,0.9329261,-0.5683679
-0.2,-0.2,1.4,0.0,0.5235987755982988,0,1.7952446,-1.7001566,0.32495397,-0.0428613,0.0027163457,1.2064751,0.19226308,0.20125523,-1.0543655,-0.95221335,0.29142138,0.28499976,0.96661174,-1.5240623
-0.2,-0.2,1.4,0.0,0.5235987755982988,0,1.7986814,-1.708979,-0.025411457,-0.06972459,0.0427083,1.2308744,1.4832035,0.20101535,-1.0543054,-0.9513963,0.2911931,0.28008777,0.9497626,-1.9597151
-0.2,-0.2,1.4,0.0,0.5235987755982988,0,1.7857931,-1.8130095,-0.17358755,-0.06037716,-0.121070184,1.2043949,0.62350184,0.20097591,-1.0541296,-0.95146227,0.29143602,0.24339247,0.85687023,-0.92050284
-0.2,-0.2,1.4,0.0,0.5235987755982988,0,1.7947733,-1.7088981,0.07714514,-0.08040156,-0.07994805,1.2448387,0.42470127,0.2014799,-1.0542703,-0.9517878,0.29116613,0.24802987,0.8851944,-0.7306714
-0.2,-0.2,1.4,0.0,0.5235987755982988,0,1.7995296,-1.669798,-0.20406578,-0.09946323,-0.14885727,1.1692541,0.74793506,0.20103826,-1.054339,-0.95207477,0.29123732,0.2585873,0.896363,-2.0553322
-0.2,-0.2,1.4,0.0,0.5235987755982988,0,1.7875751,-1.7115816,-0.2745028,-0.13767816,0.08277026,1.2288634,0.67898154,0.20131107,-1.0544075,-0.95207566,0.29138118,0.19984119,0.92863977,-0.38638255
-0.2,-0.2,1.4,0.0,0.5235987755982988,0,1.7877961,-1.7347672,-0.093885615,-0.07840964,-0.09152824,1.2075802,0.17234588,0.20129462,-1.0542089,-0.9520304,0.2914554,0.1701193,0.92706877,-1.9661839
-0.2,-0.2,1.4,0.0,0.5235987755982988,0,1.7746817,-1.7099053,0.120223805,-0.054268654,-0.019596472,1.205184,-0.14779413,0.20131102,-1.0542444,-0.95178056,0.29113364,0.21112643,0.9499931,-0.7960215
-0.2,-0.2,1.4,0.0,0.5235987755982988,0,1.7941651,-1.7164946,-0.17460574,-0.055040337,-0.12772235,1.1762296,0.53185046,0.20132051,-1.054385,-0.95175844,0.2911662,0.36284155,0.900441,-0.75014836
-0.2,-0.2,1.4,0.0,0.5235987755982988,0,1.7744484,-1.7785312,-0.09774899,-0.15016335,-0.26350465,1.1921607,1.0684483,0.20115352,-1.0544695,-0.9523244,0.29169622,0.29008892,0.91995555,-1.9300832
-0.2,-0.2,1.4,0.0,0.5235987755982988,0,1.7759221,-1.7612581,-0.23192364,-0.13383158,-0.053071555,1.1853673,0.35062984,0.20091972,-1.0543274,-0.95137995,0.29142937,0.24537665,0.8838167,-1.3244109
-0.2,-0.2,1.4,0.0,0.5235987755982988,0,1.7748408,-1.7650745,0.02431392,-0.091561496,-0.10763191,1.2153264,0.5552822,0.20113567,-1.0543001,-0.95207715,0.2914314,0.29546028,0.8944466,-1.7100916
-0.2,-0.2,1.4,0.0,0.5235987755982988,0,1.7962726,-1.7015115,-0.008377751,-0.06627328,-0.008296985,1.2338651,0.57471335,0.20112008,-1.0545335,-0.9514665,0.2910323,0.1999822,0.94194305,-0.9319198
-0.2,-0.2,1.4,0.0,0.5235987755982988,0,1.776221,-1.7118979,0.33603418,-0.06710893,-0.07348853,1.2289506,0.41246232,0.20121211,-1.0541663,-0.9523076,0.2913538,0.26412186,0.89499885,-0.870465
-0.2,-0.2,1.4,0.0,0.5235987755982988,0,1.786006,-1.7791873,-0.37462246,-0.10757284,-0.15799989,1.1934309,-0.08461527,0.20157355,-1.0543094,-0.9520193,0.29108807,0.24764778,0.95837414,0.07242082
-0.2,-0.2,1.4,0.0,0.5235987755982988,0,1.7986119,-1.7440526,-0.08561874,-0.11613386,0.040645644,1.1748987,0.22717212,0.20114352,-1.0544488,-0.9518109,0.29149258,0.23591292,0.9479435,-0.7307344
-0.2,-0.2,1.4,0.0,0.5235987755982988,0,1.781704,-1.6659048,-0.09141813,-0.09892942,0.059556644,1.2183589,-0.0142990155,0.20104854,-1.0543026,-0.95183647,0.29128462,0.28982326,0.94336665,-1.2739644
-0.2,-0.2,1.4,0.0,0.5235987755982988,0,1.783318,-1.6927637,-0.5491234,-0.069385916,-0.12403571,1.1761624,0.16407661,0.2011956,-1.054225,-0.9521128,0.29130015,0.2155153,0.9117398,-1.500162
-0.2,-0.2,1.4,0.0,0.5235987755982988,0,1.7834867,-1.7506099,-0.00847755,-0.14556319,-0.06905626,1.2426393,1.0288248,0.2009516,-1.0543106,-0.9520429,0.29120404,0.2463668,0.91577923,-1.2160577
-0.2,-0.2,1.4,0.0,0.5235987755982988,0,1.7962817,-1.7195383,-0.15192331,-0.105684124,-0.17851365,1.2268188,0.47339782,0.20126253,-1.0543269,-0.95226204,0.29151523,0.2433224,0.9386197,-2.157118
-0.2,-0.2,1.4,0.0,0.5235987755982988,0,1.7886022,-1.6703101,-0.0055135954,-0.106464826,0.026506253,1.2298101,0.20196043,0.20117165,-1.0541675,-0.9516628,0.29133224,0.26409096,0.9339156,0.17585094
-0.2,-0.2,1.4,0.0,0.5235987755982988,0,1.8020804,-1.6924365,-0.1738712,-0.03870182,-0.058256987,1.1984735,0.8876518,0.20117679,-1.0542421,-0.951812,0.29112232,0.26711154,0.88555795,-0.3662921
-0.2,-0.2,1.4,0.0,0.5235987755982988,0,1.8008137,-1.773197,0.1490615,-0.15059857,-0.113755174,1.23091,0.00867016,0.2012993,-1.0542325,-0.95176095,0.29128507,0.3278955,0.91888255,-1.4948283
-0.2,-0.2,1.4,0.0,0.5235987755982988,0,1.7783885,-1.7344838,-0.27477992,-0.18578486,-0.11068131,1.1386397,0.52690893,0.20167562,-1.0541816,-0.9513836,0.2913195,0.27187198,0.9047877,-0.07620229
-0.2,-0.2,1.4,0.0,0.5235987755982988,0,1.7948226,-1.7624638,0.25216243,-0.041341033,0.07809005,1.167536,0.24118802,0.20144975,-1.0543174,-0.95181245,0.29090843,0.28274092,0.98264194,-0.49004686
-0.2,-0.2,1.4,0.0,0.5235987755982988,0,1.7734996,-1.7123333,0.28808182,-0.096825086,0.059098564,1.2269627,0.6896067,0.20118655,-1.0542573,-0.95156807,0.2913567,0.25709254,0.9469628,-0.93309516
-0.2,-0.2,1.4,0.0,0.5235987755982988,0,1.7662653,-1.7528884,0.18760596,-0.004619781,-0.12711366,1.1686527,0.44304973,0.20103584,-1.054244,-0.9518043,0.2912541,0.24107869,0.9371763,-1.4594613
-0.2,-0.2,1.4,0.0,0.5235987755982988,0,1.7795508,-1.675508,-0.058671035,-0.06997186,0.06535593,1.2437129,-0.26506287,0.2013018,-1.0543913,-0.9513705,0.2913509,0.19823636,0.9136382,-0.7202468
-0.2,-0.2,1.4,0.0,0.5235987755982988,0,1.7837869,-1.6741885,-0.18898202,-0.067367285,-0.074348494,1.2125652,0.24460778,0.20143117,-1.0543213,-0.9520819,0.29145697,0.25743654,0.8843429,-0.99411106
-0.2,-0.2,1.4,0.0,0.5235987755982988,0,1.7869365,-1.6459817,0.15230715,-0.053099856,-0.16361144,1.2710642,0.42091754,0.20095924,-1.0542314,-0.95191365,0.29133683,0.24950333,0.89192384,-0.3465347
-0.2,-0.2,1.4,0.0,0.5235987755982988,0,1.8021005,-1.7819904,0.041845202,-0.04153536,-0.023903634,1.2121938,0.4190837,0.2007632,-1.0543833,-0.95193875,0.29138315,0.29383066,0.9158547,-1.0393049
-0.2,-0.2,1.4,0.0,0.5235987755982988,0,1.7760746,-1.7409701,0.07573921,-0.08771831,-0.01609448,1.1977993,0.6530808,0.20161289,-1.0541111,-0.9522,0.29129362,0.2754047,0.9171484,-0.7610465
-0.2,-0.2,1.4,0.0,0.5235987755982988,0,1.7812304,-1.7179116,-0.3660321,-0.10032274,-0.07033681,1.2466388,-0.012911185,0.20085059,-1.0543152,-0.95187604,0.29130292,0.19088668,0.92113495,-0.7176383
-0.2,-0.2,1.4,0.0,0.5235987755982988,0,1.7949501,-1.6995736,-0.007290855,-0.116843075,-0.0019988643,1.1699097,0.05799262,0.20112549,-1.0544035,-0.9517177,0.29140115,0.25579152,0.9381052,-0.7607285
-0.2,-0.2,1.4,0.0,0.5235987755982988,0,1.7715697,-1.7254202,0.38352126,-0.069716744,-0.12180297,1.2036724,0.8098699,0.20099075,-1.0544037,-0.9521006,0.29131177,0.16667154,0.9676658,-1.2376666
-0.2,-0.2,1.4,0.0,0.5235987755982988,0,1.7899728,-1.7430071,-0.20365307,-0.088583626,0.016860325,1.2094084,0.23516378,0.20117791,-1.0544925,-0.9518471,0.29121348,0.30850193,0.965957,-0.29893914
-0.2,-0.2,1.4,0.0,0.5235987755982988,0,1.7918117,-1.752629,0.05165953,-0.041271817,-0.056953993,1.163262,0.6657447,0.20122218,-1.0542606,-0.9518514,0.29111773,0.2040293,0.8993245,-0.7303807
-0.2,-0.2,1.4,0.0,0.5235987755982988,0,1.7833618,-1.7583016,-0.10568103,-0.07821551,-0.12972055,1.1898454,0.36491373,0.20152633,-1.0542655,-0.9522868,0.2912567,0.2602756,0.9483279,-0.82934767
-0.2,-0.2,1.4,0.0,0.5235987755982988,0,1.7818122,-1.7144239,0.1187359,-0.082337044,-0.19589633,1.2376326,0.4858937,0.20138675,-1.0541605,-0.9516565,0.2911243,0.22847809,0.88204205,-1.964711
-0.2,-0.2,1.4,0.0,0.5235987755982988,0,1.7840697,-1.742417,0.30304343,-0.04978222,-0.009280987,1.1916906,1.2343996,0.20148754,-1.0543559,-0.9515657,0.2912504,0.27670687,0.9646772,-0.93853235
-0.2,-0.2,1.4,0.0,0.5235987755982988,0,1.7826749,-1.7007278,0.08048849,-0.12912981,-0.13678196,1.1011207,0.009768934,0.20086406,-1.0543656,-0.95161635,0.29121652,0.25077593,0.9261332,-1.038401
-0.2,-0.2,1.4,0.0,0.5235987755982988,0,1.8000345,-1.6962018,-0.1674668,-0.08063,0.008177039,1.1965092,-0.08450331,0.2009161,-1.0542034,-0.95211166,0.29124996,0.25280854,0.93443304,-0.7414454
-0.2,-0.2,1.4,0.0,0.5235987755982988,0,1.7864712,-1.6606122,-0.059349686,-0.08807355,-0.010324384,1.1812614,0.70123434,0.20144157,-1.0542327,-0.9513186,0.29120398,0.27418122,0.9161581,-0.6252347
-0.2,-0.2,1.4,0.0,0.5235987755982988,0,1.7931986,-1.7114607,0.02448203,-0.11833041,-0.106874175,1.1739888,0.027579436,0.20100649,-1.0542047,-0.95230204,0.29134512,0.30618185,0.88916373,-0.9293179
-0.2,-0.2,1.4,0.0,0.5235987755982988,0,1.7908442,-1.7089382,0.24432585,-0.12907606,-0.04035016,1.1328138,0.37136593,0.20131059,-1.0543393,-0.95159566,0.2911584,0.24669802,0.9320974,-0.6542504
-0.2,-0.2,1.4,0.0,0.5235987755982988,0,1.8075384,-1.73393,0.11087512,-0.039778598,0.008818692,1.1799921,0.33047467,0.2010476,-1.0542318,-0.95171636,0.2913396,0.23440002,0.8718344,-0.36343488
-0.2,-0.2,1.4,0.0,0.5235987755982988,0,1.7723137,-1.7005222,0.026678786,-0.113502786,0.123205304,1.1746484,0.15974182,0.20121984,-1.0542653,-0.95152175,0.29144478,0.27079096,0.95309764,-0.72132516
-0.2,-0.2,1.4,0.0,0.5235987755982988,0,1.7812029,-1.6963255,0.40098366,-0.07707434,-0.0014883089,1.2316344,0.59061736,0.20135519,-1.0542715,-0.9520951,0.29107276,0.29896298,0.8848552,-0.9072553
-0.2,-0.2,1.4,0.0,0.5235987755982988,0,1.8151325,-1.6619954,0.06907062,-0.07115655,-0.041437868,1.201224,0.21485087,0.20118515,-1.0543627,-0.9522654,0.29120088,0.28068632,0.97269356,-1.3459837
-0.2,-0.2,1.4,0.0,0.5235987755982988,0,1.780098,-1.6948998,-0.47840008,-0.048138145,-0.26105317,1.230239,0.01351357,0.20130391,-1.0544063,-0.9517467,0.29151186,0.17108844,0.9483758,-2.170565
-0.2,-0.2,1.4,0.0,0.5235987755982988,0,1.7841105,-1.7534376,-0.06693805,-0.046558365,-0.14210656,1.2012062,0.21684459,0.20120311,-1.0543149,-0.95191854,0.291235,0.29739884,0.92966604,-0.94770885
-0.2,-0.2,1.4,0.0,0.5235987755982988,0,1.7946875,-1.7487539,-0.5612357,-0.10018191,-0.052958574,1.1670854,0.45276868,0.20122147,-1.0542023,-0.9516711,0.29125232,0.2065188,0.88814247,-0.81825554
-0.2,-0.2,1.4,0.0,0.5235987755982988,0,1.7934866,-1.7575191,-0.16689959,-0.12384795,-0.02453321,1.20524,1.0858474,0.20134965,-1.0542359,-0.95190936,0.29152521,0.26333845,0.9397064,-1.5515711
-0.2,-0.2,1.4,0.0,0.5235987755982988,0,1.7949759,-1.7275201,0.18623264,-0.1404623,0.07636155,1.1885227,0.56276363,0.201209,-1.0542988,-0.9517725,0.29125625,0.27135634,0.9065106,-1.7329115
-0.2,-0.2,1.4,0.0,0.5235987755982988,0,1.7921834,-1.7438415,-0.08414115,-0.10594346,-0.022148037,1.2010695,-0.004474698,0.20121762,-1.0542068,-0.9519606,0.2912086,0.20800619,0.950687,-1.1706125
-0.2,-0.2,1.4,0.0,0.5235987755982988,0,1.7941145,-1.7872308,-0.16032173,-0.081485964,-0.011310676,1.2143928,1.0633291,0.20135427,-1.0543137,-0.95182574,0.29123226,0.22362326,0.9010727,-0.97134507
-0.2,-0.2,1.4,0.0,0.5235987755982988,0,1.7925138,-1.7795038,0.3962034,-0.04499281,-0.003459485,1.2044512,0.14553423,0.20085898,-1.0542774,-0.9513237,0.29133278,0.1710265,0.9686656,-1.4587234
-0.2,-0.2,1.4,0.0,0.5235987755982988,0,1.7656217,-1.7310445,-0.027319312,-0.1056689,-0.019514477,1.1999619,0.19981411,0.20119925,-1.0543835,-0.95195305,0.29105496,0.24120136,0.9740446,-1.0261108
-0.2,-0.2,1.4,0.0,0.5235987755982988,0,1.788269,-1.725311,0.03745473,-0.04749375,-0.11927611,1.1873204,0.5257013,0.2010717,-1.0544077,-0.95162904,0.2912044,0.27324393,0.95490086,-0.56289524
-0.2,-0.2,1.4,0.0,0.5235987755982988,0,1.7795794,-1.6965327,-0.031161044,-0.024626173,-0.06837275,1.2014138,0.32542095,0.20147537,-1.054272,-0.95178884,0.29106903,0.21903673,0.9521144,-0.44207188
-0.2,-0.2,1.4,0.0,0.5235987755982988,0,1.7910397,-1.6949717,-0.028490594,-0.17708443,-0.10159764,1.2229166,0.69540846,0.20131595,-1.0543317,-0.95152867,0.29098886,0.27374592,0.9120341,-0.90493196
-0.2,-0.2,1.4,0.0,0.5235987755982988,0,1.7949808,-1.6776043,-0.061120424,-0.046278067,-0.063025564,1.2505476,0.70409256,0.20114742,-1.0542979,-0.95195615,0.29130334,0.28974694,0.923538,-1.3166392
-0.2,-0.2,1.4,0.0,0.5235987755982988,0,1.781179,-1.7773395,-0.030534878,-0.14558125,0.020825706,1.2183601,0.74316025,0.2012312,-1.0543845,-0.9523003,0.29140934,0.23071082,0.9029042,-1.2984017
-0.2,-0.2,1.4,0.0,0.5235987755982988,0,1.7797832,-1.6806602,-0.21116193,-0.12073526,-0.1559392,1.1467298,1.11752,0.20143312,-1.0543878,-0.9521708,0.2911078,0.2304939,0.86699355,-0.93968785
-0.2,-0.2,1.4,0.0,0.5235987755982988,0,1.7958585,-1.6567804,0.19671248,-0.09017291,0.101551116,1.2435939,0.3609911,0.20111671,-1.0541611,-0.9514922,0.29110783,0.28788248,0.9367691,-1.7888272
-0.2,-0.2,1.4,0.0,0.5235987755982988,0,1.7820286,-1.7877461,0.31532335,-0.055361416,-0.031737916,1.2198353,0.21238667,0.20066205,-1.0543541,-0.9514101,0.29147908,0.28982994,0.9141645,-1.0188403
-0.2,-0.2,1.4,0.0,0.5235987755982988,0,1.7879156,-1.691224,0.06946364,-0.11036743,-0.04397291,1.2121024,0.11813527,0.20141408,-1.0543882,-0.9519728,0.29125124,0.2964653,0.9211863,-1.3509903
-0.2,-0.2,1.4,0.0,0.5235987755982988,0,1.7922785,-1.6981246,-0.03896521,-0.05724042,-0.017489325,1.1813298,1.0214581,0.2013978,-1.0544102,-0.9516205,0.2909625,0.27117038,0.9266282,-0.384299
-0.2,-0.2,1.4,0.0,0.5235987755982988,0,1.7811499,-1.758024,0.46764603,-0.08152086,-0.26604402,1.1842468,-0.15064356,0.20119464,-1.0543755,-0.95205694,0.29128525,0.25810215,0.9533542,-0.8348336
-0.2,-0.2,1.4,0.0,0.5235987755982988,0,1.789547,-1.6705292,0.1047127,-0.053559683,-0.058569767,1.2544336,0.6625609,0.20115934,-1.0542433,-0.95170164,0.2912089,0.27985963,0.9008097,-1.1555747
-0.2,-0.2,1.4,0.0,0.5235987755982988,0,1.7904286,-1.722523,0.36558127,-0.07025897,-0.10057527,1.2330576,0.07279718,0.20102778,-1.0544331,-0.9517594,0.2915353,0.29097304,0.9139754,-1.1541345
-0.2,-0.2,1.4,0.0,0.5235987755982988,0,1.768601,-1.6716453,0.21111614,-0.032864384,-0.13782212,1.2401915,0.0049302503,0.20105183,-1.0544068,-0.95249724,0.2912117,0.23587169,0.9138952,-0.9639701
-0.2,-0.2,1.4,0.0,0.5235987755982988,0,1.7891623,-1.7405475,0.25589064,-0.13976489,-0.045877792,1.2087216,0.24269344,0.20119266,-1.0543833,-0.9521132,0.29134884,0.37047654,0.91979486,-2.377319
-0.2,-0.2,1.4,0.0,0.5235987755982988,0,1.780561,-1.6996635,0.5441151,-0.070260674,-0.04327919,1.1668708,0.9674482,0.20131135,-1.0542403,-0.9517544,0.29130486,0.31319594,0.90096515,-0.8601819
-0.2,-0.2,1.4,0.0,0.5235987755982988,0,1.7858782,-1.7029207,-0.13130434,-0.123070545,0.0004426457,1.161795,0.70947117,0.20161131,-1.0544375,-0.9519928,0.2913515,0.22183876,0.91693246,0.07280624
-0.2,-0.2,1.4,0.0,0.5235987755982988,0,1.771905,-1.853166,-0.27292007,-0.10342618,-0.018529495,1.203479,1.2410301,0.20105357,-1.0543646,-0.95155346,0.29130262,0.27957833,0.9584352,-3.031919
-0.2,-0.2,1.4,0.0,0.5235987755982988,0,1.7818307,-1.7705437,-0.20089695,-0.1036874,-0.00736414,1.2039753,0.6586034,0.20158716,-1.0543805,-0.9517886,0.29134452,0.3065393,0.9062643,-2.412924
-0.2,-0.2,1.4,0.0,0.5235987755982988,0,1.7961437,-1.799956,0.4763487,-0.04432254,-0.034995805,1.2276046,-0.42358875,0.20109014,-1.0542297,-0.9520105,0.2911022,0.25626177,0.89841,-1.4411299
-0.2,-0.2,1.4,0.0,0.5235987755982988,0,1.7757788,-1.8502835,-0.24225993,-0.05164752,-0.07226829,1.2532662,0.38217548,0.20121446,-1.0542006,-0.95212,0.29126662,0.28119385,0.918873,-1.5722842
-0.2,-0.2,1.4,0.0,0.5235987755982988,0,1.7819128,-1.7746538,0.010504786,-0.07765917,-0.08498515,1.204998,1.023877,0.20086902,-1.0543867,-0.95213753,0.29105264,0.22279876,0.9368641,-1.8965172
-0.2,-0.2,1.4,0.0,0.5235987755982988,0,1.8016891,-1.7255002,0.07630402,-0.10326083,0.021616297,1.2297573,0.43783432,0.2014138,-1.0541075,-0.95154446,0.2914387,0.20057675,0.89549875,-0.7667215
-0.2,-0.2,1.4,0.0,0.5235987755982988,0,1.7861985,-1.7040924,0.23427494,-0.16460057,-0.065058194,1.2265383,0.55618566,0.20150647,-1.054223,-0.9519211,0.29113877,0.29490772,0.9444422,-1.2714381
-0.2,-0.2,1.4,0.0,0.5235987755982988,0,1.7781041,-1.7074085,-0.10305605,-0.14398044,-0.08576378,1.1454504,1.1464313,0.20132281,-1.0542767,-0.9517906,0.29124317,0.26181844,0.9013551,-0.13034108
-0.2,-0.2,1.4,0.0,0.5235987755982988,0,1.7976948,-1.730356,-0.28214946,-0.068049334,0.008634435,1.2531191,0.20764767,0.20108664,-1.0542464,-0.9515778,0.29108724,0.2921934,0.9049226,-1.076634
-0.2,-0.2,1.4,0.0,0.5235987755982988,0,1.7880138,-1.7048839,0.22584903,-0.078459166,-0.1205777,1.2389767,0.58905727,0.20101312,-1.0542212,-0.9518975,0.29106742,0.27516213,0.89164984,-0.2230104
-0.2,-0.2,1.4,0.0,0.5235987755982988,0,1.786867,-1.7266197,-0.09453747,-0.029772146,-0.11786559,1.1893845,0.43214282,0.20103878,-1.0542313,-0.95127684,0.2912045,0.30333716,0.89708626,0.052849263
-0.2,-0.2,1.4,0.0,0.5235987755982988,0,1.7822827,-1.7224494,0.18520242,-0.15151335,0.023069412,1.1631597,0.23133674,0.20131525,-1.054374,-0.95173734,0.2912336,0.21154746,0.8599968,-2.436091
-0.2,-0.2,1.4,0.0,0.5235987755982988,0,1.7984945,-1.7427475,0.30838087,-0.066786654,-0.16251673,1.1975534,0.4910714,0.20135371,-1.0544935,-0.9519138,0.29115403,0.27279338,0.9201784,-0.46000066
-0.2,-0.2,1.4,0.0,0.5235987755982988,0,1.7975093,-1.7356958,-0.008473725,-0.06333231,-0.17979266,1.2684195,0.115131564,0.20080186,-1.0543618,-0.95131373,0.29135308,0.2633221,0.8812569,-0.9361313
-0.2,-0.2,1.4,0.0,0.5235987755982988,0,1.7800053,-1.6917471,0.054289617,-0.087412514,-0.15410815,1.179009,0.39930597,0.20070513,-1.0543356,-0.95245403,0.2914121,0.1851554,0.8846075,-1.6175842
-0.2,-0.2,1.4,0.0,0.5235987755982988,0,1.7760297,-1.7345588,0.050663058,-0.10438922,-0.09197121,1.2053709,0.24846002,0.20098141,-1.0543104,-0.9514539,0.29134977,0.22777751,0.9463001,-0.61501616
-0.2,-0.2,1.4,0.0,0.5235987755982988,0,1.8019195,-1.7895617,-0.4398406,-0.07544768,0.0011367437,1.2567334,0.08387917,0.20120579,-1.0544279,-0.9514981,0.29128236,0.24025598,0.9154707,-1.8608855
-0.2,-0.2,1.4,0.0,0.5235987755982988,0,1.7884332,-1.7756886,-0.1802474,-0.016773226,0.008343009,1.2100786,0.25500014,0.20103435,-1.0542623,-0.9519041,0.29121265,0.2519705,0.87003213,-1.2103972
-0.2,-0.2,1.4,0.0,0.5235987755982988,0,1.8018556,-1.7439132,0.3377386,-0.051378768,-0.0026699512,1.2250289,0.70244354,0.20116007,-1.0543022,-0.9518524,0.29137674,0.2855291,0.91509175,-0.7466214
-0.2,-0.2,1.4,0.0,0.5235987755982988,0,1.7792381,-1.7446113,0.30671296,-0.080670156,-0.064111516,1.1934458,1.1219262,0.2014751,-1.0544178,-0.9520877,0.29132038,0.25588965,0.9430856,0.15358886
-0.2,-0.2,1.4,0.0,0.5235987755982988,0,1.7730383,-1.6978002,0.0035706072,-0.06047535,0.013218345,1.17909,0.3019302,0.20102729,-1.0542853,-0.95210725,0.29123512,0.20624895,0.96326804,-0.93714845
-0.2,-0.2,1.4,0.0,0.5235987755982988,0,1.7788599,-1.755814,0.028537255,-0.093630776,-0.041357033,1.232178,0.32693043,0.20144229,-1.054342,-0.9519369,0.29116547,0.25013137,0.90567154,-1.1756017
-0.2,-0.2,1.4,0.0,0.5235987755982988,0,1.7987107,-1.757656,-0.13562874,-0.072891094,-0.17547359,1.160318,0.9346559,0.2013517,-1.0543101,-0.9520011,0.29112795,0.22617476,0.97302055,-0.6045447
-0.2,-0.2,1.4,0.0,0.5235987755982988,0,1.7860987,-1.7835085,-0.14169092,-0.04879566,0.057884265,1.2096256,0.47063377,0.20114568,-1.0543405,-0.95155674,0.291256,0.24455869,0.8700069,-1.1798925
-0.2,-0.2,1.4,0.0,0.5235987755982988,0,1.7725775,-1.7627367,0.024828592,-0.11662524,-0.10682431,1.2047113,0.26100773,0.20105757,-1.0542657,-0.95177597,0.29139856,0.25452295,0.92700213,-1.2321416
-0.2,-0.2,1.4,0.0,0.5235987755982988,0,1.7808753,-1.792736,-0.20656757,-0.108986534,-0.101415865,1.2078624,-0.27617562,0.20121868,-1.0542572,-0.9518773,0.2910825,0.2302759,0.8786284,-0.52018297
-0.2,-0.2,1.4,0.0,0.5235987755982988,0,1.7973293,-1.7857558,0.06491688,-0.054430895,0.099429436,1.1963753,-0.4241754,0.20128784,-1.0543333,-0.9518123,0.29130825,0.2462192,0.8911715,-0.52511317
-0.2,-0.2,1.4,0.0,0.5235987755982988,0,1.7964865,-1.7542837,-0.43911254,-0.06304813,-0.033673316,1.1705781,0.32143357,0.2013576,-1.0543629,-0.95157844,0.29103646,0.20209454,0.93475187,-0.713713
-0.2,-0.2,1.4,0.0,0.5235987755982988,0,1.7963384,-1.7313572,-0.015594823,-0.049313825,-0.06448801,1.2675945,0.65049434,0.20136823,-1.0542549,-0.95195603,0.29120237,0.24293494,0.91505635,-1.0890981
-0.2,-0.2,1.4,0.0,0.5235987755982988,0,1.7907717,-1.7210262,0.04135843,-0.030021444,-0.16919188,1.2287097,0.40763536,0.20133875,-1.0542103,-0.9515748,0.2911978,0.18564852,0.9027132,-0.72194177
-0.2,-0.2,1.4,0.0,0.5235987755982988,0,1.7807647,-1.7151457,-0.21469784,-0.06600411,-0.07194276,1.1775705,0.2392346,0.20111717,-1.0541689,-0.9520504,0.29104057,0.26142251,0.89403903,-1.0417985
-0.2,-0.2,1.4,0.0,0.5235987755982988,0,1.7850567,-1.7454058,0.010404378,-0.09700062,-0.097117804,1.1846417,0.4567779,0.20122331,-1.0543066,-0.95239884,0.2914134,0.31470174,0.95651203,-1.3315585
-0.2,-0.2,1.4,0.0,0.5235987755982988,0,1.779186,-1.7240647,0.17625737,-0.0929187,-0.07087209,1.2270608,0.098988645,0.20105627,-1.0542314,-0.95193714,0.29108804,0.24067137,0.95896304,-1.4037277
-0.2,-0.2,1.4,0.0,0.5235987755982988,0,1.7895117,-1.7486081,0.0070572374,-0.10933336,-0.109442696,1.1852018,-0.16498111,0.201244,-1.0542722,-0.95171356,0.29109448,0.2386022,0.91823876,-0.96355385
-0.2,-0.2,1.4,0.0,0.5235987755982988,0,1.778888,-1.7714789,-0.1492164,-0.0903972,-0.14640716,1.1732409,0.22826563,0.2012535,-1.0543227,-0.95193946,0.29135984,0.21823023,0.88087565,-1.6755183
-0.2,-0.2,1.4,0.0,0.5235987755982988,0,1.7683195,-1.7712294,-0.21483433,-0.051280025,-0.066791676,1.2198702,0.4068003,0.20092107,-1.054285,-0.9520768,0.29119453,0.20770693,0.8611631,-1.4789716
-0.2,-0.2,1.4,0.0,0.5235987755982988,0,1.793591,-1.7714523,-0.19417298,-0.1030751,-0.12683947,1.2571713,0.913673,0.20137225,-1.0543395,-0.95160675,0.29126406,0.21345106,0.9911704,-1.4697427
-0.2,-0.2,1.4,0.0,0.5235987755982988,0,1.7726228,-1.7283462,0.20468299,-0.1023081,-0.050238084,1.2414237,0.3215779,0.20091511,-1.0543014,-0.95149934,0.29134962,0.23171371,0.92779654,-1.0935934
-0.2,-0.2,1.4,0.0,0.5235987755982988,0,1.7915454,-1.7412343,0.025959939,-0.06994053,-0.046600163,1.1741421,0.7132234,0.20116411,-1.0543084,-0.95149785,0.29119024,0.20026441,0.9324004,-0.47752368
-0.2,-0.2,1.4,0.0,0.5235987755982988,0,1.7823355,-1.7573382,0.048204027,-0.066165835,-0.0012806013,1.1435971,-0.15823662,0.20148961,-1.0543736,-0.951399,0.29143912,0.271264,0.9265107,-0.08669293
-0.2,-0.2,1.4,0.0,0.5235987755982988,0,1.7729611,-1.7471015,0.2070972,-0.09535593,-0.12436823,1.1941276,0.62577534,0.20114633,-1.0542529,-0.9519263,0.29117778,0.25259984,0.96585023,-1.373971
-0.2,-0.2,1.4,0.0,0.5235987755982988,0,1.8048346,-1.7487613,-0.17286293,-0.0778923,-0.051650237,1.1708053,0.8492393,0.20139344,-1.0542861,-0.9518251,0.29153788,0.2767499,0.9561625,-2.5505054
-0.2,-0.2,1.4,0.0,0.5235987755982988,0,1.7713602,-1.8108671,-0.11568061,-0.03693139,-0.026110062,1.2035882,0.16744436,0.20121446,-1.0543698,-0.9521294,0.29130167,0.25141326,0.9479046,-1.2428778
-0.2,-0.2,1.4,0.0,0.5235987755982988,0,1.7846273,-1.7537308,-0.20791018,-0.089701444,-0.045363802,1.2201929,0.5417901,0.20145833,-1.0543162,-0.95206463,0.29124978,0.27441528,0.9478991,-1.5406362
-0.2,-0.2,1.4,0.0,0.5235987755982988,0,1.7842448,-1.7597123,-0.1366491,-0.10170496,0.088057145,1.2038227,0.23043095,0.20125686,-1.0542359,-0.95185155,0.2911355,0.20472874,0.9040989,-0.32913575
-0.2,-0.2,1.4,0.0,0.5235987755982988,0,1.7856796,-1.7073697,0.02041508,-0.15143311,0.10714561,1.2747967,0.5559956,0.20133458,-1.0543436,-0.9516056,0.29148418,0.27821538,0.9137551,-0.70712596
-0.2,-0.2,1.4,0.0,0.5235987755982988,0,1.7955225,-1.746091,0.32748464,-0.09299767,0.024033183,1.2173798,0.93798834,0.20092264,-1.0544521,-0.9515357,0.29121995,0.2756903,0.9065453,-0.7911977
-0.2,-0.2,1.4,0.0,0.5235987755982988,0,1.7862804,-1.7315383,-0.15388535,-0.027307212,-0.08991712,1.2414368,0.93994117,0.20094989,-1.0545198,-0.9522734,0.2912814,0.27063003,0.9340452,-1.2687134
-0.2,-0.2,1.4,0.0,0.5235987755982988,0,1.7850618,-1.7406958,-0.4755978,-0.047154266,-0.09968747,1.2454963,0.8107142,0.20156254,-1.0543178,-0.951646,0.29127854,0.30860162,0.90869236,-1.0554544
-0.2,-0.2,1.4,0.0,0.5235987755982988,0,1.7900453,-1.7272215,-0.08684108,-0.08154961,-0.1983069,1.2536938,0.7694074,0.20123987,-1.0543474,-0.95164824,0.29116654,0.25552484,0.92196804,-0.35610932
-0.2,-0.2,1.4,0.0,0.5235987755982988,0,1.784309,-1.7181522,0.32719117,-0.06442537,-0.0011233576,1.153188,0.1977765,0.20152147,-1.0542647,-0.95181113,0.2912717,0.29187986,0.9357769,-0.6182255
-0.2,-0.2,1.4,0.0,0.5235987755982988,0,1.7834182,-1.6251708,0.025251795,-0.03803084,0.014330697,1.1943681,-0.28480116,0.20124663,-1.0543615,-0.9520261,0.2911715,0.260502,0.94490796,-1.2110347
-0.2,-0.2,1.4,0.0,0.5235987755982988,0,1.7949501,-1.7032889,-0.3824447,-0.15034555,-0.19816412,1.2411505,-0.41959625,0.20124355,-1.0542787,-0.9520238,0.2913068,0.24304426,0.8706552,-0.22575983
-0.2,-0.2,1.4,0.0,0.5235987755982988,0,1.7762511,-1.7842505,0.067895845,-0.09961146,-0.0022128338,1.2133992,0.5826122,0.20131858,-1.0543987,-0.95181143,0.29133305,0.24773301,0.858128,-1.5041406
-0.2,-0.2,1.4,0.0,0.5235987755982988,0,1.7837535,-1.7270962,0.03788428,-0.14167097,-0.033007592,1.1832243,0.13758099,0.20042558,-1.05443,-0.95153946,0.29101574,0.24243557,0.97585285,-1.5442492
-0.2,-0.2,1.4,0.0,0.5235987755982988,0,1.7848574,-1.7173653,0.058154263,0.022043413,-0.0563295,1.2291698,1.0009447,0.2007303,-1.0543696,-0.95155644,0.2909265,0.27977377,0.98307675,-0.6161882
-0.2,-0.2,1.4,0.0,0.5235987755982988,0,1.7864499,-1.6961801,0.17392723,-0.03046664,-0.040442,1.1724067,0.67826736,0.20119557,-1.0542783,-0.95187867,0.29129013,0.31592247,0.9411309,-1.1215755
-0.2,-0.2,1.4,0.0,0.5235987755982988,0,1.7981895,-1.7637093,0.07886561,-0.14244294,-0.12541613,1.2714505,0.7722097,0.20098056,-1.054308,-0.9519576,0.29132962,0.28139916,0.9223601,-0.31151527
-0.2,-0.2,1.4,0.0,0.5235987755982988,0,1.7746669,-1.7034214,0.0086223325,-0.102513835,-0.012193425,1.1853715,0.31441313,0.20114852,-1.0543267,-0.95175785,0.2912771,0.24590167,0.96163374,-0.7941857
-0.2,-0.2,1.4,0.0,0.5235987755982988,0,1.7767481,-1.775359,0.22451024,-0.06940649,-0.07970395,1.2268405,0.5331916,0.20110133,-1.0542892,-0.9521995,0.29133534,0.26154003,0.9035603,-1.037857
-0.2,-0.2,1.4,0.0,0.5235987755982988,0,1.7886516,-1.7096307,0.634597,-0.023185404,-0.0021959234,1.1661536,0.64251715,0.20118204,-1.0542942,-0.951987,0.29115754,0.26413885,0.89296174,-0.5697253
-0.2,-0.2,1.4,0.0,0.5235987755982988,0,1.778704,-1.7513896,-0.2129782,-0.08498426,-0.06171012,1.1764326,0.08097438,0.20153734,-1.0542356,-0.95181495,0.2910667,0.2581518,0.8790527,-0.9290605
-0.2,-0.2,1.4,0.0,0.5235987755982988,0,1.7848119,-1.661956,-0.12524353,-0.086892694,-0.11319126,1.2163162,0.4731307,0.20114304,-1.0543282,-0.9520995,0.29146737,0.20647971,0.9272656,-2.127848
-0.2,-0.2,1.4,0.0,0.5235987755982988,0,1.7832392,-1.7382722,0.06249452,-0.09845869,-0.06117465,1.1898028,0.9231313,0.20093586,-1.0543189,-0.9519382,0.29147235,0.327702,0.91109,-0.8998865
-0.2,-0.2,1.4,0.0,0.5235987755982988,0,1.7857165,-1.6894896,0.018905515,-0.028208224,-0.0029339828,1.2412736,-0.010354788,0.20130467,-1.0542021,-0.952284,0.29117286,0.27503002,0.84913194,-1.341874
-0.2,-0.2,1.4,0.0,0.5235987755982988,0,1.7982557,-1.8053892,0.11850229,-0.04036154,-0.09513372,1.1684453,0.60547554,0.20094495,-1.0543159,-0.9521821,0.2912715,0.19295612,0.9845204,-0.6004645
-0.2,-0.2,1.4,0.0,0.5235987755982988,0,1.7879927,-1.7735227,0.16501193,-0.114028275,-0.05662473,1.1635146,0.33886907,0.20098546,-1.0542926,-0.951866,0.29113904,0.23148696,0.85323197,-1.5696766
-0.2,-0.2,1.4,0.0,0.5235987755982988,0,1.7889516,-1.7409834,-0.42947555,-0.106886365,-0.061128996,1.2285392,0.3562633,0.20126115,-1.0544289,-0.95173675,0.2910734,0.2027039,0.9601369,0.15441583
-0.2,-0.2,1.4,0.0,0.5235987755982988,0,1.7913734,-1.7369546,-0.17853378,-0.12892969,-0.1466629,1.2227901,0.5836221,0.20163144,-1.0543736,-0.9517107,0.29118708,0.23378228,0.8784279,-0.31767282
-0.2,-0.2,1.4,0.0,0.5235987755982988,0,1.8000449,-1.7512054,0.115164295,-0.096799314,-0.049257714,1.2352729,0.2309202,0.20123595,-1.0542829,-0.9519801,0.2914167,0.24697661,0.9744101,-1.4077971
-0.2,-0.2,1.4,0.0,0.5235987755982988,0,1.7858729,-1.7938796,-0.15151331,-0.117613,-0.08443447,1.1906403,0.13925397,0.20106904,-1.0544881,-0.9522483,0.29151115,0.29872987,0.94133025,-0.46971944
-0.2,-0.2,1.4,0.0,0.5235987755982988,0,1.7911922,-1.6736686,-0.24853607,-0.034858484,0.15060294,1.2401675,-0.22835808,0.20096242,-1.0543327,-0.9527599,0.29131305,0.28013375,0.8572778,-1.9365072
