sanky1234/BimanualDexCatch/isaacgymenvs/cem_results/football_pose_-0.1_0.1_1.1999999999999997_0.0_-0.5235987755982988_0_2025-05-26.csv
x,y,z,roll,pitch,yaw,robot1/joint1,robot1/joint2,robot1/joint3,robot1/joint4,robot1/joint5,robot1/joint6,robot1/joint7,robot2/joint1,robot2/joint2,robot2/joint3,robot2/joint4,robot2/joint5,robot2/joint6,robot2/joint7
-0.1,0.1,1.1999999999999997,0.0,-0.5235987755982988,0,0.46535942,-0.25990465,1.2586821,0.7511839,-0.18638124,0.09262158,-2.0934126,0.6977677,-1.4784962,-0.7554655,-0.03991441,-0.11891067,1.1725476,-0.1968956
-0.1,0.1,1.1999999999999997,0.0,-0.5235987755982988,0,0.46784472,-0.26119322,1.2593861,0.74931234,-0.14450511,0.091150135,0.9830565,0.7011944,-1.4977713,-0.63400924,-0.076277696,0.04012778,1.160229,0.13857447
-0.1,0.1,1.1999999999999997,0.0,-0.5235987755982988,0,0.46537068,-0.26340488,1.2579534,0.7500552,-0.16500843,0.094482586,0.7850817,0.70717543,-1.4894756,-0.5535375,-0.047467716,-0.01573115,1.1732273,-0.054675844
-0.1,0.1,1.1999999999999997,0.0,-0.5235987755982988,0,0.46686947,-0.2610024,1.2567743,0.7502958,-0.1748602,0.07405888,-0.51226383,0.7043876,-1.4860257,-0.6606562,-0.040843792,-0.16399722,1.1532843,0.29474077
-0.1,0.1,1.1999999999999997,0.0,-0.5235987755982988,0,0.46471065,-0.260476,1.2599796,0.75029457,-0.16228656,0.09687174,0.7055475,0.6999243,-1.5072888,-0.6209665,-0.08246402,-0.038688734,1.1514455,-0.097049005
-0.1,0.1,1.1999999999999997,0.0,-0.5235987755982988,0,0.46710142,-0.2630375,1.2592497,0.751248,-0.20185442,0.07330408,0.9925233,0.6953779,-1.4946945,-0.6511091,-0.07207991,-0.06006026,1.1584421,0.5137597
-0.1,0.1,1.1999999999999997,0.0,-0.5235987755982988,0,0.46491593,-0.26141042,1.2587144,0.7507787,-0.17819439,0.09123722,0.56776637,0.684717,-1.4910979,-0.70029306,-0.087551326,0.06299497,1.1341882,-0.02436873
-0.1,0.1,1.1999999999999997,0.0,-0.5235987755982988,0,0.4670792,-0.26250246,1.257418,0.7494322,-0.18288691,0.078683645,-0.86797386,0.71010053,-1.481776,-0.56192064,-0.067941196,0.017568128,1.1713098,-0.23634133
-0.1,0.1,1.1999999999999997,0.0,-0.5235987755982988,0,0.46716797,-0.26178348,1.2574458,0.75037354,-0.18293566,0.08726607,-0.043769334,0.69693184,-1.4921685,-0.63401747,-0.03279167,0.06967083,1.1380746,-0.27527478
-0.1,0.1,1.1999999999999997,0.0,-0.5235987755982988,0,0.4667639,-0.26158512,1.2580632,0.75021535,-0.1800057,0.090194136,-0.40590626,0.702824,-1.4909475,-0.5861917,-0.059098076,0.022786621,1.1776255,0.39620566
-0.1,0.1,1.1999999999999997,0.0,-0.5235987755982988,0,0.46476918,-0.26138556,1.2580471,0.7516125,-0.1910104,0.101011805,0.60987633,0.6875567,-1.4907022,-0.5187394,-0.07396708,-0.011084254,1.1247399,0.12767315
-0.1,0.1,1.1999999999999997,0.0,-0.5235987755982988,0,0.46507326,-0.26407498,1.2571903,0.7509241,-0.1723016,0.09344229,2.284627,0.70306396,-1.4910184,-0.51798236,-0.06975752,0.06342409,1.1704166,0.20103398
-0.1,0.1,1.1999999999999997,0.0,-0.5235987755982988,0,0.46942145,-0.26233745,1.2567372,0.7518255,-0.16857119,0.08851903,-1.5780768,0.71372813,-1.4986895,-0.6419931,-0.04536716,-0.05171442,1.1681705,-0.070400715
-0.1,0.1,1.1999999999999997,0.0,-0.5235987755982988,0,0.46877873,-0.2655843,1.2569684,0.75242645,-0.18209021,0.1013874,0.76522607,0.7181104,-1.4975426,-0.5737069,-0.05487886,-0.08585883,1.1712861,0.11756685
-0.1,0.1,1.1999999999999997,0.0,-0.5235987755982988,0,0.46778092,-0.26244384,1.2572731,0.7501756,-0.19000474,0.09259283,-0.48721313,0.683884,-1.4847865,-0.43722576,-0.01561243,0.06032906,1.1755064,-0.17508778
-0.1,0.1,1.1999999999999997,0.0,-0.5235987755982988,0,0.46551204,-0.26269108,1.2577715,0.7514879,-0.1735019,0.08766439,0.15932113,0.7042765,-1.4821787,-0.5369331,-0.041175086,-0.0620237,1.1582179,0.062371936
-0.1,0.1,1.1999999999999997,0.0,-0.5235987755982988,0,0.46880803,-0.26143196,1.2564186,0.75073445,-0.17061009,0.08745679,1.3167545,0.6866127,-1.492498,-0.5311331,-0.015510152,0.0075568166,1.1780739,-0.017427918
-0.1,0.1,1.1999999999999997,0.0,-0.5235987755982988,0,0.4652189,-0.2634869,1.2572901,0.75104403,-0.15668347,0.07790437,0.6402027,0.72020894,-1.4936627,-0.71310645,-0.025418088,0.009550783,1.1849036,0.30167493
-0.1,0.1,1.1999999999999997,0.0,-0.5235987755982988,0,0.46487683,-0.26161885,1.2589089,0.74942136,-0.18778186,0.08552216,1.3189493,0.69928926,-1.4915164,-0.58454025,-0.04283695,-0.05310748,1.1766833,-0.04181479
-0.1,0.1,1.1999999999999997,0.0,-0.5235987755982988,0,0.46708655,-0.25919822,1.2589695,0.74934804,-0.17972659,0.08330051,-0.7830499,0.6956632,-1.4949402,-0.44307294,-0.104889005,-0.037008952,1.1663297,0.1809354
-0.1,0.1,1.1999999999999997,0.0,-0.5235987755982988,0,0.46500033,-0.26392478,1.2576603,0.75152695,-0.18818012,0.08364385,0.9859496,0.7029153,-1.5075965,-0.5011272,-0.07517321,0.12622346,1.1485072,0.094808385
-0.1,0.1,1.1999999999999997,0.0,-0.5235987755982988,0,0.4683607,-0.26384413,1.2573838,0.75118667,-0.1699748,0.09086129,-0.40755996,0.7002774,-1.4985036,-0.69751424,-0.06600366,0.0806225,1.0872878,-0.3157472
-0.1,0.1,1.1999999999999997,0.0,-0.5235987755982988,0,0.46689624,-0.2636496,1.2575673,0.7508659,-0.19137396,0.085880965,0.6708549,0.6958429,-1.4952519,-0.5902214,-0.09656973,-0.034275886,1.186828,0.11178342
-0.1,0.1,1.1999999999999997,0.0,-0.5235987755982988,0,0.46689403,-0.26368445,1.2582886,0.7517307,-0.1651632,0.08783295,0.4924179,0.69949794,-1.489959,-0.49008122,-0.02196836,-0.16399556,1.1208082,0.13024484
-0.1,0.1,1.1999999999999997,0.0,-0.5235987755982988,0,0.4666492,-0.26151383,1.2569865,0.751334,-0.20691781,0.07700759,1.2623928,0.7106912,-1.4981617,-0.5634125,-0.070517935,-0.05701455,1.2053452,-0.3160428
-0.1,0.1,1.1999999999999997,0.0,-0.5235987755982988,0,0.4657832,-0.25850427,1.2578269,0.7495452,-0.18911512,0.095010795,-0.25567833,0.69528496,-1.4939308,-0.6445941,-0.09151206,-0.05819601,1.1434245,0.044549193
-0.1,0.1,1.1999999999999997,0.0,-0.5235987755982988,0,0.46884358,-0.26501504,1.2567155,0.7484574,-0.17311342,0.08894166,0.97022814,0.6882001,-1.4909648,-0.6016702,-0.09536506,0.008361628,1.154255,0.40997127
-0.1,0.1,1.1999999999999997,0.0,-0.5235987755982988,0,0.46731254,-0.2610376,1.2583964,0.7509163,-0.18302523,0.079107404,0.7261546,0.6893827,-1.477923,-0.5882282,-0.074962795,-0.09930751,1.1564139,-0.0004293666
-0.1,0.1,1.1999999999999997,0.0,-0.5235987755982988,0,0.46623367,-0.26063916,1.2578108,0.7512126,-0.17096376,0.09176834,-0.031505216,0.6958018,-1.499602,-0.68227315,-0.057228267,-0.030088687,1.138977,0.008356791
-0.1,0.1,1.1999999999999997,0.0,-0.5235987755982988,0,0.46567452,-0.26037046,1.259398,0.7496511,-0.17981859,0.087463565,-0.3318878,0.6955507,-1.4920235,-0.710625,-0.1150575,-0.0026661204,1.1546357,-0.0041799233
-0.1,0.1,1.1999999999999997,0.0,-0.5235987755982988,0,0.46754628,-0.26156884,1.2576901,0.74998,-0.1820033,0.090033054,-0.9394149,0.7025466,-1.4847,-0.6120319,-0.114034355,-0.035476185,1.1227909,-0.075358205
-0.1,0.1,1.1999999999999997,0.0,-0.5235987755982988,0,0.46783245,-0.26173326,1.258596,0.74964,-0.16294967,0.0881909,0.2900304,0.6985883,-1.4962188,-0.5567719,-0.083760254,-0.02969114,1.169915,-0.22510366
-0.1,0.1,1.1999999999999997,0.0,-0.5235987755982988,0,0.4676207,-0.26099804,1.2567723,0.7522165,-0.17441666,0.0771478,0.77276653,0.69696313,-1.4967091,-0.55941147,-0.06422739,0.16347511,1.1325043,-0.053872034
-0.1,0.1,1.1999999999999997,0.0,-0.5235987755982988,0,0.46636507,-0.2653754,1.2601947,0.7517525,-0.18259214,0.088438794,-0.43581593,0.7141607,-1.489492,-0.55143887,-0.035101574,0.0034553048,1.1898118,0.33619118
-0.1,0.1,1.1999999999999997,0.0,-0.5235987755982988,0,0.46695006,-0.26446256,1.2589529,0.74955684,-0.22173455,0.075998135,1.4664999,0.7012525,-1.5018865,-0.6510762,-0.088701025,-0.14678141,1.1445559,-0.007242217
-0.1,0.1,1.1999999999999997,0.0,-0.5235987755982988,0,0.46613422,-0.26085025,1.258019,0.75022274,-0.17587101,0.08142925,1.7742962,0.7036372,-1.4892621,-0.6920048,-0.076087214,-0.052240636,1.123047,-0.10266155
-0.1,0.1,1.1999999999999997,0.0,-0.5235987755982988,0,0.46644968,-0.26270768,1.2585499,0.7495484,-0.20344631,0.08843918,-0.7262115,0.7099485,-1.4767212,-0.5899379,-0.042052466,0.06342509,1.1732756,0.29224998
-0.1,0.1,1.1999999999999997,0.0,-0.5235987755982988,0,0.46408862,-0.26174477,1.2597768,0.7498298,-0.1820274,0.09558597,0.9742994,0.71018773,-1.4794569,-0.713569,-0.0818486,-0.019027878,1.1393725,0.11388485
-0.1,0.1,1.1999999999999997,0.0,-0.5235987755982988,0,0.4657817,-0.2624631,1.259347,0.75100523,-0.17343667,0.081929274,0.690001,0.70234764,-1.4867418,-0.7137205,-0.03976439,-0.023229415,1.147391,-0.0058285356
-0.1,0.1,1.1999999999999997,0.0,-0.5235987755982988,0,0.4652176,-0.26447982,1.2576315,0.7482994,-0.17417575,0.093552575,-0.7892772,0.69833475,-1.497981,-0.71055764,-0.06844375,-0.06846331,1.1525327,0.08721082
-0.1,0.1,1.1999999999999997,0.0,-0.5235987755982988,0,0.46588427,-0.26102957,1.2573596,0.74880284,-0.1906701,0.08869106,-1.7345724,0.6921779,-1.492955,-0.44431338,-0.087218806,0.016689518,1.1906967,-0.33326378
-0.1,0.1,1.1999999999999997,0.0,-0.5235987755982988,0,0.46430624,-0.26326576,1.2582945,0.74883765,-0.18005827,0.09073073,0.14408042,0.68671995,-1.4820714,-0.6779867,-0.072276995,0.13623692,1.1585686,0.116305456
-0.1,0.1,1.1999999999999997,0.0,-0.5235987755982988,0,0.4658915,-0.26031646,1.2582259,0.7515468,-0.18386479,0.08910699,1.2076929,0.6987835,-1.4859546,-0.5512012,-0.011502768,-0.02396986,1.1734369,0.16274074
-0.1,0.1,1.1999999999999997,0.0,-0.5235987755982988,0,0.4622567,-0.26334968,1.2590191,0.74967605,-0.16694205,0.097622484,0.16996565,0.7067938,-1.4859679,-0.6828497,-0.05432981,0.0750191,1.1818725,0.041923564
-0.1,0.1,1.1999999999999997,0.0,-0.5235987755982988,0,0.46754938,-0.2610563,1.2567916,0.75170517,-0.18387678,0.08870455,0.69639456,0.6831995,-1.4993002,-0.62235576,-0.04113563,-0.0478968,1.1438332,-0.1461128
-0.1,0.1,1.1999999999999997,0.0,-0.5235987755982988,0,0.46606663,-0.26138124,1.2587295,0.75008106,-0.19189474,0.09923398,-0.15768394,0.7040962,-1.4890803,-0.7006376,-0.09459601,-0.06384277,1.189149,0.32221016
-0.1,0.1,1.1999999999999997,0.0,-0.5235987755982988,0,0.47026885,-0.26258984,1.2565178,0.7497028,-0.1854175,0.0730968,0.2612146,0.6918886,-1.4989365,-0.5388193,-0.06289542,0.04117583,1.1360263,0.41837594
-0.1,0.1,1.1999999999999997,0.0,-0.5235987755982988,0,0.46719897,-0.2622887,1.2591648,0.7495927,-0.17458576,0.09243602,-0.486341,0.70289755,-1.4832671,-0.65145457,-0.09599451,0.027498111,1.1372447,0.36491588
-0.1,0.1,1.1999999999999997,0.0,-0.5235987755982988,0,0.46841982,-0.2625544,1.2573388,0.75048286,-0.19894566,0.094268195,0.90793926,0.70441264,-1.4944724,-0.71841365,-0.0522978,0.05058252,1.1607206,0.042013362
-0.1,0.1,1.1999999999999997,0.0,-0.5235987755982988,0,0.46510327,-0.26168254,1.257238,0.75025624,-0.188025,0.087692976,-0.21119797,0.69853806,-1.4827344,-0.5926381,-0.0655903,-0.06809072,1.1734557,0.010837521
-0.1,0.1,1.1999999999999997,0.0,-0.5235987755982988,0,0.465255,-0.2631801,1.2574946,0.7506212,-0.17931719,0.09629838,0.37728968,0.7115725,-1.4925203,-0.5897907,-0.04094647,-0.0005271996,1.1767963,0.1417592
-0.1,0.1,1.1999999999999997,0.0,-0.5235987755982988,0,0.4674613,-0.26145238,1.257794,0.7492667,-0.1729748,0.07869793,-0.6414828,0.69203705,-1.4922101,-0.55417573,-0.054482333,-0.024963062,1.1936752,-0.1599355
-0.1,0.1,1.1999999999999997,0.0,-0.5235987755982988,0,0.46610177,-0.26178515,1.2574327,0.7507514,-0.19181865,0.096373126,0.21502331,0.6897612,-1.4873064,-0.58310467,-0.05543368,-0.06497058,1.1768014,0.11335433
-0.1,0.1,1.1999999999999997,0.0,-0.5235987755982988,0,0.4691084,-0.2604399,1.258595,0.7496654,-0.15766022,0.09231672,-0.49223965,0.6943161,-1.484428,-0.5360309,-0.037330568,-0.06830295,1.1988888,-0.056415785
-0.1,0.1,1.1999999999999997,0.0,-0.5235987755982988,0,0.46843633,-0.2623084,1.2588083,0.75006956,-0.1910143,0.10240638,-1.2364364,0.69787484,-1.4943953,-0.6184988,-0.07411018,0.107645564,1.1910716,0.84786826
-0.1,0.1,1.1999999999999997,0.0,-0.5235987755982988,0,0.4674378,-0.2613363,1.2580283,0.751105,-0.19174783,0.09069873,-0.068821296,0.720647,-1.5001796,-0.682857,-0.08750178,-0.15346228,1.1415554,-0.039952118
-0.1,0.1,1.1999999999999997,0.0,-0.5235987755982988,0,0.46651343,-0.26318917,1.2566521,0.7480174,-0.16317715,0.08920883,-0.44927904,0.69669384,-1.5112097,-0.50367653,-0.06735275,0.028755488,1.120533,0.14234218
-0.1,0.1,1.1999999999999997,0.0,-0.5235987755982988,0,0.46655375,-0.26328132,1.2568951,0.75163764,-0.18516725,0.095432855,-0.027435804,0.7072041,-1.4891229,-0.60604423,-0.05094199,0.0045743394,1.1737581,0.0066387355
-0.1,0.1,1.1999999999999997,0.0,-0.5235987755982988,0,0.46522617,-0.26253554,1.2581928,0.7509811,-0.1712961,0.084417745,-1.2206897,0.7140519,-1.4796675,-0.59431964,-0.10395592,-0.09258803,1.1504148,-0.09799281
-0.1,0.1,1.1999999999999997,0.0,-0.5235987755982988,0,0.46430492,-0.2620992,1.2582982,0.7492951,-0.18861134,0.09406622,0.12370067,0.697256,-1.4922019,-0.49188372,-0.06986464,-0.08065816,1.1793233,0.11411443
-0.1,0.1,1.1999999999999997,0.0,-0.5235987755982988,0,0.46676934,-0.26185778,1.25799,0.749506,-0.17431954,0.09140224,-0.14914504,0.71247375,-1.4822844,-0.61706334,-0.08426684,-0.1257254,1.1114978,0.21172969
-0.1,0.1,1.1999999999999997,0.0,-0.5235987755982988,0,0.46447527,-0.26238012,1.2577615,0.7499088,-0.17696856,0.08499027,-0.04064586,0.705904,-1.4935067,-0.64793426,-0.061080497,-0.1100371,1.1908818,-0.27481505
-0.1,0.1,1.1999999999999997,0.0,-0.5235987755982988,0,0.46833608,-0.26209792,1.2583746,0.75050074,-0.16425876,0.08711514,-0.5183927,0.68580747,-1.4836025,-0.52245134,-0.088784605,0.01031411,1.1546925,-0.00566096
-0.1,0.1,1.1999999999999997,0.0,-0.5235987755982988,0,0.4675212,-0.26338965,1.2592245,0.7503406,-0.15924312,0.090977274,0.4696132,0.7035969,-1.4945227,-0.6383943,-0.07922072,-0.09433436,1.1960076,-0.5670558
-0.1,0.1,1.1999999999999997,0.0,-0.5235987755982988,0,0.46430498,-0.26312172,1.2583497,0.74937856,-0.16763967,0.08113935,-0.82417715,0.7097876,-1.4980708,-0.59577817,-0.066551946,-0.01875064,1.1967403,-0.06486469
-0.1,0.1,1.1999999999999997,0.0,-0.5235987755982988,0,0.46619985,-0.26270774,1.2581894,0.7515589,-0.17525534,0.09544908,1.1713262,0.7125708,-1.4831783,-0.59967136,-0.081080146,0.03201395,1.1596054,-0.060531728
-0.1,0.1,1.1999999999999997,0.0,-0.5235987755982988,0,0.4651229,-0.26273942,1.2580271,0.750473,-0.17598024,0.08340101,1.2454592,0.6929899,-1.4969708,-0.66873354,-0.03479334,0.050171807,1.175779,0.32182077
-0.1,0.1,1.1999999999999997,0.0,-0.5235987755982988,0,0.46766484,-0.2626395,1.2566651,0.75084776,-0.19135974,0.09127629,-0.8713985,0.6897876,-1.4891487,-0.6230064,-0.065482125,-0.06874513,1.1390626,0.036128044
-0.1,0.1,1.1999999999999997,0.0,-0.5235987755982988,0,0.46425733,-0.263101,1.258308,0.7496128,-0.16359194,0.08092696,0.56506026,0.7007284,-1.499821,-0.66703737,-0.069523305,-0.0011791182,1.1578974,0.49013484
-0.1,0.1,1.1999999999999997,0.0,-0.5235987755982988,0,0.46611187,-0.26197627,1.2578075,0.7501826,-0.18688546,0.089338325,-0.48697016,0.6977425,-1.4809926,-0.66096276,-0.057357762,-0.0471276,1.1852207,-0.44235533
-0.1,0.1,1.1999999999999997,0.0,-0.5235987755982988,0,0.46760848,-0.26244637,1.257689,0.7499027,-0.19156787,0.08942388,0.96782136,0.6997273,-1.4893767,-0.5278672,-0.0902922,0.031788375,1.215291,-0.16981971
-0.1,0.1,1.1999999999999997,0.0,-0.5235987755982988,0,0.46535462,-0.26126677,1.258552,0.7514112,-0.18826517,0.092181206,0.42119664,0.696211,-1.4883871,-0.5979139,-0.05266817,-0.03088096,1.1964943,-0.28368685
-0.1,0.1,1.1999999999999997,0.0,-0.5235987755982988,0,0.4647081,-0.26249182,1.2584828,0.7494213,-0.18571739,0.07802016,-0.13064255,0.7040038,-1.4850377,-0.52700293,-0.08821682,0.07841594,1.1511067,-0.14446019
-0.1,0.1,1.1999999999999997,0.0,-0.5235987755982988,0,0.46603617,-0.2632846,1.2580851,0.75134474,-0.19908358,0.09245496,0.028331762,0.6884484,-1.4913609,-0.622324,-0.0816862,0.124768175,1.1794178,0.39405105
-0.1,0.1,1.1999999999999997,0.0,-0.5235987755982988,0,0.47085956,-0.2593855,1.2572883,0.7531111,-0.17040694,0.083512925,-0.099953614,0.7025591,-1.4857997,-0.6160616,-0.062567905,0.06971843,1.0550843,0.04182888
-0.1,0.1,1.1999999999999997,0.0,-0.5235987755982988,0,0.4670582,-0.26305482,1.257185,0.7495368,-0.20230179,0.09406478,-0.5859956,0.6819041,-1.4942387,-0.63776124,-0.08708817,0.020525547,1.155115,0.20083289
-0.1,0.1,1.1999999999999997,0.0,-0.5235987755982988,0,0.4653589,-0.26092345,1.2584949,0.74950457,-0.19544974,0.09499589,-0.075397044,0.69176537,-1.4760528,-0.6876834,-0.053162996,-0.041187733,1.1443079,-0.06773011
-0.1,0.1,1.1999999999999997,0.0,-0.5235987755982988,0,0.46801555,-0.26359305,1.2567056,0.7494129,-0.20735064,0.07365275,-0.14149001,0.6958028,-1.4892421,-0.6099632,-0.07872322,-0.14796045,1.1434906,0.21019109
-0.1,0.1,1.1999999999999997,0.0,-0.5235987755982988,0,0.46606869,-0.25991255,1.2606245,0.75081027,-0.14782326,0.10252376,0.95992947,0.709303,-1.4886211,-0.6667947,-0.12090164,0.06339989,1.2064604,0.3207622
-0.1,0.1,1.1999999999999997,0.0,-0.5235987755982988,0,0.46689072,-0.26138327,1.2583237,0.75038356,-0.19714737,0.10138987,-0.7317229,0.6984118,-1.4985191,-0.59791464,-0.07951809,-0.21826851,1.1688368,-0.2923059
-0.1,0.1,1.1999999999999997,0.0,-0.5235987755982988,0,0.46941164,-0.264172,1.2582856,0.75220346,-0.19445218,0.087194584,-0.1903458,0.7033547,-1.490859,-0.5649742,-0.057555526,0.13421635,1.1525754,0.11150416
-0.1,0.1,1.1999999999999997,0.0,-0.5235987755982988,0,0.4638198,-0.2647127,1.259261,0.75140464,-0.17298591,0.08961418,-0.720787,0.67906713,-1.4901574,-0.6821533,-0.02737138,-0.050306372,1.2471159,0.121559426
-0.1,0.1,1.1999999999999997,0.0,-0.5235987755982988,0,0.46405965,-0.2634753,1.2592511,0.75060445,-0.18855646,0.103151016,0.42589718,0.7020177,-1.5006495,-0.69164175,-0.05498766,-0.13880363,1.2085061,0.10354547
-0.1,0.1,1.1999999999999997,0.0,-0.5235987755982988,0,0.4679951,-0.26147547,1.2587851,0.75045264,-0.20791377,0.0972786,0.17553246,0.70657974,-1.482447,-0.5540126,-0.024701746,0.06924153,1.1704159,-0.23885535
-0.1,0.1,1.1999999999999997,0.0,-0.5235987755982988,0,0.46908104,-0.2621386,1.2582297,0.7495934,-0.16966474,0.080899574,0.571609,0.70329237,-1.4898837,-0.5958149,-0.09273661,-0.03683994,1.1817737,0.23595493
-0.1,0.1,1.1999999999999997,0.0,-0.5235987755982988,0,0.4667264,-0.26234964,1.2582355,0.75102264,-0.20821205,0.08404026,-0.4187747,0.69257414,-1.4879601,-0.6240849,-0.025040183,-0.036557656,1.1446408,-0.03620353
-0.1,0.1,1.1999999999999997,0.0,-0.5235987755982988,0,0.46380687,-0.2625483,1.2588718,0.7507708,-0.1759016,0.0884011,0.32398507,0.70698273,-1.5010893,-0.6111747,-0.10296985,0.052251115,1.115663,0.51909363
-0.1,0.1,1.1999999999999997,0.0,-0.5235987755982988,0,0.46680486,-0.26028728,1.2582914,0.75008696,-0.18158998,0.083866864,0.09566853,0.7146253,-1.4874876,-0.6247398,-0.08143355,0.07859628,1.1274046,0.10768996
-0.1,0.1,1.1999999999999997,0.0,-0.5235987755982988,0,0.46835247,-0.2610619,1.2564685,0.75144005,-0.17194805,0.071557805,-0.4162435,0.7124457,-1.5004168,-0.63726753,-0.06319061,0.14841837,1.2010889,0.16629848
-0.1,0.1,1.1999999999999997,0.0,-0.5235987755982988,0,0.4677912,-0.26253885,1.2589905,0.7490147,-0.16619225,0.08958428,0.5293713,0.6882923,-1.5000899,-0.58446836,-0.07526822,-0.024117326,1.1354429,0.0214185
-0.1,0.1,1.1999999999999997,0.0,-0.5235987755982988,0,0.46788025,-0.26335967,1.2582967,0.75189424,-0.14759931,0.093003705,-0.13487157,0.70168746,-1.4942454,-0.6149474,-0.050303813,0.053539146,1.1658857,0.3462192
-0.1,0.1,1.1999999999999997,0.0,-0.5235987755982988,0,0.46789813,-0.26192307,1.2585574,0.7507511,-0.14541204,0.086882025,-1.6881735,0.6900472,-1.4976941,-0.56033665,-0.0949166,-0.03521816,1.1996601,0.076037616
-0.1,0.1,1.1999999999999997,0.0,-0.5235987755982988,0,0.46378312,-0.26346412,1.2591316,0.74969065,-0.19068964,0.10495187,0.15281247,0.70536023,-1.4824945,-0.632395,-0.06360678,0.051450692,1.1554593,-0.21834038
-0.1,0.1,1.1999999999999997,0.0,-0.5235987755982988,0,0.46628112,-0.2595756,1.259116,0.7521563,-0.17035252,0.091063574,-0.12449342,0.6976585,-1.4767807,-0.4642274,-0.12839963,-0.072526135,1.1166742,0.08794836
-0.1,0.1,1.1999999999999997,0.0,-0.5235987755982988,0,0.462677,-0.26339868,1.2568835,0.74984306,-0.19350176,0.08525085,0.36998576,0.6954805,-1.4961518,-0.6211807,-0.090058826,0.093063585,1.1393754,-0.04906002
-0.1,0.1,1.1999999999999997,0.0,-0.5235987755982988,0,0.46645066,-0.2634816,1.257743,0.7522638,-0.17722641,0.08201341,1.0315483,0.69240904,-1.5028197,-0.6932838,-0.047065087,-0.017004376,1.148022,0.13823089
-0.1,0.1,1.1999999999999997,0.0,-0.5235987755982988,0,0.46742907,-0.26185068,1.2571214,0.7502511,-0.16272064,0.09010825,-0.29335877,0.69242394,-1.4982414,-0.659477,-0.0443614,-0.0099084955,1.1854148,0.19455531
-0.1,0.1,1.1999999999999997,0.0,-0.5235987755982988,0,0.46752563,-0.26432297,1.2583251,0.7535488,-0.19414881,0.07141621,-1.0040137,0.7036819,-1.4913785,-0.6878274,-0.06789127,-0.08588353,1.1524976,-0.35712373
-0.1,0.1,1.1999999999999997,0.0,-0.5235987755982988,0,0.46619537,-0.26296777,1.2581849,0.7493973,-0.20665932,0.08563447,-0.77073747,0.7030338,-1.4840223,-0.6212422,-0.070585296,0.13546291,1.1980677,0.033211876
-0.1,0.1,1.1999999999999997,0.0,-0.5235987755982988,0,0.46754378,-0.26236513,1.2569641,0.7508335,-0.18311663,0.06731017,0.44027346,0.7012899,-1.4791318,-0.621872,-0.06622366,-0.108207196,1.0981923,-0.3304971
-0.1,0.1,1.1999999999999997,0.0,-0.5235987755982988,0,0.46846452,-0.26008478,1.2566323,0.75217074,-0.20031355,0.08410883,0.42032713,0.6945235,-1.5094352,-0.62834823,-0.069089115,-0.110417515,1.1499792,-0.22344889
-0.1,0.1,1.1999999999999997,0.0,-0.5235987755982988,0,0.4660357,-0.2631326,1.2588497,0.75126773,-0.17934617,0.09408597,-0.11411973,0.7095529,-1.4933702,-0.38134977,-0.02129318,-0.077130765,1.1370146,0.2024936
-0.1,0.1,1.1999999999999997,0.0,-0.5235987755982988,0,0.46806103,-0.26114517,1.2584782,0.7509816,-0.15832368,0.100610025,-0.3903681,0.68893605,-1.4900831,-0.76477253,-0.020353148,-0.046042573,1.1561064,0.10442122
-0.1,0.1,1.1999999999999997,0.0,-0.5235987755982988,0,0.4676974,-0.26419094,1.2585716,0.7506991,-0.1725199,0.0990408,-1.1305382,0.7045272,-1.4919271,-0.598284,-0.095267415,0.13646635,1.1211245,0.14418986
-0.1,0.1,1.1999999999999997,0.0,-0.5235987755982988,0,0.46524304,-0.26399755,1.2574521,0.75109327,-0.1763405,0.090321355,2.0261505,0.71187043,-1.4961458,-0.61999625,-0.050780945,-0.008528549,1.1424712,-0.05628312
-0.1,0.1,1.1999999999999997,0.0,-0.5235987755982988,0,0.4677502,-0.26136974,1.25779,0.7488647,-0.184564,0.08596003,0.30200538,0.694462,-1.4813212,-0.6667291,-0.06405424,-0.00074979675,1.1636826,0.11927193
-0.1,0.1,1.1999999999999997,0.0,-0.5235987755982988,0,0.46584782,-0.26282614,1.258236,0.7522828,-0.19728285,0.08146561,-0.42689472,0.68272513,-1.4944183,-0.5175065,-0.035059385,-0.10436105,1.0829453,0.29646006
-0.1,0.1,1.1999999999999997,0.0,-0.5235987755982988,0,0.4673566,-0.26165104,1.2587017,0.75153285,-0.15529914,0.08612409,-0.30781278,0.6943975,-1.499703,-0.7374689,-0.07381549,0.032906305,1.0960071,-0.020696348
-0.1,0.1,1.1999999999999997,0.0,-0.5235987755982988,0,0.47034597,-0.26340532,1.2567035,0.75027806,-0.1786933,0.10172585,0.76353127,0.7076834,-1.4986374,-0.65064067,-0.11008103,-0.08149699,1.1491246,0.0731791
-0.1,0.1,1.1999999999999997,0.0,-0.5235987755982988,0,0.46737164,-0.2648909,1.2597507,0.75091857,-0.15678181,0.084420174,1.3130221,0.69762677,-1.4966158,-0.6619823,-0.09765316,-0.069591336,1.190539,0.1579376
-0.1,0.1,1.1999999999999997,0.0,-0.5235987755982988,0,0.46871778,-0.26393265,1.2594801,0.74981093,-0.18028507,0.08281069,0.23222393,0.70113766,-1.492769,-0.66573596,-0.07963,0.10596485,1.1688799,-0.20501046
-0.1,0.1,1.1999999999999997,0.0,-0.5235987755982988,0,0.4645129,-0.26383537,1.2566144,0.7498773,-0.18642905,0.086036235,0.45895043,0.6911745,-1.5075548,-0.60791266,-0.048913203,0.050827734,1.209186,0.065214224
-0.1,0.1,1.1999999999999997,0.0,-0.5235987755982988,0,0.46619356,-0.26146087,1.2583567,0.7520638,-0.17988631,0.076704875,0.9303315,0.7081013,-1.4917085,-0.6109033,-0.038330544,0.13970192,1.1266772,0.29294017
-0.1,0.1,1.1999999999999997,0.0,-0.5235987755982988,0,0.46512946,-0.2639753,1.2587731,0.748994,-0.19634834,0.081109315,0.28658792,0.6965322,-1.4976946,-0.5607899,-0.103896365,-0.14830211,1.1638482,-0.14660482
-0.1,0.1,1.1999999999999997,0.0,-0.5235987755982988,0,0.46663216,-0.25966302,1.2582016,0.7513455,-0.19145581,0.077976935,-0.051850468,0.6893097,-1.4890307,-0.59829533,-0.0564341,-0.056584988,1.2123318,-0.5792731
-0.1,0.1,1.1999999999999997,0.0,-0.5235987755982988,0,0.46649733,-0.26171178,1.2583904,0.75014037,-0.18463777,0.08305807,0.36773735,0.7029937,-1.4855223,-0.62044436,-0.08329825,-0.078836404,1.1436914,-0.4049429
-0.1,0.1,1.1999999999999997,0.0,-0.5235987755982988,0,0.46802467,-0.26242578,1.2571456,0.7522649,-0.19906066,0.07288033,0.24882367,0.6923716,-1.4919403,-0.716708,-0.06212317,0.089280084,1.2252505,-0.15567769
-0.1,0.1,1.1999999999999997,0.0,-0.5235987755982988,0,0.46704555,-0.26164228,1.2585422,0.7527571,-0.18651691,0.07840044,1.1448194,0.6825462,-1.4933889,-0.6867691,-0.058147773,-0.18669507,1.1304567,-0.4823031
-0.1,0.1,1.1999999999999997,0.0,-0.5235987755982988,0,0.46787035,-0.26136872,1.2587686,0.75058097,-0.17878577,0.083780095,-0.34506702,0.69626445,-1.4924709,-0.6408417,-0.073050946,0.14038453,1.1626892,0.0979863
-0.1,0.1,1.1999999999999997,0.0,-0.5235987755982988,0,0.46709904,-0.2646435,1.2574773,0.75147444,-0.19332278,0.0837606,-0.05237426,0.70603806,-1.4970319,-0.6600078,-0.04513026,0.095946684,1.1384497,0.04873927
-0.1,0.1,1.1999999999999997,0.0,-0.5235987755982988,0,0.469252,-0.2642827,1.2588937,0.7494476,-0.1653052,0.07388131,1.3404855,0.71543396,-1.4877226,-0.64634085,-0.049655575,-0.0016571066,1.1395831,0.3261082
-0.1,0.1,1.1999999999999997,0.0,-0.5235987755982988,0,0.46701553,-0.26469174,1.2560472,0.7492648,-0.16414705,0.07590037,-0.14830789,0.7004971,-1.5004659,-0.49418795,-0.026922166,-0.007888106,1.1253115,-0.03537543
-0.1,0.1,1.1999999999999997,0.0,-0.5235987755982988,0,0.46627322,-0.26051974,1.2579583,0.7489007,-0.17457946,0.079156645,-0.51505774,0.71047354,-1.4899486,-0.59718966,-0.08351626,0.007945597,1.1488155,-0.12045026
-0.1,0.1,1.1999999999999997,0.0,-0.5235987755982988,0,0.46559897,-0.2588203,1.2580559,0.7508162,-0.17332204,0.06252662,0.01636864,0.6917944,-1.499934,-0.5990071,-0.08952018,-0.01648133,1.1833992,0.2581938
-0.1,0.1,1.1999999999999997,0.0,-0.5235987755982988,0,0.46502352,-0.26268712,1.2587354,0.7515719,-0.18857901,0.08106695,-0.933148,0.70268726,-1.4923749,-0.6288977,-0.047863916,0.05993855,1.1770446,0.35359004
-0.1,0.1,1.1999999999999997,0.0,-0.5235987755982988,0,0.46582592,-0.26249298,1.2585644,0.7516636,-0.1671329,0.08233392,1.4661579,0.6986635,-1.4943006,-0.5892075,-0.04496143,-0.094317034,1.1423222,0.14932834
-0.1,0.1,1.1999999999999997,0.0,-0.5235987755982988,0,0.46640623,-0.26469487,1.2600546,0.75213253,-0.20728385,0.09697276,-0.15002647,0.6898693,-1.4977738,-0.71490425,-0.052494507,0.050912715,1.1632118,-0.021941701
-0.1,0.1,1.1999999999999997,0.0,-0.5235987755982988,0,0.46707097,-0.2601405,1.2589447,0.75103706,-0.19023758,0.07162608,1.0351585,0.6819423,-1.4820728,-0.550326,-0.10876052,-0.041551255,1.2069505,0.22220631
-0.1,0.1,1.1999999999999997,0.0,-0.5235987755982988,0,0.4673035,-0.26283985,1.2566773,0.74920064,-0.18639371,0.08019191,-0.37187478,0.70185304,-1.4846054,-0.60337895,-0.05076877,0.002193648,1.1827583,0.036280666
-0.1,0.1,1.1999999999999997,0.0,-0.5235987755982988,0,0.46596706,-0.26480478,1.2574189,0.7498983,-0.1787908,0.08933376,0.7477263,0.7234423,-1.4875156,-0.5538702,-0.020333147,-0.063740015,1.094992,0.44456273
-0.1,0.1,1.1999999999999997,0.0,-0.5235987755982988,0,0.4669094,-0.2652143,1.257488,0.75060236,-0.16489343,0.07691084,-0.07892498,0.7116487,-1.4965781,-0.59961754,-0.084686205,-0.09735416,1.1729767,0.028534532
-0.1,0.1,1.1999999999999997,0.0,-0.5235987755982988,0,0.46734944,-0.26170695,1.2591083,0.75069565,-0.1733667,0.10324922,-0.15381764,0.7083318,-1.4894552,-0.6866792,-0.013518798,0.0012225811,1.1805867,0.11584564
-0.1,0.1,1.1999999999999997,0.0,-0.5235987755982988,0,0.46818975,-0.26292327,1.2580284,0.75025105,-0.18985437,0.08271945,0.4658172,0.69719344,-1.4920211,-0.56104356,-0.09835315,0.04026549,1.1213337,-0.024060769
-0.1,0.1,1.1999999999999997,0.0,-0.5235987755982988,0,0.46840587,-0.26373586,1.2579386,0.74868375,-0.17804176,0.10622702,-0.6090294,0.68707794,-1.494342,-0.66589564,-0.05883815,-0.18437582,1.159111,-0.13140027
-0.1,0.1,1.1999999999999997,0.0,-0.5235987755982988,0,0.4660158,-0.26081693,1.2573521,0.7493843,-0.16952789,0.09383768,0.41378456,0.6925841,-1.4953836,-0.5980894,-0.060941547,-0.037883434,1.147872,0.043397397
-0.1,0.1,1.1999999999999997,0.0,-0.5235987755982988,0,0.46656895,-0.26268756,1.2584689,0.7521383,-0.19261403,0.08794379,-0.35299635,0.7070247,-1.491628,-0.5271998,-0.077093706,0.0062925285,1.1701695,0.2496464
-0.1,0.1,1.1999999999999997,0.0,-0.5235987755982988,0,0.46500987,-0.26083544,1.2580271,0.749856,-0.13899598,0.09334614,0.4066917,0.6790345,-1.4917979,-0.45149603,-0.045603316,0.05036347,1.1482811,0.15627025
-0.1,0.1,1.1999999999999997,0.0,-0.5235987755982988,0,0.4648823,-0.2627142,1.255854,0.7494474,-0.22086754,0.07849997,-0.93088067,0.6972324,-1.4977702,-0.5442479,-0.110338084,-0.16052112,1.167753,0.19116078
-0.1,0.1,1.1999999999999997,0.0,-0.5235987755982988,0,0.4683766,-0.26257378,1.2592362,0.7514936,-0.19346687,0.08773733,-0.9099558,0.69337904,-1.4850359,-0.5318331,-0.06309116,0.036323622,1.1529555,0.32459626
-0.1,0.1,1.1999999999999997,0.0,-0.5235987755982988,0,0.46325716,-0.2614906,1.2571776,0.7507781,-0.172685,0.086450085,-0.83071524,0.70587105,-1.4927281,-0.65301234,-0.09231784,-0.13591668,1.1443578,-0.061369594
-0.1,0.1,1.1999999999999997,0.0,-0.5235987755982988,0,0.46467164,-0.2640138,1.256506,0.7472889,-0.18192512,0.08056067,-0.79724455,0.6979563,-1.4923682,-0.5689889,-0.07166703,-0.1819386,1.1209832,-0.107334666
-0.1,0.1,1.1999999999999997,0.0,-0.5235987755982988,0,0.46259102,-0.26278198,1.2571821,0.748829,-0.17246448,0.09977507,-0.3238847,0.7054589,-1.4867349,-0.69816655,-0.041151375,0.1161593,1.1554945,0.58438766
-0.1,0.1,1.1999999999999997,0.0,-0.5235987755982988,0,0.46771592,-0.26084468,1.2562315,0.74887294,-0.16638148,0.093820296,-0.13363674,0.68672436,-1.492066,-0.55260146,-0.03509588,0.016665244,1.1457433,0.31404603
-0.1,0.1,1.1999999999999997,0.0,-0.5235987755982988,0,0.46404094,-0.26454154,1.2578893,0.7507607,-0.17475925,0.067380555,0.6691625,0.71697724,-1.4850293,-0.60719746,-0.086247824,-0.07236672,1.118863,0.34184387
-0.1,0.1,1.1999999999999997,0.0,-0.5235987755982988,0,0.46423614,-0.26108694,1.256615,0.74935734,-0.19745362,0.09191752,0.070197605,0.6965638,-1.4879274,-0.68176794,-0.0851681,-0.023630427,1.2143474,0.22206078
-0.1,0.1,1.1999999999999997,0.0,-0.5235987755982988,0,0.4636988,-0.26350194,1.257047,0.7482015,-0.17887966,0.09099773,-0.52385974,0.7036007,-1.4824926,-0.5977249,-0.07338159,-0.1016396,1.1673954,0.141354
-0.1,0.1,1.1999999999999997,0.0,-0.5235987755982988,0,0.46600094,-0.25988683,1.258078,0.74772525,-0.1668138,0.08945005,1.1535904,0.6965017,-1.4886504,-0.5494802,-0.057970475,-0.08880123,1.1587443,-0.0013833005
-0.1,0.1,1.1999999999999997,0.0,-0.5235987755982988,0,0.46180284,-0.2605128,1.2573497,0.7508954,-0.15103787,0.07192325,-0.31590772,0.7069037,-1.4918287,-0.5950865,-0.046212096,0.036510877,1.1732639,0.2471398
-0.1,0.1,1.1999999999999997,0.0,-0.5235987755982988,0,0.4646907,-0.26284823,1.2572836,0.75084746,-0.18298066,0.09668153,2.0077581,0.7074716,-1.4742868,-0.73038065,-0.024579808,0.049904615,1.1507777,-0.15897794
-0.1,0.1,1.1999999999999997,0.0,-0.5235987755982988,0,0.46608913,-0.2601497,1.2566825,0.75136817,-0.19259128,0.08611985,-0.2980787,0.6986067,-1.4900177,-0.5876665,-0.07384065,0.018950276,1.1515151,0.14547893
-0.1,0.1,1.1999999999999997,0.0,-0.5235987755982988,0,0.46476778,-0.2607184,1.2575418,0.7515028,-0.18449251,0.09275637,0.41754898,0.69970495,-1.4747437,-0.5658237,-0.08515337,0.033874683,1.0870816,-0.29703543
-0.1,0.1,1.1999999999999997,0.0,-0.5235987755982988,0,0.466586,-0.2651162,1.2591056,0.7492127,-0.18531331,0.10044487,0.5975248,0.70353484,-1.4785318,-0.6431034,-0.03622865,0.22951874,1.1426333,-0.10719715
-0.1,0.1,1.1999999999999997,0.0,-0.5235987755982988,0,0.46658012,-0.26070806,1.2592658,0.7485056,-0.19967611,0.07955392,1.3308759,0.6963296,-1.4810104,-0.5378621,-0.036155522,0.10922425,1.1682862,-0.11830233
-0.1,0.1,1.1999999999999997,0.0,-0.5235987755982988,0,0.46904513,-0.2628147,1.2566451,0.7494491,-0.15692665,0.09132122,-0.51613903,0.70428175,-1.494655,-0.5693741,-0.06303839,0.025241975,1.1780926,0.041224737
-0.1,0.1,1.1999999999999997,0.0,-0.5235987755982988,0,0.4678256,-0.262425,1.2599587,0.7511227,-0.16749713,0.08565635,0.57238424,0.6826272,-1.5070726,-0.6162821,-0.1073887,0.0052278033,1.1993359,0.056581613
-0.1,0.1,1.1999999999999997,0.0,-0.5235987755982988,0,0.46847054,-0.25994152,1.2568521,0.75119513,-0.17233251,0.09604951,1.1601307,0.6989071,-1.4812909,-0.58476496,-0.053896613,0.08896583,1.1194111,0.12944572
-0.1,0.1,1.1999999999999997,0.0,-0.5235987755982988,0,0.4665785,-0.26129955,1.2579676,0.7502576,-0.18789007,0.090760365,0.9865357,0.6876174,-1.4862623,-0.6880744,-0.011014835,0.01495078,1.1405932,0.39806962
-0.1,0.1,1.1999999999999997,0.0,-0.5235987755982988,0,0.46497837,-0.26145458,1.2577487,0.7509049,-0.16993904,0.09385652,1.2363222,0.7157236,-1.4947634,-0.5504785,-0.04481908,-0.023393707,1.1531098,-0.2223817
-0.1,0.1,1.1999999999999997,0.0,-0.5235987755982988,0,0.46604478,-0.26163152,1.2601476,0.75018454,-0.18644135,0.07911183,-0.55395436,0.69866794,-1.4877342,-0.59175855,-0.05881839,-0.18858635,1.1372563,0.044108737
-0.1,0.1,1.1999999999999997,0.0,-0.5235987755982988,0,0.46580985,-0.26273987,1.2577621,0.75204664,-0.18172307,0.10240919,1.3743706,0.6990565,-1.5055773,-0.5543099,-0.09134136,-0.068311945,1.1485369,-0.0071591465
-0.1,0.1,1.1999999999999997,0.0,-0.5235987755982988,0,0.46768415,-0.26246583,1.2601296,0.7504676,-0.16234334,0.0920372,-0.48435867,0.7057036,-1.4905796,-0.60201925,-0.054551966,-0.16149506,1.1571063,0.08031816
-0.1,0.1,1.1999999999999997,0.0,-0.5235987755982988,0,0.4640272,-0.26215947,1.2572783,0.7491365,-0.18318912,0.09020333,-0.47471386,0.69904876,-1.5105232,-0.64409214,-0.07992294,0.06588338,1.1463997,0.082885645
-0.1,0.1,1.1999999999999997,0.0,-0.5235987755982988,0,0.4652634,-0.2613091,1.2570336,0.7484202,-0.20309074,0.08078543,0.9538237,0.6856221,-1.4942849,-0.65203196,-0.0927669,0.18777996,1.1302447,0.13469422
-0.1,0.1,1.1999999999999997,0.0,-0.5235987755982988,0,0.46936524,-0.26174963,1.2583923,0.7499413,-0.1796913,0.086191386,-1.073343,0.70494944,-1.4886135,-0.53651047,-0.06297714,0.02061952,1.140358,0.4467873
-0.1,0.1,1.1999999999999997,0.0,-0.5235987755982988,0,0.4676853,-0.26080206,1.257609,0.7511746,-0.17079598,0.08819934,-0.6045449,0.70027155,-1.4790183,-0.5710284,-0.07968113,0.06131817,1.1943339,0.2125491
-0.1,0.1,1.1999999999999997,0.0,-0.5235987755982988,0,0.46500185,-0.26340184,1.2582425,0.7497332,-0.18354952,0.099837355,1.8155928,0.6969243,-1.5016409,-0.52476597,-0.03888065,-0.065921605,1.1396289,0.44220784
-0.1,0.1,1.1999999999999997,0.0,-0.5235987755982988,0,0.4676072,-0.26473936,1.2588502,0.7489421,-0.17230047,0.102998294,1.0455221,0.7046383,-1.4880493,-0.6265663,-0.06040648,-0.02773923,1.161909,0.5013026
-0.1,0.1,1.1999999999999997,0.0,-0.5235987755982988,0,0.47042605,-0.2611013,1.258529,0.7494975,-0.1777257,0.098606795,0.82637453,0.7020424,-1.4908009,-0.6398378,-0.021631598,0.019052574,1.1234728,0.24332389
-0.1,0.1,1.1999999999999997,0.0,-0.5235987755982988,0,0.46652246,-0.26285613,1.2588707,0.74944264,-0.1483891,0.08822939,5.248386e-05,0.6884973,-1.4788771,-0.671757,-0.07531358,0.02840247,1.1566691,-0.07934965
-0.1,0.1,1.1999999999999997,0.0,-0.5235987755982988,0,0.46793768,-0.2619256,1.2576439,0.75137776,-0.1674933,0.08544913,-0.853609,0.6963122,-1.4897084,-0.58189726,-0.03316207,0.14868224,1.124636,0.009840644
-0.1,0.1,1.1999999999999997,0.0,-0.5235987755982988,0,0.46655148,-0.26284164,1.2580528,0.75190294,-0.17110957,0.095443524,0.9061213,0.70397204,-1.489516,-0.5883644,-0.015260411,-0.0738607,1.1875021,0.021031843
-0.1,0.1,1.1999999999999997,0.0,-0.5235987755982988,0,0.46478137,-0.26084235,1.2569964,0.7503772,-0.18034068,0.083822496,-0.5176757,0.6933528,-1.4988506,-0.6861058,-0.077747285,-0.09520271,1.1511978,0.1642176
-0.1,0.1,1.1999999999999997,0.0,-0.5235987755982988,0,0.46690932,-0.26076883,1.2586594,0.749408,-0.15925764,0.09754753,0.66235834,0.7036593,-1.5003225,-0.54016525,-0.050994974,-0.088778175,1.1886554,0.01316557
-0.1,0.1,1.1999999999999997,0.0,-0.5235987755982988,0,0.46625754,-0.26482368,1.2568932,0.7498089,-0.16618577,0.07938293,0.21429698,0.71311903,-1.4858487,-0.7563211,-0.07488483,0.046449784,1.1599547,0.41039744
-0.1,0.1,1.1999999999999997,0.0,-0.5235987755982988,0,0.46738136,-0.26309845,1.2579728,0.7499313,-0.18055534,0.08634462,0.92622876,0.7080605,-1.4910961,-0.75838995,-0.08823252,0.07011371,1.173216,0.7581647
-0.1,0.1,1.1999999999999997,0.0,-0.5235987755982988,0,0.46683487,-0.26090604,1.2592481,0.7508726,-0.17547888,0.10109341,1.3328271,0.69867164,-1.4969219,-0.5303304,-0.07812983,-0.07758441,1.1473242,0.47995174
-0.1,0.1,1.1999999999999997,0.0,-0.5235987755982988,0,0.46652153,-0.2605818,1.2586689,0.7501429,-0.17225201,0.08328611,0.23932073,0.6961469,-1.4935058,-0.61334544,-0.08310168,0.01795271,1.1155533,0.19363499
-0.1,0.1,1.1999999999999997,0.0,-0.5235987755982988,0,0.46652353,-0.26308864,1.2589794,0.7513806,-0.18470152,0.08534204,-1.0547503,0.6916193,-1.4935169,-0.5436389,-0.09140263,0.09214179,1.1719164,-0.12893435
-0.1,0.1,1.1999999999999997,0.0,-0.5235987755982988,0,0.46511117,-0.26261657,1.2573159,0.7505114,-0.18190618,0.0858806,-0.25314966,0.6893526,-1.5018604,-0.66276115,-0.04642979,-0.09981365,1.1256672,0.049141396
-0.1,0.1,1.1999999999999997,0.0,-0.5235987755982988,0,0.4633961,-0.2621553,1.2580774,0.7511275,-0.15762535,0.07907835,0.006731438,0.70620596,-1.5014436,-0.55432796,-0.05928404,-0.04722176,1.1756561,-0.24622601
-0.1,0.1,1.1999999999999997,0.0,-0.5235987755982988,0,0.4664948,-0.26350382,1.2576512,0.7515695,-0.1613724,0.08265785,-0.5594157,0.7002207,-1.4881347,-0.6948865,-0.060098328,0.002266507,1.0900456,0.047432594
-0.1,0.1,1.1999999999999997,0.0,-0.5235987755982988,0,0.46759418,-0.26279348,1.2573986,0.7505067,-0.19058654,0.09356578,0.86345816,0.6943007,-1.4886876,-0.63171405,-0.10296239,0.13404983,1.1362741,-0.04003617
-0.1,0.1,1.1999999999999997,0.0,-0.5235987755982988,0,0.46375883,-0.2635608,1.2579778,0.7518107,-0.16926125,0.083696686,1.2621092,0.68845445,-1.4979506,-0.65989316,-0.06950463,-0.09413579,1.1648841,0.010359659
-0.1,0.1,1.1999999999999997,0.0,-0.5235987755982988,0,0.4674237,-0.2616492,1.257874,0.7501788,-0.16698052,0.08177546,-0.1700553,0.6984092,-1.4864048,-0.6179474,-0.058737446,0.081652164,1.1305608,0.26181418
-0.1,0.1,1.1999999999999997,0.0,-0.5235987755982988,0,0.4659567,-0.26184857,1.2575203,0.7482299,-0.18928514,0.11164605,0.42590472,0.6977919,-1.487487,-0.75306845,-0.04757645,0.0051484113,1.1258793,0.061314728
-0.1,0.1,1.1999999999999997,0.0,-0.5235987755982988,0,0.46684748,-0.26234332,1.2584072,0.751328,-0.1621095,0.08849289,0.9323895,0.6895759,-1.4981711,-0.6061317,-0.09286566,-0.04860219,1.1965833,0.0043282937
-0.1,0.1,1.1999999999999997,0.0,-0.5235987755982988,0,0.46565104,-0.2621025,1.256808,0.74947625,-0.17128287,0.09942213,-1.0130724,0.70401734,-1.4847882,-0.68388057,-0.10563492,-0.008234473,1.1409739,-0.3508493
-0.1,0.1,1.1999999999999997,0.0,-0.5235987755982988,0,0.4657335,-0.26176953,1.2570884,0.75095505,-0.17694065,0.09764071,-0.1321759,0.7018467,-1.4932909,-0.484833,-0.068008915,0.050675426,1.1314135,0.3053668
-0.1,0.1,1.1999999999999997,0.0,-0.5235987755982988,0,0.46673897,-0.26348794,1.2580183,0.7482947,-0.18807937,0.091558576,0.8276465,0.70780796,-1.5006856,-0.56607515,-0.05277363,0.007835073,1.1694134,0.21180323
-0.1,0.1,1.1999999999999997,0.0,-0.5235987755982988,0,0.46561602,-0.2648111,1.2590152,0.7499468,-0.142762,0.09022765,0.8718413,0.7088048,-1.4842874,-0.5803766,-0.039559066,0.04163587,1.1402754,0.2833266
-0.1,0.1,1.1999999999999997,0.0,-0.5235987755982988,0,0.46594322,-0.26122597,1.2566726,0.7508806,-0.16310047,0.09304437,-0.7852246,0.6998331,-1.4949772,-0.5871261,-0.054351594,-0.032182757,1.1546383,0.21886592
-0.1,0.1,1.1999999999999997,0.0,-0.5235987755982988,0,0.46631965,-0.26062924,1.2568417,0.7476482,-0.15030791,0.09441506,-1.9414648,0.69530106,-1.481385,-0.48777825,-0.0636729,-0.000557872,1.1523656,0.29368523
-0.1,0.1,1.1999999999999997,0.0,-0.5235987755982988,0,0.46679655,-0.2612094,1.2564644,0.7514471,-0.18547364,0.093709186,2.3961482,0.7049405,-1.494268,-0.5555143,-0.07727721,0.11955912,1.2227209,0.1435604
-0.1,0.1,1.1999999999999997,0.0,-0.5235987755982988,0,0.46380368,-0.26267102,1.2584077,0.75083166,-0.18878666,0.08555645,1.113475,0.70254076,-1.5008551,-0.6769144,-0.07736615,-0.011613365,1.1833185,0.024378551
-0.1,0.1,1.1999999999999997,0.0,-0.5235987755982988,0,0.46716332,-0.2637442,1.2582598,0.74919033,-0.15167779,0.08434128,-0.46128795,0.70490515,-1.4876124,-0.6791374,-0.061973833,-0.004297806,1.1813756,0.09228706
-0.1,0.1,1.1999999999999997,0.0,-0.5235987755982988,0,0.46745366,-0.26381636,1.2578565,0.75001466,-0.17930093,0.09217955,-0.4213944,0.70451444,-1.4977182,-0.6603562,-0.033117175,-0.06814802,1.1250566,0.5282796
-0.1,0.1,1.1999999999999997,0.0,-0.5235987755982988,0,0.46642882,-0.26143366,1.2580228,0.75025856,-0.17175023,0.09639473,-0.84055865,0.7017417,-1.4774399,-0.5275843,-0.040850505,0.077507995,1.1764109,0.31348267
-0.1,0.1,1.1999999999999997,0.0,-0.5235987755982988,0,0.46600163,-0.26120552,1.2565788,0.7524023,-0.16896114,0.08553912,-0.74923724,0.6895524,-1.4774629,-0.6561036,-0.04740211,0.04334873,1.1617223,0.014637509
-0.1,0.1,1.1999999999999997,0.0,-0.5235987755982988,0,0.4670274,-0.25954404,1.2573915,0.75174606,-0.17874514,0.07894353,0.78250664,0.6900448,-1.4977164,-0.6310261,-0.06674463,-0.1507696,1.1166786,0.0016111345
-0.1,0.1,1.1999999999999997,0.0,-0.5235987755982988,0,0.4657244,-0.26193985,1.2576237,0.74933517,-0.1628449,0.08999742,0.08945422,0.70209897,-1.4996068,-0.6735385,-0.054289225,-0.0720748,1.124999,-0.13806883
-0.1,0.1,1.1999999999999997,0.0,-0.5235987755982988,0,0.46624485,-0.26275802,1.2564669,0.7520435,-0.17517851,0.09526532,-1.3874865,0.70217544,-1.4953432,-0.49007377,-0.058804795,-0.062892064,1.1212885,-0.12060908
-0.1,0.1,1.1999999999999997,0.0,-0.5235987755982988,0,0.46835965,-0.26186472,1.2581366,0.7523535,-0.17400873,0.08600437,0.6964306,0.7035683,-1.4802324,-0.47369444,-0.07870541,-0.04177391,1.1604607,0.08532901
-0.1,0.1,1.1999999999999997,0.0,-0.5235987755982988,0,0.4654174,-0.26158965,1.2575489,0.7532258,-0.15029685,0.096923225,-0.050732806,0.70651734,-1.4923785,-0.56816083,-0.08017715,0.09214966,1.1843386,0.03394778
-0.1,0.1,1.1999999999999997,0.0,-0.5235987755982988,0,0.46558648,-0.26115477,1.2580472,0.7506141,-0.17791039,0.091791876,0.8360981,0.67420137,-1.493246,-0.65032417,-0.03612886,-0.0012605316,1.1624241,0.17553328
-0.1,0.1,1.1999999999999997,0.0,-0.5235987755982988,0,0.46590242,-0.2610088,1.2582356,0.7477846,-0.17575654,0.09251912,0.675885,0.7041612,-1.4931884,-0.596151,-0.055951815,-0.050166413,1.1661263,-0.10896497
-0.1,0.1,1.1999999999999997,0.0,-0.5235987755982988,0,0.46659732,-0.26304132,1.2584529,0.7502054,-0.16303374,0.09381436,1.1035241,0.69099253,-1.493445,-0.6095095,-0.053761,0.07852557,1.1617342,0.14945129
-0.1,0.1,1.1999999999999997,0.0,-0.5235987755982988,0,0.46470925,-0.26099253,1.2583994,0.7504611,-0.15091413,0.10036736,-0.66959846,0.6993653,-1.5005074,-0.6273607,-0.10608346,-0.080867395,1.1309652,0.33422914
-0.1,0.1,1.1999999999999997,0.0,-0.5235987755982988,0,0.46515232,-0.2605791,1.2586133,0.747096,-0.19015664,0.08538521,-0.09173543,0.69969356,-1.4997413,-0.6574303,-0.06566527,-0.009077292,1.1832004,-0.0010349973
-0.1,0.1,1.1999999999999997,0.0,-0.5235987755982988,0,0.4682315,-0.2610736,1.258815,0.7505425,-0.17438759,0.08165425,-0.57601756,0.7086337,-1.4889003,-0.46840292,-0.041915726,0.04309987,1.1623019,-0.29612032
-0.1,0.1,1.1999999999999997,0.0,-0.5235987755982988,0,0.4701734,-0.261814,1.2576846,0.74978226,-0.18596283,0.10223718,-0.34273452,0.6960913,-1.4984769,-0.5952705,-0.051237475,0.06123756,1.1153002,-0.1697041
-0.1,0.1,1.1999999999999997,0.0,-0.5235987755982988,0,0.46468315,-0.2638095,1.2582858,0.7518709,-0.19151528,0.086318575,-0.6436466,0.6914192,-1.4906256,-0.63279694,-0.048448652,-0.10488039,1.1519076,0.19567776
-0.1,0.1,1.1999999999999997,0.0,-0.5235987755982988,0,0.4668925,-0.26227975,1.2575905,0.7484397,-0.19696257,0.091628164,-0.027971575,0.7129844,-1.4894575,-0.6936915,-0.11946038,-0.19730712,1.1451393,0.180302
-0.1,0.1,1.1999999999999997,0.0,-0.5235987755982988,0,0.46712336,-0.2602969,1.2587087,0.7488779,-0.18487626,0.089214936,0.17431179,0.6924476,-1.500888,-0.6540288,-0.05374757,-0.06750774,1.1406549,-0.13419423
-0.1,0.1,1.1999999999999997,0.0,-0.5235987755982988,0,0.4665146,-0.2626512,1.2578331,0.7482876,-0.18036497,0.09564795,0.457876,0.70434624,-1.4842534,-0.610747,-0.094294615,-0.02015426,1.1266273,0.14484634
-0.1,0.1,1.1999999999999997,0.0,-0.5235987755982988,0,0.4627053,-0.2634484,1.2588544,0.74965703,-0.16499169,0.09489001,-0.042984642,0.7065467,-1.4771794,-0.6644486,-0.046817806,0.07976349,1.1901844,-0.28188357
-0.1,0.1,1.1999999999999997,0.0,-0.5235987755982988,0,0.46751562,-0.26187128,1.259074,0.7478327,-0.17308919,0.085692644,-0.10662244,0.6832277,-1.492748,-0.65826416,-0.09042304,-0.022051848,1.2204772,0.5560531
-0.1,0.1,1.1999999999999997,0.0,-0.5235987755982988,0,0.4655242,-0.26472577,1.2572122,0.7514714,-0.16707194,0.08536153,-0.07971238,0.69450575,-1.4931697,-0.52007157,-0.051204924,-0.003838523,1.1245408,0.15596819
-0.1,0.1,1.1999999999999997,0.0,-0.5235987755982988,0,0.46385887,-0.26037505,1.2602893,0.74857396,-0.17115726,0.07936856,0.5039322,0.69708794,-1.4854726,-0.57828087,-0.050046373,0.05999881,1.1306962,0.2670178
-0.1,0.1,1.1999999999999997,0.0,-0.5235987755982988,0,0.46573472,-0.26359463,1.2564713,0.7500777,-0.1707101,0.08584853,1.6146957,0.69525313,-1.4970437,-0.699287,-0.10366793,-0.046914805,1.2397183,0.09160901
-0.1,0.1,1.1999999999999997,0.0,-0.5235987755982988,0,0.46806788,-0.26249766,1.2570679,0.7492991,-0.19028702,0.10358919,0.029523062,0.70120305,-1.4948404,-0.61200404,-0.083799355,-0.0054742275,1.1353648,-0.30481926
-0.1,0.1,1.1999999999999997,0.0,-0.5235987755982988,0,0.46505913,-0.26334044,1.2572312,0.7505843,-0.16687374,0.08212624,0.75235546,0.7150264,-1.4962256,-0.530366,-0.04981022,-0.08706222,1.1146737,-0.036558475
-0.1,0.1,1.1999999999999997,0.0,-0.5235987755982988,0,0.4645549,-0.26322317,1.2584373,0.75053275,-0.17029281,0.08742206,0.6649413,0.69425744,-1.4801266,-0.5631573,-0.095530674,-0.030413447,1.1742837,0.29949176
-0.1,0.1,1.1999999999999997,0.0,-0.5235987755982988,0,0.46759132,-0.25892803,1.2576716,0.7496415,-0.15654661,0.09536077,1.7873214,0.6892296,-1.4920481,-0.58579737,-0.12543122,0.08829864,1.1692594,0.3229285
-0.1,0.1,1.1999999999999997,0.0,-0.5235987755982988,0,0.469109,-0.26341558,1.2584214,0.75068015,-0.19209564,0.09583878,-1.7755922,0.71336883,-1.4893054,-0.5886104,-0.08475831,0.0224115,1.1338239,0.1409274
-0.1,0.1,1.1999999999999997,0.0,-0.5235987755982988,0,0.46633452,-0.26063308,1.2589406,0.751972,-0.18903527,0.1043244,0.41968748,0.7124274,-1.4792211,-0.48710436,-0.08115499,-0.054120157,1.1771694,0.07544859
-0.1,0.1,1.1999999999999997,0.0,-0.5235987755982988,0,0.46790028,-0.26341444,1.2570904,0.74948514,-0.17950524,0.10517459,0.22914897,0.69227254,-1.4919101,-0.66719264,-0.06727581,-0.096509375,1.1717935,0.039553642
-0.1,0.1,1.1999999999999997,0.0,-0.5235987755982988,0,0.46707222,-0.26087448,1.2581972,0.7503491,-0.18448243,0.09298055,-0.15440586,0.6997422,-1.5000502,-0.5319746,-0.018460799,-0.06844798,1.1508207,-0.024844589
-0.1,0.1,1.1999999999999997,0.0,-0.5235987755982988,0,0.46623275,-0.26128006,1.257548,0.74941903,-0.1939743,0.09051386,-0.05488864,0.69256973,-1.4862381,-0.684213,-0.022705212,-0.06644655,1.1217209,-0.0029648785
-0.1,0.1,1.1999999999999997,0.0,-0.5235987755982988,0,0.46464723,-0.26112536,1.2601669,0.75022376,-0.19357441,0.08919563,-0.6957065,0.7088844,-1.4942728,-0.62015957,-0.08978667,-0.0045435275,1.1769551,0.26638532
-0.1,0.1,1.1999999999999997,0.0,-0.5235987755982988,0,0.46533516,-0.26159742,1.2595979,0.75168014,-0.18105814,0.10500141,0.66358745,0.707088,-1.4942495,-0.6084299,-0.064591765,-0.006966878,1.1219646,-0.07431526
-0.1,0.1,1.1999999999999997,0.0,-0.5235987755982988,0,0.46628556,-0.26016375,1.2579889,0.74903506,-0.1928003,0.08182013,1.2184138,0.6990859,-1.4940242,-0.51465213,-0.077070825,-0.0062439567,1.1453302,-0.33344314
-0.1,0.1,1.1999999999999997,0.0,-0.5235987755982988,0,0.46554214,-0.26552573,1.2571088,0.74810773,-0.17937088,0.09960973,-0.31033918,0.6896743,-1.4985082,-0.6211133,-0.08710692,0.14399467,1.155076,0.42187577
-0.1,0.1,1.1999999999999997,0.0,-0.5235987755982988,0,0.46880394,-0.2618555,1.2562013,0.7483961,-0.18835336,0.08776682,1.2032605,0.71366173,-1.4891763,-0.573462,-0.023657488,-0.09769465,1.1469513,-0.031490944
-0.1,0.1,1.1999999999999997,0.0,-0.5235987755982988,0,0.46486005,-0.26463833,1.2582103,0.7499511,-0.18607311,0.0880722,-0.4818415,0.7027491,-1.4835299,-0.6339918,-0.06269055,-0.10096577,1.1586903,-0.24112134
-0.1,0.1,1.1999999999999997,0.0,-0.5235987755982988,0,0.46753785,-0.26256832,1.2574812,0.7504932,-0.20019756,0.089613095,0.44105613,0.7068021,-1.4923377,-0.56874096,-0.06500388,-0.029164797,1.2175515,0.10617051
-0.1,0.1,1.1999999999999997,0.0,-0.5235987755982988,0,0.46617624,-0.26371083,1.2574002,0.7506577,-0.19046423,0.08576337,-0.27286372,0.70130384,-1.4939716,-0.66286486,-0.04709136,-0.030111872,1.1000051,-0.13186367
-0.1,0.1,1.1999999999999997,0.0,-0.5235987755982988,0,0.4673049,-0.26069632,1.2582028,0.7509861,-0.18911892,0.075000145,1.3740191,0.69511586,-1.495907,-0.54450643,-0.06309315,0.12915872,1.1604494,0.005281168
-0.1,0.1,1.1999999999999997,0.0,-0.5235987755982988,0,0.46686703,-0.26201558,1.2583821,0.75066364,-0.18095589,0.09060929,0.08116339,0.71003944,-1.4964598,-0.72014093,-0.04697536,-0.1277114,1.1521537,0.37725648
-0.1,0.1,1.1999999999999997,0.0,-0.5235987755982988,0,0.46797398,-0.2632741,1.2579147,0.74851066,-0.17475784,0.098966986,0.5225335,0.7077058,-1.4938606,-0.6695326,-0.12768583,-0.12685716,1.1289232,0.26174536
-0.1,0.1,1.1999999999999997,0.0,-0.5235987755982988,0,0.46907905,-0.2628681,1.2576867,0.75032556,-0.17012082,0.08992663,-1.3270292,0.7006517,-1.4857187,-0.58919406,-0.046908174,-0.03282675,1.1511792,-0.09796977
-0.1,0.1,1.1999999999999997,0.0,-0.5235987755982988,0,0.469224,-0.26116502,1.2584761,0.7509114,-0.19399023,0.10744495,-0.058162745,0.7097413,-1.4983925,-0.6033138,-0.08476223,-0.18871443,1.1817094,-0.243852
-0.1,0.1,1.1999999999999997,0.0,-0.5235987755982988,0,0.4618242,-0.26223812,1.2574545,0.74881643,-0.18346769,0.086937636,0.13058975,0.7016576,-1.4879812,-0.6460536,-0.0575773,-0.07712375,1.186046,0.11401578
-0.1,0.1,1.1999999999999997,0.0,-0.5235987755982988,0,0.46732706,-0.2588616,1.2578472,0.74977845,-0.14880018,0.09318998,0.63733184,0.7042792,-1.4896995,-0.58593935,-0.050501212,-0.1503767,1.1404372,0.13084933
-0.1,0.1,1.1999999999999997,0.0,-0.5235987755982988,0,0.4678677,-0.26124167,1.2598257,0.74987096,-0.1656589,0.084633216,-0.4377156,0.69781935,-1.4902662,-0.577638,-0.08078089,-0.14953361,1.1064765,0.08159246
-0.1,0.1,1.1999999999999997,0.0,-0.5235987755982988,0,0.46258894,-0.2607738,1.2577453,0.7475278,-0.1742666,0.09090585,-0.03575654,0.70102173,-1.5009418,-0.54015356,-0.047238175,-0.14531766,1.1276158,0.25267774
-0.1,0.1,1.1999999999999997,0.0,-0.5235987755982988,0,0.4658418,-0.26145422,1.2559593,0.7474654,-0.18369508,0.093998015,1.1148909,0.6959443,-1.4919926,-0.62124,-0.09162889,-0.030706525,1.1905578,-0.22041221
-0.1,0.1,1.1999999999999997,0.0,-0.5235987755982988,0,0.46449843,-0.2616162,1.25809,0.74901456,-0.1653411,0.08398244,-0.45231873,0.6947007,-1.4915689,-0.4954987,-0.061894093,0.116784506,1.1812149,0.23957133
-0.1,0.1,1.1999999999999997,0.0,-0.5235987755982988,0,0.46434852,-0.26057786,1.2573192,0.7489259,-0.1936009,0.08418679,0.08326924,0.6986248,-1.49307,-0.7545568,-0.10353376,0.10137753,1.1390254,-0.14366268
-0.1,0.1,1.1999999999999997,0.0,-0.5235987755982988,0,0.466555,-0.26237634,1.2574701,0.7498384,-0.17860289,0.08574415,-0.81413966,0.68252367,-1.4974264,-0.564731,-0.082624614,-0.034626316,1.1345437,0.05518071
-0.1,0.1,1.1999999999999997,0.0,-0.5235987755982988,0,0.4675916,-0.2612936,1.2585379,0.7489921,-0.18747772,0.08482147,0.73399234,0.71416473,-1.4868653,-0.6618039,-0.025487091,-0.007043442,1.1582142,-0.16425292
-0.1,0.1,1.1999999999999997,0.0,-0.5235987755982988,0,0.46873742,-0.26257315,1.2573367,0.74858767,-0.17261216,0.0822197,0.57133996,0.70603424,-1.4897859,-0.58402157,-0.060609087,-0.06396128,1.1617196,0.18526901
-0.1,0.1,1.1999999999999997,0.0,-0.5235987755982988,0,0.4683104,-0.2620793,1.2572724,0.7487954,-0.16854502,0.084444195,0.119453974,0.6965483,-1.4888222,-0.67181665,-0.07843063,-0.029172402,1.1471107,0.17463173
-0.1,0.1,1.1999999999999997,0.0,-0.5235987755982988,0,0.46382177,-0.26010972,1.2580074,0.7517961,-0.15119351,0.08407176,-0.06479492,0.699968,-1.4939619,-0.6011171,-0.07886847,-0.11711704,1.1744578,-0.11434507
-0.1,0.1,1.1999999999999997,0.0,-0.5235987755982988,0,0.4659753,-0.26065585,1.258715,0.7506708,-0.18689507,0.094850145,0.8723232,0.7039331,-1.4769322,-0.6785211,-0.047236267,-0.13890111,1.1657519,0.38081613
-0.1,0.1,1.1999999999999997,0.0,-0.5235987755982988,0,0.4635325,-0.26345938,1.2579234,0.74928,-0.16908492,0.09059842,0.37605518,0.70254827,-1.4869401,-0.66261566,-0.061913025,-0.22156307,1.1805302,-0.21878974
-0.1,0.1,1.1999999999999997,0.0,-0.5235987755982988,0,0.46621922,-0.26162177,1.2586641,0.74977523,-0.16333692,0.071873285,1.2826921,0.6997206,-1.4867637,-0.6181611,-0.06096315,0.06866318,1.1606251,0.093183175
