sanky1234/BimanualDexCatch/isaacgymenvs/cem_results/football_pose_0.0_0.1_0.8999999999999999_0.0_0.0_0_2025-05-26.csv
x,y,z,roll,pitch,yaw,robot1/joint1,robot1/joint2,robot1/joint3,robot1/joint4,robot1/joint5,robot1/joint6,robot1/joint7,robot2/joint1,robot2/joint2,robot2/joint3,robot2/joint4,robot2/joint5,robot2/joint6,robot2/joint7
0.0,0.1,0.8999999999999999,0.0,0.0,0,-0.7493808,-0.6561627,-2.8356295,0.32489064,0.028345546,1.5158434,0.39608884,0.15740494,-1.1258208,0.198116,-0.08783873,-0.13208094,1.1229107,-0.26226413
0.0,0.1,0.8999999999999999,0.0,0.0,0,-0.7547414,-0.67547154,-2.8402784,0.31784603,0.018971736,1.5110104,0.38971072,0.109263144,-1.1629798,-0.18351384,-0.15486234,0.33533812,0.80156904,-0.52485824
0.0,0.1,0.8999999999999999,0.0,0.0,0,-0.75118434,-0.67607427,-2.8487878,0.3338812,0.02817648,1.5088984,0.34025207,0.08749402,-1.1376648,-0.43773884,-0.025222037,0.3613336,1.0362898,-0.33922747
0.0,0.1,0.8999999999999999,0.0,0.0,0,-0.7503038,-0.6842546,-2.8413932,0.3179651,0.007552172,1.5176117,0.37758458,0.16290587,-1.1385224,-0.021871287,0.17111051,-0.063440315,1.178096,-1.320214
0.0,0.1,0.8999999999999999,0.0,0.0,0,-0.75041395,-0.67271954,-2.851897,0.33316875,0.029991211,1.5153028,0.34327087,0.29552606,-1.1682458,0.6690516,-0.1649285,0.70675075,1.3025731,-0.3250463
0.0,0.1,0.8999999999999999,0.0,0.0,0,-0.7593631,-0.6664642,-2.8314686,0.3289242,0.021240314,1.5030051,0.47188005,-0.01653141,-1.1410296,0.044128586,0.0127048325,-0.12564999,1.0365572,-1.0853704
0.0,0.1,0.8999999999999999,0.0,0.0,0,-0.7510136,-0.6780248,-2.8340745,0.3188775,0.026801448,1.5028313,0.3931242,0.056713387,-1.1353238,0.5855423,-0.014190241,0.057862163,1.1365304,-0.66987324
0.0,0.1,0.8999999999999999,0.0,0.0,0,-0.75794286,-0.68258184,-2.844449,0.32479584,0.02148192,1.5298097,0.3745989,0.15998715,-1.1465024,-1.0012394,-0.074123524,-0.12077751,0.89150774,-0.38115293
0.0,0.1,0.8999999999999999,0.0,0.0,0,-0.75338364,-0.6595269,-2.8403153,0.31633198,0.02593032,1.5227944,0.38888133,0.36602107,-1.1566639,-0.09642498,-0.06803536,0.38185123,1.2612548,-0.0731114
0.0,0.1,0.8999999999999999,0.0,0.0,0,-0.74585503,-0.6874156,-2.8608704,0.33342874,0.04399853,1.5050073,0.42876875,0.09387612,-1.1253428,-0.39198098,-0.06962348,-0.079165496,0.90409434,0.10674538
0.0,0.1,0.8999999999999999,0.0,0.0,0,-0.7516923,-0.6680362,-2.842572,0.3144747,0.011758634,1.5198368,0.3845866,0.22275105,-1.1539143,0.664242,0.05207046,0.4776817,1.3374782,-0.7177309
0.0,0.1,0.8999999999999999,0.0,0.0,0,-0.75592744,-0.67190844,-2.8506904,0.33433324,0.040836927,1.5029714,0.4066743,0.11685151,-1.149991,0.17712541,-0.039671708,-0.10049752,1.2401954,-0.34764755
0.0,0.1,0.8999999999999999,0.0,0.0,0,-0.7501063,-0.6736126,-2.8587162,0.31689507,0.038437214,1.5093458,0.38929325,0.29861096,-1.1522622,0.4355526,-0.17056586,-0.09381677,1.0877397,0.471714
0.0,0.1,0.8999999999999999,0.0,0.0,0,-0.7579076,-0.6836035,-2.8413196,0.3250127,0.022642098,1.4979308,0.41856602,0.2129584,-1.1440942,-0.086099215,-0.011671606,0.20470521,0.9338086,0.37055445
0.0,0.1,0.8999999999999999,0.0,0.0,0,-0.7517368,-0.6598396,-2.8433418,0.31045592,0.027269518,1.5285641,0.35254258,0.22321248,-1.1581318,-0.65362525,-0.13209459,0.14034076,1.2180837,0.14692768
0.0,0.1,0.8999999999999999,0.0,0.0,0,-0.75333154,-0.67100513,-2.8561938,0.32468584,0.031616297,1.5157015,0.40040097,0.11010718,-1.1495935,-0.21935636,-0.08766645,-0.32087258,1.0735261,0.149811
0.0,0.1,0.8999999999999999,0.0,0.0,0,-0.75155854,-0.6642138,-2.8493977,0.32780227,0.024712095,1.5221242,0.35667625,0.10361948,-1.1352925,-0.678567,-0.050354566,0.04547375,0.98458236,-0.15952764
0.0,0.1,0.8999999999999999,0.0,0.0,0,-0.75344115,-0.6708897,-2.844164,0.3258432,0.0331911,1.5137254,0.3974628,0.23564239,-1.1491758,0.6613398,-0.029522644,0.07046358,1.3493209,-1.3082671
0.0,0.1,0.8999999999999999,0.0,0.0,0,-0.7518838,-0.6701574,-2.8456173,0.3199011,0.021535767,1.5081742,0.36027434,0.23352617,-1.1416804,-0.59418046,0.010982448,0.5011782,0.8600584,-1.3518537
0.0,0.1,0.8999999999999999,0.0,0.0,0,-0.7491585,-0.6714551,-2.8410542,0.30978554,0.026189525,1.5008109,0.3584241,0.35565814,-1.1525879,0.03511836,0.10429127,0.2372102,1.0025655,-0.63193214
0.0,0.1,0.8999999999999999,0.0,0.0,0,-0.7521193,-0.66369987,-2.831461,0.32266137,0.044139877,1.5124413,0.42021504,0.16821432,-1.1409476,-0.18913925,-0.10540691,-0.22261249,1.1984168,0.075152904
0.0,0.1,0.8999999999999999,0.0,0.0,0,-0.75437427,-0.6699559,-2.8352368,0.3091314,0.030441929,1.5129555,0.36884028,0.13944991,-1.1345351,0.31437102,0.03575007,0.03149693,1.1030549,-1.6417814
0.0,0.1,0.8999999999999999,0.0,0.0,0,-0.749738,-0.66548675,-2.853175,0.31926987,0.029823266,1.5096184,0.43758973,0.22561203,-1.1382284,0.4359361,-0.064870685,-0.043455105,0.9595442,0.90486664
0.0,0.1,0.8999999999999999,0.0,0.0,0,-0.74808526,-0.67827946,-2.8605046,0.32790893,0.0344141,1.5156502,0.42482784,0.1458726,-1.1590257,0.106499135,-0.02384237,-0.23512526,1.1008874,-0.058175996
0.0,0.1,0.8999999999999999,0.0,0.0,0,-0.7547059,-0.6813241,-2.8375914,0.32639477,0.031489506,1.5084826,0.36540782,-0.02885232,-1.1281053,-0.8144719,-0.060148697,-0.31257004,0.9759933,-0.19784877
0.0,0.1,0.8999999999999999,0.0,0.0,0,-0.75532794,-0.66837615,-2.848522,0.30794227,0.017026272,1.5257,0.37130427,0.18255891,-1.1399617,0.47305754,-0.062380277,-0.14929752,1.389698,0.32644302
0.0,0.1,0.8999999999999999,0.0,0.0,0,-0.75494885,-0.67801267,-2.8502953,0.32866767,0.030766835,1.5118623,0.44801196,0.12167286,-1.1417073,-0.49568498,-0.036372937,-0.4776911,0.8764191,1.2921796
0.0,0.1,0.8999999999999999,0.0,0.0,0,-0.750854,-0.67562467,-2.8353992,0.34324878,0.023417272,1.4957508,0.34691164,0.20091745,-1.1327245,-0.45795962,-0.1113468,-0.09362583,0.9778333,0.5827685
0.0,0.1,0.8999999999999999,0.0,0.0,0,-0.74912083,-0.66367525,-2.8427994,0.32339427,0.025871063,1.5066285,0.37046453,0.13301323,-1.13452,0.025037935,-0.03935076,-0.03711535,0.9212647,-0.39028618
0.0,0.1,0.8999999999999999,0.0,0.0,0,-0.74959457,-0.67640924,-2.8490813,0.3264443,0.028713517,1.5024261,0.34253767,-0.11007137,-1.144103,0.17285386,-0.07552982,-0.06914276,1.0501077,-1.4141403
0.0,0.1,0.8999999999999999,0.0,0.0,0,-0.75176054,-0.6556658,-2.8513875,0.32652748,0.030904494,1.5059267,0.4307491,0.24205168,-1.137917,0.17912294,-0.024450347,-0.8108149,1.2703618,-0.2712086
0.0,0.1,0.8999999999999999,0.0,0.0,0,-0.7552412,-0.6774527,-2.8490233,0.32640907,0.035502993,1.5051605,0.3832128,-0.10136059,-1.147198,-0.19242722,-0.14345136,-0.52272326,1.5106431,0.15989663
0.0,0.1,0.8999999999999999,0.0,0.0,0,-0.7526306,-0.65878356,-2.8298693,0.3127289,0.032251667,1.5059263,0.3731213,-0.09287952,-1.1322527,0.18271936,0.0224202,0.092351876,1.0295259,0.7349003
0.0,0.1,0.8999999999999999,0.0,0.0,0,-0.75524276,-0.6562252,-2.8368485,0.33693203,0.033892833,1.5043174,0.44638595,0.1284623,-1.1466583,0.12559475,-0.10610533,0.14990354,0.903625,-0.24779837
0.0,0.1,0.8999999999999999,0.0,0.0,0,-0.7566333,-0.6628268,-2.8360333,0.3218084,0.020463975,1.5139954,0.38079473,0.2834788,-1.1448241,-0.2425561,0.0069216182,0.2863326,1.1277466,-1.7527208
0.0,0.1,0.8999999999999999,0.0,0.0,0,-0.75283575,-0.6700526,-2.8386736,0.33639,0.011086133,1.5203899,0.39446595,0.46767607,-1.1515048,-0.4301345,-0.105175756,-0.18278457,1.3320404,-1.1242257
0.0,0.1,0.8999999999999999,0.0,0.0,0,-0.75454825,-0.6781758,-2.83319,0.32622546,0.00942352,1.5278194,0.31357917,0.3386601,-1.1615043,-0.5531867,-0.03393044,-0.09653695,1.1931195,-0.5594591
0.0,0.1,0.8999999999999999,0.0,0.0,0,-0.74775285,-0.6766761,-2.847991,0.32646203,0.023770485,1.507635,0.35964146,0.42842996,-1.1325467,0.34488904,0.001621622,-0.08721164,0.97864324,-0.9565712
0.0,0.1,0.8999999999999999,0.0,0.0,0,-0.7537455,-0.66541696,-2.843655,0.33068916,0.024319947,1.5069832,0.37668788,0.1693281,-1.1603473,0.24742194,-0.0785924,-0.93956333,1.1197567,-0.14486292
0.0,0.1,0.8999999999999999,0.0,0.0,0,-0.75387853,-0.68357897,-2.8369071,0.3228222,0.024763813,1.5134903,0.41711643,0.06142669,-1.1108056,0.027837344,-0.25849184,0.077886865,0.8682855,-0.2670767
0.0,0.1,0.8999999999999999,0.0,0.0,0,-0.7480962,-0.67430305,-2.8511693,0.33250278,0.014171644,1.531765,0.37545878,0.07535129,-1.1384176,-0.17878823,-0.06364235,0.22177763,0.9082199,0.2082312
0.0,0.1,0.8999999999999999,0.0,0.0,0,-0.7546593,-0.6640623,-2.8420403,0.31748006,0.014341393,1.5142596,0.34811053,0.37982938,-1.1327181,-0.18578024,-0.031425234,0.08320949,1.1448554,1.3112488
0.0,0.1,0.8999999999999999,0.0,0.0,0,-0.7478882,-0.67284346,-2.8460817,0.33108428,0.025560288,1.506849,0.36857328,-0.014258894,-1.1418422,-0.6093925,-0.044177186,0.076747306,1.0907419,-0.7541599
0.0,0.1,0.8999999999999999,0.0,0.0,0,-0.75878316,-0.66728675,-2.8448694,0.31745765,0.029031858,1.5197885,0.38513756,0.31335777,-1.1308311,1.0363089,-0.007978457,-0.11107192,1.2183758,1.1609784
0.0,0.1,0.8999999999999999,0.0,0.0,0,-0.74891585,-0.6646474,-2.8452096,0.32581833,0.054318696,1.4923233,0.38119572,0.17015857,-1.1665264,-0.6068846,0.006703269,-0.18915175,1.0584388,-1.5460587
0.0,0.1,0.8999999999999999,0.0,0.0,0,-0.7587369,-0.67457753,-2.8509429,0.31702545,0.030280545,1.5238923,0.413135,0.11732666,-1.131466,0.07220238,-0.114563264,0.11897721,1.1574584,-0.62244654
0.0,0.1,0.8999999999999999,0.0,0.0,0,-0.7522157,-0.665829,-2.82971,0.3290493,0.021122916,1.4977115,0.3788878,0.04751816,-1.1452932,0.3899167,-0.020592999,-0.16023941,1.1454542,-0.14850102
0.0,0.1,0.8999999999999999,0.0,0.0,0,-0.75600517,-0.67854214,-2.8531737,0.32801563,0.03116823,1.5101904,0.4306517,0.18260477,-1.140205,-0.016065422,-0.06410132,0.042041678,1.0476972,-0.65899837
0.0,0.1,0.8999999999999999,0.0,0.0,0,-0.74419796,-0.6756344,-2.837795,0.31214562,0.03754305,1.5063891,0.43755713,-0.028655112,-1.1442732,0.19020328,0.017337648,-0.19022717,1.1841837,-0.09494558
0.0,0.1,0.8999999999999999,0.0,0.0,0,-0.7530318,-0.6583914,-2.8420968,0.32032546,0.022913484,1.5082544,0.38177022,0.114265226,-1.1460502,0.5893887,-0.13102072,0.6833153,1.1448516,-0.48102158
0.0,0.1,0.8999999999999999,0.0,0.0,0,-0.7490196,-0.6775331,-2.849214,0.33098078,0.027377672,1.5120968,0.3865505,0.001445584,-1.1478895,0.14497696,0.0158638,0.290683,0.9208599,-0.94571114
0.0,0.1,0.8999999999999999,0.0,0.0,0,-0.74574655,-0.6574843,-2.8507757,0.32280844,0.016397854,1.5071434,0.44364047,0.073543444,-1.1526029,-0.34883693,0.035646353,0.46006885,1.3541778,-1.7524339
0.0,0.1,0.8999999999999999,0.0,0.0,0,-0.75218177,-0.6596009,-2.8432856,0.32475644,0.032416068,1.4966985,0.36881632,0.5149003,-1.1284682,0.6011039,-0.044694807,0.22193174,1.0711284,-0.11475172
0.0,0.1,0.8999999999999999,0.0,0.0,0,-0.7479714,-0.68346304,-2.8466089,0.31745276,0.012594135,1.5000587,0.32728744,-0.17782038,-1.1311386,-0.16564827,-0.053265516,-0.22522525,0.93097854,0.83887
0.0,0.1,0.8999999999999999,0.0,0.0,0,-0.7500753,-0.674835,-2.8431604,0.3277995,0.03319959,1.4998794,0.38713038,0.13563752,-1.1496038,0.07741287,-0.16945906,0.148364,1.1571529,-1.3301837
0.0,0.1,0.8999999999999999,0.0,0.0,0,-0.75289357,-0.6795122,-2.8394911,0.3259644,0.02450722,1.5042706,0.39908192,0.21568605,-1.1420484,-0.45401934,-0.11162362,-0.634532,1.0566869,0.5091348
0.0,0.1,0.8999999999999999,0.0,0.0,0,-0.7545758,-0.6847823,-2.8409226,0.32686433,0.008942679,1.525895,0.4267378,0.24997114,-1.1539749,-0.034896757,-0.10390811,0.17574161,0.81824464,-0.20059262
0.0,0.1,0.8999999999999999,0.0,0.0,0,-0.75026387,-0.6651,-2.8430507,0.33121318,0.025522035,1.5075356,0.38694546,-0.07952286,-1.1573858,0.011752787,0.013567532,0.2103136,1.1413008,0.08549992
0.0,0.1,0.8999999999999999,0.0,0.0,0,-0.7521167,-0.6647222,-2.8436937,0.32261956,0.023402875,1.5038825,0.42611545,0.10849302,-1.1554284,-0.42911068,-0.02821959,0.4960342,0.90200126,-2.0215952
0.0,0.1,0.8999999999999999,0.0,0.0,0,-0.75240153,-0.6826082,-2.8512588,0.3312329,0.024625462,1.5065756,0.46499875,0.13656344,-1.1407406,0.053957194,0.036565475,0.61853385,0.81606555,-0.51939523
0.0,0.1,0.8999999999999999,0.0,0.0,0,-0.74959594,-0.6906473,-2.8338835,0.3269229,0.014095285,1.5176266,0.42138365,0.35856435,-1.153718,-0.6287196,-0.14385028,-0.16444004,1.1925447,-0.2782694
0.0,0.1,0.8999999999999999,0.0,0.0,0,-0.7546789,-0.6730734,-2.8446789,0.33077312,0.030016046,1.5157318,0.40497762,0.22300151,-1.1460879,-0.074966125,-0.15190949,-0.10030447,1.007711,0.060529586
0.0,0.1,0.8999999999999999,0.0,0.0,0,-0.75577915,-0.66908777,-2.8414395,0.3104429,0.03435134,1.5033144,0.39391157,-0.24824038,-1.136477,-0.16420099,-0.015661301,0.08551661,1.0198451,0.42924768
0.0,0.1,0.8999999999999999,0.0,0.0,0,-0.7544397,-0.66498804,-2.8538373,0.32187423,0.036105044,1.5238618,0.38566893,0.29784992,-1.1346704,0.11570707,-0.06530939,0.20917484,1.1680707,-1.66285
0.0,0.1,0.8999999999999999,0.0,0.0,0,-0.7538457,-0.6644147,-2.8486903,0.3196616,0.029951904,1.5120736,0.41095832,0.09619596,-1.1125399,-0.58929026,-0.1056092,0.5549603,0.8738459,-0.737336
0.0,0.1,0.8999999999999999,0.0,0.0,0,-0.751827,-0.68499255,-2.8382797,0.33891726,0.023995116,1.4976727,0.30498064,0.028065214,-1.1387856,0.35118026,-0.07746568,0.38479203,1.0048109,0.5152843
0.0,0.1,0.8999999999999999,0.0,0.0,0,-0.75526625,-0.67201847,-2.8311784,0.33278868,0.02304993,1.49826,0.35694888,0.22126314,-1.1425683,-0.38380426,-0.15428758,0.10647587,1.0468712,0.42514697
0.0,0.1,0.8999999999999999,0.0,0.0,0,-0.7541131,-0.68654674,-2.8383567,0.32576966,0.02345354,1.5095448,0.39887056,0.16626804,-1.1356709,0.24763173,-0.0027420442,0.39083576,1.0641034,-0.5210557
0.0,0.1,0.8999999999999999,0.0,0.0,0,-0.7520404,-0.68267715,-2.8432405,0.32765552,0.037510227,1.5032215,0.40937886,0.058383837,-1.1392893,-0.4391268,0.117945895,0.08557557,0.90400255,-0.674097
0.0,0.1,0.8999999999999999,0.0,0.0,0,-0.7490029,-0.672003,-2.8490937,0.3257095,0.023141237,1.4910476,0.38514704,0.19502819,-1.1488596,0.41359115,-0.10756804,-0.23016486,0.9597289,-0.22795458
0.0,0.1,0.8999999999999999,0.0,0.0,0,-0.7582394,-0.68243605,-2.8370013,0.3175443,0.01484234,1.5111151,0.3890337,0.27526858,-1.1358681,-0.6201939,-0.117826045,0.07112701,1.0803851,1.3515925
0.0,0.1,0.8999999999999999,0.0,0.0,0,-0.7557241,-0.6663498,-2.8368769,0.33151066,0.021663798,1.5213459,0.38360554,0.38236725,-1.1448396,0.47511336,-0.060029637,0.1636686,1.1062778,0.45075086
0.0,0.1,0.8999999999999999,0.0,0.0,0,-0.7547176,-0.6730992,-2.8211696,0.32098043,0.0225262,1.4983431,0.36258098,0.47456992,-1.1316944,-0.6391995,-0.07555519,0.42637134,1.1488512,0.0071868985
0.0,0.1,0.8999999999999999,0.0,0.0,0,-0.75305873,-0.66146374,-2.8338137,0.3184103,0.015392541,1.5139376,0.40120637,0.04609917,-1.1565186,0.02598984,-0.0040557496,-0.2682752,1.0723771,-0.81662905
0.0,0.1,0.8999999999999999,0.0,0.0,0,-0.75725245,-0.67136145,-2.8518791,0.3325117,0.028152198,1.5194094,0.42215005,0.30182746,-1.1299706,0.014236292,-0.083368815,-0.2619214,0.84322804,-1.250342
0.0,0.1,0.8999999999999999,0.0,0.0,0,-0.7510951,-0.66640437,-2.837497,0.32430744,0.017177945,1.5103784,0.39397144,0.23746863,-1.1581037,-0.27490494,-0.039227933,-0.40318996,0.9380987,-0.7047182
0.0,0.1,0.8999999999999999,0.0,0.0,0,-0.7546304,-0.6775845,-2.8519943,0.31958747,0.013898187,1.5272117,0.38579306,0.5050578,-1.1587467,0.2110289,-0.06468546,0.22670479,1.1640098,-1.4722146
0.0,0.1,0.8999999999999999,0.0,0.0,0,-0.7556392,-0.67428803,-2.8308232,0.32766098,0.02283237,1.5074826,0.3834094,0.09847396,-1.1540395,-0.58160543,0.02424305,0.40578854,1.1013228,-0.041132163
0.0,0.1,0.8999999999999999,0.0,0.0,0,-0.7494535,-0.663708,-2.8531146,0.3267796,0.021035198,1.5290606,0.4199986,0.44390374,-1.149983,0.2282845,-0.0912577,-0.11460708,0.90743124,-0.10673366
0.0,0.1,0.8999999999999999,0.0,0.0,0,-0.7532129,-0.67659545,-2.84311,0.3320239,0.021603372,1.5199724,0.3751712,-0.1779796,-1.1530876,0.09209786,-0.058970828,-0.29403052,0.92258376,-0.032254666
0.0,0.1,0.8999999999999999,0.0,0.0,0,-0.75018513,-0.68103814,-2.8334172,0.32199535,0.015171334,1.4986095,0.4102308,0.020861678,-1.1450454,-0.1857485,0.13748966,-0.019264957,1.2087402,1.2042177
0.0,0.1,0.8999999999999999,0.0,0.0,0,-0.7527913,-0.67433643,-2.8400528,0.320131,0.03062048,1.4953452,0.3670882,-0.10755324,-1.1421354,-0.43977264,-0.0581915,-0.38586634,1.3442591,-0.32527944
0.0,0.1,0.8999999999999999,0.0,0.0,0,-0.7535484,-0.67512786,-2.8487897,0.32047522,0.019414505,1.504307,0.38070446,0.24215527,-1.1408255,0.21001253,-0.1366652,-0.5181904,1.2962004,-0.0035456
0.0,0.1,0.8999999999999999,0.0,0.0,0,-0.7540343,-0.686643,-2.8473537,0.33883667,0.032009188,1.5113839,0.37830487,0.26330468,-1.1507684,0.24723257,-0.0018337957,0.1817817,1.0392556,-0.55948
0.0,0.1,0.8999999999999999,0.0,0.0,0,-0.7485718,-0.66749924,-2.8442576,0.32997528,0.015260999,1.5043155,0.35905924,-0.009649265,-1.110014,0.33481815,-0.1334235,0.30170572,0.911851,-0.5147814
0.0,0.1,0.8999999999999999,0.0,0.0,0,-0.75312823,-0.66530555,-2.830748,0.33568743,0.016599694,1.5062877,0.3364639,0.39865908,-1.1404722,-0.22728865,-0.015795296,-0.4927947,1.0462884,-0.11799005
0.0,0.1,0.8999999999999999,0.0,0.0,0,-0.7492387,-0.66634023,-2.8468828,0.327199,0.01653388,1.5006495,0.35833785,0.03154414,-1.1291186,-0.2988915,-0.03687429,-0.600883,1.0676389,-0.469862
0.0,0.1,0.8999999999999999,0.0,0.0,0,-0.74937546,-0.6551681,-2.8257966,0.31299844,0.012391224,1.5127592,0.37773338,0.061581694,-1.1389927,-0.37371254,-0.061553486,0.0053696837,1.2427157,-1.0485003
0.0,0.1,0.8999999999999999,0.0,0.0,0,-0.7518929,-0.67274266,-2.8474193,0.3172711,0.01929873,1.5091285,0.36531812,0.19869176,-1.1467192,0.18314554,0.0938782,0.3906627,1.1753303,1.1640588
0.0,0.1,0.8999999999999999,0.0,0.0,0,-0.7583644,-0.6652209,-2.8383808,0.3294244,0.020774692,1.5083344,0.4390566,-0.17692626,-1.1510978,0.108305894,0.09348256,-0.12727536,1.0861864,0.43961108
0.0,0.1,0.8999999999999999,0.0,0.0,0,-0.7560459,-0.6804405,-2.8595316,0.3329592,0.037460834,1.5130465,0.38595754,0.20509471,-1.1379317,-0.12048251,-0.011311767,0.42833686,0.99926436,1.1165134
0.0,0.1,0.8999999999999999,0.0,0.0,0,-0.75406873,-0.6794933,-2.842358,0.33247548,0.019253796,1.5007012,0.40716776,0.37569934,-1.1431813,0.05529711,-0.055538718,0.13626187,0.876089,-2.398661
0.0,0.1,0.8999999999999999,0.0,0.0,0,-0.7530045,-0.66913855,-2.840151,0.32062817,0.014443922,1.5196295,0.43081203,0.25424993,-1.1415522,0.35020563,0.052789237,0.3459356,1.0518447,-0.26235902
0.0,0.1,0.8999999999999999,0.0,0.0,0,-0.75291187,-0.6614952,-2.835815,0.32626584,0.024742128,1.5040094,0.3734799,0.42263088,-1.1404546,0.04558237,0.06605882,0.3791877,0.86668855,-0.5564763
0.0,0.1,0.8999999999999999,0.0,0.0,0,-0.7523933,-0.6787319,-2.841359,0.31295538,0.023824636,1.5155082,0.39366916,0.015756922,-1.1470978,0.23621742,-0.05984775,-0.04891956,1.2222673,-0.89832497
0.0,0.1,0.8999999999999999,0.0,0.0,0,-0.75547695,-0.66224307,-2.8321817,0.31984955,0.020869967,1.5087986,0.4301856,0.18757832,-1.1328682,0.4657175,-0.07523834,-0.226914,1.2457095,-0.63992125
0.0,0.1,0.8999999999999999,0.0,0.0,0,-0.75413746,-0.6622791,-2.8428094,0.32391855,0.034119632,1.4874419,0.42989346,0.12611128,-1.1618403,0.13243861,0.03925108,0.054526236,1.1645069,-2.6404724
0.0,0.1,0.8999999999999999,0.0,0.0,0,-0.75417346,-0.679319,-2.8397086,0.32183734,0.033986036,1.495635,0.39942467,0.2708779,-1.1486543,0.2272873,-0.01063173,0.15667744,1.2840174,0.3460834
0.0,0.1,0.8999999999999999,0.0,0.0,0,-0.75384885,-0.6572014,-2.8478496,0.32899338,0.023292901,1.5202241,0.3497397,0.21985963,-1.1422803,0.39967182,-0.0528873,-0.06409382,1.0412474,0.012317268
0.0,0.1,0.8999999999999999,0.0,0.0,0,-0.7530189,-0.6779065,-2.839419,0.32486394,0.033453885,1.4984167,0.36266404,0.31817442,-1.1397691,-0.03494722,-0.10283888,0.92482257,1.132519,-0.94627595
0.0,0.1,0.8999999999999999,0.0,0.0,0,-0.7552017,-0.66299605,-2.8452716,0.33367097,0.017764604,1.5052313,0.38698402,0.14381155,-1.142173,-0.16355763,0.038393088,0.17475663,1.0458388,0.19163899
0.0,0.1,0.8999999999999999,0.0,0.0,0,-0.75886774,-0.6617399,-2.8590198,0.3283078,0.02533337,1.5048681,0.4172418,0.06796174,-1.1436373,0.6776796,-0.028401164,-0.3780576,1.2091014,-0.32767978
0.0,0.1,0.8999999999999999,0.0,0.0,0,-0.7516064,-0.6633534,-2.83909,0.33461627,0.02061494,1.5107174,0.3701042,0.20747465,-1.1353607,-0.2934912,0.03485534,-0.0279814,1.3705858,0.14850071
0.0,0.1,0.8999999999999999,0.0,0.0,0,-0.7553508,-0.6646321,-2.850062,0.3262812,0.030716326,1.508011,0.32900444,0.20134313,-1.1768218,-0.03392062,-0.016933277,-0.18027385,0.88958734,-0.3050844
0.0,0.1,0.8999999999999999,0.0,0.0,0,-0.75718504,-0.6864184,-2.8444211,0.3282925,0.013650061,1.5097532,0.3488695,0.1171786,-1.1538519,0.058851752,-0.052857265,-0.632323,0.99046254,-0.22600202
0.0,0.1,0.8999999999999999,0.0,0.0,0,-0.7510421,-0.6738436,-2.853706,0.32560998,0.03349017,1.5161747,0.42910218,0.12719291,-1.1349767,0.08973639,-0.116566174,-0.08083144,0.9238275,0.1409168
0.0,0.1,0.8999999999999999,0.0,0.0,0,-0.75403696,-0.6743523,-2.8413417,0.321617,0.010791926,1.5290014,0.40494847,-0.31971103,-1.1410599,-0.5122141,0.06257176,0.14928453,1.2457497,-1.5317405
0.0,0.1,0.8999999999999999,0.0,0.0,0,-0.7514904,-0.6728568,-2.8419755,0.3279162,0.0311915,1.4821866,0.35537425,0.15929595,-1.1509293,-0.17450082,0.012809077,0.5102999,0.86374044,-0.22174864
0.0,0.1,0.8999999999999999,0.0,0.0,0,-0.7557841,-0.6881745,-2.8405273,0.33584586,0.02339932,1.51022,0.34361687,0.24272665,-1.1211259,0.09143462,-0.07652567,0.34479037,1.213781,-1.8042105
0.0,0.1,0.8999999999999999,0.0,0.0,0,-0.7526156,-0.6784841,-2.8535442,0.31978256,0.0272354,1.506687,0.3861362,0.29622784,-1.1213315,-0.6693799,-0.016309747,0.4924441,1.0337384,0.6708751
0.0,0.1,0.8999999999999999,0.0,0.0,0,-0.7549021,-0.66956025,-2.8405898,0.3106836,0.0399992,1.5228612,0.3785088,0.02074164,-1.136417,1.0669107,-0.101056054,0.6158294,1.0592086,0.24668676
0.0,0.1,0.8999999999999999,0.0,0.0,0,-0.75673366,-0.6835377,-2.8377547,0.34138697,0.029339908,1.4967105,0.37470293,-0.14748242,-1.163294,0.23289652,-0.08867919,-0.5263715,1.3473727,-0.5498627
0.0,0.1,0.8999999999999999,0.0,0.0,0,-0.7542674,-0.6769613,-2.8358269,0.3127396,0.017694253,1.4983734,0.3734849,-0.008964631,-1.1436365,-0.45762366,0.021386635,0.0724489,0.91827965,-0.7150198
0.0,0.1,0.8999999999999999,0.0,0.0,0,-0.75579625,-0.65852547,-2.837807,0.3326606,0.033198375,1.4944617,0.43887618,0.22744754,-1.1429251,0.20597892,0.096726015,-0.16666633,1.255595,0.41741377
0.0,0.1,0.8999999999999999,0.0,0.0,0,-0.7503203,-0.6844096,-2.8305492,0.30373555,0.010581968,1.5182862,0.41836938,0.53639257,-1.1339318,0.7422646,-0.09297865,-0.21560232,0.9826159,-1.0183043
0.0,0.1,0.8999999999999999,0.0,0.0,0,-0.7546446,-0.68036604,-2.8578086,0.3108084,0.016129583,1.5159706,0.43307486,0.34371388,-1.151194,0.13529049,-0.05576184,0.24139842,0.9356205,-0.4047259
0.0,0.1,0.8999999999999999,0.0,0.0,0,-0.755675,-0.675831,-2.8413844,0.328659,0.01254085,1.5118234,0.45790872,0.20083442,-1.1421729,0.22216271,-0.020349909,0.42822093,0.90796363,-0.045428924
0.0,0.1,0.8999999999999999,0.0,0.0,0,-0.75406605,-0.68366736,-2.8521864,0.31627038,0.021388622,1.5054257,0.3829272,0.21290413,-1.1311247,0.12781253,-0.13671245,0.051208366,1.07278,-0.3792965
0.0,0.1,0.8999999999999999,0.0,0.0,0,-0.751892,-0.6688101,-2.8421912,0.3306411,0.014714704,1.5080305,0.37913242,0.1674976,-1.1276035,0.5733913,-0.19338089,0.54496413,0.8193778,-0.24904193
0.0,0.1,0.8999999999999999,0.0,0.0,0,-0.7541614,-0.6744192,-2.8481023,0.309664,0.029611338,1.5207446,0.3986737,-0.051564813,-1.1361036,0.80697197,-0.14123368,-0.40616426,1.0311475,0.28666934
0.0,0.1,0.8999999999999999,0.0,0.0,0,-0.7539611,-0.6714881,-2.841082,0.3278316,0.017523149,1.5187502,0.4137739,0.24036181,-1.1550359,-0.083714895,-0.06545818,-0.13800985,1.0359297,0.52777153
0.0,0.1,0.8999999999999999,0.0,0.0,0,-0.7485296,-0.6680538,-2.8343673,0.3410187,0.024902297,1.4999135,0.34465212,-0.14541237,-1.1602515,-0.16301899,0.019023085,-0.15940347,0.97271466,-0.14782295
0.0,0.1,0.8999999999999999,0.0,0.0,0,-0.75366604,-0.6661777,-2.836791,0.32211503,0.027862573,1.4959936,0.36858174,0.07057039,-1.1485834,0.5394946,-0.06667125,-1.0470692,1.0424083,0.6644485
0.0,0.1,0.8999999999999999,0.0,0.0,0,-0.75548464,-0.66394114,-2.8482673,0.34033674,0.02946463,1.5019431,0.34748507,0.33389592,-1.1451373,-0.16909553,0.07320357,0.14615084,0.93337846,-0.5668287
0.0,0.1,0.8999999999999999,0.0,0.0,0,-0.7497752,-0.67845994,-2.8471022,0.33420894,0.018918633,1.5086104,0.33070576,0.4177852,-1.1580511,-0.25629163,-0.011514341,-0.026178367,1.1687222,0.14770396
0.0,0.1,0.8999999999999999,0.0,0.0,0,-0.75356644,-0.6530427,-2.8432696,0.34674972,0.012957522,1.5093055,0.473507,0.27830318,-1.1430434,0.081147395,-0.11931697,1.019083,1.1233289,0.5115525
0.0,0.1,0.8999999999999999,0.0,0.0,0,-0.7507816,-0.6695979,-2.8437426,0.33006877,0.016064469,1.5102233,0.37836874,0.11014822,-1.1320858,0.16118425,-0.026128987,0.031446684,1.0929798,-0.21524207
0.0,0.1,0.8999999999999999,0.0,0.0,0,-0.75182086,-0.67514205,-2.8567169,0.32184774,0.02113428,1.4961655,0.32570663,0.31495675,-1.1531631,-0.33650333,-0.06908409,0.23607343,1.161696,-1.6283098
0.0,0.1,0.8999999999999999,0.0,0.0,0,-0.75420266,-0.65822434,-2.8494804,0.31410253,0.023371218,1.5190915,0.38876015,0.0358307,-1.1702113,0.20229252,-0.099714175,0.04956585,1.1931465,-0.8565288
0.0,0.1,0.8999999999999999,0.0,0.0,0,-0.75324875,-0.6780999,-2.8610406,0.31225392,0.016765144,1.5028955,0.353134,0.16522275,-1.174206,-0.64961565,0.010566443,0.36081773,1.1439784,1.125179
0.0,0.1,0.8999999999999999,0.0,0.0,0,-0.75275075,-0.67153394,-2.838106,0.34277698,0.0033339444,1.5136473,0.40959072,0.17220849,-1.1479076,0.29328698,-0.042705126,0.2608137,1.4257952,0.19514671
0.0,0.1,0.8999999999999999,0.0,0.0,0,-0.75281227,-0.6584907,-2.8452497,0.322223,0.03127914,1.4976746,0.40930182,0.14360219,-1.1637099,-0.08176611,-0.17857876,0.29450214,1.1027904,0.1568024
0.0,0.1,0.8999999999999999,0.0,0.0,0,-0.757676,-0.66920686,-2.8432152,0.3357796,0.021710161,1.5206213,0.34332997,0.4242199,-1.1512562,-0.06840956,0.052742325,0.33383563,1.1272465,-0.44975382
0.0,0.1,0.8999999999999999,0.0,0.0,0,-0.75150067,-0.6750393,-2.849393,0.3390639,0.04769364,1.4907961,0.3484066,0.4257669,-1.1516626,-0.44426054,-0.0850341,0.15896417,0.9586414,0.30652294
0.0,0.1,0.8999999999999999,0.0,0.0,0,-0.7520806,-0.66310376,-2.8469894,0.32730705,0.0196664,1.4961641,0.35469863,0.1546833,-1.1537117,-0.113889165,-0.07225576,-0.06453778,0.90655744,0.64494526
0.0,0.1,0.8999999999999999,0.0,0.0,0,-0.7502627,-0.68286383,-2.8562272,0.32803348,0.033126384,1.5132926,0.41920742,0.12481128,-1.138324,-0.028038628,-0.09239928,-0.17349288,0.8668172,-0.17736612
0.0,0.1,0.8999999999999999,0.0,0.0,0,-0.75481105,-0.66350615,-2.841349,0.32629532,0.03150883,1.4995536,0.4022125,0.026117137,-1.1498305,0.68166405,-0.020195896,0.27797282,0.8361908,0.060108982
0.0,0.1,0.8999999999999999,0.0,0.0,0,-0.75970525,-0.66890687,-2.8429067,0.31767645,0.022028219,1.4968839,0.37124822,0.003714389,-1.1411932,-0.34144628,-0.002787333,-0.22415566,1.2094661,-2.0970068
0.0,0.1,0.8999999999999999,0.0,0.0,0,-0.7519694,-0.68224925,-2.851695,0.33179706,0.006885943,1.5006402,0.34098238,0.07469935,-1.1386626,0.067125134,-0.07188347,0.18948238,1.218562,-0.47699004
0.0,0.1,0.8999999999999999,0.0,0.0,0,-0.7543804,-0.67420435,-2.8356767,0.32806516,0.018341258,1.5079796,0.37588412,0.25830987,-1.1534588,0.1732492,-0.06889721,0.5046897,1.2704097,0.30234736
0.0,0.1,0.8999999999999999,0.0,0.0,0,-0.7563028,-0.6598407,-2.8351479,0.33073223,0.022197206,1.5149786,0.46817148,0.0510942,-1.1602373,-0.019329308,-0.09282327,-0.043625947,1.0739747,-0.26545542
0.0,0.1,0.8999999999999999,0.0,0.0,0,-0.7524794,-0.6582091,-2.837851,0.3272077,0.029617341,1.5040042,0.3891487,0.124659956,-1.1287196,-0.1551156,-0.13516657,-0.31609532,1.1222786,-0.891789
0.0,0.1,0.8999999999999999,0.0,0.0,0,-0.75038356,-0.67167246,-2.8528347,0.3350487,0.024932286,1.5116744,0.4086055,0.029382259,-1.1457192,-0.16909394,-0.07708154,-0.30515644,1.0738236,-0.2069108
0.0,0.1,0.8999999999999999,0.0,0.0,0,-0.75267625,-0.6796086,-2.832004,0.32241517,0.013311484,1.5096873,0.40899083,0.21104725,-1.1393654,-0.5120353,-0.16138273,-0.5867197,1.0764211,0.3884899
0.0,0.1,0.8999999999999999,0.0,0.0,0,-0.75190026,-0.67346334,-2.8376663,0.33304062,0.026458768,1.4818883,0.4036175,0.1549965,-1.1549959,0.27151266,-0.101436086,0.64273804,0.9844354,0.14893423
0.0,0.1,0.8999999999999999,0.0,0.0,0,-0.7552471,-0.6710374,-2.8362186,0.3413591,0.015424084,1.498579,0.45305988,-0.13893415,-1.1339958,-0.4135075,0.0092541035,-0.044856545,1.3542165,1.5347854
0.0,0.1,0.8999999999999999,0.0,0.0,0,-0.75148207,-0.6660589,-2.838419,0.3186654,0.010522912,1.5181191,0.37326592,0.060523324,-1.1372412,0.22713318,0.06871386,-0.054116577,1.0711207,0.43264836
0.0,0.1,0.8999999999999999,0.0,0.0,0,-0.7563043,-0.6788669,-2.8430426,0.3359265,0.037359074,1.5083027,0.41859764,0.23422062,-1.1333168,-0.2974307,-0.044822447,0.4550704,1.259404,-0.6780624
0.0,0.1,0.8999999999999999,0.0,0.0,0,-0.74925303,-0.6607993,-2.86579,0.31879592,0.033420138,1.5164729,0.34363312,0.30872238,-1.1459467,0.2495062,-0.037534036,0.03160123,1.0261947,-0.59735346
0.0,0.1,0.8999999999999999,0.0,0.0,0,-0.74916553,-0.6704055,-2.845097,0.32131654,0.014316727,1.5103848,0.4147385,0.06562514,-1.1519523,0.40159968,-0.08528958,-0.639125,1.0276229,0.45730948
0.0,0.1,0.8999999999999999,0.0,0.0,0,-0.7590342,-0.6785501,-2.8551288,0.33262256,0.0270527,1.5167053,0.37140685,0.26977053,-1.1387414,0.12706652,0.013991965,0.058439165,1.0371205,-0.54093945
0.0,0.1,0.8999999999999999,0.0,0.0,0,-0.75530183,-0.69076437,-2.8329768,0.32896528,0.025099037,1.4861456,0.4707563,0.08298562,-1.1479926,0.06776331,-0.18756709,0.51815003,0.8201732,-1.4401839
0.0,0.1,0.8999999999999999,0.0,0.0,0,-0.75084096,-0.6611903,-2.8468735,0.33378276,0.012080326,1.5158702,0.41453603,0.06966016,-1.1413896,0.44562015,-0.10729338,-0.3851283,0.9577318,0.59468067
0.0,0.1,0.8999999999999999,0.0,0.0,0,-0.75293136,-0.66814315,-2.841458,0.3358808,0.019963564,1.5077628,0.35319838,-0.24846742,-1.1458368,0.20753765,0.04235625,-0.18020315,1.1583755,-0.02938522
0.0,0.1,0.8999999999999999,0.0,0.0,0,-0.75934273,-0.6736299,-2.8449352,0.3280211,0.016517418,1.5178232,0.3831947,0.19655746,-1.1418333,0.2818627,-0.0282087,0.08566535,0.94803286,0.09301052
0.0,0.1,0.8999999999999999,0.0,0.0,0,-0.7542062,-0.65831095,-2.8496213,0.3249941,0.019507812,1.5130163,0.43960896,0.008501612,-1.1510872,0.14723392,-0.09858963,0.7684965,1.0146183,-0.85645396
0.0,0.1,0.8999999999999999,0.0,0.0,0,-0.753244,-0.6790419,-2.84948,0.33034343,0.024087671,1.5110357,0.39621186,0.31619528,-1.1467485,-0.20542368,-0.12926391,-0.27610922,0.89836055,0.6853869
0.0,0.1,0.8999999999999999,0.0,0.0,0,-0.7527768,-0.6775385,-2.85643,0.32686844,0.035949107,1.512156,0.39209837,0.009482965,-1.160185,-0.4067501,-0.09445163,-0.2966828,1.114698,-0.41869172
0.0,0.1,0.8999999999999999,0.0,0.0,0,-0.7541522,-0.67686343,-2.8439412,0.3256085,0.0298869,1.4929329,0.39507452,0.31146377,-1.1484545,-0.07889244,-0.05010799,0.24894668,0.9681737,-0.37703985
0.0,0.1,0.8999999999999999,0.0,0.0,0,-0.74786335,-0.6578789,-2.844411,0.319302,-0.0022043358,1.5083454,0.37634584,0.10593645,-1.1455685,0.43370864,-0.18720739,-0.2092785,1.1084754,-1.896217
0.0,0.1,0.8999999999999999,0.0,0.0,0,-0.75141656,-0.670469,-2.832418,0.32523462,0.0058726664,1.5107331,0.3750645,0.09103649,-1.1262133,-0.25001204,-0.020468915,0.003442787,0.853633,-0.10096891
0.0,0.1,0.8999999999999999,0.0,0.0,0,-0.7507873,-0.66803104,-2.8351703,0.3324164,0.01924063,1.4952717,0.39417806,0.16044334,-1.1430097,-0.43035457,0.026188921,-0.44404516,1.2459241,0.36015725
0.0,0.1,0.8999999999999999,0.0,0.0,0,-0.7507189,-0.6821631,-2.841103,0.3269617,0.030368898,1.485221,0.41113114,0.23702306,-1.1581658,-0.20465954,-0.038481984,0.26151592,1.2968307,-0.010937052
0.0,0.1,0.8999999999999999,0.0,0.0,0,-0.7466486,-0.66969615,-2.8545716,0.3226417,0.014388613,1.5208591,0.38964653,0.37354612,-1.1475925,0.44377914,-0.05934815,0.32313,1.0415338,-0.5168108
0.0,0.1,0.8999999999999999,0.0,0.0,0,-0.7493688,-0.66132283,-2.8411047,0.3289487,0.026381278,1.4902987,0.36250454,0.19427228,-1.1527187,-0.27000636,-0.07659525,0.3573531,0.8759473,0.5091735
0.0,0.1,0.8999999999999999,0.0,0.0,0,-0.74645436,-0.6738771,-2.8522387,0.32718506,0.009644998,1.5264738,0.3941749,-0.027757704,-1.1371986,-0.25453097,0.04792114,-0.21117786,1.1918112,-0.6951183
0.0,0.1,0.8999999999999999,0.0,0.0,0,-0.75000656,-0.6685549,-2.8472354,0.33829203,0.01734416,1.5090368,0.39913496,0.16988142,-1.1316407,0.33034012,-0.032559264,0.103521794,1.1474862,0.3270483
0.0,0.1,0.8999999999999999,0.0,0.0,0,-0.7517198,-0.68786216,-2.859194,0.31093663,0.019296095,1.513452,0.4134879,-0.05006462,-1.1348892,0.2469043,0.089040264,0.0609648,0.97449756,-1.1017318
0.0,0.1,0.8999999999999999,0.0,0.0,0,-0.7528876,-0.6718871,-2.847926,0.3194444,0.031157045,1.5044379,0.3884716,-0.09057846,-1.1491783,-0.3276258,-0.052131016,-0.44537684,1.1839725,-0.37807977
0.0,0.1,0.8999999999999999,0.0,0.0,0,-0.7578755,-0.6697836,-2.84336,0.3302814,0.02304568,1.5059787,0.39986143,0.40993816,-1.1543607,-0.15897694,-0.048581466,0.19043851,1.1733909,-0.45669147
0.0,0.1,0.8999999999999999,0.0,0.0,0,-0.7540644,-0.67643124,-2.8368063,0.32456347,0.0069836522,1.5026721,0.37113786,0.37863287,-1.1677678,0.8465996,-0.03404412,-0.11716299,1.1382582,1.4599811
0.0,0.1,0.8999999999999999,0.0,0.0,0,-0.74965817,-0.66502905,-2.8336985,0.32524377,0.016179781,1.4837719,0.4172056,0.31287715,-1.1432517,-0.5263433,-0.082172506,-0.18248138,1.1514113,-0.9080223
0.0,0.1,0.8999999999999999,0.0,0.0,0,-0.7505859,-0.6603238,-2.8490708,0.32175452,0.021406228,1.5106665,0.37846974,0.097236104,-1.1148326,0.17023967,-0.039337993,-0.13816999,1.1793075,1.4749331
0.0,0.1,0.8999999999999999,0.0,0.0,0,-0.7573229,-0.6804661,-2.839131,0.32333025,0.012118857,1.500448,0.37116012,0.07327303,-1.1682616,-0.28427565,0.0096753305,0.1502367,0.89107573,0.7569568
0.0,0.1,0.8999999999999999,0.0,0.0,0,-0.75198865,-0.6680794,-2.8566926,0.3160334,0.027076216,1.5039316,0.36064443,-0.03461675,-1.1547414,0.15289912,0.0067287222,0.29906803,1.3765153,-0.7463705
0.0,0.1,0.8999999999999999,0.0,0.0,0,-0.7536607,-0.6661271,-2.8556905,0.33320078,0.03063544,1.5101628,0.39447895,0.24055268,-1.1325943,0.55916643,0.0088081295,0.047223262,1.1592096,-0.19495517
0.0,0.1,0.8999999999999999,0.0,0.0,0,-0.7485556,-0.6674531,-2.852002,0.30935264,0.029205289,1.503305,0.34970102,0.29539272,-1.1449286,0.35741264,-0.061316624,0.1042352,0.92504764,-0.5912085
0.0,0.1,0.8999999999999999,0.0,0.0,0,-0.75244063,-0.65630007,-2.8514075,0.32718414,0.023264851,1.5045216,0.38436675,0.09254568,-1.1410322,-0.14935672,-0.15011996,0.1016267,1.1364949,-0.39093396
0.0,0.1,0.8999999999999999,0.0,0.0,0,-0.7547336,-0.6841113,-2.858562,0.32374012,0.02889938,1.5167059,0.43321952,-0.16617014,-1.1373711,0.31362697,-0.054487754,-0.1548902,0.96556807,-0.29043272
0.0,0.1,0.8999999999999999,0.0,0.0,0,-0.75572854,-0.6809773,-2.8440855,0.32618248,0.022126019,1.5004488,0.40107456,0.1407955,-1.1448829,0.58838606,0.0093142195,0.29846942,1.0543138,-1.7202445
0.0,0.1,0.8999999999999999,0.0,0.0,0,-0.75426036,-0.6510029,-2.8434656,0.32247686,0.005737176,1.5223693,0.39007446,0.33044642,-1.119722,-0.42061794,-0.033513926,0.22048926,0.94109195,0.9080659
0.0,0.1,0.8999999999999999,0.0,0.0,0,-0.7500498,-0.6633503,-2.8472595,0.33918878,0.015151955,1.5061507,0.39036068,-0.010704015,-1.1543226,-0.24653432,-0.057288345,-0.058735076,1.0106095,0.20753461
0.0,0.1,0.8999999999999999,0.0,0.0,0,-0.7576526,-0.6584131,-2.8353071,0.3108725,0.0095824255,1.5155351,0.3854222,0.09537763,-1.1381801,0.051502466,-0.056134086,0.28991064,1.28283,-1.0252347
0.0,0.1,0.8999999999999999,0.0,0.0,0,-0.7498833,-0.6573377,-2.8488455,0.3273484,0.03346557,1.5085871,0.40459955,0.2253616,-1.1370643,0.3894964,-0.033518404,0.1878107,1.1681598,0.74818575
0.0,0.1,0.8999999999999999,0.0,0.0,0,-0.7517454,-0.66758174,-2.8459551,0.32531065,0.01310438,1.506147,0.38119066,0.45717055,-1.1311605,-0.7106148,-0.010350249,0.40653113,0.97170997,-0.4956293
0.0,0.1,0.8999999999999999,0.0,0.0,0,-0.7527282,-0.6689314,-2.856175,0.3293676,0.01938324,1.5116717,0.32041955,0.083834685,-1.1621133,0.05274716,0.029434249,-0.21315473,1.0776172,-0.26107678
0.0,0.1,0.8999999999999999,0.0,0.0,0,-0.75445986,-0.6709944,-2.8416164,0.32389426,0.009874005,1.5053594,0.40268365,-0.108242296,-1.1457043,0.28841823,-0.09781087,-0.10073625,1.3698711,-0.53507453
0.0,0.1,0.8999999999999999,0.0,0.0,0,-0.74723035,-0.66281325,-2.8447254,0.32165968,0.027501851,1.4863611,0.3603439,0.051030412,-1.1390938,-0.1310045,-0.14921823,0.05282439,0.75642705,-0.4351445
0.0,0.1,0.8999999999999999,0.0,0.0,0,-0.749253,-0.6684567,-2.8514209,0.3310306,0.02031565,1.5107476,0.37305152,-0.38628083,-1.1488837,-0.14588489,0.062153354,-0.033340663,1.149461,-0.03127225
0.0,0.1,0.8999999999999999,0.0,0.0,0,-0.74835795,-0.6540205,-2.8465405,0.32523552,0.026037505,1.4979835,0.42454034,-0.19576827,-1.1373247,-0.6820868,0.009281718,0.32436353,1.1561286,0.56307495
0.0,0.1,0.8999999999999999,0.0,0.0,0,-0.7530131,-0.66738045,-2.8526855,0.3248309,0.016063591,1.5059427,0.36126983,0.0013350789,-1.1312104,-0.12196153,-0.1187884,-0.1301075,1.1506125,-0.18358167
0.0,0.1,0.8999999999999999,0.0,0.0,0,-0.75414103,-0.67441595,-2.8425183,0.32872036,0.029015202,1.4980563,0.41814554,0.27907082,-1.132636,0.18982027,-0.08481645,0.31831798,1.4699674,0.41063052
0.0,0.1,0.8999999999999999,0.0,0.0,0,-0.75497955,-0.6708463,-2.831102,0.3245105,0.019148486,1.4985467,0.40012115,0.1815199,-1.1249974,-0.048960477,0.013775779,-0.027746568,1.1262301,0.4171226
0.0,0.1,0.8999999999999999,0.0,0.0,0,-0.7524349,-0.6622325,-2.8405297,0.32228854,0.02458152,1.4845848,0.38876703,0.3017708,-1.129472,0.80608654,-0.010269759,-0.013098253,1.3525956,-0.6245621
0.0,0.1,0.8999999999999999,0.0,0.0,0,-0.7534799,-0.6711094,-2.8581161,0.3016255,0.039393853,1.4785237,0.346131,-0.22956765,-1.1454358,0.8415119,-0.108902864,-0.28642154,1.3744782,-0.5090408
0.0,0.1,0.8999999999999999,0.0,0.0,0,-0.7512475,-0.6737279,-2.8518045,0.33687446,0.024524335,1.5057042,0.3407203,0.23032825,-1.1432357,-0.053964596,0.033175893,0.34416592,1.0789782,-0.33062565
0.0,0.1,0.8999999999999999,0.0,0.0,0,-0.7515789,-0.68128467,-2.842665,0.3348988,0.019809451,1.4878309,0.38847125,0.12262331,-1.1262046,0.11859592,0.0140947355,0.18689905,1.1501851,1.0810616
0.0,0.1,0.8999999999999999,0.0,0.0,0,-0.75456893,-0.6808448,-2.8502326,0.32469305,0.02922114,1.5036023,0.3558468,0.26325172,-1.1429653,0.25311232,-0.031246232,0.5069738,1.1980004,0.20226265
0.0,0.1,0.8999999999999999,0.0,0.0,0,-0.74995977,-0.6655266,-2.8415334,0.3212614,0.014979683,1.4989021,0.40789303,0.14343104,-1.1679866,0.14727257,-0.089513704,0.053657465,0.97260493,0.23905574
0.0,0.1,0.8999999999999999,0.0,0.0,0,-0.75779754,-0.67307854,-2.8396866,0.34019262,0.028836,1.4854255,0.42680123,0.24860597,-1.1372448,0.12027956,0.018020436,-0.42456013,1.3368634,-0.2716686
0.0,0.1,0.8999999999999999,0.0,0.0,0,-0.75321656,-0.6728645,-2.8332353,0.3268734,0.048861384,1.4856508,0.40457052,-0.04110012,-1.1443903,-0.6968121,-0.04180112,-0.23545551,1.0307512,-0.23632874
0.0,0.1,0.8999999999999999,0.0,0.0,0,-0.7527545,-0.66089034,-2.8420014,0.31908527,0.025527377,1.4892608,0.40851668,0.17727236,-1.1536163,0.2527446,0.039189015,-0.07666864,0.9536405,-0.6754044
0.0,0.1,0.8999999999999999,0.0,0.0,0,-0.7535207,-0.6768342,-2.8335593,0.3191342,0.02631322,1.4951679,0.4531444,0.2771465,-1.1171154,-0.16808422,-0.061212286,0.4904287,1.1552,-1.0454412
0.0,0.1,0.8999999999999999,0.0,0.0,0,-0.75488013,-0.6822471,-2.8563883,0.34040397,0.0301642,1.5029652,0.34458697,0.007630099,-1.1374856,0.34671366,-0.015612155,-0.048606895,1.0582533,-0.30252528
0.0,0.1,0.8999999999999999,0.0,0.0,0,-0.7522187,-0.67480963,-2.8565006,0.3242788,0.02983798,1.4948875,0.41206965,0.1130909,-1.1628948,0.09605639,0.037761126,-0.25289753,1.202628,-0.5622073
0.0,0.1,0.8999999999999999,0.0,0.0,0,-0.7518043,-0.6771773,-2.845627,0.33134168,0.010508122,1.4971884,0.42941642,0.011577081,-1.1404917,-0.59241754,-0.020962374,0.3105334,1.2179039,1.0361593
0.0,0.1,0.8999999999999999,0.0,0.0,0,-0.7521449,-0.6673386,-2.8258607,0.32641903,0.012665014,1.4855928,0.40255657,0.43104836,-1.1642537,0.1794241,-0.011054696,-0.08919793,1.0772275,0.5313246
0.0,0.1,0.8999999999999999,0.0,0.0,0,-0.74956656,-0.6673257,-2.8339288,0.32207823,0.029892294,1.4965835,0.41282445,0.03379493,-1.1493003,0.51108027,-0.16191046,0.081675716,0.97841066,-0.934367
0.0,0.1,0.8999999999999999,0.0,0.0,0,-0.75556743,-0.67120844,-2.863067,0.33038628,0.02292073,1.4911668,0.39168695,0.19399513,-1.149097,0.36569905,-0.12264358,0.8633045,1.0704329,0.4450826
0.0,0.1,0.8999999999999999,0.0,0.0,0,-0.7561164,-0.66602266,-2.8561466,0.3288414,0.0228689,1.503695,0.41549405,-0.054601498,-1.1443464,0.47309497,0.069357716,0.086998604,1.1905298,-1.620307
0.0,0.1,0.8999999999999999,0.0,0.0,0,-0.75598747,-0.6677451,-2.852588,0.33589444,0.019763645,1.5091553,0.34525484,0.1689622,-1.1394116,0.08393652,0.04851704,0.0012352434,1.1731716,-0.04128272
0.0,0.1,0.8999999999999999,0.0,0.0,0,-0.75161004,-0.6597975,-2.844537,0.3255205,0.020890933,1.4920162,0.39144257,-0.0415219,-1.1351204,0.60476685,-0.06621113,0.06144202,1.2528096,-0.109360844
0.0,0.1,0.8999999999999999,0.0,0.0,0,-0.7539754,-0.66251314,-2.8489165,0.33863598,0.01849239,1.5065253,0.36630604,-0.22750385,-1.1376848,0.21408509,-0.11269278,0.15413211,1.0620954,-0.6019514
0.0,0.1,0.8999999999999999,0.0,0.0,0,-0.75163996,-0.6704613,-2.8525863,0.34228748,0.016093856,1.5066154,0.34995067,0.065674484,-1.141513,0.2921581,0.011570784,-0.107322,1.116143,0.49658
0.0,0.1,0.8999999999999999,0.0,0.0,0,-0.7519931,-0.690056,-2.8450954,0.33913854,0.02559069,1.5047147,0.3774602,0.0291643,-1.1491637,0.4717016,-0.018656425,-0.45328662,0.77652013,-0.023430644
0.0,0.1,0.8999999999999999,0.0,0.0,0,-0.7560859,-0.6635591,-2.8441074,0.28494206,0.020675799,1.5253398,0.38019478,0.01745439,-1.1408122,-1.052819,0.07534006,0.16844015,1.1120777,-1.0949206
0.0,0.1,0.8999999999999999,0.0,0.0,0,-0.74981207,-0.6655174,-2.8447902,0.33098167,0.016682131,1.4855093,0.34950173,0.11538342,-1.1689744,0.41859522,-0.060476255,-0.25145763,0.99462783,0.40086004
0.0,0.1,0.8999999999999999,0.0,0.0,0,-0.75026566,-0.6742908,-2.8313289,0.32413042,0.03759003,1.500835,0.41261685,0.14824066,-1.156039,-0.056215543,-0.048674807,-0.15879391,1.1675173,0.7809739
0.0,0.1,0.8999999999999999,0.0,0.0,0,-0.75025207,-0.6747369,-2.84513,0.31344557,0.035513468,1.5073045,0.35042027,-0.17134127,-1.1298997,-0.4293471,-0.0907319,0.20139772,0.97232914,0.047939394
0.0,0.1,0.8999999999999999,0.0,0.0,0,-0.754654,-0.6863052,-2.828598,0.3342047,0.033565834,1.5019873,0.42132795,0.09407441,-1.1227787,0.070836455,0.038983513,-0.28360957,0.9840583,-0.23351647
0.0,0.1,0.8999999999999999,0.0,0.0,0,-0.7556065,-0.68026644,-2.8472238,0.3259169,0.02687508,1.5086683,0.37834218,0.035560884,-1.1281482,0.38720658,-0.09473335,-0.06699313,1.1365407,0.060807493
0.0,0.1,0.8999999999999999,0.0,0.0,0,-0.7502982,-0.67246747,-2.8469138,0.33593163,0.03793294,1.5078905,0.44548747,-0.039486725,-1.1492785,0.19804035,0.029765964,0.097201265,1.0310721,-1.018816
0.0,0.1,0.8999999999999999,0.0,0.0,0,-0.75584954,-0.67868686,-2.8289137,0.32987243,0.024958568,1.5087801,0.4236227,0.014254447,-1.1538568,-0.19289102,-0.19448143,0.2528033,0.9764208,-0.32214564
0.0,0.1,0.8999999999999999,0.0,0.0,0,-0.75527763,-0.6771981,-2.8321645,0.31288758,0.021995487,1.5214666,0.38108903,0.16291551,-1.1212425,0.85753286,-0.032053098,-1.1680119,0.9348082,0.45927
0.0,0.1,0.8999999999999999,0.0,0.0,0,-0.75333977,-0.6702574,-2.8355806,0.33120817,0.020802129,1.5147805,0.41075334,-0.01692944,-1.1351571,-0.34360898,-0.1411928,-0.1278279,1.0222101,1.3026849
0.0,0.1,0.8999999999999999,0.0,0.0,0,-0.7482247,-0.67572284,-2.852273,0.33221126,0.039421186,1.5213916,0.3767898,0.27847007,-1.1506454,0.4341723,0.025957804,-0.4368753,0.8887675,-1.1088449
0.0,0.1,0.8999999999999999,0.0,0.0,0,-0.7543061,-0.66875416,-2.8439162,0.31193447,0.039233916,1.5161203,0.35777882,0.17521596,-1.1391753,0.12477207,-0.00055764295,-0.011443447,0.87224877,1.1167505
0.0,0.1,0.8999999999999999,0.0,0.0,0,-0.7519978,-0.6781513,-2.836895,0.31630126,0.03703299,1.4946373,0.40824777,0.12310051,-1.1363084,0.24587855,0.04876987,-0.74143463,1.3310763,-0.88703257
0.0,0.1,0.8999999999999999,0.0,0.0,0,-0.7589397,-0.6562486,-2.8376846,0.3410753,0.03292509,1.4984132,0.3635641,0.39893034,-1.1257776,-0.41630504,0.041789763,-0.9422639,0.72164077,0.33011088
0.0,0.1,0.8999999999999999,0.0,0.0,0,-0.7547941,-0.6647519,-2.8461337,0.3244453,0.026493449,1.5178791,0.40077373,0.07781395,-1.1594843,0.056593098,-0.071856245,-0.5388977,1.1370896,-0.46034113
0.0,0.1,0.8999999999999999,0.0,0.0,0,-0.75327486,-0.66123384,-2.8509622,0.33863056,0.033899706,1.5176756,0.43820775,0.19763838,-1.1243749,-0.27113408,0.060535695,0.4340364,0.84184057,-0.8443324
0.0,0.1,0.8999999999999999,0.0,0.0,0,-0.7505917,-0.6796497,-2.8540432,0.31968382,0.024835939,1.5018067,0.3633307,-0.06958367,-1.1181477,0.3193415,-0.14133127,-0.10506151,0.9969328,-0.16726288
0.0,0.1,0.8999999999999999,0.0,0.0,0,-0.7537821,-0.67109835,-2.8498094,0.32710448,0.032755848,1.5192349,0.37862903,0.22339028,-1.1446869,0.78988564,-0.06913703,0.058279797,0.9742097,-0.5847423
0.0,0.1,0.8999999999999999,0.0,0.0,0,-0.7566127,-0.65999836,-2.8293412,0.33190352,0.013014528,1.5091577,0.34148934,0.08904426,-1.1557333,0.42624632,-0.06304172,-0.47334817,1.0854558,0.64648736
0.0,0.1,0.8999999999999999,0.0,0.0,0,-0.7546479,-0.6613652,-2.851389,0.34085184,0.019837223,1.5244932,0.40847766,0.0132390205,-1.1538526,-0.41820776,-0.053075515,-0.055188857,1.0963794,-0.6340482
0.0,0.1,0.8999999999999999,0.0,0.0,0,-0.7533565,-0.6626902,-2.8482728,0.32352933,0.02762401,1.4972814,0.34514958,0.19187911,-1.1512994,0.28361195,-0.108579725,0.6669006,0.90333974,0.39631373
0.0,0.1,0.8999999999999999,0.0,0.0,0,-0.74895734,-0.66432226,-2.8503218,0.32198948,0.03506498,1.5055578,0.40720564,0.06511239,-1.1311791,-0.03054287,-0.059190355,-0.6463133,1.1391928,-1.3039769
0.0,0.1,0.8999999999999999,0.0,0.0,0,-0.75331753,-0.67855495,-2.8412514,0.32110265,0.04106468,1.4995656,0.37025255,0.30424792,-1.145337,0.0764811,-0.07902664,0.31400654,1.1452248,-1.0482945
0.0,0.1,0.8999999999999999,0.0,0.0,0,-0.74842924,-0.66773415,-2.8439813,0.34101698,0.03934473,1.507461,0.36188313,0.2900042,-1.1409346,-0.12359732,-0.028837064,0.013023682,1.170809,-0.25489467
0.0,0.1,0.8999999999999999,0.0,0.0,0,-0.7521365,-0.66868293,-2.8476884,0.3328106,0.02895386,1.5129038,0.38749182,0.0124573875,-1.1728436,0.12347013,-0.115371004,-0.19136612,1.2182198,-1.5205075
0.0,0.1,0.8999999999999999,0.0,0.0,0,-0.755376,-0.67736536,-2.8335235,0.32800767,0.019759271,1.4974139,0.34291112,0.08712904,-1.1480306,-0.45638278,-0.0641243,0.27528384,1.0631822,-1.0415667
0.0,0.1,0.8999999999999999,0.0,0.0,0,-0.7491302,-0.66554433,-2.8424141,0.33953837,0.020294033,1.5143225,0.37169406,0.09409596,-1.1441715,-0.103685044,-0.14110188,0.10299524,0.97918046,0.3650164
0.0,0.1,0.8999999999999999,0.0,0.0,0,-0.7545277,-0.68310434,-2.8481717,0.31331265,0.02605601,1.5173877,0.38928035,0.2622562,-1.1419642,0.40649924,-0.0719497,-0.50626624,1.0815679,-1.3484433
0.0,0.1,0.8999999999999999,0.0,0.0,0,-0.7569684,-0.667009,-2.8450155,0.3326319,0.034470335,1.5114354,0.38126165,0.05281775,-1.1254112,-0.21648383,-0.00658145,-0.4005744,0.8069046,0.42746466
0.0,0.1,0.8999999999999999,0.0,0.0,0,-0.74729156,-0.68551534,-2.8414736,0.31491846,0.015033128,1.5242528,0.36131647,0.038704854,-1.164672,-0.032497995,-0.04088247,-0.13337424,1.210134,-1.0598384
0.0,0.1,0.8999999999999999,0.0,0.0,0,-0.7506446,-0.67581296,-2.854747,0.30879056,0.018030467,1.5224566,0.3996008,0.109541774,-1.146427,-0.35665393,-0.12587036,0.95133966,0.84245336,-0.4827096
0.0,0.1,0.8999999999999999,0.0,0.0,0,-0.75277144,-0.675739,-2.8508465,0.31907943,0.029375624,1.5053024,0.3884848,0.09547228,-1.1491321,-0.01821469,-0.013096165,-0.120658726,0.99663645,-1.535581
0.0,0.1,0.8999999999999999,0.0,0.0,0,-0.76179963,-0.6795323,-2.8490589,0.32086736,0.042568818,1.5159895,0.35826266,0.0846488,-1.1435438,0.5757892,0.018679455,0.041735176,0.84534925,-0.09351877
0.0,0.1,0.8999999999999999,0.0,0.0,0,-0.7537267,-0.6622569,-2.8441687,0.32017678,0.023777353,1.4973593,0.37136814,0.22404912,-1.1472532,0.06838064,-0.13105303,-0.30167553,1.1152188,-1.0563207
0.0,0.1,0.8999999999999999,0.0,0.0,0,-0.7550583,-0.6708354,-2.8677878,0.3266993,0.0300758,1.5145781,0.33397684,0.19946833,-1.1649421,-0.2901743,-0.039591253,-0.16790345,1.0055205,-0.76744497
0.0,0.1,0.8999999999999999,0.0,0.0,0,-0.7518159,-0.6842891,-2.8528945,0.31910378,0.017323108,1.5142448,0.38901308,0.35593274,-1.1467425,-0.17695001,-0.076464005,0.20009059,1.0466659,0.9492663
0.0,0.1,0.8999999999999999,0.0,0.0,0,-0.75005877,-0.671105,-2.8507748,0.32666722,0.018482871,1.4849305,0.39119822,0.35686547,-1.1338363,0.08427108,0.07421201,-0.014565627,1.2144458,-0.4503447
0.0,0.1,0.8999999999999999,0.0,0.0,0,-0.7522695,-0.6684208,-2.8548608,0.3326685,0.029423788,1.4967005,0.36640152,0.1611452,-1.1428974,0.3434488,-0.10069647,0.40239906,0.9248908,-0.84148306
0.0,0.1,0.8999999999999999,0.0,0.0,0,-0.7524398,-0.67523515,-2.8527792,0.34514195,0.031083634,1.4968548,0.35594645,0.10347141,-1.1308097,0.33704665,-0.096110836,-0.59001684,0.9539118,0.0038616005
0.0,0.1,0.8999999999999999,0.0,0.0,0,-0.7558897,-0.6754198,-2.844399,0.31859997,0.02674372,1.5255227,0.457069,0.36571506,-1.1357297,0.64267445,0.05072784,-0.02993136,1.2506737,-0.333398
0.0,0.1,0.8999999999999999,0.0,0.0,0,-0.75368017,-0.661995,-2.8464165,0.34472945,0.019390766,1.4991937,0.3561279,0.00521766,-1.1583894,0.36244324,0.04080473,0.010416881,1.0976309,0.5282115
