sanky1234/BimanualDexCatch/isaacgymenvs/cem_results/football_pose_-0.2_0.10000000000000003_0.8999999999999999_-0.5235987755982988_-0.5235987755982988_0_2025-05-25.csv
x,y,z,roll,pitch,yaw,robot1/joint1,robot1/joint2,robot1/joint3,robot1/joint4,robot1/joint5,robot1/joint6,robot1/joint7,robot2/joint1,robot2/joint2,robot2/joint3,robot2/joint4,robot2/joint5,robot2/joint6,robot2/joint7
-0.2,0.10000000000000003,0.8999999999999999,-0.5235987755982988,-0.5235987755982988,0,1.3190442,0.7109174,0.62762094,-0.30277258,0.07401598,1.5637977,0.14391711,0.69313,-1.6569152,-0.4286913,-0.2651279,0.9685713,-1.3651595,0.77991563
-0.2,0.10000000000000003,0.8999999999999999,-0.5235987755982988,-0.5235987755982988,0,1.3335891,0.7366739,0.6249284,-0.29348102,0.07979048,1.5512508,0.17232853,0.6965527,-1.6826317,-0.13356501,0.08202688,0.101335205,-1.4835918,-0.17179327
-0.2,0.10000000000000003,0.8999999999999999,-0.5235987755982988,-0.5235987755982988,0,1.3263447,0.7241017,0.6260061,-0.2991781,0.077397056,1.5537899,0.15776992,0.6728308,-1.6639163,-0.54562426,-0.08832889,0.24762654,-1.1547534,0.19152465
-0.2,0.10000000000000003,0.8999999999999999,-0.5235987755982988,-0.5235987755982988,0,1.3191292,0.7230995,0.6277716,-0.2958904,0.066076934,1.5502203,0.14856154,0.69962513,-1.6660222,-0.3662534,-0.027947458,0.26395166,-1.1797756,0.8139082
-0.2,0.10000000000000003,0.8999999999999999,-0.5235987755982988,-0.5235987755982988,0,1.3289547,0.73148245,0.6281273,-0.2898558,0.067816816,1.5582957,0.15649725,0.7634106,-1.6738573,-0.34212652,-0.14052452,0.9845342,-1.4344252,0.2578442
-0.2,0.10000000000000003,0.8999999999999999,-0.5235987755982988,-0.5235987755982988,0,1.3237317,0.70911264,0.6366355,-0.29255328,0.08810449,1.5663754,0.15167002,0.6203079,-1.6597589,-0.5106359,0.036731195,1.4271619,-1.2621541,0.5642862
-0.2,0.10000000000000003,0.8999999999999999,-0.5235987755982988,-0.5235987755982988,0,1.3291503,0.72167856,0.6091761,-0.293471,0.064068444,1.5607182,0.1611261,0.7030935,-1.6533648,-0.57685196,-0.017528974,0.8378786,-1.3790944,0.40270132
-0.2,0.10000000000000003,0.8999999999999999,-0.5235987755982988,-0.5235987755982988,0,1.314296,0.7259555,0.6345318,-0.30067468,0.07345576,1.5548244,0.16671869,0.6912513,-1.6968726,-0.48050666,-0.104750015,0.48666254,-1.2197106,-0.12862666
-0.2,0.10000000000000003,0.8999999999999999,-0.5235987755982988,-0.5235987755982988,0,1.3291069,0.7182307,0.6053077,-0.28311938,0.096039526,1.5584692,0.15772913,0.70533746,-1.6846608,-0.32853663,-0.043939825,1.8502052,-1.4620849,1.1126013
-0.2,0.10000000000000003,0.8999999999999999,-0.5235987755982988,-0.5235987755982988,0,1.3200759,0.7132805,0.62540096,-0.29451978,0.07516748,1.5541769,0.15241826,0.77792513,-1.7106643,-0.4995066,-0.07180144,-0.42212766,-1.3291172,1.1948086
-0.2,0.10000000000000003,0.8999999999999999,-0.5235987755982988,-0.5235987755982988,0,1.3186978,0.7029935,0.62924826,-0.29671466,0.07374048,1.5546846,0.15315823,0.69448954,-1.6894649,-0.49397528,-0.03368096,0.12846582,-1.4104323,0.93764997
-0.2,0.10000000000000003,0.8999999999999999,-0.5235987755982988,-0.5235987755982988,0,1.323552,0.73549163,0.61790407,-0.28949687,0.073652275,1.5568024,0.16545415,0.67989165,-1.6795068,-0.5450283,-0.19457856,0.14740194,-1.3881179,0.4363776
-0.2,0.10000000000000003,0.8999999999999999,-0.5235987755982988,-0.5235987755982988,0,1.3251656,0.71988994,0.63529944,-0.29771385,0.08950299,1.5618232,0.14978507,0.7279145,-1.6858503,-0.39015406,0.09091151,2.0125241,-1.4353126,0.38328588
-0.2,0.10000000000000003,0.8999999999999999,-0.5235987755982988,-0.5235987755982988,0,1.3214946,0.726233,0.6332374,-0.30218396,0.07628065,1.5540159,0.16637476,0.7711101,-1.6711516,-0.5125741,-0.21007355,-0.49999216,-1.2624897,0.61946696
-0.2,0.10000000000000003,0.8999999999999999,-0.5235987755982988,-0.5235987755982988,0,1.3146029,0.71864307,0.6184351,-0.2977369,0.090518676,1.552525,0.14950779,0.59789723,-1.6599467,-0.13829203,-0.050236665,-0.26071417,-1.280183,-0.76032156
-0.2,0.10000000000000003,0.8999999999999999,-0.5235987755982988,-0.5235987755982988,0,1.322462,0.7181182,0.6341895,-0.29130974,0.08241922,1.5539317,0.15296139,0.7150599,-1.6981595,-0.23197463,-0.22512817,0.7711904,-1.2980933,1.0166422
-0.2,0.10000000000000003,0.8999999999999999,-0.5235987755982988,-0.5235987755982988,0,1.3121129,0.72024167,0.6234235,-0.30253777,0.081406,1.5543765,0.16356464,0.7671237,-1.6867477,0.004083853,-0.23036061,0.27969524,-1.3680933,-0.46746114
-0.2,0.10000000000000003,0.8999999999999999,-0.5235987755982988,-0.5235987755982988,0,1.317789,0.7195714,0.6203437,-0.29797778,0.07878448,1.5595092,0.1523126,0.6281596,-1.6435161,0.032013346,0.022896456,-0.77811694,-1.3217492,-0.44188964
-0.2,0.10000000000000003,0.8999999999999999,-0.5235987755982988,-0.5235987755982988,0,1.3206066,0.724825,0.63648415,-0.296421,0.08747384,1.5568651,0.14778145,0.79162425,-1.6619706,-0.07431602,-0.19688615,1.276511,-1.2430183,0.5700962
-0.2,0.10000000000000003,0.8999999999999999,-0.5235987755982988,-0.5235987755982988,0,1.3278162,0.7050199,0.6150791,-0.30599815,0.095185,1.566445,0.15934138,0.7481685,-1.6865319,-0.260975,-0.044386696,0.63273567,-1.2500254,0.25200343
-0.2,0.10000000000000003,0.8999999999999999,-0.5235987755982988,-0.5235987755982988,0,1.3340002,0.71664953,0.6119892,-0.3017822,0.080430835,1.5542428,0.16418031,0.79491234,-1.6974707,-0.16893137,0.05698498,0.17171903,-1.2971466,0.07921498
-0.2,0.10000000000000003,0.8999999999999999,-0.5235987755982988,-0.5235987755982988,0,1.3266976,0.7277317,0.6313335,-0.29321727,0.08534384,1.543317,0.16580383,0.6760802,-1.6764585,-0.10437319,0.3175907,1.1354072,-1.2235787,-0.2177624
-0.2,0.10000000000000003,0.8999999999999999,-0.5235987755982988,-0.5235987755982988,0,1.3180953,0.73495716,0.6276888,-0.2997278,0.09469268,1.5525936,0.16007172,0.72180486,-1.6818378,-0.44762182,-0.32929423,0.23358385,-1.3025638,0.21012802
-0.2,0.10000000000000003,0.8999999999999999,-0.5235987755982988,-0.5235987755982988,0,1.3259193,0.7317104,0.6209876,-0.29666716,0.08664641,1.549511,0.15494597,0.6703292,-1.6980805,-0.17207463,-0.024145303,-0.66388845,-1.1518664,0.5009707
-0.2,0.10000000000000003,0.8999999999999999,-0.5235987755982988,-0.5235987755982988,0,1.3253936,0.71153605,0.6318571,-0.29880378,0.073010296,1.5549963,0.17066044,0.6212934,-1.7019662,-0.40299165,-0.0018319476,0.57207775,-1.3582593,-0.08590346
-0.2,0.10000000000000003,0.8999999999999999,-0.5235987755982988,-0.5235987755982988,0,1.3276325,0.7121405,0.6189272,-0.29000416,0.075921744,1.5565434,0.15436864,0.8150211,-1.6763513,-0.13895795,-0.31548372,-0.28477755,-1.4521407,0.17859198
-0.2,0.10000000000000003,0.8999999999999999,-0.5235987755982988,-0.5235987755982988,0,1.3265069,0.7187468,0.627004,-0.29181087,0.095425166,1.5473827,0.16980657,0.6977352,-1.692929,-0.18623963,-0.14233412,-0.45011178,-1.1896591,-0.35541543
-0.2,0.10000000000000003,0.8999999999999999,-0.5235987755982988,-0.5235987755982988,0,1.3218569,0.7221835,0.6211128,-0.30930534,0.080230005,1.5565876,0.15675214,0.7746882,-1.6889514,-0.4706895,-0.21222106,0.042904023,-1.3565845,0.7125151
-0.2,0.10000000000000003,0.8999999999999999,-0.5235987755982988,-0.5235987755982988,0,1.3220546,0.7081715,0.61457396,-0.2979138,0.06765243,1.5507354,0.15607764,0.6973926,-1.663411,-0.528485,-0.12642999,0.90624726,-1.2778682,0.8519127
-0.2,0.10000000000000003,0.8999999999999999,-0.5235987755982988,-0.5235987755982988,0,1.3149649,0.72476673,0.6291367,-0.2961957,0.069705464,1.5518835,0.1627067,0.63638616,-1.6842263,-0.41057134,-0.015342486,0.6225391,-1.3360171,0.48991662
-0.2,0.10000000000000003,0.8999999999999999,-0.5235987755982988,-0.5235987755982988,0,1.3190076,0.7188284,0.6246229,-0.29505152,0.08308634,1.553671,0.14574112,0.8876216,-1.6509503,-0.33729666,-0.21899478,1.0827388,-1.3092487,-0.3064235
-0.2,0.10000000000000003,0.8999999999999999,-0.5235987755982988,-0.5235987755982988,0,1.3279154,0.720516,0.6334893,-0.2979137,0.08301881,1.5515974,0.15133089,0.6583385,-1.6592407,-0.09802079,-0.09829826,0.83848315,-1.3960838,0.960471
-0.2,0.10000000000000003,0.8999999999999999,-0.5235987755982988,-0.5235987755982988,0,1.3248576,0.7216729,0.63755053,-0.29474613,0.11350862,1.551884,0.15997039,0.81841266,-1.66446,-0.3259568,-0.085160464,0.56363267,-1.1975112,0.21767585
-0.2,0.10000000000000003,0.8999999999999999,-0.5235987755982988,-0.5235987755982988,0,1.3223989,0.7207053,0.6158527,-0.2927172,0.055001758,1.5501692,0.1511226,0.7348737,-1.6801245,-0.37643316,-0.0995718,0.554747,-1.2288778,0.30631804
-0.2,0.10000000000000003,0.8999999999999999,-0.5235987755982988,-0.5235987755982988,0,1.3177687,0.71817535,0.6307447,-0.29282546,0.0688125,1.5521535,0.1500248,0.82388085,-1.6913537,-0.5175167,0.03880702,-0.67034185,-1.3499948,0.15349112
-0.2,0.10000000000000003,0.8999999999999999,-0.5235987755982988,-0.5235987755982988,0,1.3261592,0.7283518,0.64149857,-0.2973983,0.069165535,1.5659909,0.15183264,0.69536936,-1.6841122,-0.4241504,-0.22753102,0.6959488,-1.3195385,0.44111097
-0.2,0.10000000000000003,0.8999999999999999,-0.5235987755982988,-0.5235987755982988,0,1.3198131,0.7199164,0.61871284,-0.29346934,0.08769441,1.554703,0.14204413,0.7600376,-1.6736535,-0.41481787,-0.06372355,0.28724322,-1.2426691,-0.2655403
-0.2,0.10000000000000003,0.8999999999999999,-0.5235987755982988,-0.5235987755982988,0,1.3179032,0.7286117,0.6220852,-0.30729344,0.079180196,1.5601491,0.15393648,0.67103904,-1.7035474,-0.09896345,0.17312644,-0.14242432,-1.3451928,0.80566776
-0.2,0.10000000000000003,0.8999999999999999,-0.5235987755982988,-0.5235987755982988,0,1.3246576,0.72673625,0.6249403,-0.3055698,0.086128876,1.5571611,0.15483913,0.7278957,-1.6931785,-0.3281652,-0.05009739,0.4801179,-1.228304,-0.15922582
-0.2,0.10000000000000003,0.8999999999999999,-0.5235987755982988,-0.5235987755982988,0,1.3255769,0.7105802,0.6203129,-0.3032976,0.0851219,1.554629,0.15334414,0.7692328,-1.6486714,-0.27872986,-0.15504389,0.4300199,-1.375821,0.52804434
-0.2,0.10000000000000003,0.8999999999999999,-0.5235987755982988,-0.5235987755982988,0,1.3283468,0.7244601,0.61431307,-0.2869154,0.09603062,1.5603588,0.15982766,0.76116073,-1.6794776,-0.29960144,-0.056759655,-0.68134266,-1.3814368,0.7401231
-0.2,0.10000000000000003,0.8999999999999999,-0.5235987755982988,-0.5235987755982988,0,1.3231199,0.7446649,0.617915,-0.29859266,0.07400792,1.557817,0.16433826,0.71913177,-1.6727325,-0.5508514,-0.20143048,0.3896868,-1.2424781,0.7818998
-0.2,0.10000000000000003,0.8999999999999999,-0.5235987755982988,-0.5235987755982988,0,1.3285555,0.69974583,0.6350911,-0.29850277,0.061167255,1.5613958,0.15439802,0.7578658,-1.6765708,-0.31041354,-0.10892833,1.2094933,-1.3719214,-0.21811207
-0.2,0.10000000000000003,0.8999999999999999,-0.5235987755982988,-0.5235987755982988,0,1.3227462,0.72326726,0.63001543,-0.29678056,0.07718356,1.5547708,0.1448322,0.7438035,-1.6997331,-0.14634605,-0.26931846,0.039501827,-1.3608898,1.1790907
-0.2,0.10000000000000003,0.8999999999999999,-0.5235987755982988,-0.5235987755982988,0,1.3289176,0.7372404,0.61322844,-0.29632756,0.08688674,1.5489694,0.1613425,0.68469256,-1.6851467,-0.044703208,-0.22839396,0.43843293,-1.3569053,0.60663104
-0.2,0.10000000000000003,0.8999999999999999,-0.5235987755982988,-0.5235987755982988,0,1.3233501,0.7204346,0.6274477,-0.3004036,0.08722286,1.5505571,0.14896557,0.70406073,-1.6447033,-0.45154867,0.16796972,0.39339304,-1.227525,0.5283692
-0.2,0.10000000000000003,0.8999999999999999,-0.5235987755982988,-0.5235987755982988,0,1.31337,0.72883594,0.6186798,-0.2955165,0.08097282,1.5499032,0.161664,0.64802945,-1.6669375,-0.39519182,-0.089711875,1.9357537,-1.1771984,0.56972486
-0.2,0.10000000000000003,0.8999999999999999,-0.5235987755982988,-0.5235987755982988,0,1.3211938,0.7168785,0.62247854,-0.28913444,0.08172733,1.552445,0.16403298,0.63153034,-1.6705723,-0.29511827,-0.111060336,0.42396158,-1.3498163,0.53311294
-0.2,0.10000000000000003,0.8999999999999999,-0.5235987755982988,-0.5235987755982988,0,1.3103037,0.7388696,0.63153356,-0.2993568,0.06857021,1.5503684,0.15918647,0.755119,-1.6532818,-0.38035065,0.10719145,0.7469181,-1.2108622,-0.16032253
-0.2,0.10000000000000003,0.8999999999999999,-0.5235987755982988,-0.5235987755982988,0,1.3304161,0.7270334,0.6344541,-0.29695344,0.092758134,1.5561026,0.15313938,0.7045399,-1.657206,-0.4261109,-0.030522512,-0.6283003,-1.3066539,0.94999796
-0.2,0.10000000000000003,0.8999999999999999,-0.5235987755982988,-0.5235987755982988,0,1.3267757,0.72738063,0.62569475,-0.29113492,0.073569685,1.555941,0.1600413,0.66815305,-1.6853993,-0.28040534,-0.06503065,-0.26435953,-1.2406076,0.85366875
-0.2,0.10000000000000003,0.8999999999999999,-0.5235987755982988,-0.5235987755982988,0,1.3356309,0.7324174,0.6251743,-0.2953957,0.07885441,1.5511371,0.15379351,0.7740306,-1.7096232,-0.4311561,-0.13493927,0.8099748,-1.2315152,0.27799368
-0.2,0.10000000000000003,0.8999999999999999,-0.5235987755982988,-0.5235987755982988,0,1.3242128,0.7227481,0.63703734,-0.28571388,0.06967245,1.5587343,0.14719667,0.662447,-1.6801183,-0.280341,-0.0053755646,0.70584357,-1.2457727,0.29402477
-0.2,0.10000000000000003,0.8999999999999999,-0.5235987755982988,-0.5235987755982988,0,1.3195513,0.7188963,0.6432522,-0.3082557,0.08371982,1.5561491,0.16085294,0.77507865,-1.699473,-0.2660077,0.015595784,0.70682395,-1.1922585,0.31884307
-0.2,0.10000000000000003,0.8999999999999999,-0.5235987755982988,-0.5235987755982988,0,1.3151901,0.71227443,0.62199104,-0.30156267,0.07495783,1.5516793,0.15485707,0.62784934,-1.690139,-0.37572783,-0.18132828,0.43444,-1.4564574,0.7158451
-0.2,0.10000000000000003,0.8999999999999999,-0.5235987755982988,-0.5235987755982988,0,1.315996,0.72618574,0.627257,-0.29697743,0.083745964,1.5522101,0.16247497,0.68679005,-1.6274923,-0.21928251,-0.13916822,-0.05437868,-1.3948946,-0.10307088
-0.2,0.10000000000000003,0.8999999999999999,-0.5235987755982988,-0.5235987755982988,0,1.3279436,0.7187341,0.6192748,-0.29896933,0.075324036,1.557402,0.17150085,0.7689618,-1.6659095,-0.21479556,-0.16352762,-0.16957536,-1.2330532,0.8568065
-0.2,0.10000000000000003,0.8999999999999999,-0.5235987755982988,-0.5235987755982988,0,1.3297583,0.71346486,0.6212998,-0.29916987,0.08690393,1.5522912,0.1539896,0.7084903,-1.6762673,-0.16223368,-0.035420477,0.9472375,-1.2561481,0.44576988
-0.2,0.10000000000000003,0.8999999999999999,-0.5235987755982988,-0.5235987755982988,0,1.3211973,0.71904045,0.61595756,-0.29637855,0.050258823,1.5507296,0.161068,0.7693478,-1.6933087,-0.18790582,-0.29829916,-1.0864671,-1.3580787,0.31013858
-0.2,0.10000000000000003,0.8999999999999999,-0.5235987755982988,-0.5235987755982988,0,1.3192309,0.7141708,0.6187795,-0.2981898,0.09368476,1.553219,0.15751219,0.83297384,-1.6832234,-0.28212333,-0.013932303,0.3104365,-1.3283926,0.008447087
-0.2,0.10000000000000003,0.8999999999999999,-0.5235987755982988,-0.5235987755982988,0,1.3187948,0.72562546,0.6286481,-0.30661884,0.08761981,1.5539664,0.16442549,0.72220784,-1.6878216,-0.15251671,-0.018609285,-0.20947559,-1.4541206,-0.29550648
-0.2,0.10000000000000003,0.8999999999999999,-0.5235987755982988,-0.5235987755982988,0,1.3282156,0.7133941,0.629099,-0.2941762,0.07852339,1.5546069,0.16152228,0.7055006,-1.6866461,-0.04988402,-0.21281917,-0.39238328,-1.4352694,0.8586196
-0.2,0.10000000000000003,0.8999999999999999,-0.5235987755982988,-0.5235987755982988,0,1.3190013,0.7154626,0.62852365,-0.293871,0.09159561,1.5534214,0.15332235,0.77591896,-1.6566527,-0.27447733,-0.22065498,-0.53870904,-1.3298545,0.15084572
-0.2,0.10000000000000003,0.8999999999999999,-0.5235987755982988,-0.5235987755982988,0,1.3206475,0.7139849,0.6270381,-0.3026522,0.09141576,1.5596491,0.1518697,0.6958748,-1.6356494,-0.25449455,-0.26596814,0.5029537,-1.2237662,0.46508083
-0.2,0.10000000000000003,0.8999999999999999,-0.5235987755982988,-0.5235987755982988,0,1.3061405,0.7213324,0.6397261,-0.2929571,0.09576074,1.5572681,0.15052396,0.7327478,-1.6908087,-0.6905754,-0.026407259,-0.38872933,-1.2183911,0.74019086
-0.2,0.10000000000000003,0.8999999999999999,-0.5235987755982988,-0.5235987755982988,0,1.3317488,0.7201426,0.63843936,-0.29215267,0.07519847,1.5568088,0.1588882,0.81021154,-1.6689698,-0.5120159,-0.12763615,-0.48274538,-1.375521,0.86078155
-0.2,0.10000000000000003,0.8999999999999999,-0.5235987755982988,-0.5235987755982988,0,1.3290141,0.72032255,0.6229282,-0.29450798,0.081982605,1.557189,0.16102731,0.6471016,-1.666402,-0.0632288,-0.11665739,-1.1407187,-1.2316635,0.550583
-0.2,0.10000000000000003,0.8999999999999999,-0.5235987755982988,-0.5235987755982988,0,1.3226353,0.733002,0.6299664,-0.29969823,0.07746189,1.5530922,0.16863526,0.69729996,-1.6833649,-0.13955995,-0.12251699,-1.1505951,-1.3399,0.92307776
-0.2,0.10000000000000003,0.8999999999999999,-0.5235987755982988,-0.5235987755982988,0,1.3210126,0.71291274,0.6236343,-0.30332056,0.10437103,1.5621327,0.15590933,0.7932092,-1.676319,-0.34752217,-0.07009118,-1.0687354,-1.2995627,0.27902997
-0.2,0.10000000000000003,0.8999999999999999,-0.5235987755982988,-0.5235987755982988,0,1.3181216,0.7342953,0.6203118,-0.30142263,0.09087783,1.5570459,0.16446036,0.73017627,-1.678547,-0.41544136,-0.11228108,-0.2783676,-1.3193678,1.243459
-0.2,0.10000000000000003,0.8999999999999999,-0.5235987755982988,-0.5235987755982988,0,1.3178552,0.7197227,0.63616216,-0.30261454,0.078839295,1.5506296,0.16176212,0.68239284,-1.6872776,-0.42469305,0.20974855,0.9793449,-1.307742,0.025370456
-0.2,0.10000000000000003,0.8999999999999999,-0.5235987755982988,-0.5235987755982988,0,1.3189795,0.7130841,0.61940837,-0.30403188,0.05869504,1.5518705,0.16240345,0.7239639,-1.7400753,-0.21700855,-0.05912188,-1.0817071,-1.4543496,0.7305626
-0.2,0.10000000000000003,0.8999999999999999,-0.5235987755982988,-0.5235987755982988,0,1.3247406,0.7331165,0.6406805,-0.292304,0.07331989,1.5572019,0.15368414,0.78064674,-1.6506352,-0.10106766,-0.08276612,0.6376264,-1.307655,0.8780424
-0.2,0.10000000000000003,0.8999999999999999,-0.5235987755982988,-0.5235987755982988,0,1.3134328,0.73332727,0.63416576,-0.29981443,0.06901225,1.5534139,0.15518607,0.7131679,-1.6753864,-0.54597217,-0.11522925,0.72469574,-1.3763359,0.16262609
-0.2,0.10000000000000003,0.8999999999999999,-0.5235987755982988,-0.5235987755982988,0,1.3165727,0.738982,0.6229922,-0.2899924,0.1057651,1.5447347,0.15747051,0.79157865,-1.690538,-0.40499705,-0.27891314,1.3337057,-1.4671223,-0.0021586928
-0.2,0.10000000000000003,0.8999999999999999,-0.5235987755982988,-0.5235987755982988,0,1.3150101,0.72298175,0.63465273,-0.3042182,0.07438749,1.5523672,0.16018954,0.60977185,-1.6786839,-0.39813063,-0.26737806,-0.08819897,-1.3520931,0.35358956
-0.2,0.10000000000000003,0.8999999999999999,-0.5235987755982988,-0.5235987755982988,0,1.31678,0.715833,0.6273761,-0.29003564,0.07183979,1.559995,0.14961563,0.7503522,-1.6467315,-0.21061793,-0.08028225,0.8634332,-1.3423798,0.31531796
-0.2,0.10000000000000003,0.8999999999999999,-0.5235987755982988,-0.5235987755982988,0,1.3155389,0.7297339,0.6305086,-0.2970528,0.07854218,1.5534872,0.15069996,0.6384533,-1.6663022,-0.32294264,-0.09109984,0.94488716,-1.3675398,1.1861509
-0.2,0.10000000000000003,0.8999999999999999,-0.5235987755982988,-0.5235987755982988,0,1.3242912,0.7254713,0.6324382,-0.29366562,0.08520878,1.5562067,0.15604523,0.671253,-1.6556189,-0.05153826,0.09398571,0.58943516,-1.341648,0.20410265
-0.2,0.10000000000000003,0.8999999999999999,-0.5235987755982988,-0.5235987755982988,0,1.3281243,0.7404533,0.61059666,-0.29982048,0.0727853,1.5551233,0.15582013,0.69937193,-1.6772858,-0.29456946,-0.02770256,-0.026898723,-1.3826178,0.46028918
-0.2,0.10000000000000003,0.8999999999999999,-0.5235987755982988,-0.5235987755982988,0,1.3197111,0.7409301,0.62873214,-0.28271684,0.064838365,1.5498068,0.15993844,0.6417109,-1.6820048,-0.58814126,-0.01865646,1.9717962,-1.3260844,-0.34356102
-0.2,0.10000000000000003,0.8999999999999999,-0.5235987755982988,-0.5235987755982988,0,1.3229145,0.7184935,0.62300026,-0.29471675,0.07738891,1.5492964,0.15353766,0.7251666,-1.7090384,-0.49851006,-0.23161124,0.1914682,-1.3459313,0.7906302
-0.2,0.10000000000000003,0.8999999999999999,-0.5235987755982988,-0.5235987755982988,0,1.3142608,0.71554774,0.6244389,-0.30386466,0.08358131,1.5495235,0.14923719,0.818293,-1.6639462,-0.7172123,-0.1250868,0.26240784,-1.5286397,0.42205405
-0.2,0.10000000000000003,0.8999999999999999,-0.5235987755982988,-0.5235987755982988,0,1.3170416,0.7181531,0.6291721,-0.29511422,0.08558156,1.5517656,0.1546418,0.7678707,-1.7264875,-0.27138126,-0.027562441,-0.1659206,-1.3118724,0.84263533
-0.2,0.10000000000000003,0.8999999999999999,-0.5235987755982988,-0.5235987755982988,0,1.3237612,0.7232375,0.64007914,-0.30118486,0.080534466,1.5614337,0.15917458,0.7248785,-1.6782509,-0.3155484,-0.06452435,1.3749077,-1.4167275,0.8002128
-0.2,0.10000000000000003,0.8999999999999999,-0.5235987755982988,-0.5235987755982988,0,1.3235389,0.7162318,0.6285954,-0.29548675,0.082501024,1.5436966,0.1557076,0.6932235,-1.6643218,-0.57795984,0.039709378,0.6760797,-1.2435744,0.18532299
-0.2,0.10000000000000003,0.8999999999999999,-0.5235987755982988,-0.5235987755982988,0,1.3224794,0.7245808,0.63374335,-0.30278662,0.085068695,1.5536752,0.17142993,0.7235874,-1.6516427,-0.43972933,-0.13237733,0.54914147,-1.4034328,0.40273023
-0.2,0.10000000000000003,0.8999999999999999,-0.5235987755982988,-0.5235987755982988,0,1.3271534,0.7241406,0.6236911,-0.29767334,0.07794725,1.5544138,0.1602271,0.72463584,-1.6528554,-0.12748452,-0.14049372,0.3410802,-1.3909211,0.45555896
-0.2,0.10000000000000003,0.8999999999999999,-0.5235987755982988,-0.5235987755982988,0,1.3236437,0.72661173,0.6252158,-0.29973856,0.090920635,1.5540346,0.15109116,0.693282,-1.6872282,-0.36209574,-0.40035278,1.3171402,-1.4180737,0.88457304
-0.2,0.10000000000000003,0.8999999999999999,-0.5235987755982988,-0.5235987755982988,0,1.3135761,0.7215305,0.6368544,-0.29209933,0.08314469,1.5527747,0.16612557,0.730011,-1.6306539,-0.39696592,-0.19662094,2.019369,-1.2782897,0.46606773
-0.2,0.10000000000000003,0.8999999999999999,-0.5235987755982988,-0.5235987755982988,0,1.318092,0.7260101,0.63738793,-0.28814024,0.08302448,1.5480196,0.15903497,0.7332366,-1.6710299,-0.20624456,0.04802006,-0.30164927,-1.3012037,1.0072657
-0.2,0.10000000000000003,0.8999999999999999,-0.5235987755982988,-0.5235987755982988,0,1.3215128,0.7156721,0.63051873,-0.29815486,0.08570159,1.5620368,0.15043274,0.78041947,-1.7065378,-0.27579048,-0.07702906,1.6126438,-1.4597077,0.19164754
-0.2,0.10000000000000003,0.8999999999999999,-0.5235987755982988,-0.5235987755982988,0,1.329086,0.71720684,0.6205816,-0.29768345,0.09470896,1.5634446,0.15309344,0.6906017,-1.6293689,-0.19328433,-0.060415983,-0.8748073,-1.2225195,0.08364994
-0.2,0.10000000000000003,0.8999999999999999,-0.5235987755982988,-0.5235987755982988,0,1.3139312,0.73499894,0.6341819,-0.2977957,0.07352456,1.552659,0.15063669,0.71176094,-1.6596267,-0.5269985,-0.064415656,0.24836305,-1.3957059,0.33858472
-0.2,0.10000000000000003,0.8999999999999999,-0.5235987755982988,-0.5235987755982988,0,1.3321632,0.7195094,0.6284959,-0.29474255,0.0740728,1.5586747,0.14381512,0.6966421,-1.6768714,-0.071193025,-0.19333982,-0.19886014,-1.3713638,0.4650822
-0.2,0.10000000000000003,0.8999999999999999,-0.5235987755982988,-0.5235987755982988,0,1.3119737,0.7206573,0.6301937,-0.29373088,0.07629561,1.548397,0.15078996,0.65287894,-1.6620945,-0.24524988,-0.06633582,0.7312707,-1.3308406,0.92616004
-0.2,0.10000000000000003,0.8999999999999999,-0.5235987755982988,-0.5235987755982988,0,1.3321756,0.7248017,0.6311081,-0.29856107,0.067244805,1.5552847,0.16986187,0.6949719,-1.6587884,-0.24104056,-0.01443292,0.5864849,-1.3071339,1.014849
-0.2,0.10000000000000003,0.8999999999999999,-0.5235987755982988,-0.5235987755982988,0,1.3277063,0.7180279,0.6210133,-0.28927544,0.09082861,1.557233,0.15806988,0.8316854,-1.659913,-0.54054034,-0.0976618,0.23578958,-1.3322403,-0.00055294926
-0.2,0.10000000000000003,0.8999999999999999,-0.5235987755982988,-0.5235987755982988,0,1.3212181,0.7239852,0.63267136,-0.29463103,0.077116124,1.5523376,0.17395067,0.6964797,-1.6913278,-0.46366832,-0.038172927,-0.22240616,-1.367541,-0.20034145
-0.2,0.10000000000000003,0.8999999999999999,-0.5235987755982988,-0.5235987755982988,0,1.3218453,0.724645,0.62084234,-0.29822743,0.06927443,1.5549011,0.16305768,0.7447363,-1.6568155,-0.13268323,-0.17962237,-0.37920278,-1.4914399,0.7209608
-0.2,0.10000000000000003,0.8999999999999999,-0.5235987755982988,-0.5235987755982988,0,1.3237859,0.7201693,0.6522559,-0.2907969,0.08504541,1.5479112,0.15844476,0.70127743,-1.6501614,-0.42769825,-0.10884209,-0.47182065,-1.3148078,0.26230273
-0.2,0.10000000000000003,0.8999999999999999,-0.5235987755982988,-0.5235987755982988,0,1.325599,0.73354036,0.6322495,-0.29506066,0.074876025,1.5469983,0.15767267,0.6600691,-1.6777258,-0.32396117,0.0050728694,0.11446116,-1.2936947,0.49646828
-0.2,0.10000000000000003,0.8999999999999999,-0.5235987755982988,-0.5235987755982988,0,1.3205942,0.7303137,0.6175018,-0.30065444,0.097876616,1.5540501,0.15852267,0.7278851,-1.7021403,-0.5161645,-0.11590273,2.309528,-1.4752747,0.2463737
-0.2,0.10000000000000003,0.8999999999999999,-0.5235987755982988,-0.5235987755982988,0,1.3202882,0.7234642,0.63901466,-0.2993201,0.09791792,1.5581162,0.15886156,0.7453634,-1.6580312,-0.1985269,-0.11044785,-1.014945,-1.2754902,0.17024562
-0.2,0.10000000000000003,0.8999999999999999,-0.5235987755982988,-0.5235987755982988,0,1.3191361,0.71739346,0.62293106,-0.29304168,0.06751438,1.5568308,0.16144918,0.76643175,-1.6769335,-0.34734195,-0.10764288,-0.047178745,-1.316429,0.20592363
-0.2,0.10000000000000003,0.8999999999999999,-0.5235987755982988,-0.5235987755982988,0,1.3282499,0.72319657,0.6307194,-0.2959889,0.07593734,1.5590254,0.14330392,0.7750461,-1.7003714,-0.121883795,-0.09430668,0.33179617,-1.3061705,0.6868688
-0.2,0.10000000000000003,0.8999999999999999,-0.5235987755982988,-0.5235987755982988,0,1.3188546,0.724445,0.6310093,-0.29501566,0.07306177,1.5614129,0.16561683,0.72513115,-1.6884418,-0.24928795,-0.1718419,-0.044766672,-1.3469466,0.27229467
-0.2,0.10000000000000003,0.8999999999999999,-0.5235987755982988,-0.5235987755982988,0,1.319973,0.73302823,0.6248761,-0.30778688,0.07782908,1.5577662,0.15570585,0.73764974,-1.6699307,-0.3005803,-0.113561824,-0.7771843,-1.3541539,0.68720186
-0.2,0.10000000000000003,0.8999999999999999,-0.5235987755982988,-0.5235987755982988,0,1.3126228,0.7194034,0.6321779,-0.29356265,0.095442355,1.5489786,0.15415677,0.7295308,-1.6552926,-0.28003183,0.002477651,-0.60556066,-1.4307857,0.4579422
-0.2,0.10000000000000003,0.8999999999999999,-0.5235987755982988,-0.5235987755982988,0,1.3240061,0.7179039,0.6346052,-0.3040597,0.084186405,1.5405221,0.15245466,0.7375502,-1.6729805,-0.19760372,0.042997077,1.0687397,-1.3918291,-0.4099234
-0.2,0.10000000000000003,0.8999999999999999,-0.5235987755982988,-0.5235987755982988,0,1.3130078,0.718955,0.62506557,-0.30400562,0.08980625,1.5554305,0.15797848,0.7424934,-1.6764759,-0.28139323,-0.18344052,1.7649517,-1.285352,0.7391229
-0.2,0.10000000000000003,0.8999999999999999,-0.5235987755982988,-0.5235987755982988,0,1.3148695,0.72013265,0.6380754,-0.304777,0.06387886,1.5480775,0.1670103,0.7025163,-1.6751227,-0.5459507,-0.03481362,-0.73226553,-1.3340051,0.3646082
-0.2,0.10000000000000003,0.8999999999999999,-0.5235987755982988,-0.5235987755982988,0,1.3280846,0.7320689,0.6344806,-0.29767755,0.07622105,1.5657945,0.15045708,0.7098046,-1.6703062,-0.35183498,-0.109081805,-0.28553978,-1.2348862,1.1821643
-0.2,0.10000000000000003,0.8999999999999999,-0.5235987755982988,-0.5235987755982988,0,1.3171504,0.72293186,0.63363916,-0.2922239,0.07920651,1.54733,0.16242723,0.6826872,-1.6911478,-0.3673424,-0.217837,-0.04540992,-1.2854303,1.0770869
-0.2,0.10000000000000003,0.8999999999999999,-0.5235987755982988,-0.5235987755982988,0,1.3257778,0.7374122,0.6195485,-0.2999611,0.07649133,1.5542101,0.15861076,0.70899457,-1.6533321,-0.4179518,0.008221752,2.0014296,-1.2456828,-0.38742533
-0.2,0.10000000000000003,0.8999999999999999,-0.5235987755982988,-0.5235987755982988,0,1.3306271,0.7316639,0.6187739,-0.29974687,0.08438577,1.5576223,0.14604482,0.744615,-1.7009928,-0.48801315,-0.30196154,0.58965635,-1.4564754,0.2635238
-0.2,0.10000000000000003,0.8999999999999999,-0.5235987755982988,-0.5235987755982988,0,1.3207945,0.7192375,0.6335104,-0.28802738,0.081112854,1.5545642,0.1677881,0.7731223,-1.6779803,-0.21020725,-0.1469229,0.043616455,-1.3386228,0.3075973
-0.2,0.10000000000000003,0.8999999999999999,-0.5235987755982988,-0.5235987755982988,0,1.3288813,0.71788085,0.64514273,-0.28819615,0.09110371,1.5547,0.16098937,0.7024457,-1.667403,-0.23223346,0.04698374,1.1524818,-1.4513978,0.63950074
-0.2,0.10000000000000003,0.8999999999999999,-0.5235987755982988,-0.5235987755982988,0,1.3128284,0.71932966,0.6359398,-0.30379778,0.08774339,1.5535659,0.16473296,0.6954444,-1.6481797,-0.54820406,-0.21133852,0.027108783,-1.246911,0.6113485
-0.2,0.10000000000000003,0.8999999999999999,-0.5235987755982988,-0.5235987755982988,0,1.3247575,0.7210318,0.62566423,-0.29004577,0.091579,1.54661,0.15391801,0.697783,-1.6721938,-0.48755413,-0.06042567,-0.32984525,-1.4364991,0.57191706
-0.2,0.10000000000000003,0.8999999999999999,-0.5235987755982988,-0.5235987755982988,0,1.3249677,0.7272681,0.62431,-0.29637426,0.08003713,1.5524523,0.15760797,0.67509365,-1.6527752,-0.4662164,0.080350295,0.19208248,-1.3785397,0.61494315
-0.2,0.10000000000000003,0.8999999999999999,-0.5235987755982988,-0.5235987755982988,0,1.3199705,0.731096,0.6298311,-0.29095203,0.06675451,1.550666,0.15755658,0.8472988,-1.6941006,-0.57416373,-0.191721,-0.96417046,-1.3081186,-0.24719055
-0.2,0.10000000000000003,0.8999999999999999,-0.5235987755982988,-0.5235987755982988,0,1.3195666,0.7184723,0.62526023,-0.2860935,0.078503445,1.5563117,0.15040219,0.80691487,-1.6805121,-0.33696344,0.097371906,1.2906606,-1.3013549,0.63139784
-0.2,0.10000000000000003,0.8999999999999999,-0.5235987755982988,-0.5235987755982988,0,1.3359563,0.7124489,0.6323382,-0.29734316,0.08193094,1.553168,0.16109948,0.7074367,-1.6837434,-0.24286258,0.05172157,-0.34977946,-1.3563346,0.7471596
-0.2,0.10000000000000003,0.8999999999999999,-0.5235987755982988,-0.5235987755982988,0,1.3259414,0.7268234,0.61867183,-0.29383805,0.09140523,1.5510628,0.15955366,0.7328785,-1.6762531,-0.4239927,-0.1175645,1.3804904,-1.2325584,0.30902874
-0.2,0.10000000000000003,0.8999999999999999,-0.5235987755982988,-0.5235987755982988,0,1.306705,0.71840364,0.62600374,-0.29913944,0.06848837,1.5510447,0.1512912,0.67344135,-1.6944838,-0.28190017,-0.2162565,0.59266794,-1.4453834,0.6142268
-0.2,0.10000000000000003,0.8999999999999999,-0.5235987755982988,-0.5235987755982988,0,1.333202,0.7393882,0.6243935,-0.29738027,0.075538054,1.5633625,0.15705217,0.7067582,-1.6616191,-0.11578454,-0.3131016,0.061896656,-1.2452024,0.3745015
-0.2,0.10000000000000003,0.8999999999999999,-0.5235987755982988,-0.5235987755982988,0,1.310878,0.71505326,0.62135345,-0.29526845,0.06755575,1.5585806,0.15287445,0.6892846,-1.686933,-0.25603312,-0.105645835,1.6322844,-1.2702212,-0.010875086
-0.2,0.10000000000000003,0.8999999999999999,-0.5235987755982988,-0.5235987755982988,0,1.3278421,0.7030207,0.6236436,-0.29427546,0.09119081,1.561337,0.16228968,0.6624692,-1.6554189,-0.34653327,-0.084265105,-0.8054889,-1.253927,0.84311646
-0.2,0.10000000000000003,0.8999999999999999,-0.5235987755982988,-0.5235987755982988,0,1.318888,0.71551883,0.63307595,-0.30093732,0.06429405,1.5616863,0.14168897,0.69089764,-1.6749221,-0.39165255,0.11227148,0.32251605,-1.347565,0.6259099
-0.2,0.10000000000000003,0.8999999999999999,-0.5235987755982988,-0.5235987755982988,0,1.3167151,0.72530913,0.623185,-0.2970175,0.08955866,1.5513932,0.16036405,0.72049236,-1.6501148,-0.24102496,0.17216232,0.17608893,-1.259767,0.072162606
-0.2,0.10000000000000003,0.8999999999999999,-0.5235987755982988,-0.5235987755982988,0,1.3219427,0.747502,0.62044734,-0.29566565,0.08361333,1.5510057,0.15936446,0.7844045,-1.6932749,-0.40959498,-0.31180257,1.4551777,-1.2646266,0.17644379
-0.2,0.10000000000000003,0.8999999999999999,-0.5235987755982988,-0.5235987755982988,0,1.3165246,0.7356461,0.6408584,-0.29457358,0.07349971,1.5550234,0.15759762,0.63881284,-1.7203066,-0.43509197,0.07417116,0.053094387,-1.383922,0.12360835
-0.2,0.10000000000000003,0.8999999999999999,-0.5235987755982988,-0.5235987755982988,0,1.321176,0.7359027,0.63934433,-0.29512462,0.07379508,1.5557094,0.16007121,0.7176031,-1.6617788,-0.3860064,-0.1671724,2.124786,-1.2957299,0.1828691
-0.2,0.10000000000000003,0.8999999999999999,-0.5235987755982988,-0.5235987755982988,0,1.3246375,0.712816,0.62687564,-0.28573754,0.07334447,1.5380061,0.15277813,0.6988422,-1.6817758,-0.4176698,-0.009142866,1.0040658,-1.3304455,0.88103765
-0.2,0.10000000000000003,0.8999999999999999,-0.5235987755982988,-0.5235987755982988,0,1.3206583,0.7251359,0.6255715,-0.3072687,0.089996874,1.5614797,0.15490077,0.7550651,-1.6936522,-0.22304165,-0.17509417,0.6318335,-1.4139775,0.26517576
-0.2,0.10000000000000003,0.8999999999999999,-0.5235987755982988,-0.5235987755982988,0,1.3316722,0.73759955,0.6264913,-0.3013719,0.08746747,1.5608743,0.15802994,0.7091801,-1.7094932,-0.665845,-0.2796541,0.65144694,-1.2445296,0.31849182
-0.2,0.10000000000000003,0.8999999999999999,-0.5235987755982988,-0.5235987755982988,0,1.3209805,0.7236677,0.62247664,-0.2985383,0.073796086,1.5552624,0.14892864,0.7807526,-1.6769376,-0.24476004,-0.14274754,0.17574301,-1.2868911,0.00582309
-0.2,0.10000000000000003,0.8999999999999999,-0.5235987755982988,-0.5235987755982988,0,1.3227081,0.7344855,0.6260898,-0.28879836,0.07691421,1.5460199,0.16045207,0.71468216,-1.6581138,-0.0605282,-0.25941226,-0.39592597,-1.4369041,0.5042543
-0.2,0.10000000000000003,0.8999999999999999,-0.5235987755982988,-0.5235987755982988,0,1.317903,0.72476685,0.61595666,-0.2980047,0.083843365,1.5530264,0.14413583,0.71864045,-1.6699299,-0.53123593,-0.082819775,0.9232461,-1.3795463,-0.049697798
-0.2,0.10000000000000003,0.8999999999999999,-0.5235987755982988,-0.5235987755982988,0,1.3271067,0.7467437,0.62731576,-0.29333353,0.0873218,1.5513151,0.16061705,0.79973334,-1.6708137,-0.56946266,-0.22488445,-0.5398672,-1.4366271,0.25173527
-0.2,0.10000000000000003,0.8999999999999999,-0.5235987755982988,-0.5235987755982988,0,1.3267447,0.7306712,0.6360502,-0.28979978,0.079411566,1.5603969,0.16025355,0.72427756,-1.6261604,-0.2940764,-0.18670338,-0.24690674,-1.3352195,0.49363166
-0.2,0.10000000000000003,0.8999999999999999,-0.5235987755982988,-0.5235987755982988,0,1.3155773,0.71672267,0.6319329,-0.2966545,0.091360606,1.5494239,0.16571808,0.69082534,-1.6803224,-0.38826334,-0.19516313,1.1871305,-1.44397,0.23773336
-0.2,0.10000000000000003,0.8999999999999999,-0.5235987755982988,-0.5235987755982988,0,1.3253962,0.7186951,0.62635124,-0.29803666,0.085111946,1.5531433,0.16085045,0.71685386,-1.6526694,-0.57023233,-0.11425962,-0.30918232,-1.358963,0.10290321
-0.2,0.10000000000000003,0.8999999999999999,-0.5235987755982988,-0.5235987755982988,0,1.330606,0.7254571,0.6268593,-0.29854012,0.06743754,1.5537655,0.15865153,0.6564953,-1.7096316,-0.18812796,0.016424853,0.20506707,-1.3846301,0.299867
-0.2,0.10000000000000003,0.8999999999999999,-0.5235987755982988,-0.5235987755982988,0,1.313115,0.716813,0.6156978,-0.29107487,0.08212912,1.5568826,0.1574522,0.65856624,-1.6808002,-0.5855628,-0.26760265,0.19842471,-1.342485,0.86647683
-0.2,0.10000000000000003,0.8999999999999999,-0.5235987755982988,-0.5235987755982988,0,1.3220853,0.7200955,0.61660933,-0.2995847,0.07333419,1.5549864,0.16239001,0.6815672,-1.6700921,-0.2542962,-0.12072036,-0.8076956,-1.374702,1.4260733
-0.2,0.10000000000000003,0.8999999999999999,-0.5235987755982988,-0.5235987755982988,0,1.3233913,0.72746617,0.622336,-0.2953397,0.08202782,1.5556606,0.14717343,0.7333992,-1.7042929,-0.16590719,-0.4060538,-1.0041844,-1.4516883,0.37708923
-0.2,0.10000000000000003,0.8999999999999999,-0.5235987755982988,-0.5235987755982988,0,1.3232064,0.72388804,0.62652373,-0.29275835,0.06699394,1.5533651,0.15893808,0.78829575,-1.668602,-0.08255562,-0.0008942905,1.680099,-1.2266365,0.35237616
-0.2,0.10000000000000003,0.8999999999999999,-0.5235987755982988,-0.5235987755982988,0,1.3331939,0.72229725,0.6320391,-0.2883383,0.10000947,1.5554738,0.14687333,0.6700954,-1.6876001,-0.5091912,-0.1300478,0.28490698,-1.4312056,1.1081178
-0.2,0.10000000000000003,0.8999999999999999,-0.5235987755982988,-0.5235987755982988,0,1.3160096,0.7386126,0.6315145,-0.29630995,0.08627626,1.5558794,0.15001146,0.6879989,-1.650749,-0.21651751,-0.3267321,-0.11523757,-1.4620513,0.28286704
-0.2,0.10000000000000003,0.8999999999999999,-0.5235987755982988,-0.5235987755982988,0,1.3220158,0.7357819,0.6398772,-0.29843128,0.09957695,1.5630113,0.15840487,0.7715262,-1.6452351,-0.29541078,0.09072914,2.4843833,-1.3615543,0.16408001
-0.2,0.10000000000000003,0.8999999999999999,-0.5235987755982988,-0.5235987755982988,0,1.3215884,0.7236746,0.62187356,-0.29863557,0.08395084,1.5516397,0.15876223,0.705724,-1.6950128,-0.28719696,-0.08456027,1.3239816,-1.3894919,0.0020317296
-0.2,0.10000000000000003,0.8999999999999999,-0.5235987755982988,-0.5235987755982988,0,1.3170792,0.71766376,0.62384546,-0.30157793,0.087449335,1.550585,0.16096477,0.6980116,-1.6363475,-0.023891265,0.009822091,0.3947948,-1.3888017,0.68739456
-0.2,0.10000000000000003,0.8999999999999999,-0.5235987755982988,-0.5235987755982988,0,1.3227609,0.7167585,0.63245064,-0.29612145,0.081783,1.548864,0.15358678,0.6466008,-1.6583267,-0.18734619,-0.18746112,0.038921874,-1.2598585,0.4533756
-0.2,0.10000000000000003,0.8999999999999999,-0.5235987755982988,-0.5235987755982988,0,1.3311229,0.7284899,0.6317469,-0.29147044,0.08512036,1.5500139,0.15860257,0.7689333,-1.6910421,-0.15214312,-0.20887993,2.422683,-1.3950249,0.004615187
-0.2,0.10000000000000003,0.8999999999999999,-0.5235987755982988,-0.5235987755982988,0,1.3261869,0.72493136,0.6276326,-0.29355234,0.08561231,1.5604358,0.16931704,0.75995636,-1.6765665,-0.6734298,-0.20480308,0.3154562,-1.4714296,0.5717109
-0.2,0.10000000000000003,0.8999999999999999,-0.5235987755982988,-0.5235987755982988,0,1.318399,0.7198151,0.6233311,-0.29941893,0.08254578,1.5502843,0.16304958,0.7220925,-1.6468701,-0.6305228,-0.25093997,1.1704971,-1.3778229,0.32701275
-0.2,0.10000000000000003,0.8999999999999999,-0.5235987755982988,-0.5235987755982988,0,1.3301837,0.7198209,0.62714857,-0.29208285,0.09732399,1.5553501,0.14886875,0.7539366,-1.7138947,-0.3084645,-0.043874513,-0.5096417,-1.3196152,0.33914375
-0.2,0.10000000000000003,0.8999999999999999,-0.5235987755982988,-0.5235987755982988,0,1.314013,0.710193,0.6359949,-0.29469156,0.100601494,1.5518655,0.15883216,0.6427072,-1.6887035,-0.36819497,0.07309203,0.109571986,-1.267629,1.0414599
-0.2,0.10000000000000003,0.8999999999999999,-0.5235987755982988,-0.5235987755982988,0,1.3328627,0.72596455,0.6343437,-0.29331332,0.09483757,1.5576842,0.1533741,0.77467614,-1.6658943,-0.3493674,-0.2223882,0.7421217,-1.4501332,0.9236343
-0.2,0.10000000000000003,0.8999999999999999,-0.5235987755982988,-0.5235987755982988,0,1.3213189,0.72643846,0.6254799,-0.29109558,0.07522051,1.5520817,0.14843626,0.7311395,-1.64935,-0.3201704,0.0047430485,0.1346532,-1.2803159,-0.09823638
-0.2,0.10000000000000003,0.8999999999999999,-0.5235987755982988,-0.5235987755982988,0,1.3299967,0.71109354,0.6388249,-0.2894424,0.08733376,1.5510203,0.15737548,0.68192077,-1.6329794,-0.46036342,-0.1719747,-0.29512107,-1.10646,-0.5489064
-0.2,0.10000000000000003,0.8999999999999999,-0.5235987755982988,-0.5235987755982988,0,1.3212397,0.71128315,0.6363886,-0.30191952,0.04370853,1.5581108,0.15910806,0.7870595,-1.6907594,-0.47964916,-0.18268073,0.017873177,-1.4192955,0.34011367
-0.2,0.10000000000000003,0.8999999999999999,-0.5235987755982988,-0.5235987755982988,0,1.3310254,0.73537695,0.62685806,-0.29887387,0.082239494,1.5477844,0.15714782,0.73506063,-1.6592544,-0.043943085,0.04296034,0.65558994,-1.325595,0.74592125
-0.2,0.10000000000000003,0.8999999999999999,-0.5235987755982988,-0.5235987755982988,0,1.3338785,0.7157703,0.6272496,-0.29429922,0.080073975,1.547881,0.16024852,0.7274154,-1.7042418,-0.4566951,-0.14849696,-0.24211353,-1.3101872,0.6476859
-0.2,0.10000000000000003,0.8999999999999999,-0.5235987755982988,-0.5235987755982988,0,1.3104216,0.70889217,0.6396701,-0.3000992,0.07897892,1.5539706,0.1590689,0.7665953,-1.6745616,-0.5947843,0.010474286,-0.017475635,-1.3618952,0.32214758
-0.2,0.10000000000000003,0.8999999999999999,-0.5235987755982988,-0.5235987755982988,0,1.3162632,0.7222034,0.62961453,-0.29630467,0.07671058,1.5608158,0.16550481,0.72478414,-1.6898551,-0.6744479,-0.030747512,2.2237797,-1.3351861,0.24662939
-0.2,0.10000000000000003,0.8999999999999999,-0.5235987755982988,-0.5235987755982988,0,1.3294859,0.71956116,0.6325229,-0.28865057,0.080105454,1.5471776,0.16213478,0.7182237,-1.6456498,-0.022761444,-0.21126306,0.35473442,-1.4172437,0.69181156
-0.2,0.10000000000000003,0.8999999999999999,-0.5235987755982988,-0.5235987755982988,0,1.3317747,0.73238426,0.6258025,-0.29445076,0.09372923,1.5603474,0.15343635,0.8252816,-1.6923838,-0.13898097,-0.14403568,-1.4527639,-1.3380253,0.27676275
-0.2,0.10000000000000003,0.8999999999999999,-0.5235987755982988,-0.5235987755982988,0,1.3249927,0.7213331,0.6259314,-0.28931743,0.07838773,1.5408161,0.15683118,0.7317892,-1.664085,-0.26003733,0.07647074,-0.13294733,-1.4953792,-0.3630589
-0.2,0.10000000000000003,0.8999999999999999,-0.5235987755982988,-0.5235987755982988,0,1.3152827,0.7217753,0.6295566,-0.3033384,0.0883092,1.5524752,0.15364121,0.7042381,-1.6640968,-0.36135447,-0.3321309,0.56940925,-1.3593973,0.637903
-0.2,0.10000000000000003,0.8999999999999999,-0.5235987755982988,-0.5235987755982988,0,1.3230569,0.7294157,0.62275875,-0.30418375,0.07226539,1.5567589,0.16129798,0.7486288,-1.6386546,-0.24357522,0.13547917,0.5346592,-1.4152771,0.35207763
-0.2,0.10000000000000003,0.8999999999999999,-0.5235987755982988,-0.5235987755982988,0,1.3187968,0.7214792,0.6346705,-0.2937947,0.078453384,1.5466295,0.17107517,0.78161323,-1.665241,-0.28493315,0.033682108,0.15507826,-1.3482227,-0.20725411
-0.2,0.10000000000000003,0.8999999999999999,-0.5235987755982988,-0.5235987755982988,0,1.325684,0.71628577,0.6205863,-0.28794935,0.06711199,1.5570917,0.1626776,0.6192933,-1.682448,0.037676107,-0.20833099,0.382219,-1.3707302,0.08434451
-0.2,0.10000000000000003,0.8999999999999999,-0.5235987755982988,-0.5235987755982988,0,1.3211515,0.72512627,0.6353046,-0.2981223,0.0810071,1.5502015,0.15739097,0.73929656,-1.6729611,-0.38850307,-0.3102704,1.4414234,-1.2008454,0.018941168
-0.2,0.10000000000000003,0.8999999999999999,-0.5235987755982988,-0.5235987755982988,0,1.3297372,0.71648425,0.634038,-0.29318,0.078798346,1.5573397,0.1586411,0.7251869,-1.6641395,-0.31519127,-0.057841633,1.1789885,-1.2760918,0.29028252
-0.2,0.10000000000000003,0.8999999999999999,-0.5235987755982988,-0.5235987755982988,0,1.322415,0.7149022,0.63282096,-0.29298875,0.07616677,1.5511017,0.15813328,0.6959513,-1.6527394,-0.18572079,0.026095657,1.2544277,-1.3017012,-0.08387888
-0.2,0.10000000000000003,0.8999999999999999,-0.5235987755982988,-0.5235987755982988,0,1.3310761,0.7271799,0.63310665,-0.29953358,0.08995174,1.5584486,0.15797463,0.7716171,-1.707841,-0.6359439,-0.028921667,1.2790419,-1.2715062,0.9019224
-0.2,0.10000000000000003,0.8999999999999999,-0.5235987755982988,-0.5235987755982988,0,1.3223761,0.72223526,0.61766183,-0.29891115,0.07840002,1.5447932,0.15694968,0.69752854,-1.6271857,-0.32373726,-0.12665683,1.2940377,-1.2797694,-0.051951367
-0.2,0.10000000000000003,0.8999999999999999,-0.5235987755982988,-0.5235987755982988,0,1.3215137,0.71599346,0.63495404,-0.30379644,0.06390698,1.5567704,0.16664591,0.68033755,-1.6959639,-0.07704234,-0.13046078,-0.14000128,-1.29747,-0.4642811
-0.2,0.10000000000000003,0.8999999999999999,-0.5235987755982988,-0.5235987755982988,0,1.3235213,0.7172987,0.632796,-0.28879532,0.082660295,1.5598996,0.13566586,0.7021166,-1.6551088,-0.4793886,-0.04988281,1.28257,-1.2550861,0.32295334
-0.2,0.10000000000000003,0.8999999999999999,-0.5235987755982988,-0.5235987755982988,0,1.3192964,0.72258073,0.6311178,-0.29942444,0.08584708,1.5491843,0.15907665,0.7662711,-1.6591657,-0.07878157,-0.023580773,0.049876634,-1.3414973,0.14337157
-0.2,0.10000000000000003,0.8999999999999999,-0.5235987755982988,-0.5235987755982988,0,1.3216046,0.71335936,0.6327571,-0.2987901,0.075694226,1.5529261,0.15578803,0.7355918,-1.6733075,-0.3389816,-0.19856593,0.93764067,-1.4823071,0.46427792
-0.2,0.10000000000000003,0.8999999999999999,-0.5235987755982988,-0.5235987755982988,0,1.3204353,0.7319675,0.64039177,-0.29722795,0.08021779,1.5593632,0.1543729,0.7938184,-1.6716855,-0.5014582,-0.03187894,0.08595023,-1.3384544,-0.19590428
-0.2,0.10000000000000003,0.8999999999999999,-0.5235987755982988,-0.5235987755982988,0,1.3241984,0.72493505,0.63630515,-0.2986928,0.08031996,1.5609678,0.14769667,0.773678,-1.6402519,-0.44670555,-0.057158343,-0.3034999,-1.3992338,-0.49519455
-0.2,0.10000000000000003,0.8999999999999999,-0.5235987755982988,-0.5235987755982988,0,1.3123424,0.7191948,0.6415326,-0.299324,0.071367756,1.5569854,0.16331801,0.6750395,-1.6601537,0.18004575,-0.42229483,0.68328834,-1.3334773,0.01900584
-0.2,0.10000000000000003,0.8999999999999999,-0.5235987755982988,-0.5235987755982988,0,1.3239273,0.7371185,0.6116079,-0.3020726,0.08648092,1.555497,0.15727347,0.73381746,-1.6616693,-0.14545015,-0.005000543,-0.64171016,-1.3447977,-0.48207876
-0.2,0.10000000000000003,0.8999999999999999,-0.5235987755982988,-0.5235987755982988,0,1.3247182,0.72037727,0.61699194,-0.29628804,0.07826838,1.5543139,0.16044699,0.52565175,-1.7253885,-0.03271307,-0.07625396,0.8741737,-1.3119686,0.03361384
-0.2,0.10000000000000003,0.8999999999999999,-0.5235987755982988,-0.5235987755982988,0,1.3320144,0.7263267,0.62125874,-0.29269007,0.07042832,1.5503176,0.16438566,0.726237,-1.6666437,-0.45924485,-0.1925769,0.32477129,-1.3207493,0.799548
-0.2,0.10000000000000003,0.8999999999999999,-0.5235987755982988,-0.5235987755982988,0,1.3100069,0.7125931,0.63001645,-0.30476588,0.09524322,1.5510968,0.14752321,0.69088084,-1.6494942,-0.083173856,-0.05951447,0.025916187,-1.2197789,0.12738574
-0.2,0.10000000000000003,0.8999999999999999,-0.5235987755982988,-0.5235987755982988,0,1.3177048,0.7158932,0.62938964,-0.29585987,0.09118045,1.5507538,0.15219925,0.72411203,-1.6991323,-0.49842766,-0.03603145,0.1751813,-1.1921335,0.7229471
-0.2,0.10000000000000003,0.8999999999999999,-0.5235987755982988,-0.5235987755982988,0,1.318845,0.7176993,0.63204914,-0.2936594,0.08719855,1.5506245,0.1478376,0.6815618,-1.6573707,-0.2906403,-0.061216522,0.056983348,-1.122341,1.2151428
-0.2,0.10000000000000003,0.8999999999999999,-0.5235987755982988,-0.5235987755982988,0,1.3215142,0.7193185,0.61426896,-0.28636932,0.06430813,1.5524602,0.14460136,0.81462216,-1.7134163,-0.40168852,-0.052795436,1.192869,-1.336541,0.33255094
-0.2,0.10000000000000003,0.8999999999999999,-0.5235987755982988,-0.5235987755982988,0,1.3226092,0.72672635,0.63570386,-0.29702514,0.077874735,1.5544016,0.15880896,0.7585547,-1.7295288,-0.32393402,-0.049023226,2.3076937,-1.2528745,0.11380185
-0.2,0.10000000000000003,0.8999999999999999,-0.5235987755982988,-0.5235987755982988,0,1.3167192,0.70569927,0.631622,-0.29979637,0.046627853,1.5554924,0.1469633,0.7229709,-1.6881868,-0.3396634,-0.03645163,0.03851005,-1.2926537,0.11094375
-0.2,0.10000000000000003,0.8999999999999999,-0.5235987755982988,-0.5235987755982988,0,1.312859,0.70380425,0.6233945,-0.29752627,0.07671182,1.5580688,0.16114636,0.65656686,-1.6711407,-0.2548271,0.015371867,-0.41009286,-1.4317336,-0.36025393
-0.2,0.10000000000000003,0.8999999999999999,-0.5235987755982988,-0.5235987755982988,0,1.3271657,0.70598793,0.6308208,-0.29039195,0.086658806,1.5481906,0.15067676,0.7030319,-1.6641022,0.046747103,-0.25168735,1.0587734,-1.2902983,0.72750366
-0.2,0.10000000000000003,0.8999999999999999,-0.5235987755982988,-0.5235987755982988,0,1.3178303,0.7181415,0.64062214,-0.3020665,0.06654275,1.5433658,0.14467373,0.72487867,-1.6678898,-0.6072436,-0.04098168,1.4247025,-1.2392979,-0.18435791
-0.2,0.10000000000000003,0.8999999999999999,-0.5235987755982988,-0.5235987755982988,0,1.3299159,0.71516967,0.6216807,-0.2978715,0.07865754,1.5539722,0.15483308,0.7038228,-1.6585122,-0.47676176,-0.10800141,0.13132007,-1.4310133,0.3213236
-0.2,0.10000000000000003,0.8999999999999999,-0.5235987755982988,-0.5235987755982988,0,1.3137248,0.72790194,0.62368536,-0.30159464,0.07277569,1.5516356,0.15502869,0.64767236,-1.6774673,-0.5104457,-0.12321482,1.4006695,-1.330404,0.39535823
-0.2,0.10000000000000003,0.8999999999999999,-0.5235987755982988,-0.5235987755982988,0,1.315981,0.71640635,0.6320869,-0.30116862,0.09204114,1.5534239,0.1569199,0.79795456,-1.6680481,-0.10516659,0.0016320347,0.49590504,-1.2537215,0.22837102
-0.2,0.10000000000000003,0.8999999999999999,-0.5235987755982988,-0.5235987755982988,0,1.3206973,0.716974,0.6393771,-0.3040061,0.0751982,1.554379,0.15040427,0.759041,-1.682499,0.049910255,-0.08543511,0.35920078,-1.3959078,0.3955424
-0.2,0.10000000000000003,0.8999999999999999,-0.5235987755982988,-0.5235987755982988,0,1.3164424,0.7315178,0.63091654,-0.29181057,0.08874116,1.5535088,0.1664891,0.66656584,-1.6724594,-0.18322626,-0.2532098,0.12423829,-1.3777096,0.90296537
-0.2,0.10000000000000003,0.8999999999999999,-0.5235987755982988,-0.5235987755982988,0,1.318822,0.72928715,0.6195907,-0.30724856,0.07015945,1.5545179,0.16265735,0.7761412,-1.6689063,-0.26212454,-0.098286316,1.3137283,-1.4945115,-0.09002753
-0.2,0.10000000000000003,0.8999999999999999,-0.5235987755982988,-0.5235987755982988,0,1.3215748,0.7240521,0.6220958,-0.2970926,0.07566752,1.5462987,0.15897386,0.74903643,-1.6941715,-0.38795894,-0.053887103,0.6767146,-1.3972309,0.611384
-0.2,0.10000000000000003,0.8999999999999999,-0.5235987755982988,-0.5235987755982988,0,1.3257706,0.73009866,0.6338925,-0.29259247,0.091048025,1.5509187,0.15442513,0.7276017,-1.7043813,-0.25547373,-0.15129147,1.0328598,-1.2501683,0.123010136
-0.2,0.10000000000000003,0.8999999999999999,-0.5235987755982988,-0.5235987755982988,0,1.3259163,0.7279996,0.63077056,-0.2941719,0.06583738,1.5532241,0.15410297,0.6288934,-1.6621178,-0.3592211,0.041221064,-0.4645597,-1.224543,-0.24737002
-0.2,0.10000000000000003,0.8999999999999999,-0.5235987755982988,-0.5235987755982988,0,1.331598,0.719651,0.6404141,-0.2969398,0.10084866,1.5544912,0.16909516,0.7326878,-1.667597,-0.25985128,-0.31251273,0.887554,-1.3806964,0.20104562
-0.2,0.10000000000000003,0.8999999999999999,-0.5235987755982988,-0.5235987755982988,0,1.3214316,0.7233646,0.62231237,-0.29229885,0.08713111,1.5457697,0.15566127,0.79258764,-1.6897637,-0.53648746,-0.04179641,1.7723646,-1.4005084,0.0643606
-0.2,0.10000000000000003,0.8999999999999999,-0.5235987755982988,-0.5235987755982988,0,1.319318,0.7275943,0.6161989,-0.2940289,0.074773535,1.5500252,0.15646908,0.7010759,-1.6825716,-0.12941547,-0.1589688,1.8145148,-1.2404178,0.55087477
-0.2,0.10000000000000003,0.8999999999999999,-0.5235987755982988,-0.5235987755982988,0,1.305124,0.7272381,0.63551867,-0.294396,0.0811093,1.5485512,0.14354534,0.6332038,-1.667027,-0.3575119,0.14926,1.1499245,-1.2314588,0.7180715
-0.2,0.10000000000000003,0.8999999999999999,-0.5235987755982988,-0.5235987755982988,0,1.3286662,0.7315618,0.62474746,-0.29260635,0.061803866,1.556392,0.16978881,0.7255496,-1.6745179,-0.20800649,-0.12794113,0.88440317,-1.4518104,0.6228339
-0.2,0.10000000000000003,0.8999999999999999,-0.5235987755982988,-0.5235987755982988,0,1.3239944,0.7287281,0.62465185,-0.2951562,0.082773075,1.5517745,0.15454628,0.76452804,-1.6615804,-0.40999526,-0.08064151,0.968332,-1.346479,0.65201813
-0.2,0.10000000000000003,0.8999999999999999,-0.5235987755982988,-0.5235987755982988,0,1.3140647,0.7294814,0.6373503,-0.29495725,0.072441615,1.5497559,0.15466967,0.822138,-1.6562594,-0.36171696,-0.014252772,0.6940717,-1.3130628,0.40029654
-0.2,0.10000000000000003,0.8999999999999999,-0.5235987755982988,-0.5235987755982988,0,1.3226959,0.7295053,0.6290717,-0.2941893,0.07529478,1.549075,0.15607958,0.72969776,-1.7086343,-0.12587145,-0.26807168,0.7328574,-1.3784294,0.6290994
-0.2,0.10000000000000003,0.8999999999999999,-0.5235987755982988,-0.5235987755982988,0,1.3224844,0.7224457,0.6413188,-0.29712698,0.09106823,1.5500077,0.16591986,0.67393965,-1.677414,-0.49076656,-0.11569828,1.7155632,-1.4788809,0.81206
-0.2,0.10000000000000003,0.8999999999999999,-0.5235987755982988,-0.5235987755982988,0,1.3311855,0.7334236,0.6174788,-0.29861537,0.09993013,1.5560625,0.14579804,0.7142177,-1.672903,-0.114397526,-0.29146883,0.022365501,-1.3768429,0.15069811
-0.2,0.10000000000000003,0.8999999999999999,-0.5235987755982988,-0.5235987755982988,0,1.3284194,0.7354082,0.6265901,-0.3012626,0.08009667,1.5541018,0.1654567,0.82184255,-1.6550785,-0.086748265,-0.3067626,-0.34396726,-1.2602578,0.1989023
-0.2,0.10000000000000003,0.8999999999999999,-0.5235987755982988,-0.5235987755982988,0,1.3302664,0.73231816,0.6235252,-0.2977446,0.07005471,1.5511143,0.16454168,0.70243704,-1.6767502,-0.2544259,-0.15023611,0.7263197,-1.318832,0.6880507
-0.2,0.10000000000000003,0.8999999999999999,-0.5235987755982988,-0.5235987755982988,0,1.3341852,0.7358191,0.6146697,-0.30157226,0.08156744,1.5584496,0.15362656,0.69326705,-1.645329,-0.37788084,-0.046077892,0.76517695,-1.3489307,-0.069353506
-0.2,0.10000000000000003,0.8999999999999999,-0.5235987755982988,-0.5235987755982988,0,1.3315917,0.7323201,0.62349814,-0.29149175,0.06819871,1.551593,0.14235865,0.81313574,-1.68764,-0.18814969,-0.096682526,-0.85786265,-1.4604688,0.49110213
-0.2,0.10000000000000003,0.8999999999999999,-0.5235987755982988,-0.5235987755982988,0,1.3130652,0.70799106,0.6151057,-0.30332562,0.08988954,1.5571201,0.15283808,0.72820127,-1.6849573,-0.38612133,-0.11974352,-0.86033213,-1.414854,0.7023424
-0.2,0.10000000000000003,0.8999999999999999,-0.5235987755982988,-0.5235987755982988,0,1.318283,0.73676145,0.63765097,-0.29365125,0.07253272,1.5641416,0.15347686,0.6499277,-1.6741716,-0.041737188,0.12960918,-0.5283575,-1.30913,0.64876413
-0.2,0.10000000000000003,0.8999999999999999,-0.5235987755982988,-0.5235987755982988,0,1.3185872,0.71845925,0.6147614,-0.3085526,0.076949686,1.5600895,0.17038852,0.7743677,-1.6883867,-0.27210096,-0.30607855,1.1762075,-1.3318819,-0.18658076
-0.2,0.10000000000000003,0.8999999999999999,-0.5235987755982988,-0.5235987755982988,0,1.3139038,0.7254148,0.6447062,-0.28003743,0.07436553,1.551863,0.15992953,0.65095025,-1.6895547,-0.365463,-0.18399379,0.5250527,-1.2444677,0.22301474
-0.2,0.10000000000000003,0.8999999999999999,-0.5235987755982988,-0.5235987755982988,0,1.3156235,0.7129957,0.62929213,-0.29835087,0.09198452,1.5527066,0.16329122,0.7730746,-1.6705265,-0.13125132,-0.10948958,1.0079795,-1.3211128,0.0238979
-0.2,0.10000000000000003,0.8999999999999999,-0.5235987755982988,-0.5235987755982988,0,1.3267059,0.7206724,0.6303439,-0.29432604,0.07365071,1.5589148,0.16592795,0.7924585,-1.6494659,-0.040690754,-0.054253384,0.5369111,-1.426038,0.6039514
-0.2,0.10000000000000003,0.8999999999999999,-0.5235987755982988,-0.5235987755982988,0,1.3266467,0.7225512,0.62987906,-0.2917294,0.07035048,1.5564262,0.16223538,0.73519224,-1.6629009,-0.06007628,-0.45264697,0.8674456,-1.4563603,-0.92514265
-0.2,0.10000000000000003,0.8999999999999999,-0.5235987755982988,-0.5235987755982988,0,1.3183805,0.72170895,0.6057375,-0.29261357,0.095075086,1.5476736,0.15750149,0.7768056,-1.6790746,-0.3503883,0.24436186,-0.14899117,-1.2389187,0.44603848
-0.2,0.10000000000000003,0.8999999999999999,-0.5235987755982988,-0.5235987755982988,0,1.3192654,0.71123016,0.622351,-0.29806077,0.08240715,1.5534976,0.15100355,0.79158616,-1.7035575,-0.3921387,-0.18100834,0.3699971,-1.337465,-0.1367127
-0.2,0.10000000000000003,0.8999999999999999,-0.5235987755982988,-0.5235987755982988,0,1.3207349,0.7218525,0.62848604,-0.30402684,0.06737286,1.5638756,0.16698858,0.7329695,-1.6673162,-0.035718165,-0.13546592,1.4520158,-1.3200984,0.47995737
-0.2,0.10000000000000003,0.8999999999999999,-0.5235987755982988,-0.5235987755982988,0,1.3028368,0.7235068,0.6245876,-0.30752894,0.080713674,1.551242,0.1640834,0.76298743,-1.6644822,-0.28266385,-0.17832562,0.9636957,-1.2639632,0.5754567
-0.2,0.10000000000000003,0.8999999999999999,-0.5235987755982988,-0.5235987755982988,0,1.3121954,0.71026546,0.6280429,-0.30247697,0.07807037,1.553672,0.15068655,0.6905083,-1.7117163,-0.27302986,0.13239698,0.9755338,-1.3142838,0.82410556
-0.2,0.10000000000000003,0.8999999999999999,-0.5235987755982988,-0.5235987755982988,0,1.3227321,0.71322554,0.6364933,-0.28812233,0.084767215,1.5511937,0.16012521,0.7150606,-1.676964,-0.27567387,-0.20991382,2.2519207,-1.4469157,0.17249295
-0.2,0.10000000000000003,0.8999999999999999,-0.5235987755982988,-0.5235987755982988,0,1.3156567,0.71826017,0.62596446,-0.29235625,0.0934503,1.5581106,0.1516328,0.75672525,-1.6580849,-0.41275743,-0.24267711,-0.9382911,-1.3073995,1.1694466
-0.2,0.10000000000000003,0.8999999999999999,-0.5235987755982988,-0.5235987755982988,0,1.3151789,0.73213625,0.6321382,-0.2978581,0.07176981,1.5588882,0.16633822,0.81242734,-1.7097875,-0.124415934,-0.30549076,1.8876134,-1.4395605,1.0558009
-0.2,0.10000000000000003,0.8999999999999999,-0.5235987755982988,-0.5235987755982988,0,1.3179965,0.7315541,0.62512404,-0.2989561,0.07812835,1.5624824,0.1677168,0.7970552,-1.6698291,-0.15416373,-0.27072623,1.4280503,-1.5060068,0.20031835
-0.2,0.10000000000000003,0.8999999999999999,-0.5235987755982988,-0.5235987755982988,0,1.3256153,0.7129547,0.61818314,-0.29475132,0.064109035,1.5518562,0.16334613,0.6328193,-1.6950976,-0.30585325,0.003952378,0.77032137,-1.4108049,0.5790402
-0.2,0.10000000000000003,0.8999999999999999,-0.5235987755982988,-0.5235987755982988,0,1.3155558,0.72463626,0.61910915,-0.29504213,0.065878384,1.5590681,0.15486759,0.7857329,-1.6730273,-0.33466607,-0.08559189,2.0587192,-1.3761628,1.1689203
-0.2,0.10000000000000003,0.8999999999999999,-0.5235987755982988,-0.5235987755982988,0,1.3238896,0.7161449,0.61012495,-0.29196993,0.06966013,1.549491,0.16603804,0.75508195,-1.6741079,-0.25017354,0.20883168,0.88528234,-1.302726,0.48171
-0.2,0.10000000000000003,0.8999999999999999,-0.5235987755982988,-0.5235987755982988,0,1.3231382,0.7228104,0.61900526,-0.29022005,0.095332794,1.5510993,0.15861966,0.6326235,-1.6730307,-0.34472218,0.12166319,0.74684006,-1.4584805,0.1652612
-0.2,0.10000000000000003,0.8999999999999999,-0.5235987755982988,-0.5235987755982988,0,1.3127239,0.7247446,0.61248016,-0.2983473,0.072474286,1.5535029,0.16240819,0.6266363,-1.6673917,-0.22084688,0.008797854,0.18193871,-1.2082323,-0.67075425
-0.2,0.10000000000000003,0.8999999999999999,-0.5235987755982988,-0.5235987755982988,0,1.3141196,0.7233871,0.63277847,-0.29074904,0.07737477,1.5532936,0.16357455,0.71641064,-1.6964833,-0.4482945,0.07281633,0.2846153,-1.3136202,1.1610016
-0.2,0.10000000000000003,0.8999999999999999,-0.5235987755982988,-0.5235987755982988,0,1.3053424,0.73365057,0.6149741,-0.29092923,0.07360821,1.5535222,0.15657564,0.82193255,-1.684884,-0.1868478,-0.21540175,0.33992028,-1.303102,0.05123585
-0.2,0.10000000000000003,0.8999999999999999,-0.5235987755982988,-0.5235987755982988,0,1.3062909,0.7340753,0.63630944,-0.2901974,0.09286487,1.5561311,0.14925487,0.7739382,-1.6801444,-0.33477828,-0.049297005,-1.2843459,-1.3453362,0.05089345
-0.2,0.10000000000000003,0.8999999999999999,-0.5235987755982988,-0.5235987755982988,0,1.3261662,0.71153206,0.6224155,-0.29809693,0.0895681,1.556511,0.15210618,0.6362952,-1.6514237,0.03901615,-0.21674228,-0.0255856,-1.4210083,0.3226667
-0.2,0.10000000000000003,0.8999999999999999,-0.5235987755982988,-0.5235987755982988,0,1.3122818,0.7199807,0.61862767,-0.2928391,0.073060885,1.553528,0.1563084,0.7129926,-1.6997907,-0.23799051,-0.2151785,0.4257829,-1.2753477,-0.2702869
-0.2,0.10000000000000003,0.8999999999999999,-0.5235987755982988,-0.5235987755982988,0,1.3232751,0.7233218,0.6228559,-0.29152358,0.07292458,1.5591948,0.1554591,0.72617286,-1.6608266,-0.5008473,-0.1510407,1.3041162,-1.3145685,-0.3606198
-0.2,0.10000000000000003,0.8999999999999999,-0.5235987755982988,-0.5235987755982988,0,1.3180525,0.7312207,0.62492913,-0.29615688,0.072505824,1.5550907,0.16221583,0.6739256,-1.6673894,-0.47950065,-0.13538931,0.8808399,-1.3364878,0.69334453
-0.2,0.10000000000000003,0.8999999999999999,-0.5235987755982988,-0.5235987755982988,0,1.3166085,0.73894495,0.61189824,-0.29312512,0.089482635,1.5574198,0.16534512,0.648482,-1.7164282,-0.3189057,0.00246191,0.8982351,-1.3501817,0.6281437
-0.2,0.10000000000000003,0.8999999999999999,-0.5235987755982988,-0.5235987755982988,0,1.3239269,0.7283676,0.6238652,-0.2972836,0.08079555,1.5465782,0.15658775,0.75160474,-1.7120314,-0.040515814,0.07882065,-0.9126849,-1.3205556,0.11624368
-0.2,0.10000000000000003,0.8999999999999999,-0.5235987755982988,-0.5235987755982988,0,1.3196607,0.7296673,0.6211501,-0.29609495,0.07176862,1.5576494,0.16426674,0.6963796,-1.6536297,-0.14871925,-0.3318552,0.41061255,-1.3908192,0.83870745
-0.2,0.10000000000000003,0.8999999999999999,-0.5235987755982988,-0.5235987755982988,0,1.3304051,0.73199344,0.6289149,-0.29914156,0.073778816,1.5526769,0.16058378,0.64363986,-1.660256,-0.16443364,-0.0920547,0.08366351,-1.2772455,0.47933275
-0.2,0.10000000000000003,0.8999999999999999,-0.5235987755982988,-0.5235987755982988,0,1.3186187,0.72060007,0.63374615,-0.29649088,0.08390286,1.5417773,0.16479057,0.62570137,-1.6957725,-0.40410146,-0.025057614,0.7628714,-1.3609973,-0.16159369
-0.2,0.10000000000000003,0.8999999999999999,-0.5235987755982988,-0.5235987755982988,0,1.3247695,0.7351077,0.62045103,-0.29589674,0.08003502,1.551164,0.16147013,0.70446736,-1.6615037,-0.6814907,-0.09956703,-0.33072758,-1.3628588,0.299882
