sanky1234/BimanualDexCatch/isaacgymenvs/cem_results/football_pose_-0.1_0.1_0.7_-0.5235987755982988_0.5235987755982988_0_2025-05-26.csv
x,y,z,roll,pitch,yaw,robot1/joint1,robot1/joint2,robot1/joint3,robot1/joint4,robot1/joint5,robot1/joint6,robot1/joint7,robot2/joint1,robot2/joint2,robot2/joint3,robot2/joint4,robot2/joint5,robot2/joint6,robot2/joint7
-0.1,0.1,0.7,-0.5235987755982988,0.5235987755982988,0,-0.23106387,1.7050303,0.77911395,-0.34436482,0.15372193,1.4831288,1.8539745,-0.99644715,1.5187027,-0.14786576,0.39575127,-0.1730918,1.045177,0.13541275
-0.1,0.1,0.7,-0.5235987755982988,0.5235987755982988,0,-0.09115204,1.671623,0.8752946,-0.27115867,0.09309752,1.4675252,1.7270159,-0.9182802,1.5306637,-0.12148393,0.38766074,-0.2904789,1.0475308,0.4007702
-0.1,0.1,0.7,-0.5235987755982988,0.5235987755982988,0,-0.19490726,1.6869291,0.7197379,-0.304696,0.10470623,1.4842876,1.847163,-0.9190739,1.514484,-0.14152794,0.36150482,-0.21277398,1.0858072,0.26974306
-0.1,0.1,0.7,-0.5235987755982988,0.5235987755982988,0,-0.20710348,1.6971819,0.71842486,-0.31867754,0.09196179,1.4991187,1.7590023,-0.99009365,1.5224984,-0.13609011,0.38739717,-0.23779999,1.0486284,0.33397254
-0.1,0.1,0.7,-0.5235987755982988,0.5235987755982988,0,-0.17203893,1.6729674,0.76039845,-0.3233624,0.14814582,1.5024588,1.4904772,-0.901634,1.5061551,-0.18978675,0.4007507,-0.24243073,1.0642848,0.4343416
-0.1,0.1,0.7,-0.5235987755982988,0.5235987755982988,0,-0.23511067,1.704835,0.799181,-0.31465307,0.113589734,1.5019633,1.718997,-0.9363882,1.5191095,-0.19037136,0.3698146,-0.22601633,1.0454164,0.3675562
-0.1,0.1,0.7,-0.5235987755982988,0.5235987755982988,0,-0.19529034,1.7015047,0.7881344,-0.39646655,0.10425117,1.501505,1.7047263,-0.9569067,1.5207394,-0.12501715,0.39091703,-0.30211958,1.0396566,0.4030039
-0.1,0.1,0.7,-0.5235987755982988,0.5235987755982988,0,-0.24919109,1.6921297,0.76147133,-0.27285478,0.23436521,1.4927839,1.7044044,-0.9139371,1.5270809,-0.15510534,0.38764563,-0.22033623,1.0567111,0.10799561
-0.1,0.1,0.7,-0.5235987755982988,0.5235987755982988,0,-0.20873529,1.6592298,0.75159705,-0.40253612,0.06249026,1.5184566,1.6715128,-0.95475125,1.5182459,-0.13625666,0.37791267,-0.1856402,1.0299001,0.30199015
-0.1,0.1,0.7,-0.5235987755982988,0.5235987755982988,0,-0.22438884,1.7162607,0.8014587,-0.28798655,0.15564811,1.5246974,1.742509,-0.89745367,1.5278924,-0.13302667,0.38501078,-0.23466237,1.0686816,0.3415779
-0.1,0.1,0.7,-0.5235987755982988,0.5235987755982988,0,-0.22090435,1.7059029,0.7287838,-0.30631635,0.1851873,1.4862671,1.6698655,-0.87271225,1.5312337,-0.14002049,0.3778449,-0.20911068,1.0657974,0.1986319
-0.1,0.1,0.7,-0.5235987755982988,0.5235987755982988,0,-0.25031808,1.7200034,0.7324046,-0.30154088,-0.00733014,1.4884989,1.7293034,-0.9801165,1.526566,-0.14018944,0.39423943,-0.20544134,1.0663079,0.32455736
-0.1,0.1,0.7,-0.5235987755982988,0.5235987755982988,0,-0.19604392,1.6951683,0.8475744,-0.34037092,0.10059987,1.482437,1.7100818,-0.955507,1.5231377,-0.15972851,0.3792424,-0.18514067,1.039484,0.3249498
-0.1,0.1,0.7,-0.5235987755982988,0.5235987755982988,0,-0.23741406,1.6987572,0.7671527,-0.35744733,0.0994519,1.5650343,1.6882529,-0.9505614,1.5259699,-0.1583235,0.39425167,-0.19222687,1.0681698,0.39717096
-0.1,0.1,0.7,-0.5235987755982988,0.5235987755982988,0,-0.21321209,1.741152,0.80709964,-0.3306539,0.07870359,1.55586,1.809922,-0.92209727,1.5439833,-0.17201345,0.38605872,-0.28645122,1.0738267,0.45910847
-0.1,0.1,0.7,-0.5235987755982988,0.5235987755982988,0,-0.14811458,1.7302978,0.7651727,-0.32873237,0.0827031,1.4875078,1.7370878,-1.0542245,1.5350403,-0.1933107,0.38053596,-0.19069542,1.0705562,0.2599913
-0.1,0.1,0.7,-0.5235987755982988,0.5235987755982988,0,-0.20047647,1.7089702,0.77672964,-0.33762878,0.17436154,1.5238097,1.7678397,-0.96806926,1.5253251,-0.15928756,0.38498786,-0.20500638,1.071025,0.22869506
-0.1,0.1,0.7,-0.5235987755982988,0.5235987755982988,0,-0.13359986,1.6731985,0.7777374,-0.36806527,0.117076986,1.5023936,1.708663,-0.92127687,1.5396088,-0.16221316,0.3652532,-0.20747378,1.0460924,0.2638748
-0.1,0.1,0.7,-0.5235987755982988,0.5235987755982988,0,-0.19664072,1.6888914,0.7780972,-0.32596195,0.09884705,1.5080607,1.7804216,-0.97732157,1.553136,-0.13984546,0.36773324,-0.2269585,1.0542313,0.29742813
-0.1,0.1,0.7,-0.5235987755982988,0.5235987755982988,0,-0.17710494,1.7210797,0.80043566,-0.32690722,0.1060644,1.5042055,1.583811,-0.8459925,1.5357343,-0.16054548,0.38353658,-0.26732174,1.0421219,0.14702626
-0.1,0.1,0.7,-0.5235987755982988,0.5235987755982988,0,-0.21176566,1.7135608,0.7188748,-0.41181788,0.0030149305,1.5043706,1.6392732,-0.9282397,1.4984359,-0.14320621,0.38931167,-0.2600919,1.0616536,0.048208643
-0.1,0.1,0.7,-0.5235987755982988,0.5235987755982988,0,-0.22421323,1.661106,0.78875744,-0.354217,0.12457662,1.5277252,1.7267021,-0.9620349,1.5025223,-0.18744922,0.374707,-0.2896807,1.0522116,0.25320336
-0.1,0.1,0.7,-0.5235987755982988,0.5235987755982988,0,-0.19340962,1.7439115,0.7961758,-0.3123717,0.19860849,1.5102609,1.6454474,-0.9406197,1.5367104,-0.15811762,0.37131,-0.21829075,1.0580174,0.25658306
-0.1,0.1,0.7,-0.5235987755982988,0.5235987755982988,0,-0.12709327,1.6996475,0.69832295,-0.3921176,0.111698225,1.5228243,1.576305,-0.8628203,1.509209,-0.16241622,0.37236637,-0.19047663,1.0513916,0.3110911
-0.1,0.1,0.7,-0.5235987755982988,0.5235987755982988,0,-0.18750817,1.7030711,0.79457015,-0.41159683,0.12710904,1.5255195,1.6953821,-0.864031,1.5123614,-0.18466927,0.37812078,-0.2385007,1.0586582,0.15528692
-0.1,0.1,0.7,-0.5235987755982988,0.5235987755982988,0,-0.2063723,1.7363545,0.7254564,-0.32624093,0.13237321,1.5008619,1.6445584,-0.88749266,1.5157591,-0.15807469,0.38461876,-0.22206748,1.0707488,0.14122835
-0.1,0.1,0.7,-0.5235987755982988,0.5235987755982988,0,-0.1999624,1.7120438,0.78503275,-0.36531717,0.18144217,1.528236,1.7303222,-0.93357396,1.5262456,-0.16994965,0.37144527,-0.20734192,1.0517962,0.27541357
-0.1,0.1,0.7,-0.5235987755982988,0.5235987755982988,0,-0.19793355,1.6880859,0.76395506,-0.35075763,0.08916175,1.454828,1.570956,-0.9137238,1.5221825,-0.115440115,0.3752186,-0.27665144,1.0699011,0.13704984
-0.1,0.1,0.7,-0.5235987755982988,0.5235987755982988,0,-0.15574595,1.6796972,0.7835047,-0.32767972,0.108540244,1.5156667,1.6756917,-0.9581738,1.5304819,-0.15105243,0.3846376,-0.23125252,1.0719223,0.44905025
-0.1,0.1,0.7,-0.5235987755982988,0.5235987755982988,0,-0.20645617,1.7250376,0.8620036,-0.34835258,0.06746853,1.5149672,1.5420732,-0.92376447,1.5277622,-0.1542017,0.3708892,-0.21271515,1.0582372,0.24105312
-0.1,0.1,0.7,-0.5235987755982988,0.5235987755982988,0,-0.25181395,1.7294773,0.79284954,-0.32777214,0.12201348,1.5368153,1.7367489,-0.8939285,1.526079,-0.12232247,0.3843035,-0.2639707,1.0554695,0.16353878
-0.1,0.1,0.7,-0.5235987755982988,0.5235987755982988,0,-0.1788418,1.6872882,0.7425348,-0.3278567,0.123084694,1.4985003,1.8511083,-0.93778807,1.5216961,-0.16800079,0.38855407,-0.15159899,1.0675923,0.23999518
-0.1,0.1,0.7,-0.5235987755982988,0.5235987755982988,0,-0.18371812,1.6922452,0.7749497,-0.36835077,0.15902394,1.5137475,1.5531635,-0.86986846,1.5355622,-0.16663569,0.37952602,-0.17514741,1.0630022,0.3478138
-0.1,0.1,0.7,-0.5235987755982988,0.5235987755982988,0,-0.1915314,1.6320138,0.7673126,-0.3105785,0.12951043,1.5186057,1.8012093,-0.99273705,1.4997703,-0.14973392,0.37280592,-0.2173598,1.0620275,0.12299729
-0.1,0.1,0.7,-0.5235987755982988,0.5235987755982988,0,-0.18201937,1.7223569,0.7332036,-0.38007542,0.081486136,1.4939718,1.7000103,-0.92979175,1.5340157,-0.15853624,0.39056078,-0.24687174,1.0538958,0.20957881
-0.1,0.1,0.7,-0.5235987755982988,0.5235987755982988,0,-0.1753078,1.7326887,0.80323863,-0.31571203,0.19923343,1.4577326,1.6473986,-0.91532767,1.5162624,-0.1911579,0.3844125,-0.18288024,1.0496308,0.39882782
-0.1,0.1,0.7,-0.5235987755982988,0.5235987755982988,0,-0.14069721,1.6739805,0.75204027,-0.3056243,0.07721944,1.4957616,1.7764249,-1.0189586,1.5256863,-0.16802311,0.3804914,-0.18514793,1.0818448,0.20626815
-0.1,0.1,0.7,-0.5235987755982988,0.5235987755982988,0,-0.1780152,1.709763,0.81024843,-0.25545824,0.17723791,1.4662484,1.692331,-0.93868184,1.5217602,-0.13163367,0.36851433,-0.19910054,1.0654774,0.3828495
-0.1,0.1,0.7,-0.5235987755982988,0.5235987755982988,0,-0.20612165,1.6857444,0.7336945,-0.30328095,0.11506947,1.5049359,1.7916237,-1.046266,1.5212973,-0.1931548,0.3944114,-0.15486564,1.0653837,0.38607726
-0.1,0.1,0.7,-0.5235987755982988,0.5235987755982988,0,-0.1620416,1.69995,0.7699524,-0.3443727,0.10101521,1.5017401,1.7261602,-0.9903666,1.5083116,-0.13671204,0.37411842,-0.22776456,1.055711,0.18724261
-0.1,0.1,0.7,-0.5235987755982988,0.5235987755982988,0,-0.14276232,1.6937166,0.76711893,-0.37336102,0.19008474,1.5137571,1.6357603,-0.90227455,1.505112,-0.15864438,0.38406685,-0.22379616,1.0615835,0.34551537
-0.1,0.1,0.7,-0.5235987755982988,0.5235987755982988,0,-0.20150538,1.7144096,0.74578947,-0.35340527,0.12136874,1.5331721,1.6465294,-0.98455423,1.52362,-0.15847602,0.38292366,-0.22272511,1.0569277,0.336004
-0.1,0.1,0.7,-0.5235987755982988,0.5235987755982988,0,-0.17677517,1.727786,0.8128853,-0.39087903,0.14643766,1.511436,1.6819429,-0.87124497,1.5199934,-0.14942294,0.38621762,-0.18386675,1.0601802,0.2490387
-0.1,0.1,0.7,-0.5235987755982988,0.5235987755982988,0,-0.23301099,1.6908392,0.79232186,-0.3165985,0.110998355,1.5268854,1.6300231,-0.8831853,1.5350271,-0.16714038,0.37751448,-0.20158933,1.0829673,0.18102224
-0.1,0.1,0.7,-0.5235987755982988,0.5235987755982988,0,-0.2514141,1.7638224,0.83252424,-0.3631011,0.08755197,1.4784199,1.9427674,-0.9793853,1.5366826,-0.15893658,0.3754211,-0.19105273,1.0560472,0.22036539
-0.1,0.1,0.7,-0.5235987755982988,0.5235987755982988,0,-0.16348305,1.6992217,0.7976579,-0.35185602,0.1053207,1.5001477,1.6634631,-0.890945,1.5275725,-0.16615106,0.39174438,-0.22699903,1.048284,0.033407934
-0.1,0.1,0.7,-0.5235987755982988,0.5235987755982988,0,-0.17251024,1.7392657,0.73766637,-0.3776343,0.056546926,1.5065479,1.7070369,-1.0194497,1.5309457,-0.1537407,0.37858856,-0.20410341,1.0694253,0.25704598
-0.1,0.1,0.7,-0.5235987755982988,0.5235987755982988,0,-0.15409103,1.6921977,0.7090357,-0.3306028,0.11562257,1.5263399,1.7883697,-0.8820512,1.5085804,-0.16081887,0.39075208,-0.20572433,1.0415828,0.44562152
-0.1,0.1,0.7,-0.5235987755982988,0.5235987755982988,0,-0.21443282,1.6765357,0.6993413,-0.33116767,0.12495798,1.556339,1.7858503,-0.9612494,1.544365,-0.19058724,0.38444927,-0.24934754,1.0693507,0.18736997
-0.1,0.1,0.7,-0.5235987755982988,0.5235987755982988,0,-0.24437988,1.735026,0.7684411,-0.27067745,0.13792937,1.4999715,1.7954851,-1.1515511,1.5163764,-0.1668268,0.38601258,-0.21675341,1.0631099,0.47043863
-0.1,0.1,0.7,-0.5235987755982988,0.5235987755982988,0,-0.16597235,1.7059505,0.6947131,-0.3853809,0.097608626,1.5033945,1.5712419,-0.91790104,1.52879,-0.14354923,0.3931668,-0.221118,1.0655593,0.31311923
-0.1,0.1,0.7,-0.5235987755982988,0.5235987755982988,0,-0.15793994,1.6853634,0.7134329,-0.3675892,0.14023215,1.5258278,1.7332035,-0.9518413,1.5127035,-0.17297228,0.4020315,-0.16600446,1.0560035,0.22751899
-0.1,0.1,0.7,-0.5235987755982988,0.5235987755982988,0,-0.16579063,1.6993467,0.7224554,-0.31185013,0.14669985,1.5013175,1.6713177,-1.000346,1.5163041,-0.12473184,0.3933991,-0.24649061,1.0721403,0.1690089
-0.1,0.1,0.7,-0.5235987755982988,0.5235987755982988,0,-0.12652078,1.6826841,0.8291919,-0.41896173,0.11837439,1.4963284,1.621656,-0.79341257,1.5297143,-0.17305115,0.3810484,-0.20016415,1.0601515,0.28333643
-0.1,0.1,0.7,-0.5235987755982988,0.5235987755982988,0,-0.19579937,1.6954516,0.7620457,-0.32349154,0.11035528,1.5290899,1.8149744,-0.9915053,1.5241425,-0.14034946,0.37259865,-0.19398318,1.0797122,0.2929279
-0.1,0.1,0.7,-0.5235987755982988,0.5235987755982988,0,-0.18857203,1.7327551,0.7856357,-0.34138456,0.1734111,1.5196518,1.7089686,-0.9696364,1.5002851,-0.13355763,0.3805069,-0.22284645,1.0642422,0.18909627
-0.1,0.1,0.7,-0.5235987755982988,0.5235987755982988,0,-0.21835496,1.7012208,0.8385426,-0.40314987,0.21309032,1.5637306,1.5601754,-0.93447196,1.534329,-0.14942397,0.39341706,-0.26130223,1.067564,0.3631042
-0.1,0.1,0.7,-0.5235987755982988,0.5235987755982988,0,-0.17500181,1.6731966,0.7399976,-0.30929312,0.1297023,1.5353128,1.7271194,-0.950226,1.5176848,-0.12228889,0.37035733,-0.25800818,1.0645903,0.29447982
-0.1,0.1,0.7,-0.5235987755982988,0.5235987755982988,0,-0.23549204,1.6887397,0.8454282,-0.3312402,0.1545597,1.4983853,1.5703022,-0.89963776,1.5222698,-0.15729882,0.39178362,-0.20525932,1.0879529,0.24872844
-0.1,0.1,0.7,-0.5235987755982988,0.5235987755982988,0,-0.18992953,1.715093,0.76561475,-0.37260073,0.14346509,1.5414809,1.6470028,-1.0616851,1.5066592,-0.16625603,0.3987877,-0.24424313,1.055637,0.18030064
-0.1,0.1,0.7,-0.5235987755982988,0.5235987755982988,0,-0.16667695,1.6991588,0.79081845,-0.35973388,0.12642081,1.4993355,1.559564,-0.8150784,1.5051744,-0.12399918,0.42143953,-0.16033536,1.0370557,0.37236467
-0.1,0.1,0.7,-0.5235987755982988,0.5235987755982988,0,-0.24187471,1.7033589,0.7044203,-0.32433903,0.1217844,1.5443213,1.6608996,-0.87377906,1.5170369,-0.15828268,0.39161152,-0.24173133,1.0471913,0.36808455
-0.1,0.1,0.7,-0.5235987755982988,0.5235987755982988,0,-0.16596174,1.7378469,0.81090295,-0.44270143,0.09750195,1.5350755,1.6398338,-1.029309,1.5013479,-0.18108733,0.38860792,-0.20754631,1.0646133,0.115583
-0.1,0.1,0.7,-0.5235987755982988,0.5235987755982988,0,-0.13808656,1.725493,0.8503033,-0.34064004,0.061551407,1.482636,1.7550951,-0.9074074,1.5235937,-0.12774102,0.3793515,-0.1635594,1.0482436,0.44699726
-0.1,0.1,0.7,-0.5235987755982988,0.5235987755982988,0,-0.19709821,1.7401452,0.865109,-0.33524,0.11385469,1.5247929,1.3597047,-1.0062392,1.5240414,-0.1548331,0.3891966,-0.18539366,1.0441071,0.28104857
-0.1,0.1,0.7,-0.5235987755982988,0.5235987755982988,0,-0.16448843,1.7290573,0.67904824,-0.34157348,0.16052458,1.5508701,1.7385049,-0.96983314,1.5125773,-0.18088487,0.37782466,-0.26388377,1.0384289,0.0755984
-0.1,0.1,0.7,-0.5235987755982988,0.5235987755982988,0,-0.16475894,1.7424433,0.7580684,-0.33640364,0.14266652,1.5087491,1.8652167,-0.959376,1.5028352,-0.12529041,0.375517,-0.17214592,1.0652606,0.39349762
-0.1,0.1,0.7,-0.5235987755982988,0.5235987755982988,0,-0.19343945,1.7000302,0.70000505,-0.3741567,0.07030498,1.5275742,1.7213879,-0.97257876,1.499042,-0.1627346,0.38258484,-0.1817404,1.0483586,0.29668757
-0.1,0.1,0.7,-0.5235987755982988,0.5235987755982988,0,-0.12356338,1.7292956,0.7871823,-0.3669824,0.08197785,1.4842591,1.8336697,-0.8988082,1.5253251,-0.15135135,0.38425118,-0.22908634,1.041494,0.15752421
-0.1,0.1,0.7,-0.5235987755982988,0.5235987755982988,0,-0.17313968,1.693417,0.7564915,-0.35746685,0.13656257,1.4968218,1.7354883,-0.9387745,1.5448247,-0.13279963,0.39428067,-0.28502846,1.0484505,0.3234656
-0.1,0.1,0.7,-0.5235987755982988,0.5235987755982988,0,-0.19634145,1.6757977,0.743263,-0.3113767,0.21038248,1.54419,1.6300892,-0.9706462,1.5102466,-0.14685422,0.37932685,-0.20894049,1.0632678,0.15876327
-0.1,0.1,0.7,-0.5235987755982988,0.5235987755982988,0,-0.108346045,1.6655877,0.7846905,-0.33015618,0.10442425,1.501576,1.6936034,-0.91102713,1.5278832,-0.17033006,0.39971694,-0.20517902,1.0335462,0.16705571
-0.1,0.1,0.7,-0.5235987755982988,0.5235987755982988,0,-0.14702725,1.7201567,0.69985974,-0.33234167,0.025387987,1.5283515,1.764101,-0.9618517,1.514827,-0.17841955,0.382816,-0.19797242,1.0585573,0.33419457
-0.1,0.1,0.7,-0.5235987755982988,0.5235987755982988,0,-0.16248363,1.6122314,0.7939434,-0.23356417,0.060420882,1.4653982,1.7613732,-0.9809637,1.5260118,-0.1760441,0.37994578,-0.19345535,1.044376,0.12202003
-0.1,0.1,0.7,-0.5235987755982988,0.5235987755982988,0,-0.13129462,1.7116809,0.75180614,-0.39021027,0.17339066,1.5504078,1.6910205,-1.049255,1.5036148,-0.11847885,0.3833689,-0.26423758,1.0857893,0.34815624
-0.1,0.1,0.7,-0.5235987755982988,0.5235987755982988,0,-0.14758085,1.6958542,0.8762736,-0.32525727,0.08444369,1.541797,1.4728469,-0.9531085,1.5361072,-0.15411821,0.37858853,-0.17277716,1.0491661,0.13930579
-0.1,0.1,0.7,-0.5235987755982988,0.5235987755982988,0,-0.15191776,1.7327888,0.8243673,-0.30974206,0.08711762,1.4438139,1.6858506,-0.9950785,1.5077403,-0.15061648,0.3882806,-0.19752,1.0672362,0.19697964
-0.1,0.1,0.7,-0.5235987755982988,0.5235987755982988,0,-0.18745954,1.68826,0.78513086,-0.34209654,0.071328744,1.5344316,1.6410613,-0.9848324,1.5375261,-0.16649166,0.3890094,-0.22055086,1.0685532,0.24217328
-0.1,0.1,0.7,-0.5235987755982988,0.5235987755982988,0,-0.16616654,1.6687615,0.7377966,-0.36011162,0.09616104,1.5107812,1.6697576,-0.9934748,1.5103804,-0.15351991,0.40832648,-0.28126332,1.0589722,0.2485448
-0.1,0.1,0.7,-0.5235987755982988,0.5235987755982988,0,-0.17797792,1.6822942,0.7243488,-0.2985306,0.1745856,1.4666932,1.8152045,-0.933807,1.5213829,-0.16394942,0.37259924,-0.21948032,1.0749804,0.20557962
-0.1,0.1,0.7,-0.5235987755982988,0.5235987755982988,0,-0.2607417,1.7495441,0.81692797,-0.33491525,0.18634933,1.5250274,1.6100752,-1.0036594,1.4983748,-0.17404082,0.3903541,-0.18418105,1.0880684,0.19594632
-0.1,0.1,0.7,-0.5235987755982988,0.5235987755982988,0,-0.16025874,1.7102243,0.82089984,-0.35063207,0.03898039,1.4890553,1.6856532,-0.9252434,1.5413476,-0.18908547,0.38167766,-0.13820693,1.0613272,0.035989333
-0.1,0.1,0.7,-0.5235987755982988,0.5235987755982988,0,-0.1883198,1.6773996,0.83001655,-0.34586108,0.07077716,1.5160053,1.6409438,-0.93145025,1.5224774,-0.15069683,0.39130673,-0.21127142,1.0762326,-0.034812782
-0.1,0.1,0.7,-0.5235987755982988,0.5235987755982988,0,-0.19474792,1.6854268,0.771414,-0.33415836,0.08348017,1.5126421,1.79987,-0.94563746,1.5115386,-0.19402012,0.3785631,-0.20667706,1.0467801,0.27369484
-0.1,0.1,0.7,-0.5235987755982988,0.5235987755982988,0,-0.16127872,1.7131256,0.7361031,-0.36613107,0.10194292,1.4684725,1.6674051,-0.9470168,1.5144092,-0.12717903,0.3859605,-0.26095134,1.0288266,0.35643563
-0.1,0.1,0.7,-0.5235987755982988,0.5235987755982988,0,-0.13693774,1.7202424,0.7699572,-0.3395684,0.071436614,1.5145384,1.7559557,-0.99687976,1.5115108,-0.15766619,0.38771766,-0.26400766,1.060029,0.047450602
-0.1,0.1,0.7,-0.5235987755982988,0.5235987755982988,0,-0.17916904,1.7187006,0.71292716,-0.34324208,0.107370794,1.5202935,1.679561,-0.9813288,1.5424668,-0.17128825,0.39895225,-0.13729165,1.0622147,0.33739814
-0.1,0.1,0.7,-0.5235987755982988,0.5235987755982988,0,-0.15599905,1.6653306,0.7870715,-0.272896,0.0627147,1.4255294,1.5996954,-1.0311855,1.5400558,-0.17326362,0.372464,-0.2090511,1.0613916,0.1311802
-0.1,0.1,0.7,-0.5235987755982988,0.5235987755982988,0,-0.15666953,1.732363,0.7478498,-0.38026682,0.08813484,1.540183,1.7483214,-0.7861739,1.5380727,-0.14384846,0.39344385,-0.26909053,1.0305772,0.0093381675
-0.1,0.1,0.7,-0.5235987755982988,0.5235987755982988,0,-0.18882996,1.7285415,0.819264,-0.34669447,0.14028852,1.5444703,1.512042,-0.9565158,1.5310725,-0.14332719,0.38669124,-0.24741153,1.0627509,0.26843807
-0.1,0.1,0.7,-0.5235987755982988,0.5235987755982988,0,-0.17212638,1.6909868,0.75561684,-0.36475047,0.0781127,1.4660139,1.7199805,-1.0506942,1.5430623,-0.15403344,0.39128578,-0.24895248,1.0693055,0.16746402
-0.1,0.1,0.7,-0.5235987755982988,0.5235987755982988,0,-0.15932828,1.7097423,0.73674953,-0.32833022,0.11360895,1.4889362,1.5842083,-0.9938758,1.5184743,-0.12164867,0.38207468,-0.22324407,1.0445045,0.15389399
-0.1,0.1,0.7,-0.5235987755982988,0.5235987755982988,0,-0.12029671,1.733232,0.8771538,-0.31447533,0.15543734,1.5119407,1.6586779,-0.9090464,1.5283599,-0.16026028,0.36674374,-0.22759593,1.0683147,0.30632928
-0.1,0.1,0.7,-0.5235987755982988,0.5235987755982988,0,-0.1278363,1.7016194,0.7994872,-0.33541375,0.14304155,1.5483818,1.8145778,-0.8737243,1.5220865,-0.2090014,0.38539687,-0.18308197,1.057524,0.1922003
-0.1,0.1,0.7,-0.5235987755982988,0.5235987755982988,0,-0.18168026,1.754431,0.75494784,-0.37251458,0.12173112,1.5491346,1.7583132,-0.9748331,1.5314245,-0.13781829,0.3951617,-0.21438232,1.0723944,0.21020153
-0.1,0.1,0.7,-0.5235987755982988,0.5235987755982988,0,-0.16551259,1.696561,0.7928454,-0.3096009,0.10098979,1.5516683,1.6180432,-1.0681324,1.5177845,-0.21133672,0.3763372,-0.1932773,1.0517322,0.35004604
-0.1,0.1,0.7,-0.5235987755982988,0.5235987755982988,0,-0.21308729,1.7334219,0.7630066,-0.33405724,0.12970842,1.5054741,1.6834449,-1.0022599,1.5309099,-0.17152077,0.36599022,-0.26701862,1.0732831,0.3071736
-0.1,0.1,0.7,-0.5235987755982988,0.5235987755982988,0,-0.16609041,1.6790099,0.8311829,-0.3244178,0.08865998,1.5315983,1.6118274,-0.8938319,1.5320268,-0.1899073,0.37939534,-0.21582459,1.0560262,0.2307814
-0.1,0.1,0.7,-0.5235987755982988,0.5235987755982988,0,-0.11643024,1.7068212,0.8444728,-0.27892718,0.11679351,1.5305787,1.642995,-0.9802374,1.509999,-0.1688848,0.3901131,-0.23106375,1.0330222,0.29893765
-0.1,0.1,0.7,-0.5235987755982988,0.5235987755982988,0,-0.19526587,1.6779051,0.74482685,-0.3231625,0.06099714,1.5209646,1.5980396,-0.94830847,1.5306406,-0.16145504,0.36611298,-0.2570301,1.0579567,0.41020992
-0.1,0.1,0.7,-0.5235987755982988,0.5235987755982988,0,-0.12568238,1.7227576,0.8495561,-0.3565293,0.07904365,1.4969627,1.6680552,-0.8300336,1.5526812,-0.15902533,0.3801396,-0.2637581,1.055309,0.16869572
-0.1,0.1,0.7,-0.5235987755982988,0.5235987755982988,0,-0.18941015,1.7559832,0.6961524,-0.35437,0.07361289,1.5126965,1.8278922,-0.8482938,1.5218267,-0.20435582,0.38743594,-0.21877229,1.0581784,0.124693155
-0.1,0.1,0.7,-0.5235987755982988,0.5235987755982988,0,-0.11571509,1.6745826,0.76360124,-0.33811563,0.10930878,1.5208311,1.5700496,-0.9481435,1.5464623,-0.15754497,0.39517137,-0.25917637,1.0710402,0.2711622
-0.1,0.1,0.7,-0.5235987755982988,0.5235987755982988,0,-0.18043746,1.7031293,0.72237605,-0.3695778,0.14846502,1.5543827,1.6424013,-0.98853266,1.5450071,-0.17407738,0.39585626,-0.22486925,1.0589492,0.40681744
-0.1,0.1,0.7,-0.5235987755982988,0.5235987755982988,0,-0.16421536,1.7182965,0.7547701,-0.342992,0.08787323,1.5112191,1.6685207,-0.9313369,1.524022,-0.14710538,0.3874806,-0.26194397,1.0584464,0.32534528
-0.1,0.1,0.7,-0.5235987755982988,0.5235987755982988,0,-0.16134869,1.7595867,0.76946896,-0.3646795,0.112094454,1.5081346,1.7622375,-0.8730765,1.5206132,-0.118848965,0.38124228,-0.19830377,1.0349791,0.026351359
-0.1,0.1,0.7,-0.5235987755982988,0.5235987755982988,0,-0.13951911,1.749771,0.7000597,-0.3701693,0.23344006,1.532057,1.7774491,-0.92034435,1.5221848,-0.13411498,0.39397365,-0.24952206,1.07173,0.099331215
-0.1,0.1,0.7,-0.5235987755982988,0.5235987755982988,0,-0.17617373,1.7277836,0.72328264,-0.32402027,0.1527027,1.511727,1.6841309,-0.8883462,1.5052363,-0.16050702,0.36244428,-0.26365063,1.0501735,0.33826983
-0.1,0.1,0.7,-0.5235987755982988,0.5235987755982988,0,-0.14157966,1.7458389,0.80529875,-0.37513834,0.16657944,1.5366867,1.6424791,-0.8960136,1.4930264,-0.14866775,0.37075862,-0.19383854,1.039105,0.19820622
-0.1,0.1,0.7,-0.5235987755982988,0.5235987755982988,0,-0.19487227,1.7241297,0.74818873,-0.34122613,0.09826364,1.5410808,1.7188115,-0.88604677,1.519573,-0.14776373,0.38517874,-0.26435846,1.0467733,0.33950064
-0.1,0.1,0.7,-0.5235987755982988,0.5235987755982988,0,-0.15172021,1.7246797,0.8231696,-0.32738718,0.1730952,1.4903694,1.7500527,-0.90679705,1.5279152,-0.13762228,0.36394498,-0.2164261,1.0702132,0.21595037
-0.1,0.1,0.7,-0.5235987755982988,0.5235987755982988,0,-0.18994379,1.7343316,0.74331576,-0.29696044,0.18467802,1.5181423,1.6042519,-0.9517405,1.5517023,-0.16917636,0.38082469,-0.20863064,1.0625257,0.19716895
-0.1,0.1,0.7,-0.5235987755982988,0.5235987755982988,0,-0.17016707,1.7325115,0.8860382,-0.3212995,0.05638673,1.4552428,1.713931,-1.0121201,1.5335784,-0.18242265,0.3671927,-0.23184428,1.0704259,0.25702673
-0.1,0.1,0.7,-0.5235987755982988,0.5235987755982988,0,-0.16149016,1.7015287,0.8541816,-0.30856374,0.075053915,1.5018898,1.7796847,-0.85065514,1.5214013,-0.21315965,0.3777047,-0.18744364,1.0740426,0.38156667
-0.1,0.1,0.7,-0.5235987755982988,0.5235987755982988,0,-0.16466212,1.7770609,0.73417544,-0.36598516,0.1582179,1.5033989,1.5805027,-1.0064296,1.5092599,-0.19929622,0.38218498,-0.22124061,1.046015,0.44513342
-0.1,0.1,0.7,-0.5235987755982988,0.5235987755982988,0,-0.1933023,1.7324864,0.78652513,-0.33479425,0.080871835,1.4987593,1.6437303,-1.0329612,1.529196,-0.14498283,0.37512323,-0.19621816,1.0603601,0.37444693
-0.1,0.1,0.7,-0.5235987755982988,0.5235987755982988,0,-0.15431276,1.7163492,0.6884059,-0.331797,0.042843334,1.5007745,1.5653137,-0.83653474,1.519131,-0.19226295,0.38648453,-0.21489254,1.0653772,0.25625962
-0.1,0.1,0.7,-0.5235987755982988,0.5235987755982988,0,-0.12492312,1.7144268,0.73814315,-0.41940826,0.14503323,1.5209972,1.5244848,-0.92152035,1.5033096,-0.20527364,0.3714272,-0.27447957,1.0512061,0.36196774
-0.1,0.1,0.7,-0.5235987755982988,0.5235987755982988,0,-0.10858953,1.6594151,0.77014077,-0.3089539,0.032372035,1.5304977,1.7065257,-0.9237546,1.5011301,-0.17780292,0.36986417,-0.17899773,1.0732406,0.21885043
-0.1,0.1,0.7,-0.5235987755982988,0.5235987755982988,0,-0.17710961,1.7178742,0.77204394,-0.34593862,0.10727352,1.5468512,1.8306339,-0.9883341,1.497365,-0.1593983,0.39206532,-0.25997823,1.0687369,0.23568287
-0.1,0.1,0.7,-0.5235987755982988,0.5235987755982988,0,-0.16578954,1.727974,0.828323,-0.3746948,0.07462058,1.5487417,1.705973,-0.9906234,1.5290434,-0.15654068,0.38525993,-0.18965922,1.0631325,0.20540808
-0.1,0.1,0.7,-0.5235987755982988,0.5235987755982988,0,-0.17578828,1.68592,0.8349913,-0.28204778,0.17524794,1.5324664,1.7665147,-0.83405066,1.520902,-0.14315729,0.37610504,-0.26270473,1.0619062,0.2582198
-0.1,0.1,0.7,-0.5235987755982988,0.5235987755982988,0,-0.13914366,1.6618634,0.7911674,-0.29042578,0.16609673,1.5238355,1.7605672,-0.90577215,1.5218031,-0.16749799,0.3838225,-0.2492995,1.0518739,0.040241525
-0.1,0.1,0.7,-0.5235987755982988,0.5235987755982988,0,-0.17635563,1.6944126,0.85161763,-0.3912327,0.10400487,1.442279,1.742237,-0.9841289,1.492173,-0.17154118,0.3823284,-0.21542715,1.0674841,0.03928105
-0.1,0.1,0.7,-0.5235987755982988,0.5235987755982988,0,-0.17425597,1.6891614,0.6941342,-0.34646076,0.13586244,1.5494993,1.8488015,-0.94073564,1.5335032,-0.18023665,0.37671363,-0.23826449,1.047151,0.14319941
-0.1,0.1,0.7,-0.5235987755982988,0.5235987755982988,0,-0.17451376,1.735861,0.7451844,-0.39071262,0.022828236,1.4977002,1.8836015,-0.89768744,1.5390073,-0.14319652,0.36743307,-0.29148126,1.0316721,0.118029945
-0.1,0.1,0.7,-0.5235987755982988,0.5235987755982988,0,-0.15924342,1.6835839,0.75438535,-0.3733879,0.015344707,1.5125008,1.738687,-0.8977519,1.5093735,-0.14437117,0.37691912,-0.21997117,1.0470307,0.17393693
-0.1,0.1,0.7,-0.5235987755982988,0.5235987755982988,0,-0.18162096,1.7305431,0.7460704,-0.39190775,0.137371,1.5015975,1.7074891,-0.8597436,1.5180951,-0.15254258,0.376405,-0.23405254,1.040925,0.32922977
-0.1,0.1,0.7,-0.5235987755982988,0.5235987755982988,0,-0.20253219,1.69562,0.7285494,-0.2923155,0.14506568,1.5168087,1.6203219,-0.94634944,1.508913,-0.16647388,0.38545078,-0.19771037,1.0399653,0.34481135
-0.1,0.1,0.7,-0.5235987755982988,0.5235987755982988,0,-0.18586905,1.7072852,0.81461394,-0.34286126,0.160096,1.5237179,1.9181144,-0.9421188,1.4944882,-0.1267253,0.37366137,-0.27411404,1.0514432,0.25873888
-0.1,0.1,0.7,-0.5235987755982988,0.5235987755982988,0,-0.15724245,1.67361,0.73566335,-0.3402513,0.17568055,1.4927213,1.5021383,-1.0127606,1.5476884,-0.16356996,0.38764396,-0.18446258,1.0468844,0.45574155
-0.1,0.1,0.7,-0.5235987755982988,0.5235987755982988,0,-0.17843837,1.701348,0.78099537,-0.3511115,0.16033864,1.4819231,1.5746293,-0.88726187,1.5269572,-0.14472866,0.37606093,-0.23268041,1.0541621,0.23826478
-0.1,0.1,0.7,-0.5235987755982988,0.5235987755982988,0,-0.13057964,1.715537,0.80131614,-0.39217183,0.1797707,1.5389806,1.4862635,-0.808793,1.5255167,-0.17213625,0.37619224,-0.19409585,1.0385787,0.24191049
-0.1,0.1,0.7,-0.5235987755982988,0.5235987755982988,0,-0.20465764,1.7102593,0.7710948,-0.30766684,0.15122566,1.524997,1.6292578,-0.9293599,1.5131289,-0.17146178,0.3940585,-0.25972193,1.0608432,0.21031892
-0.1,0.1,0.7,-0.5235987755982988,0.5235987755982988,0,-0.20094557,1.7425226,0.82980335,-0.30373442,0.1695293,1.5064436,1.6611868,-0.8275372,1.5478163,-0.1577831,0.38005954,-0.29828152,1.0659481,0.21278343
-0.1,0.1,0.7,-0.5235987755982988,0.5235987755982988,0,-0.1721962,1.7041283,0.80945873,-0.32861698,-0.003546261,1.5289001,1.687194,-0.9342652,1.5357475,-0.14022632,0.36743551,-0.18730305,1.055922,0.29054716
-0.1,0.1,0.7,-0.5235987755982988,0.5235987755982988,0,-0.20369653,1.7337395,0.8025412,-0.3497992,0.099338934,1.5185287,1.450344,-0.95093805,1.5196252,-0.12105475,0.37483552,-0.2917881,1.0540552,0.41352075
-0.1,0.1,0.7,-0.5235987755982988,0.5235987755982988,0,-0.23421854,1.7158107,0.87215,-0.33630306,0.118139714,1.5212985,1.8457224,-0.8726759,1.5332987,-0.1417366,0.3645872,-0.26411828,1.0806179,0.35636115
-0.1,0.1,0.7,-0.5235987755982988,0.5235987755982988,0,-0.19162813,1.7149651,0.75666827,-0.35161158,0.09911875,1.4707388,1.6412941,-0.96857435,1.5163268,-0.16207184,0.38868958,-0.25387457,1.0734193,0.17374149
-0.1,0.1,0.7,-0.5235987755982988,0.5235987755982988,0,-0.17110062,1.7081277,0.76041,-0.3391168,0.15239875,1.5273683,1.6249187,-0.8816394,1.5115658,-0.15618286,0.38319048,-0.17198677,1.0539465,0.1751195
-0.1,0.1,0.7,-0.5235987755982988,0.5235987755982988,0,-0.2035079,1.753399,0.8153653,-0.2989576,0.19142435,1.5232464,1.6838589,-0.9548669,1.5046625,-0.121241845,0.3730852,-0.30338085,1.0427848,0.13370758
-0.1,0.1,0.7,-0.5235987755982988,0.5235987755982988,0,-0.199866,1.6945064,0.7175288,-0.34113425,0.10453297,1.4975281,1.6376739,-0.88478076,1.5155675,-0.17322569,0.37158427,-0.24654076,1.0441774,0.17697029
-0.1,0.1,0.7,-0.5235987755982988,0.5235987755982988,0,-0.19327933,1.6915877,0.7497752,-0.31540984,0.15236405,1.5096676,1.8218136,-0.9083144,1.5081499,-0.16624907,0.37816116,-0.30152613,1.0613573,0.22603986
-0.1,0.1,0.7,-0.5235987755982988,0.5235987755982988,0,-0.16847754,1.7327735,0.7036856,-0.34188375,0.15388139,1.5244517,1.637566,-0.92713016,1.5075386,-0.15862778,0.37896505,-0.21975805,1.0466433,0.09428662
-0.1,0.1,0.7,-0.5235987755982988,0.5235987755982988,0,-0.1947743,1.7248045,0.73357666,-0.27864528,0.19126,1.4781485,1.7249265,-0.9524754,1.5269823,-0.1585015,0.3932907,-0.19162582,1.0522815,0.055812623
-0.1,0.1,0.7,-0.5235987755982988,0.5235987755982988,0,-0.17072228,1.6512159,0.7599809,-0.2897884,0.09791601,1.4851562,1.8981167,-0.96101487,1.5264789,-0.15651101,0.36739835,-0.2134904,1.0677749,0.4034692
-0.1,0.1,0.7,-0.5235987755982988,0.5235987755982988,0,-0.23635325,1.734473,0.8022474,-0.32593107,0.11993591,1.5071788,1.6815635,-0.9339084,1.5129663,-0.18004714,0.38175076,-0.198069,1.027754,0.05641298
-0.1,0.1,0.7,-0.5235987755982988,0.5235987755982988,0,-0.1434777,1.7448018,0.7381564,-0.40061605,0.103275895,1.509988,1.5910281,-0.87345177,1.5180641,-0.1484384,0.38375562,-0.22345135,1.0604169,0.2561235
-0.1,0.1,0.7,-0.5235987755982988,0.5235987755982988,0,-0.26965946,1.7474214,0.75429463,-0.3264423,0.08179412,1.5166188,1.7428658,-0.9540653,1.524296,-0.1733682,0.38364768,-0.26562676,1.0731767,0.12941407
-0.1,0.1,0.7,-0.5235987755982988,0.5235987755982988,0,-0.16564153,1.7364496,0.7615947,-0.35184026,0.13053118,1.500596,1.7316633,-0.91676325,1.5207534,-0.1401678,0.36579275,-0.22297966,1.0639306,0.26898873
-0.1,0.1,0.7,-0.5235987755982988,0.5235987755982988,0,-0.17457195,1.7330493,0.82025635,-0.36384332,-0.049152225,1.5167493,1.692239,-0.8489714,1.5294448,-0.17672949,0.40740502,-0.25776988,1.0675126,0.20748141
-0.1,0.1,0.7,-0.5235987755982988,0.5235987755982988,0,-0.14996499,1.7086989,0.7626572,-0.32905075,0.13647066,1.5611864,1.7202551,-1.0864856,1.5187727,-0.15143442,0.3941599,-0.19863963,1.0571516,0.38800767
-0.1,0.1,0.7,-0.5235987755982988,0.5235987755982988,0,-0.1902949,1.7222686,0.71509695,-0.30496088,0.059069466,1.5094467,1.7721095,-0.9499597,1.5265507,-0.18039301,0.40498897,-0.28156286,1.0555503,0.35689542
-0.1,0.1,0.7,-0.5235987755982988,0.5235987755982988,0,-0.19766308,1.7154899,0.76052797,-0.2940372,0.05531502,1.5398359,1.8379109,-0.89326173,1.523796,-0.10457897,0.40896022,-0.2599018,1.0593249,0.32543135
-0.1,0.1,0.7,-0.5235987755982988,0.5235987755982988,0,-0.18071714,1.7129762,0.7360408,-0.30558166,0.08267127,1.5050029,1.6830659,-0.8272226,1.5070866,-0.177673,0.38979506,-0.21422958,1.0723931,0.069311365
-0.1,0.1,0.7,-0.5235987755982988,0.5235987755982988,0,-0.1759486,1.7217039,0.7393366,-0.27620956,0.14562674,1.5107821,1.7614443,-0.8616716,1.5601712,-0.1412427,0.39954713,-0.21260296,1.0454997,0.09121973
-0.1,0.1,0.7,-0.5235987755982988,0.5235987755982988,0,-0.16128223,1.7477144,0.76176167,-0.31859612,0.1189942,1.516586,1.5839028,-0.9880173,1.5219357,-0.13976459,0.40544054,-0.28775218,1.0602317,0.24973854
-0.1,0.1,0.7,-0.5235987755982988,0.5235987755982988,0,-0.12919563,1.731619,0.76045763,-0.2768152,0.14466837,1.5252377,1.615599,-0.93893,1.5015439,-0.15477373,0.40091997,-0.2768296,1.0251905,0.39507923
-0.1,0.1,0.7,-0.5235987755982988,0.5235987755982988,0,-0.198865,1.7463615,0.7886945,-0.3607848,0.13787566,1.5440499,1.6131319,-0.89712286,1.5153705,-0.14256176,0.38891387,-0.30973652,1.0582556,0.29648545
-0.1,0.1,0.7,-0.5235987755982988,0.5235987755982988,0,-0.205667,1.7405988,0.70649976,-0.35058957,0.087500274,1.5170774,1.7295265,-0.9431231,1.5176129,-0.12641668,0.37277547,-0.21910872,1.0596566,0.14400566
-0.1,0.1,0.7,-0.5235987755982988,0.5235987755982988,0,-0.14805944,1.7296146,0.69544274,-0.2743948,0.11583831,1.5444647,1.6897682,-0.9168566,1.5230442,-0.19263983,0.39404672,-0.27432677,1.0654677,0.1436095
-0.1,0.1,0.7,-0.5235987755982988,0.5235987755982988,0,-0.14976957,1.7275537,0.76628864,-0.3440861,0.09043161,1.4868978,1.5255506,-0.9409136,1.5215254,-0.20749764,0.3801796,-0.2422022,1.0620416,0.20202331
-0.1,0.1,0.7,-0.5235987755982988,0.5235987755982988,0,-0.16775271,1.7328588,0.72659403,-0.31487626,0.10975702,1.5430399,1.7103975,-0.9421999,1.5373385,-0.15970528,0.42358613,-0.18221325,1.0661367,0.28361312
-0.1,0.1,0.7,-0.5235987755982988,0.5235987755982988,0,-0.16636716,1.7225392,0.7272258,-0.30264777,0.03753301,1.5209377,1.6227688,-0.88871425,1.5427787,-0.13665192,0.4007784,-0.2887955,1.057143,0.45878065
-0.1,0.1,0.7,-0.5235987755982988,0.5235987755982988,0,-0.16475989,1.69794,0.813958,-0.32712296,0.043109722,1.5118734,1.6695387,-0.9120769,1.5076158,-0.128045,0.39075387,-0.26611108,1.060114,0.14669262
-0.1,0.1,0.7,-0.5235987755982988,0.5235987755982988,0,-0.16312969,1.7030404,0.67099863,-0.32251424,0.17858367,1.544724,1.6232132,-0.8519821,1.5444236,-0.17138048,0.38823268,-0.22841801,1.0439512,0.15289958
-0.1,0.1,0.7,-0.5235987755982988,0.5235987755982988,0,-0.12580244,1.6870455,0.7925231,-0.3265504,0.12567462,1.5474349,1.5390377,-0.9858999,1.5538194,-0.1698932,0.37198117,-0.2406282,1.0594501,0.21062246
-0.1,0.1,0.7,-0.5235987755982988,0.5235987755982988,0,-0.17184208,1.7357812,0.7446647,-0.31020266,0.11237557,1.5141815,1.5888662,-0.9252382,1.5257016,-0.1631911,0.40734196,-0.15390073,1.0538927,0.44687587
-0.1,0.1,0.7,-0.5235987755982988,0.5235987755982988,0,-0.14702566,1.7314508,0.76905066,-0.29754534,0.11187396,1.5249509,1.6258379,-0.9670156,1.5327,-0.18253708,0.37787524,-0.21554188,1.0635147,0.38389385
-0.1,0.1,0.7,-0.5235987755982988,0.5235987755982988,0,-0.15788041,1.7346735,0.87590116,-0.2736944,0.15116227,1.5167586,1.6335523,-0.86097324,1.5307637,-0.15910852,0.3825034,-0.24700692,1.0545359,0.22781768
-0.1,0.1,0.7,-0.5235987755982988,0.5235987755982988,0,-0.195015,1.7003628,0.7783153,-0.34293333,0.19941701,1.4897382,1.6286926,-0.9450449,1.5380245,-0.16471025,0.38452512,-0.2641085,1.0485728,0.33229303
-0.1,0.1,0.7,-0.5235987755982988,0.5235987755982988,0,-0.20919271,1.6708977,0.68496376,-0.31897846,0.09117619,1.4734489,1.5465041,-1.0213441,1.517959,-0.17516355,0.38344625,-0.20337756,1.0425619,0.22549042
-0.1,0.1,0.7,-0.5235987755982988,0.5235987755982988,0,-0.19921364,1.7099164,0.8427441,-0.3701396,0.14388476,1.4854901,1.6538045,-0.98201567,1.5269638,-0.120450914,0.3838246,-0.27252877,1.0632623,0.30051544
-0.1,0.1,0.7,-0.5235987755982988,0.5235987755982988,0,-0.17601852,1.6949863,0.77946,-0.31073934,0.14584076,1.4924887,1.4981676,-0.99643207,1.5426092,-0.18008396,0.39289412,-0.21488984,1.0761889,0.32723612
-0.1,0.1,0.7,-0.5235987755982988,0.5235987755982988,0,-0.2173663,1.6930281,0.74285275,-0.39605942,0.14495999,1.5683936,1.5521487,-1.0266125,1.5048532,-0.12298048,0.377746,-0.21943282,1.0545157,0.47627574
-0.1,0.1,0.7,-0.5235987755982988,0.5235987755982988,0,-0.16849768,1.7433486,0.75539243,-0.2750063,0.09399888,1.5389394,1.6373668,-0.9689911,1.5025902,-0.1569093,0.38142425,-0.21215053,1.0687265,0.22577544
-0.1,0.1,0.7,-0.5235987755982988,0.5235987755982988,0,-0.19080761,1.7202396,0.75714433,-0.28510553,0.078652106,1.5226766,1.7567575,-0.9499695,1.5231009,-0.17360786,0.35863745,-0.1755596,1.0662072,0.2507805
-0.1,0.1,0.7,-0.5235987755982988,0.5235987755982988,0,-0.24877256,1.6679262,0.7595882,-0.36178657,0.12821804,1.5376492,1.5202715,-1.002954,1.5102131,-0.16128638,0.3751845,-0.22301118,1.047374,0.35026205
-0.1,0.1,0.7,-0.5235987755982988,0.5235987755982988,0,-0.16854692,1.734859,0.772171,-0.33689335,0.090494,1.5380502,1.77466,-0.8567121,1.531545,-0.13710961,0.37480026,-0.18757455,1.074318,-0.0038576175
-0.1,0.1,0.7,-0.5235987755982988,0.5235987755982988,0,-0.13823442,1.689993,0.7200198,-0.37889624,0.13190944,1.5424011,1.5654569,-1.0513202,1.5015413,-0.19467245,0.3916577,-0.21125203,1.0571874,0.1885511
-0.1,0.1,0.7,-0.5235987755982988,0.5235987755982988,0,-0.19154711,1.7122729,0.80720043,-0.32131815,0.13247024,1.5055202,1.7290275,-0.93919164,1.5221912,-0.1628278,0.4039363,-0.26609507,1.0665038,0.21973051
-0.1,0.1,0.7,-0.5235987755982988,0.5235987755982988,0,-0.18928726,1.6816622,0.74704885,-0.30329958,0.081469834,1.5242908,1.5561236,-0.93865263,1.5376996,-0.13575001,0.37455243,-0.20764673,1.054264,0.23823765
-0.1,0.1,0.7,-0.5235987755982988,0.5235987755982988,0,-0.20518117,1.7047676,0.8176857,-0.32258528,0.16271071,1.5217398,1.647516,-0.9729146,1.5211378,-0.16351056,0.38973764,-0.25527892,1.074023,0.37909776
-0.1,0.1,0.7,-0.5235987755982988,0.5235987755982988,0,-0.20585957,1.7293637,0.81296724,-0.33961472,0.08626162,1.5141348,1.7151711,-1.0297723,1.5106014,-0.19280279,0.38820767,-0.21275322,1.0449492,0.19586416
-0.1,0.1,0.7,-0.5235987755982988,0.5235987755982988,0,-0.13103738,1.7264434,0.77238965,-0.30909172,0.10583327,1.5242311,1.6454961,-0.9727226,1.5308585,-0.1548494,0.3798802,-0.2122324,1.0426828,0.2641962
-0.1,0.1,0.7,-0.5235987755982988,0.5235987755982988,0,-0.20138906,1.7207527,0.8583707,-0.34488127,0.09762934,1.4904879,1.5028312,-0.93617195,1.5316993,-0.23042685,0.3914975,-0.17000909,1.063556,0.20312914
-0.1,0.1,0.7,-0.5235987755982988,0.5235987755982988,0,-0.19587608,1.6892413,0.7826105,-0.34285358,0.15674883,1.5235828,1.7568499,-1.0082233,1.4946027,-0.17790663,0.40425232,-0.20547631,1.0723051,0.23399764
-0.1,0.1,0.7,-0.5235987755982988,0.5235987755982988,0,-0.16818409,1.7085733,0.8069265,-0.37881422,0.043853685,1.491444,1.7814845,-0.9585072,1.5309044,-0.17813517,0.37741104,-0.24919902,1.0525421,0.2515696
-0.1,0.1,0.7,-0.5235987755982988,0.5235987755982988,0,-0.23126619,1.7307477,0.78067833,-0.32170254,0.14873943,1.5403169,1.8249152,-0.99658,1.553291,-0.18425994,0.37416703,-0.20853238,1.0671492,0.18146758
-0.1,0.1,0.7,-0.5235987755982988,0.5235987755982988,0,-0.16923983,1.7481321,0.81634015,-0.36691013,0.17289865,1.5509372,1.6198678,-0.99039316,1.5343432,-0.1333694,0.38342202,-0.24317482,1.0680627,0.25437576
-0.1,0.1,0.7,-0.5235987755982988,0.5235987755982988,0,-0.20792729,1.7140013,0.7671111,-0.3200513,0.20130625,1.5282023,1.7799584,-0.87478125,1.5466025,-0.1704311,0.39161474,-0.19752361,1.0512353,0.3733789
-0.1,0.1,0.7,-0.5235987755982988,0.5235987755982988,0,-0.18564329,1.7212546,0.75046104,-0.357778,0.117652915,1.5216265,1.8703544,-0.8742503,1.4979639,-0.17606302,0.37888953,-0.22942743,1.0682504,0.34009856
-0.1,0.1,0.7,-0.5235987755982988,0.5235987755982988,0,-0.23393428,1.7098593,0.721594,-0.32899475,0.14855658,1.4846778,1.6196445,-0.9733519,1.5480369,-0.18333282,0.37748733,-0.23019432,1.0450581,0.3776723
-0.1,0.1,0.7,-0.5235987755982988,0.5235987755982988,0,-0.20425703,1.6894484,0.81442577,-0.37532997,0.15531987,1.5160403,1.6130787,-0.9529194,1.5218956,-0.16508104,0.38862988,-0.2094705,1.053324,0.08736239
-0.1,0.1,0.7,-0.5235987755982988,0.5235987755982988,0,-0.20853432,1.7397084,0.7469696,-0.35464746,0.14629114,1.4801891,1.5614818,-1.0052544,1.5316675,-0.119692996,0.37693915,-0.31857193,1.0643957,0.2774185
-0.1,0.1,0.7,-0.5235987755982988,0.5235987755982988,0,-0.16221052,1.7320436,0.73050386,-0.40797672,0.05938419,1.504115,1.6620528,-0.96870387,1.5342125,-0.15151797,0.3972073,-0.19283143,1.0549631,0.27998996
-0.1,0.1,0.7,-0.5235987755982988,0.5235987755982988,0,-0.19695985,1.7155889,0.7467505,-0.31839153,0.11922816,1.4697168,1.7060814,-0.9861542,1.4968649,-0.15590475,0.38525477,-0.21216352,1.0392629,-0.0051939683
-0.1,0.1,0.7,-0.5235987755982988,0.5235987755982988,0,-0.16948263,1.7009945,0.7380334,-0.32945484,0.18720421,1.481224,1.623132,-0.978559,1.5362006,-0.14183633,0.3724027,-0.26054004,1.0634103,0.2767541
-0.1,0.1,0.7,-0.5235987755982988,0.5235987755982988,0,-0.2230411,1.7007889,0.7208699,-0.29379734,0.12264315,1.4856516,1.6845744,-0.92141974,1.545226,-0.20505248,0.37010682,-0.2295447,1.0737009,0.23487756
-0.1,0.1,0.7,-0.5235987755982988,0.5235987755982988,0,-0.18954359,1.7125338,0.7536856,-0.3338938,0.10324897,1.5487539,1.7124925,-1.005742,1.5222558,-0.17262852,0.38726377,-0.20036677,1.0483595,0.25047526
-0.1,0.1,0.7,-0.5235987755982988,0.5235987755982988,0,-0.18067251,1.695566,0.78615767,-0.34933546,0.07606913,1.5422673,1.7605728,-0.9765238,1.5587642,-0.15943348,0.37176377,-0.24148569,1.0841663,0.35454637
-0.1,0.1,0.7,-0.5235987755982988,0.5235987755982988,0,-0.18840484,1.7162535,0.7579037,-0.34101847,0.078063436,1.5105249,1.7301929,-0.8958014,1.5143199,-0.16033125,0.37843117,-0.20189883,1.0743165,0.47960818
-0.1,0.1,0.7,-0.5235987755982988,0.5235987755982988,0,-0.20980586,1.7273148,0.66992575,-0.33865824,0.18970753,1.4917619,1.6658583,-0.9762333,1.5328119,-0.17826612,0.39433986,-0.2469005,1.0603794,0.114205234
-0.1,0.1,0.7,-0.5235987755982988,0.5235987755982988,0,-0.19359805,1.702738,0.76934296,-0.3339484,0.101948574,1.5267751,1.7996821,-1.0377162,1.5412723,-0.14778087,0.38613614,-0.2585702,1.0564723,0.18337193
-0.1,0.1,0.7,-0.5235987755982988,0.5235987755982988,0,-0.17439258,1.7010891,0.74223936,-0.3466238,0.16395052,1.5424656,1.7934462,-0.9700508,1.50889,-0.20035946,0.3776205,-0.22624438,1.0661988,0.227613
-0.1,0.1,0.7,-0.5235987755982988,0.5235987755982988,0,-0.18892248,1.7201918,0.79601777,-0.36654904,0.09946495,1.5271057,1.6698476,-0.93928987,1.5292294,-0.16950198,0.38670507,-0.25508508,1.0779496,0.18538737
-0.1,0.1,0.7,-0.5235987755982988,0.5235987755982988,0,-0.2471529,1.7481929,0.7549127,-0.3672098,0.1333284,1.5144517,1.7158343,-0.8702339,1.5194278,-0.17098276,0.3933776,-0.20979483,1.065868,0.12923852
-0.1,0.1,0.7,-0.5235987755982988,0.5235987755982988,0,-0.22823083,1.7328879,0.6926209,-0.33920914,0.041194618,1.5156035,1.6218886,-0.84677994,1.536865,-0.1823496,0.38407528,-0.22113825,1.0699624,0.17854142
-0.1,0.1,0.7,-0.5235987755982988,0.5235987755982988,0,-0.17711228,1.7243198,0.7069469,-0.35422826,0.0048132804,1.4827595,1.6894426,-0.9834772,1.553776,-0.17883381,0.38967678,-0.19549216,1.0740007,0.16757213
-0.1,0.1,0.7,-0.5235987755982988,0.5235987755982988,0,-0.20729838,1.7243791,0.6939193,-0.34900707,0.0915058,1.5268312,1.7358698,-0.9892224,1.5306605,-0.1787992,0.40275237,-0.15830195,1.0495151,0.3160607
-0.1,0.1,0.7,-0.5235987755982988,0.5235987755982988,0,-0.23882534,1.7234039,0.7387483,-0.36239082,0.11576699,1.5540907,1.6675395,-0.99350137,1.531388,-0.14084403,0.3711824,-0.30795246,1.0670171,0.14743353
-0.1,0.1,0.7,-0.5235987755982988,0.5235987755982988,0,-0.2104067,1.7264514,0.7971355,-0.33140346,0.19907402,1.50117,1.7477692,-0.9425495,1.5386897,-0.15921852,0.3903181,-0.20150445,1.0663455,0.12522684
-0.1,0.1,0.7,-0.5235987755982988,0.5235987755982988,0,-0.17483012,1.7178705,0.789591,-0.38760644,0.09027073,1.4853458,1.7479088,-1.0638167,1.4878671,-0.15016463,0.386345,-0.19215216,1.0653292,0.32367077
-0.1,0.1,0.7,-0.5235987755982988,0.5235987755982988,0,-0.16990255,1.6637511,0.7561057,-0.29929137,0.13989528,1.4746724,1.7055887,-0.99069315,1.5328207,-0.17422755,0.37711427,-0.23141234,1.0813491,0.24153994
-0.1,0.1,0.7,-0.5235987755982988,0.5235987755982988,0,-0.17625646,1.7100511,0.77884823,-0.34925514,0.12503213,1.4960611,1.5596633,-0.94914556,1.5286477,-0.19470371,0.38663492,-0.27363944,1.0604092,0.2727806
-0.1,0.1,0.7,-0.5235987755982988,0.5235987755982988,0,-0.17215878,1.6974653,0.7681122,-0.32996216,0.11535389,1.4719001,1.644724,-0.96357197,1.5473518,-0.18204463,0.37319094,-0.18748006,1.0814905,0.25198635
-0.1,0.1,0.7,-0.5235987755982988,0.5235987755982988,0,-0.24912858,1.7134815,0.7497634,-0.33603498,0.08689651,1.4933836,1.4895246,-0.9828508,1.533429,-0.19831909,0.3879411,-0.27703062,1.0589321,0.46843007
-0.1,0.1,0.7,-0.5235987755982988,0.5235987755982988,0,-0.21805619,1.7037253,0.7577,-0.31835958,0.11175508,1.5296761,1.7357452,-0.8894796,1.5484136,-0.17547691,0.37033135,-0.25397944,1.0604763,0.20383407
-0.1,0.1,0.7,-0.5235987755982988,0.5235987755982988,0,-0.22186616,1.6981632,0.80477136,-0.31769243,0.06814407,1.5429413,1.5661328,-0.9369361,1.5272367,-0.19539845,0.40209588,-0.2600837,1.0573804,0.24819057
-0.1,0.1,0.7,-0.5235987755982988,0.5235987755982988,0,-0.15826935,1.679497,0.8066317,-0.3534172,0.1526814,1.5191491,1.7855787,-0.8629513,1.52891,-0.16727465,0.37977216,-0.25172073,1.0680989,0.18771817
-0.1,0.1,0.7,-0.5235987755982988,0.5235987755982988,0,-0.16755423,1.7150878,0.7966503,-0.39639047,0.15964955,1.5128157,1.5873569,-0.9404064,1.5397004,-0.19505484,0.38464823,-0.21276365,1.0616336,0.2164956
-0.1,0.1,0.7,-0.5235987755982988,0.5235987755982988,0,-0.15431553,1.7081771,0.7568288,-0.3730484,0.14234112,1.5048848,1.6077465,-0.81092983,1.5177943,-0.15901451,0.3750849,-0.16961186,1.0762211,0.20071752
-0.1,0.1,0.7,-0.5235987755982988,0.5235987755982988,0,-0.1863768,1.6906297,0.71759653,-0.3435552,-0.015198741,1.4803789,1.6766006,-0.8909805,1.5140023,-0.17243543,0.3831495,-0.16357692,1.0661505,0.20444521
-0.1,0.1,0.7,-0.5235987755982988,0.5235987755982988,0,-0.14519379,1.6806219,0.7988354,-0.34224668,0.08253648,1.5235536,1.746554,-0.90874374,1.528925,-0.16903149,0.38616922,-0.14071432,1.0556757,0.14164232
-0.1,0.1,0.7,-0.5235987755982988,0.5235987755982988,0,-0.21435492,1.7162457,0.79305977,-0.2954422,0.16809386,1.5404731,1.7386316,-0.9255152,1.5046734,-0.17036626,0.38706633,-0.18275197,1.0656182,0.31061006
-0.1,0.1,0.7,-0.5235987755982988,0.5235987755982988,0,-0.18573184,1.7324126,0.814502,-0.35995814,0.089814134,1.5500752,1.5961479,-0.9102632,1.524417,-0.13539737,0.3658819,-0.24812081,1.0825524,0.4324846
-0.1,0.1,0.7,-0.5235987755982988,0.5235987755982988,0,-0.20247369,1.724808,0.8338787,-0.27997613,0.19678599,1.5022352,1.5775206,-1.0668447,1.5240526,-0.18124929,0.39032117,-0.2142404,1.039502,0.15984386
-0.1,0.1,0.7,-0.5235987755982988,0.5235987755982988,0,-0.18135792,1.7145468,0.7468085,-0.33442858,0.09615421,1.5108758,1.4936802,-0.88697326,1.5248464,-0.1275947,0.388262,-0.2779571,1.0672573,0.39198962
-0.1,0.1,0.7,-0.5235987755982988,0.5235987755982988,0,-0.2133296,1.7591712,0.8324822,-0.36422783,0.030035311,1.4652064,1.7654217,-0.95664454,1.5174161,-0.16222444,0.36761975,-0.16622026,1.0545317,0.20288156
-0.1,0.1,0.7,-0.5235987755982988,0.5235987755982988,0,-0.13149793,1.6788464,0.7948716,-0.34369075,0.13365577,1.5224987,1.5979294,-0.9614785,1.5302633,-0.18365236,0.39514303,-0.17050914,1.0800436,0.22017843
-0.1,0.1,0.7,-0.5235987755982988,0.5235987755982988,0,-0.20932244,1.7434754,0.7863787,-0.31602344,0.120411836,1.4963762,1.7105081,-0.9954162,1.5283647,-0.1835873,0.40274173,-0.22582278,1.0550741,0.22774926
-0.1,0.1,0.7,-0.5235987755982988,0.5235987755982988,0,-0.19909534,1.7551095,0.734581,-0.38142812,0.105275966,1.5064663,1.7766222,-0.9020393,1.5304992,-0.14909305,0.39792144,-0.1825527,1.0606529,0.2546157
-0.1,0.1,0.7,-0.5235987755982988,0.5235987755982988,0,-0.16689014,1.7018697,0.8185763,-0.33162552,0.10557114,1.5074984,1.7083669,-0.8850292,1.4921727,-0.16917849,0.38989368,-0.25235146,1.0810581,0.23599061
-0.1,0.1,0.7,-0.5235987755982988,0.5235987755982988,0,-0.23204613,1.7505255,0.81113803,-0.32833207,0.06316767,1.5166289,1.5361576,-0.87411964,1.5580103,-0.1568768,0.3858221,-0.2280367,1.0668727,0.33444336
-0.1,0.1,0.7,-0.5235987755982988,0.5235987755982988,0,-0.16800597,1.7560966,0.8141502,-0.35119057,0.1125918,1.4888976,1.644002,-1.0078704,1.517347,-0.12795256,0.39406592,-0.24508387,1.0305524,0.109932974
-0.1,0.1,0.7,-0.5235987755982988,0.5235987755982988,0,-0.17870294,1.7028639,0.7229643,-0.34918478,0.04702978,1.50766,1.7291021,-1.0479001,1.5232552,-0.15553318,0.40869144,-0.21717821,1.0711503,0.1697763
-0.1,0.1,0.7,-0.5235987755982988,0.5235987755982988,0,-0.21918163,1.7405055,0.7977058,-0.3013237,0.19408128,1.55057,1.5763521,-1.0271938,1.520386,-0.17281999,0.37389126,-0.2547109,1.0936258,0.51898974
-0.1,0.1,0.7,-0.5235987755982988,0.5235987755982988,0,-0.19528353,1.7127084,0.8379858,-0.32922572,0.056768313,1.4749352,1.4902805,-1.0289541,1.5206589,-0.16633925,0.37559137,-0.20960842,1.0685444,0.050536845
-0.1,0.1,0.7,-0.5235987755982988,0.5235987755982988,0,-0.23064905,1.7355257,0.74708337,-0.29527223,0.008389543,1.4806119,1.6161407,-0.8916398,1.5238038,-0.17908219,0.37947133,-0.21080431,1.0491003,0.17667092
-0.1,0.1,0.7,-0.5235987755982988,0.5235987755982988,0,-0.16945855,1.7116497,0.7377848,-0.32624733,0.11299198,1.5013064,1.6252743,-0.9444958,1.5224252,-0.15142117,0.39245194,-0.19876727,1.0638734,0.27017245
-0.1,0.1,0.7,-0.5235987755982988,0.5235987755982988,0,-0.19465487,1.7280846,0.7460097,-0.38116947,0.087007426,1.548205,1.7767886,-0.94894236,1.5367966,-0.16027237,0.39167154,-0.23083706,1.0628592,0.30235785
-0.1,0.1,0.7,-0.5235987755982988,0.5235987755982988,0,-0.16986218,1.7030413,0.70736676,-0.31345618,0.11217009,1.5284855,1.5798341,-0.8599041,1.5204229,-0.16340238,0.36490184,-0.22247532,1.0726266,0.3752613
-0.1,0.1,0.7,-0.5235987755982988,0.5235987755982988,0,-0.20573044,1.7331427,0.75003153,-0.28638735,0.14662091,1.5192931,1.5596645,-0.94600165,1.5064322,-0.2004274,0.3968209,-0.135536,1.0695474,0.32011038
-0.1,0.1,0.7,-0.5235987755982988,0.5235987755982988,0,-0.19838151,1.6598456,0.7410712,-0.28062353,0.14497617,1.5335705,1.7651383,-0.83683926,1.5272665,-0.15188602,0.37843996,-0.17420222,1.062318,0.120270826
-0.1,0.1,0.7,-0.5235987755982988,0.5235987755982988,0,-0.17128168,1.7030268,0.7148865,-0.28603452,0.089129634,1.5507913,1.6916698,-0.950033,1.5406832,-0.14475942,0.3906371,-0.25914827,1.0408645,0.23203559
-0.1,0.1,0.7,-0.5235987755982988,0.5235987755982988,0,-0.18622588,1.7558112,0.7457956,-0.3005248,0.16275498,1.5344058,1.8355529,-0.9109632,1.5142455,-0.18910232,0.38319188,-0.25305995,1.0690703,0.30393264
-0.1,0.1,0.7,-0.5235987755982988,0.5235987755982988,0,-0.23015772,1.7278862,0.79574245,-0.2503186,0.24679574,1.5424877,1.7189463,-0.8041052,1.5169644,-0.15377998,0.39541146,-0.16193585,1.0647846,0.23609069
-0.1,0.1,0.7,-0.5235987755982988,0.5235987755982988,0,-0.16601771,1.7200454,0.753644,-0.40151137,0.075788915,1.5388538,1.6260452,-1.0578614,1.5289568,-0.16859892,0.39093146,-0.22946887,1.0821857,0.28152287
-0.1,0.1,0.7,-0.5235987755982988,0.5235987755982988,0,-0.10114282,1.6594088,0.7783286,-0.30053353,0.08643493,1.5366994,1.6859957,-0.9428381,1.5446408,-0.110432714,0.37633723,-0.1736487,1.0480034,0.38772622
-0.1,0.1,0.7,-0.5235987755982988,0.5235987755982988,0,-0.20985396,1.7350808,0.76314336,-0.3128434,0.15300675,1.5301869,1.7395895,-1.0305994,1.516412,-0.20821339,0.40744957,-0.25294685,1.0520028,0.34870446
-0.1,0.1,0.7,-0.5235987755982988,0.5235987755982988,0,-0.21177335,1.6989766,0.71868914,-0.32384032,0.1123099,1.5168382,1.7713705,-0.99170274,1.5528773,-0.19820347,0.38792497,-0.18528678,1.0431094,0.1466976
-0.1,0.1,0.7,-0.5235987755982988,0.5235987755982988,0,-0.123566255,1.7151064,0.8270444,-0.346292,0.15981239,1.5136744,1.7060817,-1.0151826,1.5248123,-0.18985417,0.39038938,-0.240134,1.05378,0.16180177
-0.1,0.1,0.7,-0.5235987755982988,0.5235987755982988,0,-0.15970334,1.7036026,0.81154317,-0.35647628,0.13955732,1.5234469,1.646521,-0.85570335,1.534993,-0.16636814,0.38676137,-0.21141514,1.0814927,0.25550807
-0.1,0.1,0.7,-0.5235987755982988,0.5235987755982988,0,-0.21031849,1.7328945,0.78062713,-0.35165325,0.11273177,1.5341374,1.7499775,-0.917344,1.5212029,-0.18608873,0.395413,-0.23540342,1.0596901,0.20338452
-0.1,0.1,0.7,-0.5235987755982988,0.5235987755982988,0,-0.24316093,1.7022713,0.7636747,-0.3246986,0.09573867,1.5172126,1.6780792,-0.8551703,1.5138668,-0.19376568,0.3794797,-0.24413265,1.0500064,0.2469878
-0.1,0.1,0.7,-0.5235987755982988,0.5235987755982988,0,-0.13521431,1.7092432,0.72945166,-0.33438247,0.13344541,1.5267589,1.5960135,-1.0470674,1.5425454,-0.15099302,0.3787731,-0.2362716,1.0612732,0.16749762
