sanky1234/BimanualDexCatch/isaacgymenvs/cem_results/football_pose_0.0_0.0_0.7999999999999999_0.0_-0.5235987755982988_0_2025-05-26.csv
x,y,z,roll,pitch,yaw,robot1/joint1,robot1/joint2,robot1/joint3,robot1/joint4,robot1/joint5,robot1/joint6,robot1/joint7,robot2/joint1,robot2/joint2,robot2/joint3,robot2/joint4,robot2/joint5,robot2/joint6,robot2/joint7
0.0,0.0,0.7999999999999999,0.0,-0.5235987755982988,0,0.70914555,-0.99037313,2.5605006,0.123194486,-0.05790986,1.3924305,-0.06594863,-0.0740321,-0.9697393,-2.375553,-0.058559947,0.04824261,0.992564,-0.71370685
0.0,0.0,0.7999999999999999,0.0,-0.5235987755982988,0,0.74336654,-0.98782593,2.521047,0.13196123,-0.12554444,1.3953394,-0.057079464,-0.11860258,-0.9668795,-2.4350462,0.0043692524,-0.083652765,0.98046815,0.71300846
0.0,0.0,0.7999999999999999,0.0,-0.5235987755982988,0,0.74374944,-1.0172937,2.5646274,0.12947851,-0.11341082,1.3885746,-0.13168567,-0.1868516,-0.95797473,-2.7678325,0.06220771,0.04885486,1.113263,0.46642947
0.0,0.0,0.7999999999999999,0.0,-0.5235987755982988,0,0.7325329,-0.9788688,2.5565991,0.1302837,-0.09224617,1.3890878,0.0052944697,-0.12924239,-0.96943104,-2.7616405,-0.038542215,-0.10492665,1.0462774,1.1161366
0.0,0.0,0.7999999999999999,0.0,-0.5235987755982988,0,0.72444534,-0.9607457,2.540259,0.124979176,-0.0634881,1.3918813,-0.040653884,-0.07709454,-0.96541655,-2.717929,0.078612074,-0.024448,1.1746873,-0.48346183
0.0,0.0,0.7999999999999999,0.0,-0.5235987755982988,0,0.7921965,-0.96709716,2.543217,0.13148749,-0.0958505,1.388071,-0.005738492,-0.23426965,-0.96300644,-2.5869932,0.057395965,0.08933014,1.1024791,0.6113597
0.0,0.0,0.7999999999999999,0.0,-0.5235987755982988,0,0.7063541,-0.97688574,2.5516098,0.13126272,-0.084274456,1.3841751,-0.05557608,-0.122546524,-0.96802,-2.47076,-0.060901072,-0.08099916,1.134576,0.77464944
0.0,0.0,0.7999999999999999,0.0,-0.5235987755982988,0,0.81779593,-0.9765555,2.5553026,0.13314055,-0.08818522,1.392896,0.006448111,-0.13117515,-0.97877574,-2.277386,0.033833366,0.069423236,1.0268723,1.578178
0.0,0.0,0.7999999999999999,0.0,-0.5235987755982988,0,0.7595514,-0.97476894,2.555361,0.13306925,-0.10748817,1.3873065,-0.14718573,-0.1931421,-0.97540486,-2.2601886,0.12993659,-0.09122709,1.1434535,-0.035311107
0.0,0.0,0.7999999999999999,0.0,-0.5235987755982988,0,0.7358615,-0.975668,2.537111,0.13555494,-0.07416276,1.3952729,-0.09022647,-0.16177076,-0.96797985,-2.7667515,0.059832893,-0.13391495,1.0909071,0.0163607
0.0,0.0,0.7999999999999999,0.0,-0.5235987755982988,0,0.6749392,-0.9801598,2.5626402,0.13645503,-0.11967486,1.377921,0.0022780972,-0.19912432,-0.9741698,-2.4552417,0.02730547,0.035788145,1.175422,-0.342984
0.0,0.0,0.7999999999999999,0.0,-0.5235987755982988,0,0.7317528,-1.0083776,2.5536175,0.13660349,-0.06686131,1.3873469,-0.023414033,-0.13417992,-0.9659745,-2.8265483,0.04404713,0.03235553,1.1786966,0.0072745234
0.0,0.0,0.7999999999999999,0.0,-0.5235987755982988,0,0.7212634,-0.9866153,2.5457714,0.12745103,-0.10784719,1.3973389,-0.06483817,0.0036897294,-0.9893957,-2.3987231,-0.056520157,-0.15083623,1.1506484,0.25525513
0.0,0.0,0.7999999999999999,0.0,-0.5235987755982988,0,0.72923285,-0.9840108,2.5848596,0.12327288,-0.05097465,1.3817809,-0.065405235,-0.045025773,-0.9883774,-2.4252677,0.031555418,-0.048373923,1.1625737,-0.8916522
0.0,0.0,0.7999999999999999,0.0,-0.5235987755982988,0,0.7548422,-0.9976631,2.5797095,0.12528996,-0.08008707,1.3810387,-0.07323392,-0.12905292,-0.9731805,-2.236084,0.06295381,0.19072919,1.2646401,-0.07406839
0.0,0.0,0.7999999999999999,0.0,-0.5235987755982988,0,0.756023,-0.9782309,2.544605,0.13650395,-0.06123999,1.3914198,-0.038275175,-0.10396662,-0.97298855,-2.6890419,-0.03677556,0.096787326,1.1205949,0.6322099
0.0,0.0,0.7999999999999999,0.0,-0.5235987755982988,0,0.6725248,-0.9933365,2.563052,0.12444883,-0.08496885,1.393338,-0.10883357,-0.13803877,-0.9808499,-2.491803,0.13602918,-0.15397556,1.0791264,1.2484119
0.0,0.0,0.7999999999999999,0.0,-0.5235987755982988,0,0.73482627,-0.9832388,2.5803866,0.1302556,-0.09166714,1.4009686,-0.05564582,-0.13254184,-0.9692103,-2.716398,0.081376195,0.025019286,1.1689059,1.0310212
0.0,0.0,0.7999999999999999,0.0,-0.5235987755982988,0,0.7656484,-0.9827415,2.5446668,0.13265347,-0.05248083,1.3975528,-0.096731886,-0.14613265,-0.9688515,-2.2489707,0.012529908,0.10318121,1.1247997,0.092090674
0.0,0.0,0.7999999999999999,0.0,-0.5235987755982988,0,0.77645314,-0.990324,2.56864,0.1286819,-0.11915282,1.3835942,-0.08752397,-0.21326403,-0.974379,-2.8165483,-0.029258823,0.08467461,1.0914398,0.656573
0.0,0.0,0.7999999999999999,0.0,-0.5235987755982988,0,0.75750405,-0.99422836,2.5387228,0.13279633,-0.09073659,1.3859507,-0.018413976,-0.12756528,-0.97618973,-2.4101088,-0.08244791,0.066176176,1.0917001,0.46052283
0.0,0.0,0.7999999999999999,0.0,-0.5235987755982988,0,0.7303421,-0.97564447,2.570327,0.13278283,-0.10426823,1.396119,-0.10005302,-0.08265386,-0.9698988,-2.5259478,0.048282214,0.1928428,1.0118489,-0.8620983
0.0,0.0,0.7999999999999999,0.0,-0.5235987755982988,0,0.7230025,-0.9767319,2.5699449,0.1301792,-0.119255066,1.3912526,-0.07325502,0.029921599,-0.968188,-2.7333553,0.024236573,0.050710663,1.1209176,0.8922025
0.0,0.0,0.7999999999999999,0.0,-0.5235987755982988,0,0.7404787,-1.008437,2.5424743,0.13118432,-0.08226243,1.3789554,-0.10006379,-0.07055708,-0.9791978,-2.7023726,-0.096565224,-0.16475731,0.9885157,-0.42410126
0.0,0.0,0.7999999999999999,0.0,-0.5235987755982988,0,0.77969176,-0.99134284,2.5419657,0.13487545,-0.08216296,1.384431,-0.09444754,-0.06802196,-0.9555106,-2.3262167,-0.0014349163,0.23205507,1.1496779,1.2745488
0.0,0.0,0.7999999999999999,0.0,-0.5235987755982988,0,0.72833866,-0.9965734,2.5378635,0.13568133,-0.06982917,1.3982584,-0.043892756,0.13770112,-0.95328057,-2.4715414,-0.07670632,-0.09714171,0.99718696,0.76332045
0.0,0.0,0.7999999999999999,0.0,-0.5235987755982988,0,0.68174154,-0.97195023,2.553719,0.13218975,-0.112727754,1.3911902,-0.040009677,-0.07682017,-0.96998245,-2.8592234,0.03832241,-0.0912304,1.0252979,0.14702235
0.0,0.0,0.7999999999999999,0.0,-0.5235987755982988,0,0.69330823,-0.98655474,2.5387912,0.12940799,-0.08811289,1.3750478,-0.09722661,-0.14856656,-0.97546923,-2.6333146,0.058233406,0.070834085,1.0108179,1.6682351
0.0,0.0,0.7999999999999999,0.0,-0.5235987755982988,0,0.7859986,-0.9660009,2.5830207,0.13206026,-0.0750293,1.3884717,-0.075200945,-0.14331439,-0.9389204,-2.5355692,-0.057802804,0.016351176,1.0346305,-0.008966145
0.0,0.0,0.7999999999999999,0.0,-0.5235987755982988,0,0.7043688,-0.98926204,2.5595956,0.1278792,-0.031173255,1.389006,-0.104074486,-0.056405134,-0.9786795,-2.8720727,0.0432196,-0.052198347,1.2005101,0.5030272
0.0,0.0,0.7999999999999999,0.0,-0.5235987755982988,0,0.73760855,-0.98795444,2.550093,0.12146403,-0.05889409,1.3763418,0.0001610822,-0.033349864,-0.98578346,-2.5812151,-0.023994152,0.19129585,1.0768315,-0.25483724
0.0,0.0,0.7999999999999999,0.0,-0.5235987755982988,0,0.7807743,-0.9920471,2.5750124,0.13281508,-0.073752075,1.3854852,-0.091994815,-0.16575132,-0.96961135,-2.4279122,0.02258216,-0.072334155,1.162541,0.19588096
0.0,0.0,0.7999999999999999,0.0,-0.5235987755982988,0,0.7091641,-0.98686874,2.556468,0.13024126,-0.062429324,1.3898941,-0.05818765,-0.11768572,-0.9722214,-2.487054,-0.02499673,0.17498796,1.1147611,0.2574299
0.0,0.0,0.7999999999999999,0.0,-0.5235987755982988,0,0.7359259,-0.977566,2.5582402,0.14385293,-0.065987416,1.3873937,-0.11713762,-0.10824814,-0.9516202,-2.7351882,0.006323167,0.12668799,1.109083,0.8353415
0.0,0.0,0.7999999999999999,0.0,-0.5235987755982988,0,0.72731996,-1.006849,2.553165,0.13443713,-0.07929127,1.379951,-0.09112161,-0.030991856,-0.98142815,-2.6070242,0.010107334,0.022383494,1.2138631,0.24087857
0.0,0.0,0.7999999999999999,0.0,-0.5235987755982988,0,0.72859985,-0.97196007,2.5649967,0.1301804,-0.037964918,1.3899922,-0.07566753,-0.090176605,-0.9871774,-2.5499282,0.044020914,0.2770853,1.1619859,0.7194177
0.0,0.0,0.7999999999999999,0.0,-0.5235987755982988,0,0.78191394,-0.97535664,2.558609,0.123103,-0.0591328,1.3892981,-0.048959203,-0.025025994,-0.9639501,-2.2935812,0.077318616,0.060716826,1.1563013,0.5625983
0.0,0.0,0.7999999999999999,0.0,-0.5235987755982988,0,0.81015044,-0.9806004,2.5841582,0.1324348,-0.10157325,1.3824586,-0.048690163,-0.1073116,-0.9769372,-2.2307463,-0.0040442506,0.0018493123,1.2599599,0.7764726
0.0,0.0,0.7999999999999999,0.0,-0.5235987755982988,0,0.659797,-0.9716406,2.57851,0.13254172,-0.06555124,1.3944782,-0.065905035,-0.08021434,-0.97495526,-2.8538458,-0.015456513,0.07494476,1.0656615,0.8589522
0.0,0.0,0.7999999999999999,0.0,-0.5235987755982988,0,0.8244561,-0.9975838,2.5473428,0.1383564,-0.09161442,1.3803941,-0.0861857,-0.004706249,-0.9884672,-2.6196017,0.062869385,0.22131917,1.0794865,0.31778067
0.0,0.0,0.7999999999999999,0.0,-0.5235987755982988,0,0.73685145,-0.9869627,2.596665,0.12963142,-0.05372185,1.3854092,-0.0897897,-0.00828382,-0.9674865,-2.4109583,0.060302366,0.2493467,1.1299477,-1.3065971
0.0,0.0,0.7999999999999999,0.0,-0.5235987755982988,0,0.7782713,-0.9867317,2.5647502,0.13511086,-0.04284838,1.388066,-0.11848277,-0.052268293,-0.96549004,-2.3220632,-0.018923944,-0.053793978,1.0608866,0.5587411
0.0,0.0,0.7999999999999999,0.0,-0.5235987755982988,0,0.71614754,-0.9880505,2.564945,0.13248594,-0.06640463,1.3859854,-0.071941316,-0.13354667,-0.97481614,-2.8421874,0.051077936,0.22426756,1.056629,-0.30794713
0.0,0.0,0.7999999999999999,0.0,-0.5235987755982988,0,0.805534,-0.9809552,2.5968535,0.13363968,-0.06553874,1.3873582,-0.04872883,-0.08068227,-0.97664756,-2.7182736,-0.020864625,0.12794812,1.0576034,0.9889045
0.0,0.0,0.7999999999999999,0.0,-0.5235987755982988,0,0.72961074,-0.9806676,2.5507135,0.12533796,-0.05481365,1.3858889,-0.06670198,-0.1455619,-0.9676136,-2.2878075,0.029506808,0.060868926,1.1685525,1.0066541
0.0,0.0,0.7999999999999999,0.0,-0.5235987755982988,0,0.6718903,-0.98154306,2.5659695,0.124115236,-0.060728397,1.3795903,-0.079364955,-0.10081437,-0.9848528,-2.4841714,0.06714806,0.023857491,1.0138795,-0.07851263
0.0,0.0,0.7999999999999999,0.0,-0.5235987755982988,0,0.7109413,-0.99658126,2.5719283,0.125692,-0.07081365,1.3762649,-0.011427385,-0.06545283,-0.96635395,-2.6348066,0.030226555,-0.13998947,1.1375885,-0.37412736
0.0,0.0,0.7999999999999999,0.0,-0.5235987755982988,0,0.7621777,-0.9699813,2.5721428,0.1222882,-0.0878142,1.3812437,-0.068959035,-0.05989031,-0.98382175,-2.52402,0.013817697,0.09062715,1.0369797,0.50653815
0.0,0.0,0.7999999999999999,0.0,-0.5235987755982988,0,0.79929304,-0.9740046,2.5349152,0.1307757,-0.067751996,1.3848503,-0.071743116,0.024786608,-0.9610252,-2.1239178,0.008900333,-0.06534521,1.1478671,-0.70898515
0.0,0.0,0.7999999999999999,0.0,-0.5235987755982988,0,0.7503705,-0.98705864,2.5593436,0.13329516,-0.08633911,1.3921146,-0.12793064,-0.032964576,-0.98279357,-2.5737712,0.056566916,-0.17211404,1.0368341,1.5479596
0.0,0.0,0.7999999999999999,0.0,-0.5235987755982988,0,0.7336482,-0.9812191,2.5505965,0.12618837,-0.04834763,1.3828322,-0.14088692,-0.20313309,-0.9739668,-2.843275,-0.027035972,0.08360012,1.1130655,-0.17136087
0.0,0.0,0.7999999999999999,0.0,-0.5235987755982988,0,0.7296364,-0.97896737,2.5729458,0.12925278,-0.100033246,1.397046,-0.03176288,-0.0660066,-0.9589131,-2.8322206,0.020939896,-0.041988846,1.1432933,1.2126982
0.0,0.0,0.7999999999999999,0.0,-0.5235987755982988,0,0.6982897,-0.99777555,2.5529263,0.12596072,-0.07008035,1.4017323,-0.06523095,-0.106527105,-0.9826598,-2.5811787,0.03366426,0.093585186,1.0252074,0.23734446
0.0,0.0,0.7999999999999999,0.0,-0.5235987755982988,0,0.70322126,-0.9909412,2.5681493,0.13085188,-0.06588431,1.3834151,-0.056123585,-0.12469051,-0.9814132,-2.6433854,-0.062074818,-0.097588174,1.1510935,-0.6345136
0.0,0.0,0.7999999999999999,0.0,-0.5235987755982988,0,0.73667467,-0.9988302,2.5932612,0.13105908,-0.060146715,1.3917959,-0.09195197,0.076504916,-0.9754987,-2.6317012,-0.00046833057,-0.08958227,1.2357832,0.069888495
0.0,0.0,0.7999999999999999,0.0,-0.5235987755982988,0,0.7629269,-0.9882621,2.5472865,0.13203855,-0.050312642,1.3912504,-0.07311996,-0.17191657,-0.9704876,-2.4814987,0.0027134367,-0.04784145,0.9636866,0.15865396
0.0,0.0,0.7999999999999999,0.0,-0.5235987755982988,0,0.7334792,-0.99581164,2.5544689,0.12490496,-0.0777863,1.3798449,-0.12581882,-0.15263517,-0.9757982,-2.5290227,0.0411108,-0.08063853,1.0446675,0.9451903
0.0,0.0,0.7999999999999999,0.0,-0.5235987755982988,0,0.7334781,-0.9849927,2.5574574,0.12309617,-0.05479841,1.3919314,-0.079526864,-0.16502036,-0.9664933,-2.6500163,-0.016105374,-0.1713319,1.1620679,0.8134658
0.0,0.0,0.7999999999999999,0.0,-0.5235987755982988,0,0.7092444,-1.0052112,2.5482912,0.12634337,-0.029013013,1.3876163,-0.0055861236,-0.08406991,-0.96765476,-2.3610547,0.080124944,0.05768461,1.2340876,0.38553602
0.0,0.0,0.7999999999999999,0.0,-0.5235987755982988,0,0.73999065,-1.0036246,2.54816,0.12474895,-0.06907389,1.3791054,-0.041606035,0.010808819,-0.9811673,-2.398664,-0.012054302,-0.1987211,1.0150285,0.47207493
0.0,0.0,0.7999999999999999,0.0,-0.5235987755982988,0,0.7460214,-0.97539735,2.5525131,0.12575491,-0.047037113,1.3838964,-0.06693997,0.040937018,-0.97133744,-2.4931896,0.02295956,0.19976456,1.1179467,0.040168133
0.0,0.0,0.7999999999999999,0.0,-0.5235987755982988,0,0.771642,-0.9878936,2.583434,0.1392847,-0.06540213,1.388208,-0.12951744,-0.0094929375,-0.97478175,-2.5374665,0.02878448,0.017183498,1.0515828,-0.38343126
0.0,0.0,0.7999999999999999,0.0,-0.5235987755982988,0,0.7214681,-0.99170923,2.5573235,0.1294987,-0.07626016,1.3921552,-0.073135816,-0.08127605,-0.98046494,-2.5916712,-0.024932902,0.058870625,1.1936274,-0.30821252
0.0,0.0,0.7999999999999999,0.0,-0.5235987755982988,0,0.7470677,-0.99600327,2.537916,0.13388334,-0.05730628,1.3767991,-0.07384974,-0.13784705,-0.9705633,-2.6575382,-0.014363477,0.13337585,1.1013628,1.2144401
0.0,0.0,0.7999999999999999,0.0,-0.5235987755982988,0,0.7700254,-0.9918065,2.5462487,0.13342668,-0.078497715,1.3841822,-0.09204398,-0.11711089,-0.96040124,-2.7585819,0.051094748,0.09507998,1.1191552,0.5810885
0.0,0.0,0.7999999999999999,0.0,-0.5235987755982988,0,0.7701335,-0.9989312,2.5890377,0.13434707,-0.088239394,1.3811992,-0.025491832,-0.06946063,-0.98517287,-2.4216383,-0.014830688,-0.09140722,1.1566201,1.3569286
0.0,0.0,0.7999999999999999,0.0,-0.5235987755982988,0,0.7380434,-0.9821451,2.5658054,0.13189554,-0.112918705,1.3859491,-0.03238341,-0.084345736,-0.96906084,-2.673701,-0.027201356,0.23357263,1.1607723,1.0462481
0.0,0.0,0.7999999999999999,0.0,-0.5235987755982988,0,0.7452814,-0.9844306,2.5560205,0.12691167,-0.024509367,1.3882529,-0.09276132,-0.07901785,-0.9840517,-2.365893,-0.0326361,-0.09448402,1.1602892,0.13799931
0.0,0.0,0.7999999999999999,0.0,-0.5235987755982988,0,0.75228655,-0.9771498,2.5333524,0.12087862,-0.02231052,1.3862928,-0.13683212,-0.12117168,-0.96632797,-2.7503185,0.0020308248,0.19027215,1.2261764,0.042159908
0.0,0.0,0.7999999999999999,0.0,-0.5235987755982988,0,0.7385841,-0.9972491,2.5439568,0.13736434,-0.09545631,1.3830771,-0.0913595,-0.14863831,-0.97174126,-2.6763594,-0.0045762993,0.02798334,1.1043961,0.77101564
0.0,0.0,0.7999999999999999,0.0,-0.5235987755982988,0,0.75266343,-0.98960507,2.576626,0.1307199,-0.116923854,1.3955876,-0.061217185,0.022870727,-0.9781835,-2.200391,0.0028951194,0.17291285,1.2353576,0.124853306
0.0,0.0,0.7999999999999999,0.0,-0.5235987755982988,0,0.7639435,-0.9730203,2.545977,0.13102548,-0.07768903,1.3780347,-0.122974604,-0.056516662,-0.9891079,-2.8870733,-0.011774366,0.09627424,1.1003685,-1.3046983
0.0,0.0,0.7999999999999999,0.0,-0.5235987755982988,0,0.77727497,-1.014713,2.579634,0.127928,-0.09262168,1.3816209,-0.059936237,-0.015626654,-0.9655228,-2.4014285,-0.015475369,-0.12062808,1.1572973,0.5827139
0.0,0.0,0.7999999999999999,0.0,-0.5235987755982988,0,0.7131897,-0.9892936,2.5473533,0.12798163,-0.08544748,1.3917278,-0.043599077,-0.13887253,-0.9799335,-2.4707687,-0.0048831073,-0.05725156,1.2419386,0.09512127
0.0,0.0,0.7999999999999999,0.0,-0.5235987755982988,0,0.7708583,-0.9801614,2.5746858,0.12793422,-0.09922027,1.3870906,-0.11448164,-0.09748521,-0.97805786,-2.4997838,0.018434634,0.1962826,1.1821232,-0.020317117
0.0,0.0,0.7999999999999999,0.0,-0.5235987755982988,0,0.6856394,-1.0066214,2.5540984,0.12646015,-0.0800711,1.3795699,-0.09548019,-0.17379652,-0.9673266,-2.4715083,0.026971715,0.040863965,0.9882207,1.3056674
0.0,0.0,0.7999999999999999,0.0,-0.5235987755982988,0,0.65777826,-0.97882235,2.5725367,0.12876993,-0.07198832,1.3857504,-0.0561842,-0.109628394,-0.9819247,-2.535573,0.057048485,-0.09708396,1.1744645,0.84297895
0.0,0.0,0.7999999999999999,0.0,-0.5235987755982988,0,0.69999945,-0.9926937,2.5829253,0.13274653,-0.054070674,1.3857247,-0.09762169,0.040977485,-0.9649659,-2.2657156,0.05983392,-0.045700613,0.98191816,0.24321225
0.0,0.0,0.7999999999999999,0.0,-0.5235987755982988,0,0.7748272,-0.994834,2.5615335,0.13161214,-0.10724186,1.3902946,-0.09417275,-0.015219852,-0.97443134,-2.4195197,0.007039599,0.07768222,1.1525855,0.82751155
0.0,0.0,0.7999999999999999,0.0,-0.5235987755982988,0,0.80193275,-0.980176,2.5330753,0.12783445,-0.04448828,1.383987,-0.014282439,-0.02302708,-0.95786345,-2.6710505,0.016912939,-0.101225585,1.2140087,-0.53465927
0.0,0.0,0.7999999999999999,0.0,-0.5235987755982988,0,0.7204751,-0.9818086,2.552636,0.12845767,-0.027820773,1.3856701,-0.061812982,-0.06209054,-0.97230667,-2.1456363,0.06901159,-0.13834268,1.0662571,-0.09180551
0.0,0.0,0.7999999999999999,0.0,-0.5235987755982988,0,0.7596828,-0.9811634,2.5729012,0.1295567,-0.07089602,1.3939295,-0.099406734,-0.016747745,-0.957979,-2.1950445,0.08746573,-0.107589036,1.071395,-0.46494344
0.0,0.0,0.7999999999999999,0.0,-0.5235987755982988,0,0.7240273,-0.97637403,2.5777617,0.12958917,-0.045546174,1.4008731,-0.09739423,0.032651924,-0.98153657,-2.5065997,-0.010917032,0.077823505,1.0907491,0.13272084
0.0,0.0,0.7999999999999999,0.0,-0.5235987755982988,0,0.7586219,-0.9962283,2.5761955,0.12936142,-0.028735781,1.3773053,-0.10300155,-0.022092698,-0.97762,-2.3527033,0.012056756,-0.058526814,1.1223987,0.055613104
0.0,0.0,0.7999999999999999,0.0,-0.5235987755982988,0,0.7418548,-0.9908235,2.595894,0.12287884,-0.06967995,1.3910993,-0.08185086,-0.1607342,-0.967302,-2.800303,0.033845287,0.19798261,1.2212653,-0.48493826
0.0,0.0,0.7999999999999999,0.0,-0.5235987755982988,0,0.76642114,-0.99049175,2.5615034,0.12601413,-0.10301535,1.3841869,-0.066695966,-0.13996898,-0.9727015,-2.4263299,-0.08824221,0.15387101,1.1116159,1.361877
0.0,0.0,0.7999999999999999,0.0,-0.5235987755982988,0,0.7805258,-0.9783118,2.5393379,0.13076396,-0.065989554,1.3911337,-0.20835112,-0.17854674,-0.96969956,-2.4562128,0.01767779,0.12200159,1.2359096,0.763563
0.0,0.0,0.7999999999999999,0.0,-0.5235987755982988,0,0.73357904,-0.9978579,2.5687382,0.13387243,-0.062664546,1.3830737,-0.019782566,-0.1692363,-0.99287283,-2.3897822,-0.007975815,0.01246925,1.0658833,1.1016351
0.0,0.0,0.7999999999999999,0.0,-0.5235987755982988,0,0.7535001,-0.98761964,2.5576792,0.12910166,-0.06869007,1.3910558,-0.057809077,-0.10910798,-0.96651167,-2.6939476,-0.05851707,0.08836861,0.9125803,0.13588646
0.0,0.0,0.7999999999999999,0.0,-0.5235987755982988,0,0.7827097,-0.98876655,2.5473425,0.12885587,-0.06492315,1.3935935,-0.13925473,0.016770571,-0.9831484,-2.8941746,-0.00021439728,-0.022103857,1.1222852,0.110577494
0.0,0.0,0.7999999999999999,0.0,-0.5235987755982988,0,0.77784127,-0.9705744,2.533963,0.1315597,-0.070818834,1.3937697,-0.11151123,-0.10963269,-0.96959955,-2.6078103,-0.020190826,0.036021877,1.081449,0.91626364
0.0,0.0,0.7999999999999999,0.0,-0.5235987755982988,0,0.7692087,-0.9834729,2.561057,0.12950474,-0.041454796,1.3867421,-0.03422433,-0.010645451,-0.97499895,-2.652779,0.060286835,-0.17630208,1.1211344,-1.121469
0.0,0.0,0.7999999999999999,0.0,-0.5235987755982988,0,0.7061758,-1.0001382,2.5829654,0.12699682,-0.052758045,1.3911978,-0.07062811,-0.16658112,-0.95482093,-2.4823225,0.013045452,0.025771711,1.0116203,-0.48132837
0.0,0.0,0.7999999999999999,0.0,-0.5235987755982988,0,0.7796091,-0.99609584,2.5552652,0.12894118,-0.10153325,1.3824004,-0.050424792,-0.15156119,-0.97160244,-2.4074821,0.04050492,0.004519501,1.080637,0.5659929
0.0,0.0,0.7999999999999999,0.0,-0.5235987755982988,0,0.71823066,-0.9754195,2.5359907,0.1270896,-0.06506318,1.3959035,-0.07490907,-0.08488519,-0.96042883,-3.1268609,-0.038222406,0.19771974,1.0597006,0.945391
0.0,0.0,0.7999999999999999,0.0,-0.5235987755982988,0,0.7542231,-0.983597,2.569963,0.12889862,-0.11199805,1.3889736,-0.065119505,-0.074278265,-0.9636247,-2.5131595,-0.0007349167,-0.12768711,1.0160931,1.2415564
0.0,0.0,0.7999999999999999,0.0,-0.5235987755982988,0,0.79040986,-0.98991436,2.5611913,0.120477855,-0.05386846,1.3949159,-0.037837457,-0.08052566,-0.96253,-2.434675,0.024770847,0.24674793,1.0941556,0.5093564
0.0,0.0,0.7999999999999999,0.0,-0.5235987755982988,0,0.72303367,-0.98750526,2.572068,0.12834434,-0.07152049,1.3873985,-0.025689915,-0.061564453,-0.964462,-2.9371424,0.005731327,0.02427783,1.0936977,-0.011551336
0.0,0.0,0.7999999999999999,0.0,-0.5235987755982988,0,0.7958888,-0.98775786,2.5555468,0.12497953,-0.058138706,1.3779343,-0.08199187,-0.25695002,-0.95749885,-2.305084,0.032876074,-0.08134402,1.1824248,0.2672432
0.0,0.0,0.7999999999999999,0.0,-0.5235987755982988,0,0.8159915,-0.976093,2.5664568,0.12900999,-0.07523269,1.3835994,-0.024775153,-0.057908136,-0.9634067,-2.3796794,0.00030831358,-0.061709676,1.1133405,-0.29304802
0.0,0.0,0.7999999999999999,0.0,-0.5235987755982988,0,0.75383073,-0.990461,2.5764258,0.1321019,-0.089958526,1.3912858,-0.009933583,-0.0799039,-0.9874602,-2.8847268,-0.0007109778,-0.08072785,1.0027558,-0.027759425
0.0,0.0,0.7999999999999999,0.0,-0.5235987755982988,0,0.75674105,-0.9958926,2.5945554,0.11650883,-0.09960811,1.3906227,-0.117991015,-0.27140665,-0.9716508,-2.3003924,0.018707898,0.003166324,1.1700056,-1.0782285
0.0,0.0,0.7999999999999999,0.0,-0.5235987755982988,0,0.7213885,-0.9725849,2.5881746,0.1272599,-0.043183744,1.3878502,-0.0600993,-0.032019425,-0.96930873,-2.751978,0.007348023,-0.052317087,1.0173361,0.83316326
0.0,0.0,0.7999999999999999,0.0,-0.5235987755982988,0,0.7697539,-0.9850892,2.5306556,0.13118243,-0.075611584,1.3873688,-0.1929617,-0.09923419,-0.96342516,-2.5106454,-0.04953756,0.11584942,1.0395458,0.6588749
0.0,0.0,0.7999999999999999,0.0,-0.5235987755982988,0,0.7161324,-0.9893558,2.5826237,0.13602403,-0.069431275,1.3821697,-0.14430611,-0.17105927,-0.94488424,-2.7065551,0.024547672,0.0877486,1.1585627,0.15764588
0.0,0.0,0.7999999999999999,0.0,-0.5235987755982988,0,0.7968127,-0.9835265,2.5667245,0.13376185,-0.05636043,1.3958226,-0.09276261,-0.14542194,-0.97666043,-3.0114136,0.008850523,-0.2560954,1.1184481,-0.36597496
0.0,0.0,0.7999999999999999,0.0,-0.5235987755982988,0,0.75158465,-0.96917355,2.5445414,0.12844786,-0.033094767,1.3794113,-0.09494905,-0.10532983,-0.9592267,-2.6383483,-0.008071508,0.09084748,1.206537,0.5397122
0.0,0.0,0.7999999999999999,0.0,-0.5235987755982988,0,0.7232944,-0.99131346,2.5634947,0.12812217,-0.12002674,1.3931606,-0.09876954,-0.16764067,-0.96857905,-2.9125662,0.053861156,0.17035572,1.0645745,-1.0242637
0.0,0.0,0.7999999999999999,0.0,-0.5235987755982988,0,0.743044,-0.99916995,2.5359602,0.13016926,-0.08630297,1.3812243,-0.10136149,-0.15555935,-0.9754095,-2.6761656,0.052707817,-0.048921384,1.26942,0.9394219
0.0,0.0,0.7999999999999999,0.0,-0.5235987755982988,0,0.8305397,-0.98829913,2.5678058,0.12564929,-0.104081586,1.3832622,-0.0843614,-0.27374107,-0.9672583,-2.6549363,-5.182935e-05,-0.25560874,1.048245,0.54902685
0.0,0.0,0.7999999999999999,0.0,-0.5235987755982988,0,0.72272336,-0.9988088,2.5850878,0.13320675,-0.10504647,1.3900437,-0.015792644,-0.16763929,-0.9659475,-2.6190813,-0.033909157,0.042226437,1.1057073,0.7777863
0.0,0.0,0.7999999999999999,0.0,-0.5235987755982988,0,0.77530175,-0.97717184,2.559604,0.121628925,-0.06064654,1.3889029,-0.03944882,0.083528586,-0.96606225,-2.9726608,0.111254856,0.0036957727,1.2387792,0.41303155
0.0,0.0,0.7999999999999999,0.0,-0.5235987755982988,0,0.7024839,-0.9785931,2.5546722,0.1312027,-0.10593056,1.3902947,-0.052003115,-0.09723992,-0.98269695,-2.907395,-0.041668855,0.0805631,1.1188958,0.8077771
0.0,0.0,0.7999999999999999,0.0,-0.5235987755982988,0,0.74624485,-0.9707578,2.5603368,0.12900992,0.0036421302,1.381399,-0.03273197,-0.118143156,-0.97878575,-2.259681,0.05602005,0.07930655,1.2395474,0.1948334
0.0,0.0,0.7999999999999999,0.0,-0.5235987755982988,0,0.74104106,-0.9934429,2.5961645,0.13084473,-0.09654678,1.3936087,-0.11393596,-0.038159847,-0.9859948,-2.6058042,-0.011413172,0.099797316,1.1707633,1.0543879
0.0,0.0,0.7999999999999999,0.0,-0.5235987755982988,0,0.73897,-1.0041162,2.574088,0.13429704,-0.07125368,1.3916787,-0.13321956,-0.014782912,-0.9639329,-2.5658684,0.007354306,0.13507171,1.1592858,-0.85631996
0.0,0.0,0.7999999999999999,0.0,-0.5235987755982988,0,0.7000882,-1.0111513,2.5496721,0.12755296,-0.053796336,1.3942698,-0.067852505,-0.14342998,-0.9598092,-2.7787895,-0.002020312,-0.0039611044,1.0795857,1.6027483
0.0,0.0,0.7999999999999999,0.0,-0.5235987755982988,0,0.78305656,-0.9716658,2.5127287,0.13613632,-0.08928706,1.3875028,-0.0025659204,-0.13149925,-0.9483573,-2.725713,-0.06715436,0.04877758,1.1167835,0.013725772
0.0,0.0,0.7999999999999999,0.0,-0.5235987755982988,0,0.76137805,-1.0013124,2.5731988,0.12771812,-0.12768774,1.3880554,-0.12250626,-0.01026688,-0.9725924,-2.6529117,-0.002290597,-0.099088535,1.0929112,0.8175871
0.0,0.0,0.7999999999999999,0.0,-0.5235987755982988,0,0.7033826,-0.99385464,2.5809932,0.1307671,-0.079790674,1.3885378,-0.018000135,0.0077127195,-0.9574738,-2.3860903,0.06366963,-0.079909936,1.078563,0.6231214
0.0,0.0,0.7999999999999999,0.0,-0.5235987755982988,0,0.736903,-0.98300815,2.5536492,0.12594107,-0.065894045,1.3897663,-0.061300516,-0.11256878,-0.9706639,-2.6420922,-0.037530687,0.18121366,1.1549828,0.6633324
0.0,0.0,0.7999999999999999,0.0,-0.5235987755982988,0,0.77680355,-0.99016005,2.5535347,0.12158464,-0.07284894,1.3896562,-0.0577532,-0.07780064,-0.9385962,-2.8096912,-0.012427159,-0.066644706,1.2216365,0.81829
0.0,0.0,0.7999999999999999,0.0,-0.5235987755982988,0,0.7475979,-0.9761898,2.5667698,0.12843354,-0.051996365,1.3865476,-0.101466686,-0.16551295,-0.9708168,-3.0006373,0.034419693,-0.22210096,1.1270703,1.0911839
0.0,0.0,0.7999999999999999,0.0,-0.5235987755982988,0,0.7239297,-0.99916166,2.5596638,0.13243221,-0.054743778,1.3885243,-0.06766519,-0.16254802,-0.9682109,-2.446989,-0.02746487,0.080060154,1.0126839,-0.19860774
0.0,0.0,0.7999999999999999,0.0,-0.5235987755982988,0,0.76520884,-0.98568237,2.562497,0.13329054,-0.082604565,1.3930582,-0.08655479,-0.24565952,-0.98358923,-2.5750368,0.031617098,0.04703177,1.010646,0.10455816
0.0,0.0,0.7999999999999999,0.0,-0.5235987755982988,0,0.7267772,-0.97240263,2.5662715,0.12415552,-0.034609154,1.3758326,-0.051291313,-0.1409454,-0.9739149,-2.9578652,0.068102926,0.07150558,1.12613,0.7023736
0.0,0.0,0.7999999999999999,0.0,-0.5235987755982988,0,0.7344679,-0.98028105,2.5573218,0.1284445,-0.112992965,1.3925794,-0.12493285,-0.1702096,-0.96850353,-2.8111894,0.007301894,0.072082594,1.0794501,-0.46118987
0.0,0.0,0.7999999999999999,0.0,-0.5235987755982988,0,0.7672804,-0.9731897,2.5881314,0.14259012,-0.0931519,1.386433,-0.11111366,-0.10535909,-0.968155,-2.5887582,0.039748084,0.056910682,1.0964732,0.18002714
0.0,0.0,0.7999999999999999,0.0,-0.5235987755982988,0,0.74588215,-0.9812477,2.5797997,0.1266035,-0.038686585,1.3876553,-0.055365503,-0.077461965,-0.9705272,-2.3171299,-0.010688452,-0.17387436,1.2535188,-0.08789082
0.0,0.0,0.7999999999999999,0.0,-0.5235987755982988,0,0.72937495,-0.99180716,2.5739124,0.1330223,-0.120468594,1.3888254,-0.07822323,-0.09391883,-0.96680564,-2.4549003,0.006904543,0.14400615,1.2139603,0.662127
0.0,0.0,0.7999999999999999,0.0,-0.5235987755982988,0,0.7683299,-0.987375,2.576649,0.13412291,-0.074137546,1.3865323,-0.07440419,-0.119992994,-0.9479752,-2.488353,0.040306143,-0.08311554,1.2522157,0.64493674
0.0,0.0,0.7999999999999999,0.0,-0.5235987755982988,0,0.6402359,-0.99177736,2.5438218,0.12863621,-0.081021145,1.3947802,-0.008748318,-0.15262224,-0.9724182,-2.6413803,-0.051850226,0.0008955941,1.1873238,0.4692709
0.0,0.0,0.7999999999999999,0.0,-0.5235987755982988,0,0.7539089,-0.96439505,2.549992,0.12978666,-0.078020476,1.3927894,-0.17194122,-0.07172423,-0.97349626,-2.6260371,0.042043276,0.09303862,1.1410916,0.75105524
0.0,0.0,0.7999999999999999,0.0,-0.5235987755982988,0,0.70820695,-0.98402166,2.5697775,0.13480307,-0.08841374,1.3874096,-0.05256195,-0.09382061,-0.982456,-2.7639713,0.02618985,0.02770195,0.9954449,1.0686185
0.0,0.0,0.7999999999999999,0.0,-0.5235987755982988,0,0.77417,-0.99593455,2.5580623,0.13471878,-0.05006825,1.3830696,-0.06620512,-0.051080782,-0.96838593,-2.6534917,0.024626004,0.05367688,1.2463166,0.39600965
0.0,0.0,0.7999999999999999,0.0,-0.5235987755982988,0,0.7189165,-0.9742935,2.5896015,0.13390365,-0.10030099,1.3916851,-0.12649818,-0.02682269,-0.9692557,-2.1758637,0.06918456,0.045800224,1.045015,0.21590716
0.0,0.0,0.7999999999999999,0.0,-0.5235987755982988,0,0.6824927,-0.9592451,2.5713916,0.12974092,-0.09284848,1.3853848,-0.124883555,-0.099934846,-0.9847987,-2.794826,-0.042204544,-0.059190083,1.0487283,0.42663366
0.0,0.0,0.7999999999999999,0.0,-0.5235987755982988,0,0.7366862,-0.9749197,2.5528975,0.13014878,-0.018712578,1.3884876,-0.03321194,-0.23252274,-0.97985023,-2.9289937,0.008565903,0.04187051,1.2699577,0.44103095
0.0,0.0,0.7999999999999999,0.0,-0.5235987755982988,0,0.7682287,-0.9945581,2.5536835,0.12875608,-0.03479294,1.384186,-0.10322181,-0.11649493,-0.9539272,-2.8498366,0.01386909,0.01107544,1.1447307,-0.03781774
0.0,0.0,0.7999999999999999,0.0,-0.5235987755982988,0,0.7525038,-0.9549009,2.5854876,0.13461985,-0.08546177,1.3908694,-0.14570516,-0.1478767,-0.97861093,-2.6813312,-0.07609073,0.029206945,1.1510221,-0.70478797
0.0,0.0,0.7999999999999999,0.0,-0.5235987755982988,0,0.71505475,-0.9729101,2.602082,0.1376631,-0.074095175,1.3848222,-0.04187549,-0.04772353,-0.9743104,-2.5168192,-0.009965885,0.04331816,1.0832535,0.40754056
0.0,0.0,0.7999999999999999,0.0,-0.5235987755982988,0,0.6646274,-0.9801743,2.5940533,0.1344205,-0.06999213,1.3857967,-0.13685258,-0.18115497,-0.9728346,-2.3052604,-0.020263135,0.06772488,1.0947182,0.93173766
0.0,0.0,0.7999999999999999,0.0,-0.5235987755982988,0,0.75907344,-0.98163587,2.561036,0.13246599,-0.07719748,1.3848076,-0.07648359,-0.12579171,-0.9654786,-2.6742368,0.015133423,0.23686785,1.0881134,-0.17757323
0.0,0.0,0.7999999999999999,0.0,-0.5235987755982988,0,0.7162817,-0.9738381,2.540935,0.12642404,-0.06477225,1.3866234,-0.042916767,-0.14312057,-0.97436535,-2.3481417,-0.004827653,0.026968138,1.1173911,0.68218344
0.0,0.0,0.7999999999999999,0.0,-0.5235987755982988,0,0.79073524,-0.9819504,2.5893662,0.12683691,-0.08197414,1.3848536,-0.04544298,-0.18098505,-0.95734715,-2.9105232,-0.0008716485,-0.0046237255,1.2713902,0.23190716
0.0,0.0,0.7999999999999999,0.0,-0.5235987755982988,0,0.7367349,-0.9804209,2.566306,0.1293352,-0.028932646,1.3974738,-0.167359,-0.26263264,-0.95864785,-2.6695547,0.036764763,-0.017626688,1.1114326,-0.51616627
0.0,0.0,0.7999999999999999,0.0,-0.5235987755982988,0,0.744234,-0.9796418,2.5743833,0.13486856,-0.061281666,1.3867103,-0.10161095,-0.29161274,-0.96905684,-2.6714046,0.019473016,0.02582752,1.2112784,0.28476778
0.0,0.0,0.7999999999999999,0.0,-0.5235987755982988,0,0.73260605,-0.9856046,2.572837,0.12534262,-0.069269955,1.3756224,-0.07279977,-0.1598076,-0.9730396,-2.67386,-0.0056072813,-0.015070803,1.0948235,0.112701595
0.0,0.0,0.7999999999999999,0.0,-0.5235987755982988,0,0.72519463,-0.976046,2.5756757,0.12073564,-0.09194434,1.383489,-0.012909041,-0.10595643,-0.96234703,-2.2289648,0.03826444,0.055217065,1.0373344,1.1005716
0.0,0.0,0.7999999999999999,0.0,-0.5235987755982988,0,0.67547405,-0.9595317,2.5588615,0.122478865,-0.0582818,1.3915013,-0.08450893,-0.11657001,-0.9826181,-2.6861613,-0.037738565,0.051115975,1.2637802,-0.50321704
0.0,0.0,0.7999999999999999,0.0,-0.5235987755982988,0,0.77482826,-0.9842662,2.5692086,0.13252844,-0.09720835,1.3816849,-0.043241315,-0.0025027231,-0.979365,-2.8553233,-0.022640787,-0.027677119,0.99687713,0.01862885
0.0,0.0,0.7999999999999999,0.0,-0.5235987755982988,0,0.7695125,-0.9768567,2.550452,0.12708755,-0.06928811,1.3903719,-0.048953805,-0.16705665,-0.9589874,-2.7273834,0.009552261,0.016842129,1.2038995,-0.0064778347
0.0,0.0,0.7999999999999999,0.0,-0.5235987755982988,0,0.7802001,-0.9976238,2.5616086,0.12753505,-0.10226185,1.3803455,-0.100643694,-0.28935876,-0.96056604,-2.467936,-0.0042537097,0.10555933,1.0363787,1.3159516
0.0,0.0,0.7999999999999999,0.0,-0.5235987755982988,0,0.7647969,-0.982167,2.5799673,0.13107873,-0.083014905,1.3926579,-0.07383259,-0.025957245,-0.95530343,-2.5308368,0.058295406,0.2118866,1.1532696,1.6417917
0.0,0.0,0.7999999999999999,0.0,-0.5235987755982988,0,0.6811595,-0.95850295,2.6024964,0.13200803,-0.083674565,1.3890629,-0.046072103,-0.13944954,-0.96598357,-2.7145965,0.069830194,-0.10225129,1.1621081,-0.6938986
0.0,0.0,0.7999999999999999,0.0,-0.5235987755982988,0,0.7663519,-0.9856765,2.5798545,0.14105187,-0.11428809,1.3848984,-0.09083385,0.018168248,-0.9681738,-2.516546,0.009408248,0.13223524,1.1746588,0.2621792
0.0,0.0,0.7999999999999999,0.0,-0.5235987755982988,0,0.7454704,-0.9906383,2.5376313,0.123429015,-0.07577989,1.3847626,-0.11851511,0.088195264,-0.97443146,-2.0553212,0.00084273383,0.07017624,1.1177759,-0.9121898
0.0,0.0,0.7999999999999999,0.0,-0.5235987755982988,0,0.73785716,-0.9838192,2.5713508,0.12568069,-0.03686794,1.3861202,-0.06153411,-0.036620304,-0.97734964,-2.7748885,0.050007872,-0.1941784,1.0965503,0.39303747
0.0,0.0,0.7999999999999999,0.0,-0.5235987755982988,0,0.67343366,-0.98521954,2.584401,0.13616374,-0.086641066,1.3906218,-0.18399803,0.022352785,-0.96687776,-2.6300414,-0.016130082,0.01961186,1.071397,0.7195012
0.0,0.0,0.7999999999999999,0.0,-0.5235987755982988,0,0.7094806,-1.0085281,2.5507488,0.12936004,-0.08005602,1.3841417,-0.13942674,-0.019938733,-0.9565812,-2.6110559,0.018408546,0.1795828,1.1285374,1.6129787
0.0,0.0,0.7999999999999999,0.0,-0.5235987755982988,0,0.7052428,-0.982793,2.5224197,0.13131753,-0.044112906,1.3861274,-0.0636416,-0.0053779306,-0.9576548,-2.552758,0.011038578,-0.03456596,1.1460116,0.46315295
0.0,0.0,0.7999999999999999,0.0,-0.5235987755982988,0,0.79768515,-0.9707717,2.5801573,0.12785524,-0.07882635,1.383514,-0.08254753,-0.022670712,-0.94748926,-2.4460368,-0.0011963024,-0.11872315,1.0407652,0.16335042
0.0,0.0,0.7999999999999999,0.0,-0.5235987755982988,0,0.7152439,-0.9947372,2.5832274,0.12357436,-0.06261931,1.3911376,-0.046856027,-0.10524277,-0.9651974,-2.6819615,0.05845368,0.06204427,1.1071457,1.6141181
0.0,0.0,0.7999999999999999,0.0,-0.5235987755982988,0,0.66747487,-0.9787019,2.548629,0.12837292,-0.06896802,1.3840535,-0.12425954,-0.22162688,-0.99117804,-2.6295831,0.07665103,0.16847904,1.0068191,0.6043545
0.0,0.0,0.7999999999999999,0.0,-0.5235987755982988,0,0.74103683,-0.97710806,2.595378,0.12503314,-0.050185975,1.3892839,-0.07743176,-0.018961519,-0.9595131,-2.4341538,0.09410798,0.171267,1.0682224,1.5376053
0.0,0.0,0.7999999999999999,0.0,-0.5235987755982988,0,0.7242659,-0.9885412,2.5644104,0.13444568,-0.08936375,1.3874111,-0.08060229,-0.050812315,-0.97535104,-2.607177,-0.0901592,-0.28219536,1.1053011,-0.40636158
0.0,0.0,0.7999999999999999,0.0,-0.5235987755982988,0,0.76119435,-0.9746151,2.5498738,0.12914497,-0.03906703,1.388832,-0.08246172,-0.0030377267,-0.9855565,-2.9154782,-0.0080817295,0.010177861,1.1277995,-0.18584731
0.0,0.0,0.7999999999999999,0.0,-0.5235987755982988,0,0.7701067,-0.986531,2.577526,0.1310655,-0.06785732,1.3823658,-0.09775727,0.016955506,-0.959806,-2.3249815,0.05352347,-0.05472884,1.0614743,-0.32435897
0.0,0.0,0.7999999999999999,0.0,-0.5235987755982988,0,0.7096727,-0.982602,2.554345,0.13133997,-0.09584649,1.380694,-0.077469304,-0.052274525,-0.9618926,-2.4657223,0.038545486,-0.14963804,0.96343195,0.6431296
0.0,0.0,0.7999999999999999,0.0,-0.5235987755982988,0,0.71812195,-0.9832697,2.5725946,0.12571071,-0.08134672,1.378969,-0.097718306,-0.0021436757,-0.9658647,-2.219165,0.04391631,0.111982174,1.1367314,0.18795012
0.0,0.0,0.7999999999999999,0.0,-0.5235987755982988,0,0.7633088,-0.9721203,2.592634,0.13437909,-0.08658767,1.3849989,-0.09182538,-0.023256835,-0.9705187,-2.4800758,0.00948235,-0.001324473,1.1964803,-0.13968554
0.0,0.0,0.7999999999999999,0.0,-0.5235987755982988,0,0.7458981,-0.9652224,2.6046135,0.11859989,-0.055032194,1.3954561,-0.028974216,-0.10574412,-0.9677969,-2.7482777,-0.0031306827,0.12350021,0.9517685,-0.31821978
0.0,0.0,0.7999999999999999,0.0,-0.5235987755982988,0,0.7368195,-0.9780628,2.5369408,0.13576697,-0.024667384,1.3854839,-0.07454624,-0.007418935,-0.9634709,-2.5430715,-0.00013505384,-0.03348959,1.1148152,0.19623905
0.0,0.0,0.7999999999999999,0.0,-0.5235987755982988,0,0.7525178,-0.9930078,2.542968,0.1258337,-0.05640364,1.3787626,-0.10113407,-0.12087554,-0.96214247,-2.4263444,0.020365462,-0.06741325,1.2522924,-0.7633003
0.0,0.0,0.7999999999999999,0.0,-0.5235987755982988,0,0.7935756,-0.9879102,2.5683856,0.12562224,-0.052991286,1.3889431,-0.048341,-0.062101442,-0.9555976,-2.2755938,0.015534763,-0.13528864,1.2719274,-0.8171477
0.0,0.0,0.7999999999999999,0.0,-0.5235987755982988,0,0.6661185,-0.98443913,2.5674736,0.13161433,-0.11055348,1.397984,-0.048948426,-0.08953283,-0.958229,-2.3998315,0.03017092,-0.0108141815,1.0289235,0.7390523
0.0,0.0,0.7999999999999999,0.0,-0.5235987755982988,0,0.78787583,-0.98376137,2.558255,0.122264475,-0.08018544,1.3891951,-0.095539115,0.06693284,-0.9849324,-2.4361277,-0.029590135,0.012810896,1.2448854,0.8288972
0.0,0.0,0.7999999999999999,0.0,-0.5235987755982988,0,0.7138882,-0.97935086,2.5685544,0.12813643,-0.041148666,1.3905121,-0.106985204,-0.038386915,-0.9703527,-2.494026,0.0533023,-0.014848628,1.042029,-0.03420497
0.0,0.0,0.7999999999999999,0.0,-0.5235987755982988,0,0.71634257,-0.983208,2.5452442,0.13067198,-0.04808881,1.3896406,-0.09328148,-0.09268586,-0.95797783,-2.7042987,-0.039526552,0.008346334,1.2090487,0.6191815
0.0,0.0,0.7999999999999999,0.0,-0.5235987755982988,0,0.67340964,-0.9971265,2.526425,0.1291569,-0.08389863,1.3884813,-0.06386903,0.004277001,-0.96223795,-2.360692,-0.0214197,-0.057187233,1.0021261,0.43320414
0.0,0.0,0.7999999999999999,0.0,-0.5235987755982988,0,0.7019041,-0.98414093,2.52802,0.13041106,-0.09306221,1.3906054,-0.08156116,-0.08417178,-0.9639943,-2.6400998,-0.052267697,0.07634036,1.1551067,0.15084818
0.0,0.0,0.7999999999999999,0.0,-0.5235987755982988,0,0.71541953,-0.98410374,2.558116,0.13524932,-0.061499387,1.386949,-0.11235831,-0.05537148,-0.97195554,-2.2660525,0.0025436785,-0.027231995,1.1212292,-0.82180095
0.0,0.0,0.7999999999999999,0.0,-0.5235987755982988,0,0.73166424,-0.9728825,2.5853536,0.1258223,-0.046609942,1.3758818,0.00041574624,-0.062269088,-0.9494012,-2.626664,-0.034994468,-0.089418106,1.2184083,-0.065788865
0.0,0.0,0.7999999999999999,0.0,-0.5235987755982988,0,0.80085737,-1.008814,2.5692105,0.12810977,-0.061979603,1.3915033,-0.13518037,-0.037503734,-0.97292763,-2.4753919,-0.049968503,-0.11956633,1.1680624,0.36221477
0.0,0.0,0.7999999999999999,0.0,-0.5235987755982988,0,0.7209709,-0.972184,2.5603037,0.12676485,-0.0764098,1.3835659,-0.13104366,0.0356809,-0.97779745,-2.6715767,-0.029321522,-0.023282204,1.0923868,-0.17105201
0.0,0.0,0.7999999999999999,0.0,-0.5235987755982988,0,0.6919139,-0.9844536,2.59778,0.1205144,-0.10412331,1.3922584,-0.06141346,-0.13932867,-0.9609321,-2.4909177,0.014768562,0.028768925,1.3788303,1.1033275
0.0,0.0,0.7999999999999999,0.0,-0.5235987755982988,0,0.70180905,-0.9750325,2.5769377,0.13044931,-0.11291045,1.3869216,-0.07906179,-0.06465661,-0.95949924,-2.6804311,0.022779437,-0.05549433,1.0478836,0.405726
0.0,0.0,0.7999999999999999,0.0,-0.5235987755982988,0,0.66745716,-0.98586076,2.5456417,0.12606679,-0.029845282,1.381051,-0.124935724,-0.08234982,-0.96007746,-2.2683313,-0.031004203,0.13715315,1.262526,0.33561647
0.0,0.0,0.7999999999999999,0.0,-0.5235987755982988,0,0.7110027,-0.98693454,2.5621495,0.13077997,-0.10952341,1.3844503,-0.16381952,-0.096827164,-0.9606885,-2.6115506,-0.012779788,0.21267956,1.0094931,0.36243048
0.0,0.0,0.7999999999999999,0.0,-0.5235987755982988,0,0.7497316,-0.9844811,2.5600152,0.13438864,-0.0989114,1.3936808,-0.09559588,-0.058434047,-0.96169794,-2.3682635,-0.044653613,0.02628502,1.1337484,0.49058703
0.0,0.0,0.7999999999999999,0.0,-0.5235987755982988,0,0.6638671,-0.97371566,2.5570762,0.12937908,-0.07089847,1.3896824,-0.08101553,-0.10988559,-0.9654339,-2.5746136,-0.0273364,0.08146988,1.0546107,0.2022704
0.0,0.0,0.7999999999999999,0.0,-0.5235987755982988,0,0.6945452,-0.99387044,2.5755382,0.1193001,-0.056717675,1.4017539,-0.07979738,-0.097804114,-0.9457847,-2.37674,-0.014333545,0.042395998,1.0874202,0.2314284
0.0,0.0,0.7999999999999999,0.0,-0.5235987755982988,0,0.71448696,-0.9651837,2.5575492,0.12585309,-0.09745279,1.3921424,-0.10328866,-0.10162591,-0.9517245,-2.7159836,0.017129412,-0.08113078,1.1462106,0.8120332
0.0,0.0,0.7999999999999999,0.0,-0.5235987755982988,0,0.6982612,-0.98838377,2.581018,0.13286957,-0.052331638,1.3862088,-0.10425046,0.043215636,-0.97211385,-2.6431267,-0.013716102,-0.023842143,1.2607218,1.1156663
0.0,0.0,0.7999999999999999,0.0,-0.5235987755982988,0,0.71414536,-1.0060132,2.5676243,0.12175726,-0.07718285,1.3872069,-0.14265053,-0.18177162,-0.97086126,-2.6524065,0.02636271,-0.18976784,1.212292,-0.012744458
0.0,0.0,0.7999999999999999,0.0,-0.5235987755982988,0,0.79067886,-0.9879657,2.582558,0.12705258,-0.0845366,1.3903991,-0.081067085,-0.026366262,-0.9731669,-2.7997081,-0.023264728,0.13012712,1.127165,-0.4443016
0.0,0.0,0.7999999999999999,0.0,-0.5235987755982988,0,0.68786913,-0.97315246,2.5701187,0.12694015,-0.107464395,1.3945343,-0.11083696,-0.034661956,-0.96335614,-2.5251539,-0.003289048,0.06487039,1.1822971,-0.48213804
0.0,0.0,0.7999999999999999,0.0,-0.5235987755982988,0,0.68114877,-0.9896339,2.570885,0.12504481,-0.033719745,1.3867961,-0.05533319,-0.058485154,-0.9544864,-2.518053,0.014174794,-0.07056404,1.0410726,0.17260557
0.0,0.0,0.7999999999999999,0.0,-0.5235987755982988,0,0.79553825,-0.9905752,2.5770476,0.1255862,-0.04491841,1.3832132,-0.06488046,0.058954824,-0.9635866,-2.5528893,-0.026972236,-0.06835665,1.1718134,0.90443105
0.0,0.0,0.7999999999999999,0.0,-0.5235987755982988,0,0.74349195,-0.97888094,2.5366068,0.13430336,-0.075142324,1.3864847,-0.11008633,-0.086457215,-0.99901134,-3.074584,-0.020017168,-0.088796064,1.0621423,0.4094351
0.0,0.0,0.7999999999999999,0.0,-0.5235987755982988,0,0.6765989,-0.97723216,2.5683475,0.13029112,-0.097184084,1.3895704,-0.08643511,-0.12313733,-0.9575723,-2.6423347,0.052989032,0.041454263,1.1027777,0.56095314
0.0,0.0,0.7999999999999999,0.0,-0.5235987755982988,0,0.7364998,-1.000945,2.5864441,0.121458136,-0.103266425,1.3828399,-0.090841,-0.027276555,-0.9636602,-2.168362,0.03359686,-0.16170539,1.115423,-0.088477984
0.0,0.0,0.7999999999999999,0.0,-0.5235987755982988,0,0.74924713,-0.985951,2.571089,0.12641364,-0.029340055,1.3938696,-0.20196065,0.0946616,-0.9680844,-2.6693158,-0.023980817,0.02291133,1.1256647,-0.078782804
0.0,0.0,0.7999999999999999,0.0,-0.5235987755982988,0,0.7262891,-0.9673239,2.5378652,0.13615789,-0.054267094,1.3972671,-0.062555574,-0.15268695,-0.96067226,-2.6402662,0.116651654,0.12121841,1.0948104,0.87385917
0.0,0.0,0.7999999999999999,0.0,-0.5235987755982988,0,0.6905801,-0.977588,2.5616,0.13189903,-0.09770675,1.3870324,-0.098523945,-0.00975042,-0.98124456,-2.853464,-0.042028137,0.19983754,1.0143206,0.63240033
0.0,0.0,0.7999999999999999,0.0,-0.5235987755982988,0,0.67052865,-0.9794244,2.5729306,0.12601972,-0.08895019,1.3857468,-0.12914218,-0.092204444,-0.95377225,-2.754761,-0.012652418,0.10726998,1.1144814,0.06828809
0.0,0.0,0.7999999999999999,0.0,-0.5235987755982988,0,0.69983083,-0.98504484,2.5468676,0.12376856,-0.06374022,1.3875772,-0.099953085,-0.04969317,-0.96750826,-2.4432762,-0.016226236,0.02195979,1.2093133,-0.7463486
0.0,0.0,0.7999999999999999,0.0,-0.5235987755982988,0,0.7687153,-0.9953442,2.5742307,0.12887329,-0.07194306,1.3844491,-0.041858353,-0.2046764,-0.974862,-2.5360723,0.012686178,0.10713054,1.0351032,-1.0653219
0.0,0.0,0.7999999999999999,0.0,-0.5235987755982988,0,0.7201876,-0.97871214,2.581227,0.12795036,-0.08403717,1.3834866,-0.09114763,-0.019681316,-0.96633613,-2.7759748,-0.05023794,-0.0280595,1.1426492,0.75101733
0.0,0.0,0.7999999999999999,0.0,-0.5235987755982988,0,0.6926534,-0.9977464,2.580754,0.12637107,-0.052901246,1.3829951,-0.030226165,0.041337196,-0.9740607,-2.5198064,-0.03229103,-0.14494468,1.067226,-1.0525713
0.0,0.0,0.7999999999999999,0.0,-0.5235987755982988,0,0.674405,-0.99822766,2.5644433,0.12728289,-0.09600778,1.3903394,-0.07814719,-0.070408665,-0.96397394,-2.5414717,0.01776325,-0.17256479,1.2714542,-0.3272692
0.0,0.0,0.7999999999999999,0.0,-0.5235987755982988,0,0.7338325,-0.96200025,2.5971768,0.12814839,-0.05603406,1.3927467,-0.11003429,-0.06451847,-0.9919945,-2.6542351,0.04531441,0.002600069,1.0376942,-0.9215507
0.0,0.0,0.7999999999999999,0.0,-0.5235987755982988,0,0.7763188,-0.9901264,2.5960114,0.13275436,-0.0716578,1.3810102,-0.02807112,-0.10027029,-0.9451778,-2.5641603,-0.051421057,0.14777756,1.1965723,-0.09805564
0.0,0.0,0.7999999999999999,0.0,-0.5235987755982988,0,0.70870745,-0.98599505,2.554339,0.13432366,-0.05398765,1.3872219,-0.10346194,0.002448268,-0.9669562,-2.7052908,0.07153741,-0.18302651,1.3049779,0.012723259
0.0,0.0,0.7999999999999999,0.0,-0.5235987755982988,0,0.6713991,-0.982951,2.584287,0.12716533,-0.03684564,1.3891134,-0.07740383,-0.053857647,-0.9657634,-2.79694,-0.04062617,0.011481834,1.0624523,-0.114738666
0.0,0.0,0.7999999999999999,0.0,-0.5235987755982988,0,0.73621136,-0.97538894,2.584692,0.13746528,-0.04449547,1.3816595,-0.063557945,-0.12898055,-0.959872,-3.1277144,0.016206516,0.17484276,1.1952965,0.32780492
0.0,0.0,0.7999999999999999,0.0,-0.5235987755982988,0,0.66560346,-0.98425746,2.572097,0.12718296,-0.10159734,1.3823911,-0.09716546,-0.13566332,-0.95085925,-2.642796,-0.025127858,0.19458449,1.3002472,-0.8424182
0.0,0.0,0.7999999999999999,0.0,-0.5235987755982988,0,0.73880666,-0.9837664,2.5642076,0.12995479,-0.08939791,1.3900448,-0.06844743,-0.13582188,-0.98498243,-2.3379848,-0.04516922,-0.03677698,1.1183231,0.5171775
0.0,0.0,0.7999999999999999,0.0,-0.5235987755982988,0,0.67127705,-0.9783835,2.5504801,0.12932272,-0.045569047,1.3969262,-0.06904765,-0.012701303,-0.9670776,-2.5331044,-0.0350141,0.095688224,1.258836,0.30789927
0.0,0.0,0.7999999999999999,0.0,-0.5235987755982988,0,0.73799956,-0.9911935,2.5490615,0.13071068,-0.10293888,1.3796333,-0.09890605,-0.19246861,-0.9552809,-2.2232087,0.05898403,-0.11543356,1.1071197,0.23867916
0.0,0.0,0.7999999999999999,0.0,-0.5235987755982988,0,0.70981747,-0.98970413,2.5772564,0.13644865,-0.040797275,1.3931824,-0.14015348,-0.027072152,-0.96829826,-2.7576249,-0.005791299,-0.011631416,1.1451048,0.038601436
0.0,0.0,0.7999999999999999,0.0,-0.5235987755982988,0,0.7893815,-0.99740773,2.5935404,0.124902315,-0.076850705,1.3942983,-0.10889828,-0.14047468,-0.97373796,-2.6676211,-0.026390802,0.17769963,1.140749,0.1685157
0.0,0.0,0.7999999999999999,0.0,-0.5235987755982988,0,0.7720187,-0.9847459,2.5903528,0.1290966,-0.06760914,1.3926502,-0.14523183,-0.16184534,-0.96576464,-2.453028,0.07743733,-0.06525488,1.2297834,1.4213936
0.0,0.0,0.7999999999999999,0.0,-0.5235987755982988,0,0.7582184,-0.9815144,2.5868738,0.1297334,-0.0958435,1.3943168,-0.16874593,-0.08034773,-0.9605788,-2.5492601,-0.068028435,0.107847445,1.0951122,1.2148794
0.0,0.0,0.7999999999999999,0.0,-0.5235987755982988,0,0.67480534,-1.0045812,2.5735178,0.13250172,-0.059270795,1.3857607,0.016360905,-0.03873338,-0.9628548,-2.6451015,0.026684698,-0.15739433,1.0332973,-0.5482739
0.0,0.0,0.7999999999999999,0.0,-0.5235987755982988,0,0.7477745,-0.99128544,2.5630357,0.12641336,-0.014151906,1.3852727,-0.20189366,-0.22096764,-0.9645371,-2.2185504,-0.004541957,0.01116666,1.1284131,0.0024860597
0.0,0.0,0.7999999999999999,0.0,-0.5235987755982988,0,0.66775197,-0.99096453,2.5661993,0.12802602,-0.040584095,1.3834776,-0.13014044,-0.043783017,-0.96122986,-2.6084058,0.020528821,-0.11360544,1.1456652,1.2047563
0.0,0.0,0.7999999999999999,0.0,-0.5235987755982988,0,0.79235536,-0.99330926,2.5804589,0.1355756,-0.08203052,1.3875914,-0.18483824,-0.13603757,-0.9833073,-2.4285378,0.012562999,-0.044273168,1.034587,0.1640798
0.0,0.0,0.7999999999999999,0.0,-0.5235987755982988,0,0.75075954,-0.98145926,2.5684085,0.13129857,-0.037856027,1.385073,-0.15667291,-0.12050407,-0.95745605,-2.7490308,-0.014580327,0.09020685,1.1731695,0.17443864
0.0,0.0,0.7999999999999999,0.0,-0.5235987755982988,0,0.808215,-0.98148566,2.5415387,0.12649362,-0.08675001,1.3902601,-0.050370403,-0.017947331,-0.96321,-2.3891764,-0.061217744,0.15654552,1.099697,0.46939877
0.0,0.0,0.7999999999999999,0.0,-0.5235987755982988,0,0.70614296,-0.9693842,2.5988874,0.12710741,-0.06844674,1.399612,-0.12438759,-0.11641093,-0.97123307,-2.3544059,-0.06107228,0.15889071,1.0613433,0.27073315
0.0,0.0,0.7999999999999999,0.0,-0.5235987755982988,0,0.77203447,-1.0058991,2.6060853,0.13085088,-0.0628743,1.3962771,-0.10221896,-0.18415777,-0.972683,-2.4422183,0.0046860157,0.18510668,1.0989534,-0.02140247
0.0,0.0,0.7999999999999999,0.0,-0.5235987755982988,0,0.74851185,-0.98928714,2.5619798,0.13757227,-0.068054065,1.3950262,-0.17479163,-0.089959994,-0.97069573,-2.827606,0.048143845,0.015143511,1.0535853,0.7482917
0.0,0.0,0.7999999999999999,0.0,-0.5235987755982988,0,0.7492823,-0.9886025,2.5591438,0.13309425,-0.06508233,1.3871456,0.0027494996,-0.1628441,-0.95305705,-2.01846,-0.007488966,0.0142093245,0.9427413,-0.7639758
0.0,0.0,0.7999999999999999,0.0,-0.5235987755982988,0,0.6790787,-0.9799395,2.5549202,0.13290073,-0.06448576,1.3875086,-0.14158633,-0.08700858,-0.96212286,-2.2196617,0.039030466,0.14079423,1.0146949,-0.61106294
0.0,0.0,0.7999999999999999,0.0,-0.5235987755982988,0,0.7436337,-0.98239815,2.5929186,0.12430743,-0.09700111,1.3882192,-0.12959118,-0.08045899,-0.9841161,-2.4345253,-0.01641134,0.053920887,1.036654,0.34680995
0.0,0.0,0.7999999999999999,0.0,-0.5235987755982988,0,0.73624325,-1.004759,2.5638373,0.13134338,-0.050990105,1.3894523,-0.094217755,0.00022172755,-0.9493735,-2.4913871,-0.089683354,0.1481011,1.0592586,-0.23209345
0.0,0.0,0.7999999999999999,0.0,-0.5235987755982988,0,0.7026453,-0.97992986,2.5800757,0.13447149,-0.06009841,1.400291,-0.13462643,-0.20307577,-0.96285796,-2.5809555,-0.032561712,0.07010274,1.094663,-0.051079422
0.0,0.0,0.7999999999999999,0.0,-0.5235987755982988,0,0.82303596,-0.99740034,2.5654893,0.120253965,-0.089827456,1.3807888,-0.11592274,-0.2366087,-0.9645428,-2.2049522,-0.08456465,-0.058447685,1.2928,0.8859148
0.0,0.0,0.7999999999999999,0.0,-0.5235987755982988,0,0.7000798,-0.97898805,2.5403636,0.13394521,-0.0661786,1.3869672,-0.09770763,-0.115472786,-0.96968883,-2.7243564,-0.034464292,0.06920511,1.1659253,-0.056401867
0.0,0.0,0.7999999999999999,0.0,-0.5235987755982988,0,0.7300567,-0.9787973,2.5700927,0.13551605,-0.040847026,1.3932228,-0.076676525,0.07724672,-0.97415054,-2.3359926,-0.050487928,0.030266058,1.2140244,-0.12421489
0.0,0.0,0.7999999999999999,0.0,-0.5235987755982988,0,0.7453723,-0.98402035,2.5721219,0.13089895,-0.050284807,1.3870449,-0.07554826,-0.12392625,-0.98369265,-2.208486,-0.028529873,0.07062855,1.2440928,0.9315079
0.0,0.0,0.7999999999999999,0.0,-0.5235987755982988,0,0.6957792,-0.98998153,2.5595653,0.1335801,-0.053576753,1.3943851,-0.10013837,-0.20623772,-0.98212194,-2.3534222,-0.015906353,0.10305278,1.1275238,0.3176268
0.0,0.0,0.7999999999999999,0.0,-0.5235987755982988,0,0.76755786,-1.0075808,2.5473244,0.13537809,-0.067732945,1.387573,-0.14506416,0.09324564,-0.9614852,-2.5072172,0.040781662,-0.060447574,1.126756,0.1961621
0.0,0.0,0.7999999999999999,0.0,-0.5235987755982988,0,0.70366055,-0.99772656,2.5705376,0.13324903,-0.09916283,1.3865299,-0.06974069,-0.23652944,-0.96130526,-2.4778743,0.0112098595,0.015701035,1.1311882,-0.34700152
0.0,0.0,0.7999999999999999,0.0,-0.5235987755982988,0,0.7075718,-1.0006508,2.5669847,0.13061473,-0.09530832,1.3813277,0.0020347282,-0.1591652,-0.9657094,-2.3136876,0.041097958,0.012511048,1.0661739,0.30784285
0.0,0.0,0.7999999999999999,0.0,-0.5235987755982988,0,0.7427076,-0.9900816,2.5801814,0.13418998,-0.07950809,1.3887725,-0.05480536,-0.14645362,-0.96865714,-2.2522469,-0.062360078,-0.0120227495,1.1231682,-0.8495793
0.0,0.0,0.7999999999999999,0.0,-0.5235987755982988,0,0.7623323,-0.9828895,2.5719352,0.13574195,-0.10224737,1.3911113,0.024132026,-0.15256354,-0.97286034,-2.2980962,0.05519824,-0.026031492,1.0288979,-0.6586849
0.0,0.0,0.7999999999999999,0.0,-0.5235987755982988,0,0.72630036,-0.98985416,2.5696785,0.12465496,-0.07511189,1.380315,-0.05049756,-0.057107996,-0.97340703,-2.310746,-0.02380472,0.0926165,0.86401474,0.29669428
0.0,0.0,0.7999999999999999,0.0,-0.5235987755982988,0,0.7066892,-0.9852584,2.553217,0.13696574,-0.083996296,1.3878213,-0.07685416,-0.15109912,-0.9749969,-2.4765065,0.0039965548,0.12818383,1.0911367,-0.45566872
0.0,0.0,0.7999999999999999,0.0,-0.5235987755982988,0,0.7380009,-0.997535,2.5441086,0.12961781,-0.06519935,1.3765934,-0.15772134,-0.14709088,-0.9850303,-2.5005953,0.009562259,-0.095318496,1.1915529,-0.26962623
0.0,0.0,0.7999999999999999,0.0,-0.5235987755982988,0,0.7834813,-0.98435485,2.5714777,0.12717497,-0.10809745,1.384979,-0.029456217,-0.06909914,-0.9775711,-2.7311428,0.05641089,0.03759487,1.1765462,1.2406417
0.0,0.0,0.7999999999999999,0.0,-0.5235987755982988,0,0.78854287,-0.97960764,2.560992,0.13898249,-0.090360425,1.3837469,-0.080136135,-0.019167496,-0.9715224,-2.455659,0.054806594,-0.11247604,1.1597755,-0.50684255
0.0,0.0,0.7999999999999999,0.0,-0.5235987755982988,0,0.69141483,-0.9692335,2.5594277,0.124886125,-0.039557736,1.3918179,-0.07301959,-0.064980745,-0.9547193,-2.8708706,-0.057626672,0.12609734,1.1611147,0.7541992
0.0,0.0,0.7999999999999999,0.0,-0.5235987755982988,0,0.7229241,-0.97828674,2.5367885,0.1311531,-0.07414715,1.3936831,-0.12258898,-0.019678116,-0.9655844,-2.7495532,-0.01071975,0.13479827,1.0875667,0.14664014
0.0,0.0,0.7999999999999999,0.0,-0.5235987755982988,0,0.70454705,-0.9889044,2.5699599,0.124830715,-0.08245154,1.3836808,-0.14675723,0.07393175,-0.9743716,-2.8096058,0.044824105,0.004965089,1.1239144,-0.8737052
