sanky1234/BimanualDexCatch/isaacgymenvs/cem_results/football_pose_0.1_-0.1_1.0999999999999999_0.5235987755982988_0.5235987755982988_0_2025-05-26.csv
x,y,z,roll,pitch,yaw,robot1/joint1,robot1/joint2,robot1/joint3,robot1/joint4,robot1/joint5,robot1/joint6,robot1/joint7,robot2/joint1,robot2/joint2,robot2/joint3,robot2/joint4,robot2/joint5,robot2/joint6,robot2/joint7
0.1,-0.1,1.0999999999999999,0.5235987755982988,0.5235987755982988,0,-0.4724465,-0.9306839,-0.66080546,0.23514043,-0.10835217,0.73101634,-0.8215081,-0.9984216,-1.5858799,2.5352523,-0.13339733,0.4678656,1.1234056,-0.107516974
0.1,-0.1,1.0999999999999999,0.5235987755982988,0.5235987755982988,0,-0.47172138,-0.9347506,-0.59913963,0.06373471,-0.21036036,0.96106076,-1.1919917,-0.9953363,-1.5868067,2.5346098,0.026224103,0.18252547,1.0188187,-0.33407494
0.1,-0.1,1.0999999999999999,0.5235987755982988,0.5235987755982988,0,-0.47031534,-0.9318706,-0.9340977,0.1851449,-0.04434216,0.80709285,-0.74655205,-0.9990558,-1.5850765,2.5322602,0.08714152,-0.014915576,1.0543323,-0.39431077
0.1,-0.1,1.0999999999999999,0.5235987755982988,0.5235987755982988,0,-0.46569154,-0.93380785,-0.7233753,0.02206712,0.06508498,0.7394094,-0.23887336,-0.9997176,-1.5865954,2.5300548,0.04181275,0.04031609,1.3189411,-0.48277032
0.1,-0.1,1.0999999999999999,0.5235987755982988,0.5235987755982988,0,-0.46857888,-0.9333354,-0.52614933,0.123614535,0.29132882,0.9611913,-0.91415024,-0.9998067,-1.5880114,2.5346932,-0.022378758,0.19427706,0.9301877,-0.021611597
0.1,-0.1,1.0999999999999999,0.5235987755982988,0.5235987755982988,0,-0.45902833,-0.93286204,-0.61858016,0.0512312,-0.1368947,0.99857086,-0.61440444,-0.9942177,-1.5847,2.5306582,0.017890748,-0.13674709,0.9020354,-0.09835516
0.1,-0.1,1.0999999999999999,0.5235987755982988,0.5235987755982988,0,-0.47428063,-0.9320365,-0.18027653,0.10939999,0.33898577,0.758981,-0.969763,-0.9965577,-1.5853256,2.5339596,0.14532714,-0.41740128,0.8369909,-0.23847452
0.1,-0.1,1.0999999999999999,0.5235987755982988,0.5235987755982988,0,-0.46281883,-0.93690205,-0.8512538,0.082471296,-0.08844115,0.7431848,-0.73630303,-0.9953392,-1.5858203,2.536317,0.01507119,-0.31852487,0.9840001,-0.13964652
0.1,-0.1,1.0999999999999999,0.5235987755982988,0.5235987755982988,0,-0.47448614,-0.9355381,-0.72985166,0.24494503,-0.04523395,0.93622404,-0.8230109,-1.0002979,-1.5838034,2.53458,0.010514935,0.045356657,1.1566048,0.49484873
0.1,-0.1,1.0999999999999999,0.5235987755982988,0.5235987755982988,0,-0.46422148,-0.9344576,-0.9030766,0.07311734,0.055386133,0.5704329,-0.7860166,-0.9986325,-1.5845305,2.533699,0.061728545,-0.17886117,1.2152395,-1.2344215
0.1,-0.1,1.0999999999999999,0.5235987755982988,0.5235987755982988,0,-0.46149218,-0.93478125,-0.5393941,0.14254448,-0.17461576,1.2643914,-1.3407558,-0.9993935,-1.5866393,2.5291746,0.025003532,0.46091166,0.98755497,0.7334931
0.1,-0.1,1.0999999999999999,0.5235987755982988,0.5235987755982988,0,-0.47927484,-0.932242,-0.9504844,0.05504977,-0.21304373,0.6768386,-1.247185,-0.9981775,-1.5851908,2.532859,0.015894914,-0.1230003,1.1691424,-0.6652589
0.1,-0.1,1.0999999999999999,0.5235987755982988,0.5235987755982988,0,-0.48210934,-0.93215907,-0.6217051,0.1799947,-0.010933293,1.1096269,-1.0592391,-1.0008118,-1.5841684,2.5311968,0.047017053,0.25131458,0.99733204,0.3692686
0.1,-0.1,1.0999999999999999,0.5235987755982988,0.5235987755982988,0,-0.46437374,-0.93463194,-0.8506498,0.08572435,-0.06928464,0.7547237,-1.5188468,-0.99768174,-1.5875655,2.529352,-0.037067078,-0.13265036,1.1344055,0.12461442
0.1,-0.1,1.0999999999999999,0.5235987755982988,0.5235987755982988,0,-0.47131252,-0.931973,-0.71283996,0.18360806,0.012851083,1.1101967,-1.7276886,-0.99714935,-1.5845032,2.525614,-0.07264511,0.28356707,1.1423866,0.035017874
0.1,-0.1,1.0999999999999999,0.5235987755982988,0.5235987755982988,0,-0.4720306,-0.9366951,-0.71399325,0.17220454,0.027687497,0.87749183,-1.0198812,-1.0010897,-1.5850577,2.5343394,-0.07560112,-0.03778068,1.0077124,-0.74675155
0.1,-0.1,1.0999999999999999,0.5235987755982988,0.5235987755982988,0,-0.46673357,-0.93217605,-0.65144753,0.057461925,0.40747473,0.71973807,-0.66164196,-0.99530184,-1.5859945,2.5278554,-0.023246417,0.4037222,1.2725261,0.94634116
0.1,-0.1,1.0999999999999999,0.5235987755982988,0.5235987755982988,0,-0.47742888,-0.9307493,-0.6456529,0.12416027,0.18450315,0.74071795,-1.5570168,-0.99671406,-1.5853285,2.531281,0.1180004,-0.234514,0.96643263,0.74640155
0.1,-0.1,1.0999999999999999,0.5235987755982988,0.5235987755982988,0,-0.47577098,-0.9282786,-0.747891,0.051398665,-0.21013317,0.80948925,-1.7008446,-0.9940743,-1.5857577,2.5352793,-0.025179876,-0.07527463,1.082004,-0.45968068
0.1,-0.1,1.0999999999999999,0.5235987755982988,0.5235987755982988,0,-0.4679269,-0.9327685,-0.6015792,0.100249626,-0.08589376,0.69479513,-0.30216658,-0.9994792,-1.584952,2.529111,0.06623233,-0.13986593,1.233712,-0.0029461866
0.1,-0.1,1.0999999999999999,0.5235987755982988,0.5235987755982988,0,-0.44897386,-0.93684965,-0.41905376,-0.004560357,0.2828943,0.5809392,-1.7562476,-0.9983038,-1.5852367,2.529737,-0.030182498,0.22450207,1.2037866,-0.6603738
0.1,-0.1,1.0999999999999999,0.5235987755982988,0.5235987755982988,0,-0.46464503,-0.9305365,-0.31208384,0.058593206,0.049928855,0.90968955,-0.9844369,-0.9982408,-1.5852367,2.5330746,0.0052466067,-0.08379845,1.4048249,-0.06590182
0.1,-0.1,1.0999999999999999,0.5235987755982988,0.5235987755982988,0,-0.4546034,-0.9334638,-0.76332706,0.063705474,-0.21427117,0.95908976,-1.3091608,-0.9926705,-1.5858293,2.52969,0.022089519,0.047767438,0.96062905,-0.10006149
0.1,-0.1,1.0999999999999999,0.5235987755982988,0.5235987755982988,0,-0.4621339,-0.9319509,-0.74788857,0.075587586,-0.17037958,0.9951889,-0.5963987,-0.9967502,-1.5861909,2.5284348,-0.051862296,0.0019459728,1.2615503,0.23886512
0.1,-0.1,1.0999999999999999,0.5235987755982988,0.5235987755982988,0,-0.46649003,-0.9293327,-0.570929,0.09425776,-0.06894632,0.8265177,-0.8228036,-0.99781907,-1.5871809,2.5345864,0.053202108,-0.1253364,1.109764,-0.7536476
0.1,-0.1,1.0999999999999999,0.5235987755982988,0.5235987755982988,0,-0.48029274,-0.93227446,-1.0328661,0.22442898,-0.06327583,1.0445157,0.11006214,-0.998273,-1.5856194,2.529582,-0.112651296,0.32059574,1.1785427,-0.9281372
0.1,-0.1,1.0999999999999999,0.5235987755982988,0.5235987755982988,0,-0.4727581,-0.93403417,-0.88031906,0.19288205,-0.056865346,0.707156,-1.4986893,-0.99720615,-1.5859317,2.5306516,0.025372954,0.24641648,1.1362714,-0.4220471
0.1,-0.1,1.0999999999999999,0.5235987755982988,0.5235987755982988,0,-0.4787153,-0.9328336,-0.4932728,0.0540073,-0.02297085,1.09622,-0.46916115,-0.998101,-1.5870557,2.5300689,-0.020185051,-0.07339168,1.1433055,-0.66218036
0.1,-0.1,1.0999999999999999,0.5235987755982988,0.5235987755982988,0,-0.46327192,-0.9359767,-0.7222603,0.053601924,0.13784996,1.132753,-1.4962722,-0.99754506,-1.586423,2.5256793,-0.040622313,-0.32518312,1.1390499,-0.4104284
0.1,-0.1,1.0999999999999999,0.5235987755982988,0.5235987755982988,0,-0.49311197,-0.93058777,-1.1318372,0.083547585,0.061429523,1.1563778,-1.0592924,-0.99527586,-1.5855461,2.532333,-0.039865445,-0.19803077,1.2885022,-0.3752074
0.1,-0.1,1.0999999999999999,0.5235987755982988,0.5235987755982988,0,-0.4832648,-0.9333688,-0.88431746,0.21582903,-0.21066402,0.8211988,-1.2379835,-1.0028707,-1.5863878,2.5361278,0.11031724,0.2368063,1.2132409,0.27914342
0.1,-0.1,1.0999999999999999,0.5235987755982988,0.5235987755982988,0,-0.4781572,-0.93086535,-0.36601895,0.17031424,0.20826294,1.0389504,-1.6781812,-1.0047584,-1.5857975,2.5313811,0.09126885,-0.00857541,0.96762305,-0.014688659
0.1,-0.1,1.0999999999999999,0.5235987755982988,0.5235987755982988,0,-0.46749258,-0.9309538,-0.77539515,0.114647046,-0.040916402,0.8056163,-1.0372604,-0.99673116,-1.5878416,2.5284069,0.0379655,0.32563752,0.98966205,0.09529862
0.1,-0.1,1.0999999999999999,0.5235987755982988,0.5235987755982988,0,-0.4696057,-0.9332372,-0.77308095,0.13703813,0.22617431,1.1745466,-0.58468944,-0.9994295,-1.584695,2.5354443,-0.05556679,0.4539888,1.065967,0.43686572
0.1,-0.1,1.0999999999999999,0.5235987755982988,0.5235987755982988,0,-0.46246853,-0.9345944,-1.0310138,0.1503084,0.20252846,1.1733475,-1.3624799,-0.9995859,-1.5866075,2.5372064,-0.01831617,0.009431495,0.89278525,-0.2233344
0.1,-0.1,1.0999999999999999,0.5235987755982988,0.5235987755982988,0,-0.46833593,-0.9338427,-0.31877849,-0.044430938,-0.05414055,0.6180517,-1.0492028,-0.99838644,-1.587366,2.532179,-0.09199467,-0.12788059,1.1140277,-0.33499098
0.1,-0.1,1.0999999999999999,0.5235987755982988,0.5235987755982988,0,-0.46123055,-0.93489575,-0.9414324,-0.016802546,-0.25543123,0.6754505,-1.2788973,-0.9981921,-1.5865346,2.5250287,-0.019907767,-0.09422186,1.1757138,-0.20250134
0.1,-0.1,1.0999999999999999,0.5235987755982988,0.5235987755982988,0,-0.44941092,-0.93557745,-0.8860362,0.09451099,-0.15246733,0.96246934,-1.7285546,-0.9979599,-1.5839475,2.5309012,-0.111530885,0.055362675,0.91060257,0.00372543
0.1,-0.1,1.0999999999999999,0.5235987755982988,0.5235987755982988,0,-0.45922816,-0.9331688,-0.29167882,0.025716644,0.057857815,0.6710203,-0.5798843,-0.9973414,-1.5836762,2.5292428,0.07726511,0.07214183,1.0331268,1.6055264
0.1,-0.1,1.0999999999999999,0.5235987755982988,0.5235987755982988,0,-0.47505507,-0.93194836,-0.44606262,0.101314016,0.17072383,0.6523993,-1.180588,-1.0009766,-1.5876209,2.5281775,0.02238469,-0.29204845,1.0393866,0.5612183
0.1,-0.1,1.0999999999999999,0.5235987755982988,0.5235987755982988,0,-0.4740413,-0.9306729,-0.65745795,0.14719439,0.10523229,1.1457316,0.1851266,-0.9980622,-1.5853049,2.530918,-0.12713161,0.053945493,1.1275113,-0.41697693
0.1,-0.1,1.0999999999999999,0.5235987755982988,0.5235987755982988,0,-0.4687294,-0.9284575,-0.5907018,0.09178464,-0.012264529,0.56204134,0.09199623,-1.00041,-1.5870427,2.5315466,-0.03849106,0.21904665,1.1301582,0.54866934
0.1,-0.1,1.0999999999999999,0.5235987755982988,0.5235987755982988,0,-0.46957266,-0.9306897,-0.43973434,0.1502915,-0.05374769,0.7177532,-0.74102193,-0.99508697,-1.5855969,2.532832,-0.029998804,0.225821,0.86115056,-0.9566265
0.1,-0.1,1.0999999999999999,0.5235987755982988,0.5235987755982988,0,-0.46943736,-0.9322712,-1.0415587,0.02801361,0.01981853,0.6341107,0.055139612,-0.9995976,-1.5874884,2.5325496,-0.07086157,0.26609153,1.0834906,0.057289988
0.1,-0.1,1.0999999999999999,0.5235987755982988,0.5235987755982988,0,-0.4668074,-0.9293992,-0.4506398,0.19113265,0.18257125,0.9835509,-0.81698966,-0.99448234,-1.5835266,2.5277746,-0.052452385,0.16904989,1.0373135,-0.2590884
0.1,-0.1,1.0999999999999999,0.5235987755982988,0.5235987755982988,0,-0.46790704,-0.9345584,-0.0073937583,0.104496896,0.0012226052,0.7738148,-0.36615995,-0.9961456,-1.5859705,2.5314088,-0.007290334,0.042143803,0.9090978,1.0869274
0.1,-0.1,1.0999999999999999,0.5235987755982988,0.5235987755982988,0,-0.4582704,-0.9301267,-0.71725154,0.22696625,-0.013718476,0.91052437,-1.3000058,-0.9988267,-1.5879714,2.534063,0.018837681,-0.021872679,0.91950935,-0.057769842
0.1,-0.1,1.0999999999999999,0.5235987755982988,0.5235987755982988,0,-0.47420257,-0.9318599,-0.58720815,0.16633941,-0.0776672,1.1571035,-0.42888042,-0.9962736,-1.5894042,2.5333679,0.0015154135,0.44632506,1.0011775,-0.49475795
0.1,-0.1,1.0999999999999999,0.5235987755982988,0.5235987755982988,0,-0.46750718,-0.9322394,-0.7980947,0.11496385,-0.1290243,0.7116042,-0.8790616,-0.99885505,-1.5879267,2.5336893,-0.06542505,-0.060981933,0.91815734,-0.092483394
0.1,-0.1,1.0999999999999999,0.5235987755982988,0.5235987755982988,0,-0.47702938,-0.93305475,-0.76531136,0.041582603,-0.12552612,0.5650823,-0.7812539,-0.99451464,-1.5889972,2.5312066,0.03379781,0.46621767,1.0040529,0.13153522
0.1,-0.1,1.0999999999999999,0.5235987755982988,0.5235987755982988,0,-0.47570956,-0.9320612,-0.58170843,0.027920624,0.117787875,1.1805618,-1.9385785,-0.9954402,-1.5856317,2.5294929,-0.051875766,0.0136308065,0.9596627,-0.071517095
0.1,-0.1,1.0999999999999999,0.5235987755982988,0.5235987755982988,0,-0.4705153,-0.9303314,-1.1256816,0.102123655,-0.18689513,0.84717077,-0.9995747,-0.9986242,-1.5833347,2.5337546,-0.086460955,-0.20817429,0.7210069,0.17138165
0.1,-0.1,1.0999999999999999,0.5235987755982988,0.5235987755982988,0,-0.46177414,-0.93294436,-0.5550593,0.145103,0.17867984,1.0663545,-1.5609953,-0.9978948,-1.582879,2.531078,-0.04457465,0.13895567,1.0435743,-0.6245416
0.1,-0.1,1.0999999999999999,0.5235987755982988,0.5235987755982988,0,-0.45937327,-0.933558,-0.7602837,0.1573334,-0.13140458,0.9792612,-1.0839057,-1.0031483,-1.5850909,2.5324311,0.076997615,0.12504329,1.0112705,0.08746191
0.1,-0.1,1.0999999999999999,0.5235987755982988,0.5235987755982988,0,-0.4786065,-0.9315105,-0.89703894,0.04508523,0.14383249,0.7998439,-0.52114403,-0.99686474,-1.5875733,2.5321457,0.03036663,0.08665379,1.2757809,0.076948434
0.1,-0.1,1.0999999999999999,0.5235987755982988,0.5235987755982988,0,-0.45714572,-0.9345353,-0.8125019,0.12590016,-0.10895393,0.67667854,-0.3564293,-0.9984341,-1.5833962,2.5307858,0.034344777,0.04258664,1.1809351,-0.57381356
0.1,-0.1,1.0999999999999999,0.5235987755982988,0.5235987755982988,0,-0.4683904,-0.93129593,-0.8420462,0.07018213,-0.0053229937,0.8233335,-0.89820385,-1.0011672,-1.5879406,2.5323803,0.017166803,-0.2020506,0.92770636,0.24888867
0.1,-0.1,1.0999999999999999,0.5235987755982988,0.5235987755982988,0,-0.47701743,-0.9342179,-0.42780998,0.07630353,-0.21226744,0.87204945,-0.2315575,-0.9977929,-1.5874845,2.5346105,-0.007075164,0.28059134,1.2615223,-0.059422515
0.1,-0.1,1.0999999999999999,0.5235987755982988,0.5235987755982988,0,-0.46777123,-0.9361643,-0.9043629,0.11507234,0.08140148,0.8017041,-1.1985193,-1.0024425,-1.5877761,2.5284443,-0.07038655,0.04775936,1.0461372,0.26109132
0.1,-0.1,1.0999999999999999,0.5235987755982988,0.5235987755982988,0,-0.4735475,-0.93170065,-0.9275604,0.08727282,0.005592835,0.73038316,0.2327838,-0.9945639,-1.5848236,2.528899,0.044023447,0.10389658,1.1130288,-0.46713674
0.1,-0.1,1.0999999999999999,0.5235987755982988,0.5235987755982988,0,-0.47439364,-0.93209016,-0.70357585,0.10638244,-0.17615198,1.0037929,-0.23844285,-0.9974217,-1.5856085,2.5277565,0.036167983,-0.19735672,1.2807368,0.6367469
0.1,-0.1,1.0999999999999999,0.5235987755982988,0.5235987755982988,0,-0.47080693,-0.9313139,-0.9216101,0.056886125,0.17196888,1.0802059,-1.0509098,-0.9974677,-1.586906,2.5357726,-0.061500497,0.0694732,1.1345197,1.5533427
0.1,-0.1,1.0999999999999999,0.5235987755982988,0.5235987755982988,0,-0.47556612,-0.9332461,-0.61420923,0.11926463,0.026428293,0.9602574,-1.3282642,-0.9979845,-1.5849934,2.53225,-0.0029019814,0.45339596,1.2612748,-0.04055073
0.1,-0.1,1.0999999999999999,0.5235987755982988,0.5235987755982988,0,-0.44817,-0.93359226,-0.7866308,0.08668641,0.19261886,1.1298033,-0.81701285,-1.0006388,-1.5849056,2.5314655,-0.19807963,0.12460426,0.8489673,0.6751381
0.1,-0.1,1.0999999999999999,0.5235987755982988,0.5235987755982988,0,-0.47144732,-0.93563294,-0.41379064,0.12135406,0.05037298,0.7418709,-2.2090397,-1.0014453,-1.5860236,2.5313144,0.009034584,0.1447572,0.9275866,-0.06919265
0.1,-0.1,1.0999999999999999,0.5235987755982988,0.5235987755982988,0,-0.4864562,-0.93315136,-0.7053781,0.055134546,0.014736031,0.7542133,-0.48523822,-1.0001475,-1.5879344,2.530903,0.034312394,0.51637095,1.0849153,0.7561529
0.1,-0.1,1.0999999999999999,0.5235987755982988,0.5235987755982988,0,-0.47021514,-0.9331384,-0.5640242,0.13984911,0.13378489,0.6241871,-2.1762924,-0.9955992,-1.5862039,2.5311391,0.021489061,-0.023718819,1.1864953,-0.42094493
0.1,-0.1,1.0999999999999999,0.5235987755982988,0.5235987755982988,0,-0.47173637,-0.93311614,-0.8776529,0.14834145,-0.047216196,0.92619103,-0.18706918,-0.9989601,-1.5832579,2.5329745,0.04376528,0.20634267,0.90578246,0.5720796
0.1,-0.1,1.0999999999999999,0.5235987755982988,0.5235987755982988,0,-0.4609572,-0.9326701,-0.6526584,0.016061073,0.10823735,1.0067247,-1.6482859,-1.0008212,-1.5855714,2.5317626,-0.002973584,0.14021914,1.1664722,0.09795723
0.1,-0.1,1.0999999999999999,0.5235987755982988,0.5235987755982988,0,-0.45376617,-0.92924154,-0.5225933,0.11022924,-0.06476838,1.1753387,-1.5527879,-1.0021739,-1.5844281,2.5284357,0.11294089,-0.25909913,1.2244681,0.08750125
0.1,-0.1,1.0999999999999999,0.5235987755982988,0.5235987755982988,0,-0.47276792,-0.9368263,-0.8323914,0.030466652,-0.09981141,0.6504027,-1.1964667,-0.998882,-1.5871758,2.5317929,0.018139504,-0.018888138,1.0060999,-0.71558213
0.1,-0.1,1.0999999999999999,0.5235987755982988,0.5235987755982988,0,-0.4742463,-0.93347925,-0.75441086,0.15818389,0.04618061,0.9087308,-1.9601988,-0.9974851,-1.5865754,2.5342984,-0.012601553,-0.380704,1.2554122,-0.496137
0.1,-0.1,1.0999999999999999,0.5235987755982988,0.5235987755982988,0,-0.4718289,-0.93710905,-0.578753,0.08469515,-0.07044285,0.92655164,-0.93660355,-0.9940947,-1.5885608,2.5318563,-0.03769378,-0.24761653,0.98575616,-0.27686492
0.1,-0.1,1.0999999999999999,0.5235987755982988,0.5235987755982988,0,-0.47326234,-0.9354735,-0.71730804,0.16274741,-0.17450012,1.1197243,-1.1422715,-1.0001454,-1.587862,2.5323248,-0.031699494,0.16082378,1.0677476,-1.1472683
0.1,-0.1,1.0999999999999999,0.5235987755982988,0.5235987755982988,0,-0.4752184,-0.93219864,-0.6526188,0.039968815,0.020649826,0.9477202,-0.7047768,-0.9964579,-1.5848618,2.5274408,0.038029797,-0.15521663,1.1114497,-0.27457345
0.1,-0.1,1.0999999999999999,0.5235987755982988,0.5235987755982988,0,-0.44642165,-0.9326934,-0.85652864,0.09882027,-0.0064905244,0.98486423,-1.4603114,-0.99733365,-1.5864047,2.531185,-0.008198051,0.016574636,1.1068223,0.48736706
0.1,-0.1,1.0999999999999999,0.5235987755982988,0.5235987755982988,0,-0.47540298,-0.9333186,-0.37203375,0.14262803,-0.0495081,0.7759731,-0.6592155,-0.998934,-1.5849657,2.5316775,0.011179504,0.12979972,1.2797444,0.011390407
0.1,-0.1,1.0999999999999999,0.5235987755982988,0.5235987755982988,0,-0.47785944,-0.9340302,-0.9215749,0.05870475,0.037080117,1.0114073,-0.6400131,-0.9971438,-1.5863984,2.5286775,0.029051166,0.4748471,0.9541855,0.5834426
0.1,-0.1,1.0999999999999999,0.5235987755982988,0.5235987755982988,0,-0.46833262,-0.9335463,-0.78120613,0.019550176,-0.013398843,0.512946,-0.48430744,-1.0010935,-1.585206,2.5280433,0.043380156,0.22981426,1.1419429,-0.7085722
0.1,-0.1,1.0999999999999999,0.5235987755982988,0.5235987755982988,0,-0.46772373,-0.9312747,-0.5717155,0.043757763,0.4335056,1.0454373,-0.5893763,-0.9933755,-1.5864615,2.5267992,-0.10277617,0.45358604,1.1447036,-1.205336
0.1,-0.1,1.0999999999999999,0.5235987755982988,0.5235987755982988,0,-0.4705981,-0.933492,-0.537143,0.031746984,0.16291784,1.1587288,-0.80280966,-0.9943442,-1.5881504,2.5285249,-0.05134133,-0.026664468,1.068282,0.59330547
0.1,-0.1,1.0999999999999999,0.5235987755982988,0.5235987755982988,0,-0.48731792,-0.9343302,-0.7588878,-0.08571101,-0.08358139,1.0155308,-0.61608094,-0.9969428,-1.5847893,2.5271816,-0.042576645,0.40040234,1.3517838,-0.7177516
0.1,-0.1,1.0999999999999999,0.5235987755982988,0.5235987755982988,0,-0.4607861,-0.9349432,-0.9018799,0.13802984,-0.26024067,1.1025964,-1.5103872,-0.99699813,-1.5856131,2.5324543,-0.046015427,0.042523064,1.1653728,-0.024237448
0.1,-0.1,1.0999999999999999,0.5235987755982988,0.5235987755982988,0,-0.4484573,-0.93316865,-0.5076626,0.15618591,0.07907646,0.53143203,-1.756738,-0.9991124,-1.5868452,2.5285037,0.02888887,0.030075599,1.0123401,-1.3787826
0.1,-0.1,1.0999999999999999,0.5235987755982988,0.5235987755982988,0,-0.48352945,-0.9387149,-0.79613745,0.010846735,-0.101133876,0.63541275,-1.4023787,-0.9966755,-1.591023,2.5305657,0.01221019,0.29495955,0.95889175,-0.60619044
0.1,-0.1,1.0999999999999999,0.5235987755982988,0.5235987755982988,0,-0.47487426,-0.92974013,-0.84174174,0.08811089,-0.018030763,0.86802125,-0.5227959,-0.997643,-1.5839645,2.5303285,0.01038413,0.102325805,1.1004975,0.02609122
0.1,-0.1,1.0999999999999999,0.5235987755982988,0.5235987755982988,0,-0.47890428,-0.93379784,-0.62763506,0.08674791,0.11976599,1.0811148,-0.3231531,-0.99604535,-1.5856879,2.530288,0.047998898,0.28338182,1.2605629,-0.46827462
0.1,-0.1,1.0999999999999999,0.5235987755982988,0.5235987755982988,0,-0.47083667,-0.93300897,-0.82745034,0.12378589,-0.046250865,0.97399235,-0.110285744,-0.9988158,-1.585049,2.5269263,-0.085915945,-0.09038538,1.2070521,-0.94799346
0.1,-0.1,1.0999999999999999,0.5235987755982988,0.5235987755982988,0,-0.46810517,-0.9365797,-1.0069904,0.12583205,-0.028222824,0.8581041,-1.3871826,-0.9966419,-1.5853546,2.5337098,-0.09363178,-0.106987245,0.88522553,-0.50948685
0.1,-0.1,1.0999999999999999,0.5235987755982988,0.5235987755982988,0,-0.4728015,-0.935364,-0.6272569,0.16852552,-0.030223923,1.1774315,0.03584117,-0.999523,-1.5848236,2.5302496,-0.025884507,0.4229343,1.091125,-0.63946706
0.1,-0.1,1.0999999999999999,0.5235987755982988,0.5235987755982988,0,-0.46831658,-0.9310278,-0.58947206,0.16966036,-0.54634887,0.9615654,-1.0994815,-0.9984616,-1.5847986,2.5286882,-0.006231975,0.06227566,1.0544416,-0.81275564
0.1,-0.1,1.0999999999999999,0.5235987755982988,0.5235987755982988,0,-0.48796153,-0.93347406,-0.46115267,0.09835224,-0.20761412,0.81499517,-0.0737767,-0.99885416,-1.5877969,2.5300624,0.07138838,0.057481017,1.0919285,0.038629256
0.1,-0.1,1.0999999999999999,0.5235987755982988,0.5235987755982988,0,-0.46586362,-0.93235797,-0.5827297,0.07500243,-0.17566648,0.9141758,-0.41161433,-0.998231,-1.5873774,2.524729,-0.0285815,-0.3558032,1.2513534,-0.73538977
0.1,-0.1,1.0999999999999999,0.5235987755982988,0.5235987755982988,0,-0.47453126,-0.93225753,-0.27829853,0.098402865,-0.0008974289,1.3021424,-1.3714048,-0.99407536,-1.5852827,2.5271432,-0.028627556,-0.19246122,1.1650406,0.18632966
0.1,-0.1,1.0999999999999999,0.5235987755982988,0.5235987755982988,0,-0.47135654,-0.93385607,-0.9477979,0.14464073,-0.25912142,0.6246346,-0.42609143,-0.9924707,-1.5872717,2.5300193,4.795177e-05,0.119414315,0.9669045,-0.12719636
0.1,-0.1,1.0999999999999999,0.5235987755982988,0.5235987755982988,0,-0.45409155,-0.93051386,-0.47890013,0.12488363,0.13062379,1.0793419,-1.4418008,-0.9951143,-1.5875218,2.527618,0.05142916,-0.067135796,1.0053452,-0.28736416
0.1,-0.1,1.0999999999999999,0.5235987755982988,0.5235987755982988,0,-0.4559021,-0.9341447,-0.8078568,0.083759874,-0.032710668,1.0086507,-1.1337075,-0.9987405,-1.5878712,2.5318534,-0.031614173,0.06676196,1.3858362,-1.1139598
0.1,-0.1,1.0999999999999999,0.5235987755982988,0.5235987755982988,0,-0.45319203,-0.93227994,-0.38966027,0.09072574,0.2398717,0.96295303,-0.46280614,-0.99620074,-1.5840458,2.5268328,-0.0403993,0.024408845,1.13199,0.55193263
0.1,-0.1,1.0999999999999999,0.5235987755982988,0.5235987755982988,0,-0.46837613,-0.9327459,-0.68003213,0.0069239647,0.18500352,1.0418833,-1.2467258,-0.9983467,-1.5855656,2.5302076,-0.03697099,0.16807072,1.1540599,0.046960916
0.1,-0.1,1.0999999999999999,0.5235987755982988,0.5235987755982988,0,-0.47696295,-0.9352624,-0.63347054,0.15790395,-0.23984918,0.8400443,-0.30275404,-0.9964808,-1.5847175,2.5272577,0.073777854,0.2053773,1.2092904,-0.09133768
0.1,-0.1,1.0999999999999999,0.5235987755982988,0.5235987755982988,0,-0.47864246,-0.93442816,-0.738336,0.14066127,0.0513136,0.75242805,-1.182491,-0.9973714,-1.58126,2.5301437,-0.14456068,0.022151737,1.0429302,0.6358751
0.1,-0.1,1.0999999999999999,0.5235987755982988,0.5235987755982988,0,-0.46598357,-0.93355966,-0.490622,0.042510774,0.14804831,0.93456644,-1.0015099,-0.9954533,-1.5857924,2.5272188,0.037890486,-0.17624746,1.1373795,0.03194009
0.1,-0.1,1.0999999999999999,0.5235987755982988,0.5235987755982988,0,-0.46267787,-0.9333182,-0.6781191,0.11546538,0.09964439,0.97475874,-1.3813565,-0.9959416,-1.5839585,2.5268052,-0.02078187,0.07350269,1.0707673,-0.39776084
0.1,-0.1,1.0999999999999999,0.5235987755982988,0.5235987755982988,0,-0.46709466,-0.9350252,-0.07610657,0.14420268,-0.20861758,1.1319181,-0.56847733,-0.9954989,-1.5853577,2.5295117,0.06430838,0.07810317,1.0046012,0.23595461
0.1,-0.1,1.0999999999999999,0.5235987755982988,0.5235987755982988,0,-0.46329564,-0.93154126,-0.34714207,0.15142658,-0.20738907,0.66025376,-1.4532409,-0.9959113,-1.5851874,2.5341363,-0.04345297,-0.10949063,1.2520447,-1.000982
0.1,-0.1,1.0999999999999999,0.5235987755982988,0.5235987755982988,0,-0.4653827,-0.9347129,-0.84875053,0.13517557,0.22342953,0.60408306,-0.31671166,-0.99616885,-1.5868357,2.5295436,-0.056812964,0.30491394,1.1818058,0.34288886
0.1,-0.1,1.0999999999999999,0.5235987755982988,0.5235987755982988,0,-0.4618713,-0.9323956,-0.91355586,0.123153426,0.12484416,1.3074725,-1.0931425,-0.9991105,-1.5873597,2.527709,-0.02915731,0.36092916,1.188821,-0.32466975
0.1,-0.1,1.0999999999999999,0.5235987755982988,0.5235987755982988,0,-0.481877,-0.92850727,-0.4573888,-0.04202025,0.1322173,0.8825911,-0.47171107,-1.0014229,-1.5845714,2.531833,0.068635456,0.31780708,0.91634077,-0.28809556
0.1,-0.1,1.0999999999999999,0.5235987755982988,0.5235987755982988,0,-0.4687035,-0.9324209,-0.3416319,0.06760631,-0.14103822,0.68315077,-1.3483479,-0.999622,-1.5829809,2.534773,0.07615287,0.12969694,1.2534555,-0.7493896
0.1,-0.1,1.0999999999999999,0.5235987755982988,0.5235987755982988,0,-0.46134976,-0.9311235,-0.69789845,0.22407353,0.14013018,0.79056364,-1.00257,-0.9962967,-1.5848908,2.5293996,-0.14119571,0.025612501,0.89587086,0.43261755
0.1,-0.1,1.0999999999999999,0.5235987755982988,0.5235987755982988,0,-0.4755011,-0.93256074,-0.78155136,0.11975373,0.1832377,0.894147,-1.1388749,-0.9989385,-1.5873152,2.531592,-0.0753761,0.057964586,0.8501784,-0.46839866
0.1,-0.1,1.0999999999999999,0.5235987755982988,0.5235987755982988,0,-0.4549517,-0.9278564,-0.06549755,0.06708915,0.21337292,1.1628554,-1.492621,-0.99611264,-1.5858278,2.533097,0.0064147674,0.024392545,1.0543665,-0.8416629
0.1,-0.1,1.0999999999999999,0.5235987755982988,0.5235987755982988,0,-0.4730026,-0.9332738,-0.7320087,0.12464347,0.1928613,0.52013946,-0.28617895,-0.9972411,-1.5853701,2.5297627,0.027128004,0.07097705,1.013284,-0.627946
0.1,-0.1,1.0999999999999999,0.5235987755982988,0.5235987755982988,0,-0.46912238,-0.9313875,-0.82937425,0.08365759,-0.004589862,1.1316198,-1.2986606,-0.99749124,-1.5861582,2.5350509,0.06327587,0.224712,1.1324208,-0.04792102
0.1,-0.1,1.0999999999999999,0.5235987755982988,0.5235987755982988,0,-0.46305513,-0.9312401,-0.52144486,0.07280455,-0.08829337,1.0989848,-1.7070556,-0.9969749,-1.5832598,2.5314045,-0.084005445,0.066453725,1.0449117,-1.4437399
0.1,-0.1,1.0999999999999999,0.5235987755982988,0.5235987755982988,0,-0.46400446,-0.9332311,-0.72881114,0.17726794,0.0026819913,0.6303221,-1.2893862,-1.0002158,-1.5857738,2.528272,0.00082281756,-0.059316717,1.0549103,-0.09989798
0.1,-0.1,1.0999999999999999,0.5235987755982988,0.5235987755982988,0,-0.4759066,-0.9324014,-0.4956152,-0.0128652835,-0.05959082,0.9776574,-2.1643214,-0.99851817,-1.5844557,2.5317917,0.027017316,0.3769689,1.0946814,-0.503345
0.1,-0.1,1.0999999999999999,0.5235987755982988,0.5235987755982988,0,-0.47155783,-0.93484545,-0.38390985,0.09906862,-0.20155421,0.90240306,-0.22841178,-0.99885875,-1.5879382,2.5311828,-0.09574495,0.05784804,1.1959958,-1.2434675
0.1,-0.1,1.0999999999999999,0.5235987755982988,0.5235987755982988,0,-0.45993057,-0.93386406,-0.6881535,0.13961874,0.067796655,0.63843703,-1.5731466,-0.9961956,-1.584897,2.5329149,0.0028856487,0.06757245,1.104939,-0.051564485
0.1,-0.1,1.0999999999999999,0.5235987755982988,0.5235987755982988,0,-0.47825292,-0.93283004,-1.0495466,0.19226013,-0.18883376,1.0718831,-1.4493538,-0.999844,-1.5864464,2.5261226,0.013790594,-0.40948355,0.9818292,-1.0439413
0.1,-0.1,1.0999999999999999,0.5235987755982988,0.5235987755982988,0,-0.47660518,-0.93361485,-0.45801535,0.083321355,0.12912102,0.68470734,-0.4871312,-0.99634033,-1.5872419,2.5295155,-0.06851395,0.22137056,1.1200546,0.12325501
0.1,-0.1,1.0999999999999999,0.5235987755982988,0.5235987755982988,0,-0.4732239,-0.9364902,-0.7220213,0.22876802,-0.09187372,0.7446987,-0.9088596,-0.99746716,-1.5880762,2.536222,-0.23853903,-0.023574373,1.2402881,-0.006419406
0.1,-0.1,1.0999999999999999,0.5235987755982988,0.5235987755982988,0,-0.47541898,-0.93347275,-0.7392795,0.11628496,0.13013694,1.0995536,-0.6245185,-0.9997112,-1.5865332,2.5293357,-0.06623163,0.017115617,0.65430534,0.30994567
0.1,-0.1,1.0999999999999999,0.5235987755982988,0.5235987755982988,0,-0.4639035,-0.93314284,-0.35627636,0.1895382,0.12134525,1.0348095,-1.2323878,-0.99833924,-1.5852656,2.53328,0.02575089,0.37539124,0.9557676,0.21623687
0.1,-0.1,1.0999999999999999,0.5235987755982988,0.5235987755982988,0,-0.4679835,-0.9272736,-0.87335265,0.06394548,0.073102996,0.9085323,-1.4314125,-0.9959825,-1.588185,2.5292387,0.038234193,-0.13774194,1.4114991,0.16622007
0.1,-0.1,1.0999999999999999,0.5235987755982988,0.5235987755982988,0,-0.48033914,-0.9346608,-0.5886122,0.15372801,0.19642171,0.98867804,-1.3210666,-0.9964566,-1.5874041,2.5301356,-0.033765674,0.3145871,1.0963532,-1.0685371
0.1,-0.1,1.0999999999999999,0.5235987755982988,0.5235987755982988,0,-0.46192905,-0.9334783,-1.0693318,0.17847773,-0.044654682,0.78297365,-1.5819566,-0.9991335,-1.5865357,2.529133,0.07143815,0.19565953,1.0508987,-0.8809187
0.1,-0.1,1.0999999999999999,0.5235987755982988,0.5235987755982988,0,-0.47137743,-0.93029135,-0.8638172,0.099808775,0.104733534,0.98845834,-1.3247789,-0.99752814,-1.5848484,2.5346265,-0.013459625,0.16646811,1.2547929,-0.7106518
0.1,-0.1,1.0999999999999999,0.5235987755982988,0.5235987755982988,0,-0.46579024,-0.9343028,-0.71614724,0.049941402,0.052636426,0.8111498,-0.13410734,-1.0029327,-1.5872204,2.5292618,-0.03548965,-0.19532418,1.2936504,-0.44011772
0.1,-0.1,1.0999999999999999,0.5235987755982988,0.5235987755982988,0,-0.45731306,-0.93067664,-0.4028704,0.18958932,-0.077427566,0.60544765,-1.0540854,-0.9959813,-1.588096,2.529197,0.17120823,0.101037934,0.9298754,-0.6095093
0.1,-0.1,1.0999999999999999,0.5235987755982988,0.5235987755982988,0,-0.46078506,-0.9326385,-0.7933301,0.259791,-0.0471869,0.82614887,-1.0395776,-0.9958925,-1.5862828,2.5302973,0.0013541896,0.07102024,1.0226793,0.07414967
0.1,-0.1,1.0999999999999999,0.5235987755982988,0.5235987755982988,0,-0.47172117,-0.9318184,-0.6510182,0.040036377,0.19008242,0.8141143,-1.0411581,-0.9988157,-1.5869582,2.5291123,0.06751518,0.47502503,1.1178669,-0.9529659
0.1,-0.1,1.0999999999999999,0.5235987755982988,0.5235987755982988,0,-0.47112158,-0.930696,-0.9071516,0.07554048,-0.25111032,0.9001193,-0.96433085,-0.99612284,-1.5843673,2.529127,-0.01505223,-0.12279396,1.1110233,-0.18536054
0.1,-0.1,1.0999999999999999,0.5235987755982988,0.5235987755982988,0,-0.47070768,-0.93159586,-0.712612,0.1004861,-0.019357704,0.80261785,-0.9078568,-0.9967034,-1.5866804,2.5342712,0.071071774,-0.10215924,1.1216829,-1.1791112
0.1,-0.1,1.0999999999999999,0.5235987755982988,0.5235987755982988,0,-0.47398776,-0.9330748,-0.7515773,0.15754773,-0.036500573,0.8052713,-1.4488777,-0.9975984,-1.5849391,2.5315666,0.010130894,0.38529664,1.2915654,-0.51491404
0.1,-0.1,1.0999999999999999,0.5235987755982988,0.5235987755982988,0,-0.47698784,-0.9342922,-0.48129812,0.1341187,0.014897975,1.0725453,-1.6131537,-0.9970103,-1.5878975,2.5307584,-0.028112117,0.24023515,0.961788,-0.6018807
0.1,-0.1,1.0999999999999999,0.5235987755982988,0.5235987755982988,0,-0.46915543,-0.9305693,-0.73102117,0.07651574,0.05383967,1.1222382,-1.1462151,-0.99713224,-1.5865774,2.529891,0.056466423,0.09079208,1.0813239,-0.7216553
0.1,-0.1,1.0999999999999999,0.5235987755982988,0.5235987755982988,0,-0.48007405,-0.93477845,-0.6187513,0.10663277,-0.17994681,1.1331236,-0.9988351,-0.99850595,-1.5881964,2.5304074,0.09564016,0.42521617,0.93813556,0.49515778
0.1,-0.1,1.0999999999999999,0.5235987755982988,0.5235987755982988,0,-0.45655444,-0.9329522,-0.66207194,0.055428784,-0.016556708,1.0531324,-0.9312522,-0.9991625,-1.5846889,2.5320446,0.08999611,-0.044008337,1.3059471,-1.3328283
0.1,-0.1,1.0999999999999999,0.5235987755982988,0.5235987755982988,0,-0.4670325,-0.93152344,-0.9268341,0.102332406,0.060140487,0.8968953,-1.5652763,-0.99573475,-1.5878787,2.5310447,-0.050877783,0.32014048,1.0806683,-0.04111291
0.1,-0.1,1.0999999999999999,0.5235987755982988,0.5235987755982988,0,-0.4733671,-0.9358047,-0.65410584,0.081260785,0.29871634,0.5675121,-1.1592495,-0.9958912,-1.5835723,2.527323,-0.039219677,-0.30465266,1.0658338,-0.7090195
0.1,-0.1,1.0999999999999999,0.5235987755982988,0.5235987755982988,0,-0.4577259,-0.933727,-1.140655,0.0923044,-0.10737312,1.0085788,-1.4905146,-0.9998153,-1.5861405,2.5334463,-0.06884153,0.33490193,1.2959185,-0.039176386
0.1,-0.1,1.0999999999999999,0.5235987755982988,0.5235987755982988,0,-0.46699926,-0.93694013,-0.55829936,0.14406244,0.047398522,1.0503503,0.18755996,-1.0001036,-1.5849108,2.5283551,0.010958226,0.12268387,0.99746954,-0.70438796
0.1,-0.1,1.0999999999999999,0.5235987755982988,0.5235987755982988,0,-0.46274137,-0.9321075,-0.6397272,0.088187456,-0.044103064,0.84760463,-0.30184278,-0.9987492,-1.5853552,2.5357473,-0.019581167,0.16193695,0.93291724,-0.54700303
0.1,-0.1,1.0999999999999999,0.5235987755982988,0.5235987755982988,0,-0.46471685,-0.93450415,-0.90483433,0.21226598,0.016123299,1.0424092,-0.8852001,-0.99613214,-1.5844848,2.5278037,-0.05204905,-0.14703159,1.15296,-0.50985014
0.1,-0.1,1.0999999999999999,0.5235987755982988,0.5235987755982988,0,-0.4784452,-0.93388224,-0.4907187,0.04229546,-0.10209687,0.7331456,-1.35052,-0.9960799,-1.5885195,2.5341134,-0.14626843,0.10637406,0.97815186,-0.51902604
0.1,-0.1,1.0999999999999999,0.5235987755982988,0.5235987755982988,0,-0.4749156,-0.9317247,-0.6463644,0.15430003,-0.18002908,0.9442605,0.21020548,-0.9982337,-1.5860269,2.5341432,-0.0017886977,-0.1009011,0.89653873,-0.47715828
0.1,-0.1,1.0999999999999999,0.5235987755982988,0.5235987755982988,0,-0.46200812,-0.9357719,-0.8751323,0.19248545,-0.0438036,0.7412142,-0.16170433,-0.99708086,-1.5850657,2.5308928,0.039152987,0.2673155,1.1431407,-0.22142833
0.1,-0.1,1.0999999999999999,0.5235987755982988,0.5235987755982988,0,-0.47597113,-0.9350248,-0.8541025,0.06741791,0.2129251,0.6656895,-1.4001572,-0.9952753,-1.5863872,2.5248916,-0.030701604,-0.11126823,0.9724821,0.049023215
0.1,-0.1,1.0999999999999999,0.5235987755982988,0.5235987755982988,0,-0.46974266,-0.9317162,-0.70092034,0.11865928,-0.12865482,1.1923623,-0.68025804,-0.99087465,-1.5874316,2.5361037,-0.07880237,-0.09756933,1.2975729,0.26500043
0.1,-0.1,1.0999999999999999,0.5235987755982988,0.5235987755982988,0,-0.46530986,-0.93166167,-0.7525282,0.06276061,-0.1593319,1.1060463,-0.9202433,-1.0002425,-1.5846919,2.5339806,-0.10665412,0.039093643,0.9389798,-0.7180692
0.1,-0.1,1.0999999999999999,0.5235987755982988,0.5235987755982988,0,-0.47544548,-0.92980295,-0.8423619,0.16367511,-0.054244414,0.88729745,-0.7899967,-0.99181616,-1.5876364,2.528003,-0.037538435,-0.2097519,0.93042207,0.88195086
0.1,-0.1,1.0999999999999999,0.5235987755982988,0.5235987755982988,0,-0.47322026,-0.93413836,-0.3253923,-0.015107269,-0.0029678294,0.8241282,-0.8430089,-0.9973382,-1.5855991,2.5304315,-0.053450927,0.15236962,1.0563371,-0.7734179
0.1,-0.1,1.0999999999999999,0.5235987755982988,0.5235987755982988,0,-0.45804828,-0.9327719,-0.9420411,0.032909892,0.08431906,0.69737947,-0.7768602,-1.0027143,-1.5876551,2.5311363,-0.13314381,-0.28040838,1.0695558,-2.01794
0.1,-0.1,1.0999999999999999,0.5235987755982988,0.5235987755982988,0,-0.4717104,-0.93010193,-0.49348998,-0.0006645903,0.44716927,0.9090869,-1.1994926,-0.9984964,-1.585751,2.5265086,-0.05565062,-0.09416259,1.1584966,0.7365963
0.1,-0.1,1.0999999999999999,0.5235987755982988,0.5235987755982988,0,-0.4762413,-0.9317592,-0.7371819,0.033629168,-0.040005144,1.013872,-1.195446,-0.9940018,-1.5872356,2.5307684,0.02625911,-0.033693746,1.0821115,0.8979056
0.1,-0.1,1.0999999999999999,0.5235987755982988,0.5235987755982988,0,-0.46686974,-0.9323248,-0.40461743,0.1752809,0.052318964,0.74397784,-1.5168747,-0.99707645,-1.5844334,2.5271301,0.055232923,-0.2553378,0.92801285,0.27535325
0.1,-0.1,1.0999999999999999,0.5235987755982988,0.5235987755982988,0,-0.48318353,-0.93028444,-1.063127,0.17938061,-0.15649803,1.0729878,-0.66886634,-0.9980081,-1.586407,2.5329676,-0.027692612,-0.056909658,1.2226987,-0.12344918
0.1,-0.1,1.0999999999999999,0.5235987755982988,0.5235987755982988,0,-0.46223336,-0.93137765,-0.91618574,0.03095816,0.041148085,1.1241689,-0.6561261,-0.99446064,-1.585684,2.5304575,-0.06699993,-0.034540117,1.2146301,0.01002672
0.1,-0.1,1.0999999999999999,0.5235987755982988,0.5235987755982988,0,-0.46580678,-0.9361881,-0.56706727,0.11575288,-0.09992644,0.6604274,-1.7605842,-0.99855566,-1.5874048,2.5302796,0.027404834,-0.028582111,1.0303994,-0.67329836
0.1,-0.1,1.0999999999999999,0.5235987755982988,0.5235987755982988,0,-0.45634213,-0.93343675,-0.7083353,0.046927944,-0.0456699,0.81302726,-0.80471516,-0.9969043,-1.5882658,2.529715,-0.018154986,0.26432252,1.4017001,-0.31838506
0.1,-0.1,1.0999999999999999,0.5235987755982988,0.5235987755982988,0,-0.46523762,-0.93100816,-1.1250539,0.19695546,0.077193566,0.7414718,-0.4555113,-0.9979579,-1.589745,2.532273,-0.05854695,0.09474734,1.155866,-0.5463739
0.1,-0.1,1.0999999999999999,0.5235987755982988,0.5235987755982988,0,-0.46416909,-0.93599176,-1.2473906,0.1953291,-0.03999613,1.0283504,-0.5879485,-1.0004789,-1.5860527,2.5293205,-0.054093562,-0.044037927,1.2706004,-0.13217242
0.1,-0.1,1.0999999999999999,0.5235987755982988,0.5235987755982988,0,-0.48038357,-0.9336804,-0.922595,0.12253391,-0.0002332265,0.90744376,-0.85667807,-0.99828273,-1.5862136,2.5330606,0.0028269049,0.1295603,1.097581,-0.8627616
0.1,-0.1,1.0999999999999999,0.5235987755982988,0.5235987755982988,0,-0.46512118,-0.93532884,-0.18468572,0.14596714,-0.18695645,0.93494135,-1.3535315,-0.99619806,-1.5869927,2.5294738,0.0036587182,0.03554879,1.3822831,0.7784837
0.1,-0.1,1.0999999999999999,0.5235987755982988,0.5235987755982988,0,-0.46389163,-0.9328953,-0.78778154,0.08652615,0.10417042,0.6977273,-0.20538525,-0.99806726,-1.5875705,2.5265896,0.051648766,-0.2717495,1.2888404,-0.7312157
0.1,-0.1,1.0999999999999999,0.5235987755982988,0.5235987755982988,0,-0.47065037,-0.9340547,-1.1460168,0.05169872,0.0930071,0.8174641,-1.0167321,-0.99547654,-1.5885885,2.5357819,-0.020937676,0.4164876,0.930132,-0.80869687
0.1,-0.1,1.0999999999999999,0.5235987755982988,0.5235987755982988,0,-0.47339967,-0.93266344,-0.68248653,0.1278801,0.12558319,0.985722,-1.1114781,-0.9975239,-1.58297,2.5305724,-0.08120608,-0.12380281,0.7920415,-1.0555562
0.1,-0.1,1.0999999999999999,0.5235987755982988,0.5235987755982988,0,-0.48471186,-0.93479633,-0.49786308,0.11533823,0.054429777,0.97515994,-1.6179185,-0.99689496,-1.5870844,2.5348573,-0.004810604,0.114441425,1.2429378,-0.39243832
0.1,-0.1,1.0999999999999999,0.5235987755982988,0.5235987755982988,0,-0.4649564,-0.9326697,-0.614892,0.071780704,0.0019580715,0.5158231,-1.0025247,-0.9953946,-1.5856961,2.5286613,0.09322267,-0.065668955,1.162568,-0.33878815
0.1,-0.1,1.0999999999999999,0.5235987755982988,0.5235987755982988,0,-0.4668823,-0.9352622,-0.8311812,0.15661985,0.06472545,1.118843,-1.2901032,-0.9999466,-1.5863546,2.527417,-0.071306,0.22380273,1.0381494,0.20424987
0.1,-0.1,1.0999999999999999,0.5235987755982988,0.5235987755982988,0,-0.46624714,-0.93218404,-0.8095032,0.21584803,0.010813095,0.7583493,-1.0705999,-0.994168,-1.5849351,2.5357277,0.1018793,-0.07066406,1.2727535,-0.3544415
0.1,-0.1,1.0999999999999999,0.5235987755982988,0.5235987755982988,0,-0.46721044,-0.93690765,-0.9087103,0.08633191,0.1593981,1.1689496,-0.72875583,-0.9974705,-1.5852513,2.5336754,0.047924906,0.3021599,0.97490984,0.13800481
0.1,-0.1,1.0999999999999999,0.5235987755982988,0.5235987755982988,0,-0.46532887,-0.92978096,-0.7803408,0.13820693,0.19879155,0.61285627,-1.157345,-1.0011472,-1.5872645,2.5292788,0.017958168,0.42585593,1.0157782,-0.03693003
0.1,-0.1,1.0999999999999999,0.5235987755982988,0.5235987755982988,0,-0.45773667,-0.9302894,-0.6478244,0.25446394,0.04997064,0.8322181,-0.6642809,-0.99724096,-1.5840803,2.5271084,-0.00218024,0.3197445,1.2112747,0.016866142
0.1,-0.1,1.0999999999999999,0.5235987755982988,0.5235987755982988,0,-0.4538276,-0.93591803,-0.73906976,0.12334496,-0.10848491,0.98978996,-1.0302441,-1.0000143,-1.5867597,2.5296385,-0.14262122,-0.034588482,0.84543926,-0.5958812
0.1,-0.1,1.0999999999999999,0.5235987755982988,0.5235987755982988,0,-0.4606057,-0.93162525,-0.8444313,0.15787156,-0.07325479,0.7657188,-1.0654185,-1.0018945,-1.5865774,2.525727,-0.045571256,-0.04902628,1.1869723,-0.090691365
0.1,-0.1,1.0999999999999999,0.5235987755982988,0.5235987755982988,0,-0.48019263,-0.93384314,-0.72461784,0.10233429,-0.25043404,0.71526486,-1.0569433,-0.9979026,-1.5864576,2.5317192,-0.12532401,-0.09625794,1.0486348,-0.29918718
0.1,-0.1,1.0999999999999999,0.5235987755982988,0.5235987755982988,0,-0.4708096,-0.9320064,-0.8748918,0.11668738,-0.05756753,0.84889555,-0.7020112,-0.99718946,-1.5835981,2.5265005,-0.004398175,0.19795045,1.2264702,0.011789739
0.1,-0.1,1.0999999999999999,0.5235987755982988,0.5235987755982988,0,-0.47843164,-0.9367583,-0.50905216,0.20327857,0.010634425,0.8663283,-1.3030559,-0.99765104,-1.584273,2.5320961,-0.14673793,-0.011001225,0.9607414,0.46814665
0.1,-0.1,1.0999999999999999,0.5235987755982988,0.5235987755982988,0,-0.47437927,-0.9322014,-0.3775076,0.022490028,0.15719643,0.6207321,-1.1406785,-0.99845225,-1.5866271,2.5274243,0.01758621,0.38222158,0.9413754,-1.2217193
0.1,-0.1,1.0999999999999999,0.5235987755982988,0.5235987755982988,0,-0.4773154,-0.93136805,-1.0081507,0.11857784,0.35560343,0.62127566,-0.9743673,-0.99799776,-1.5832359,2.5320542,-0.0072731148,0.15953913,0.8126391,-0.29076344
0.1,-0.1,1.0999999999999999,0.5235987755982988,0.5235987755982988,0,-0.46349993,-0.93249315,-0.6851497,0.13000032,-0.10870986,0.47284466,-0.9685406,-0.9978455,-1.5870687,2.530994,-0.09398378,0.10504896,1.2100537,-0.850953
0.1,-0.1,1.0999999999999999,0.5235987755982988,0.5235987755982988,0,-0.47959778,-0.9364652,-0.5533332,0.09980778,0.09451457,1.2984902,-0.389006,-1.000358,-1.5884298,2.5298436,-0.041397464,0.067106314,1.2300287,-0.04465423
0.1,-0.1,1.0999999999999999,0.5235987755982988,0.5235987755982988,0,-0.47648415,-0.93311304,-0.8095159,0.14605361,0.02798947,0.807929,-1.2957255,-0.9962144,-1.5872359,2.5327032,0.014375753,-0.18372588,1.0764673,-0.6941863
0.1,-0.1,1.0999999999999999,0.5235987755982988,0.5235987755982988,0,-0.46469337,-0.9345331,-0.84275544,-0.018106926,0.05934151,0.8883227,-1.7886755,-1.0008941,-1.5862099,2.5323536,0.020148218,0.46869195,1.0387027,-0.31239372
0.1,-0.1,1.0999999999999999,0.5235987755982988,0.5235987755982988,0,-0.4584313,-0.9319632,-0.33105317,0.11477961,0.031860255,0.7145493,-0.43678984,-0.99494207,-1.5867015,2.5306125,-0.0012441198,0.35875803,1.0172312,0.05511991
0.1,-0.1,1.0999999999999999,0.5235987755982988,0.5235987755982988,0,-0.47352225,-0.9344099,-0.90787596,0.18782757,5.909236e-05,1.0648618,-0.86966085,-0.9989379,-1.5845801,2.525142,-0.016526235,0.20987478,0.80442,-0.14246473
0.1,-0.1,1.0999999999999999,0.5235987755982988,0.5235987755982988,0,-0.46424377,-0.9382123,-0.9432636,0.08894027,0.107577786,0.73954403,-0.34515056,-0.99714386,-1.5863473,2.5346906,-0.044196486,0.11825114,0.93788123,0.8274866
0.1,-0.1,1.0999999999999999,0.5235987755982988,0.5235987755982988,0,-0.49060193,-0.93062854,-0.8560959,0.13382383,-0.17133816,0.6849494,-1.6117468,-0.99813175,-1.5832951,2.5359316,-0.031490646,0.0010885372,1.2042003,-0.5012239
0.1,-0.1,1.0999999999999999,0.5235987755982988,0.5235987755982988,0,-0.4612734,-0.93197024,-0.8762995,0.12922956,0.08682171,0.7389834,-0.98717535,-0.9970144,-1.5844203,2.5279534,0.053164504,0.047606796,1.0251495,-0.12938833
0.1,-0.1,1.0999999999999999,0.5235987755982988,0.5235987755982988,0,-0.47090444,-0.9342058,-0.75255805,-0.015840273,0.055811618,0.81075305,-0.19096394,-0.9914951,-1.5866461,2.5243871,-0.08699175,0.43590778,0.90248585,0.64097387
0.1,-0.1,1.0999999999999999,0.5235987755982988,0.5235987755982988,0,-0.4651724,-0.9308685,-0.6549557,0.14645404,0.055123866,0.74364877,-1.8233651,-0.9964992,-1.5850004,2.5270915,-0.06427394,-0.13331737,1.1967403,0.3762398
0.1,-0.1,1.0999999999999999,0.5235987755982988,0.5235987755982988,0,-0.46782643,-0.93513286,-1.0638026,0.22040178,0.002832315,0.621888,-1.124072,-0.99760914,-1.5841056,2.536365,-0.08665271,0.15274176,0.83157283,-0.41502595
0.1,-0.1,1.0999999999999999,0.5235987755982988,0.5235987755982988,0,-0.47371206,-0.9327369,-0.7463424,0.056275725,0.12688342,1.006173,-1.0564319,-1.0005372,-1.5859321,2.5344877,-0.11762532,-0.27496594,1.017393,1.2241203
0.1,-0.1,1.0999999999999999,0.5235987755982988,0.5235987755982988,0,-0.47482213,-0.9332907,-0.74819934,0.17156261,-0.007883038,0.94129205,-0.7893341,-0.99894994,-1.5858032,2.5315685,0.043055147,0.11031016,0.5222853,-0.62753993
0.1,-0.1,1.0999999999999999,0.5235987755982988,0.5235987755982988,0,-0.47047085,-0.93691605,-0.24107519,0.085694395,0.06598207,0.59411883,-0.9695126,-0.99568135,-1.5864359,2.5352755,0.02719624,0.001088762,1.1772195,-0.018902091
0.1,-0.1,1.0999999999999999,0.5235987755982988,0.5235987755982988,0,-0.47245976,-0.9352091,-0.647845,0.16577208,-0.16646236,0.7802272,-0.2601367,-0.9953167,-1.5884264,2.5291162,-0.07493999,0.60692316,1.407647,-1.2434038
0.1,-0.1,1.0999999999999999,0.5235987755982988,0.5235987755982988,0,-0.47112888,-0.9301437,-1.1667036,0.07206999,0.37426585,0.59572965,-0.46262848,-0.9980126,-1.5865463,2.5256839,0.023343226,0.06874206,0.9858547,-0.574989
0.1,-0.1,1.0999999999999999,0.5235987755982988,0.5235987755982988,0,-0.46411222,-0.93154234,-0.71108854,0.08046911,-0.014678947,1.1417817,-0.46873233,-0.99444896,-1.5892911,2.5319817,-0.05240122,-0.21925816,1.0851991,-0.5306267
0.1,-0.1,1.0999999999999999,0.5235987755982988,0.5235987755982988,0,-0.4684446,-0.9329088,-0.7175788,0.071779974,0.040012307,0.758209,-1.4921728,-1.0001066,-1.5846267,2.5318944,0.012580828,-0.01433402,1.0935812,-0.50051
0.1,-0.1,1.0999999999999999,0.5235987755982988,0.5235987755982988,0,-0.46206936,-0.9333816,-0.89380276,0.058390424,-0.0022466658,0.8778478,-1.3356185,-0.99792725,-1.5873121,2.5285435,-0.05418885,0.081748076,0.85713816,0.45629632
0.1,-0.1,1.0999999999999999,0.5235987755982988,0.5235987755982988,0,-0.4659399,-0.93544036,-0.73535514,0.10566961,0.037190646,0.5896128,0.14726315,-0.9987124,-1.5872425,2.532252,0.0061494,0.23802234,1.1160994,0.53742445
0.1,-0.1,1.0999999999999999,0.5235987755982988,0.5235987755982988,0,-0.47225407,-0.93171227,-0.39069638,0.09312439,-0.0872526,0.68637985,-0.4276993,-0.9972754,-1.586951,2.5254874,-0.042893756,-0.2490888,0.91664743,-0.069914915
0.1,-0.1,1.0999999999999999,0.5235987755982988,0.5235987755982988,0,-0.47299466,-0.9305943,-0.7414673,0.09267296,-0.2137464,0.5172351,-0.6879197,-0.99855274,-1.5864263,2.5269763,-0.17998388,0.29769102,1.0922457,0.43438897
0.1,-0.1,1.0999999999999999,0.5235987755982988,0.5235987755982988,0,-0.48073533,-0.9309228,-0.75868267,0.079652995,0.05640346,1.0113833,-1.3056338,-0.9974052,-1.5828998,2.531504,-0.014251346,-0.15087132,1.0725253,0.44134572
0.1,-0.1,1.0999999999999999,0.5235987755982988,0.5235987755982988,0,-0.46835825,-0.9348655,-0.67612416,0.17165749,-0.21471906,0.87082165,0.19953212,-0.99616635,-1.585658,2.529438,-0.047134824,0.09297242,0.89901906,-0.41476083
0.1,-0.1,1.0999999999999999,0.5235987755982988,0.5235987755982988,0,-0.4722153,-0.9353447,-0.36985493,0.061780244,-0.042935025,1.0521551,-0.43245223,-1.0008304,-1.5866714,2.5320213,-0.068897985,0.14722225,1.2168363,-0.28770795
0.1,-0.1,1.0999999999999999,0.5235987755982988,0.5235987755982988,0,-0.45940584,-0.93787754,-0.5199128,0.111652695,0.2288191,1.1041214,-0.65353495,-0.99844307,-1.5882933,2.532048,-0.04327572,0.32191885,0.92007834,-0.058708236
0.1,-0.1,1.0999999999999999,0.5235987755982988,0.5235987755982988,0,-0.4694914,-0.9320542,-0.10690456,0.089109756,-0.15318306,1.1282934,-1.1805897,-0.99882823,-1.5856748,2.5267954,0.04016785,0.19226332,1.0460266,0.46575978
0.1,-0.1,1.0999999999999999,0.5235987755982988,0.5235987755982988,0,-0.46160093,-0.93577176,-0.5933855,0.06388012,0.2410615,0.7701929,-1.4224681,-0.9955476,-1.5873386,2.5310562,0.086927,0.038901065,1.1301725,0.49562374
0.1,-0.1,1.0999999999999999,0.5235987755982988,0.5235987755982988,0,-0.47405714,-0.9319647,-0.7302954,0.15278885,0.062831186,1.21279,-1.4293755,-0.99437594,-1.5850831,2.522941,-0.026617685,-0.095670074,0.9623453,0.08171631
0.1,-0.1,1.0999999999999999,0.5235987755982988,0.5235987755982988,0,-0.4710921,-0.9317346,-0.58508694,0.021132411,0.12003209,1.1177917,-0.6492278,-0.99919194,-1.5878952,2.5281808,-0.08669933,-0.30172428,1.0259323,0.6906226
0.1,-0.1,1.0999999999999999,0.5235987755982988,0.5235987755982988,0,-0.46711856,-0.93610734,-0.6583367,0.14751102,-0.05764172,0.59004754,-0.5586456,-1.0002546,-1.5851525,2.525775,0.0062720785,0.10997017,0.9680457,-1.0926281
0.1,-0.1,1.0999999999999999,0.5235987755982988,0.5235987755982988,0,-0.45772663,-0.9306435,-0.8436192,0.14374691,0.061748758,0.8038382,-0.9794309,-0.9962812,-1.584523,2.5313027,-0.03693013,-0.26991042,1.0287783,-0.6518398
0.1,-0.1,1.0999999999999999,0.5235987755982988,0.5235987755982988,0,-0.4638711,-0.938072,-0.9661299,0.19529432,0.08217071,0.9849626,-0.65756345,-0.995473,-1.584855,2.5261276,-0.07163032,0.0032910958,1.1409584,0.16052854
0.1,-0.1,1.0999999999999999,0.5235987755982988,0.5235987755982988,0,-0.4627245,-0.9295695,-1.0651009,0.09552011,-0.09927698,0.9977335,-1.173519,-0.99671096,-1.586738,2.5346706,-0.13329169,-0.020826148,1.0902563,-0.8398872
0.1,-0.1,1.0999999999999999,0.5235987755982988,0.5235987755982988,0,-0.4671192,-0.9328598,-0.46836314,0.17478114,0.057851717,1.1494997,-1.2004479,-0.9977391,-1.5845544,2.5323222,-0.12583369,0.21742822,1.0775636,0.6102052
0.1,-0.1,1.0999999999999999,0.5235987755982988,0.5235987755982988,0,-0.47381786,-0.93306166,-0.7542417,0.1625155,-0.3339305,0.5200076,-1.26188,-0.9963698,-1.5857993,2.5284793,0.0042862133,0.1615913,1.0937133,-0.7162403
0.1,-0.1,1.0999999999999999,0.5235987755982988,0.5235987755982988,0,-0.46353894,-0.93122804,-0.79191685,0.15628873,-0.02648118,0.65150636,-0.46480137,-1.0001863,-1.5879086,2.5279737,0.12098184,0.18730974,1.3097574,-0.124068186
0.1,-0.1,1.0999999999999999,0.5235987755982988,0.5235987755982988,0,-0.4589631,-0.9329636,-0.69315594,0.24530861,-0.124520235,1.0411092,-1.6135098,-1.0024576,-1.5853398,2.5329857,-0.06837415,0.029983047,1.1533186,-0.7330638
0.1,-0.1,1.0999999999999999,0.5235987755982988,0.5235987755982988,0,-0.46858582,-0.9317427,-0.6416807,0.0915077,0.1539831,1.1158576,-0.9801812,-0.99851817,-1.585866,2.5306466,-0.045740645,0.3031508,1.3339047,-0.9275515
0.1,-0.1,1.0999999999999999,0.5235987755982988,0.5235987755982988,0,-0.4676648,-0.93172234,-0.78564745,0.09437791,-0.11983757,0.53669155,-0.5195437,-0.99714273,-1.5912251,2.5342863,-0.13993253,0.18238443,1.1664156,-0.7608657
0.1,-0.1,1.0999999999999999,0.5235987755982988,0.5235987755982988,0,-0.47235847,-0.9339442,-0.8420576,0.19254695,-0.14960074,0.89045185,-1.4883168,-0.99652064,-1.5850238,2.5310974,0.15408102,-0.085087426,1.0027714,0.40894246
0.1,-0.1,1.0999999999999999,0.5235987755982988,0.5235987755982988,0,-0.4750105,-0.93285036,-0.52423793,0.056422174,-0.23014946,0.59871864,-1.3756186,-0.997823,-1.588496,2.5314326,-0.058474053,0.19546404,1.3154151,-0.14574899
0.1,-0.1,1.0999999999999999,0.5235987755982988,0.5235987755982988,0,-0.45932436,-0.9318661,-0.6665629,0.15463157,0.08529031,1.026272,-1.2354635,-1.0001148,-1.587295,2.535326,-0.10486776,-0.18778521,0.9421877,0.4531877
0.1,-0.1,1.0999999999999999,0.5235987755982988,0.5235987755982988,0,-0.47442496,-0.930055,-0.5683584,0.20206101,0.14535812,0.9582999,-0.45388743,-0.99547833,-1.5862128,2.5300639,-0.052593876,-0.08795443,1.0746803,-0.9383566
0.1,-0.1,1.0999999999999999,0.5235987755982988,0.5235987755982988,0,-0.46830902,-0.9317587,-0.8555343,-0.0137477,0.049977284,1.1435126,-0.95998555,-0.997398,-1.5852737,2.5346823,-0.13909532,-0.20224191,1.1632627,0.122316495
0.1,-0.1,1.0999999999999999,0.5235987755982988,0.5235987755982988,0,-0.46247974,-0.9305759,-0.5723869,0.1644804,0.032367732,0.53594786,-1.2098281,-0.9954633,-1.585347,2.532287,-0.011642124,-0.07838749,0.92762285,-0.3963727
0.1,-0.1,1.0999999999999999,0.5235987755982988,0.5235987755982988,0,-0.4651191,-0.9311191,-0.48239017,0.07759499,0.0048717456,0.6061608,-0.43304676,-0.99428356,-1.5861046,2.5299525,-0.06311459,0.15312022,0.93550956,-1.0856831
0.1,-0.1,1.0999999999999999,0.5235987755982988,0.5235987755982988,0,-0.46761903,-0.93318015,-0.71142095,0.054944463,-0.2674947,0.9688557,-0.8235322,-0.998146,-1.5853286,2.5252638,0.04402834,-0.05803726,1.0656637,0.28699028
0.1,-0.1,1.0999999999999999,0.5235987755982988,0.5235987755982988,0,-0.46249124,-0.9364237,-0.6944198,0.04222824,-0.2833237,0.8477904,-1.7211584,-0.99881667,-1.5851847,2.529561,-0.020446278,0.01360383,0.9089485,-0.41058338
0.1,-0.1,1.0999999999999999,0.5235987755982988,0.5235987755982988,0,-0.46065438,-0.9325313,-0.8133566,0.10254831,-0.05082231,0.86194634,-0.8877289,-0.99634254,-1.5865872,2.528897,-0.011469657,-0.10766012,1.164477,-0.41037512
0.1,-0.1,1.0999999999999999,0.5235987755982988,0.5235987755982988,0,-0.47093976,-0.9310569,-0.55119437,0.004041519,0.03963921,1.2122297,-0.6208985,-0.9969586,-1.58919,2.5296164,0.16341524,0.36602888,0.812905,-0.99326706
0.1,-0.1,1.0999999999999999,0.5235987755982988,0.5235987755982988,0,-0.46108982,-0.9359126,-0.49872875,0.21352161,0.035630565,0.68433726,0.5401332,-0.9994148,-1.5865492,2.5318682,0.0077953055,0.48653966,1.0113405,0.09157913
0.1,-0.1,1.0999999999999999,0.5235987755982988,0.5235987755982988,0,-0.46091115,-0.9302251,-0.69143665,0.24131756,-0.028364953,1.2179337,-1.4320312,-0.9963373,-1.5885999,2.5331402,-0.042347256,-0.14436048,0.93876535,0.5957022
0.1,-0.1,1.0999999999999999,0.5235987755982988,0.5235987755982988,0,-0.47604108,-0.9335599,-0.7909797,0.19821449,0.060049284,1.0730883,-0.13249445,-0.99804026,-1.5880471,2.5293686,4.9286347e-05,0.17671639,1.1484491,0.6243543
0.1,-0.1,1.0999999999999999,0.5235987755982988,0.5235987755982988,0,-0.4806021,-0.9353755,-0.7451962,0.15072753,-0.07905422,0.7255215,-0.73613477,-0.9962983,-1.5858709,2.5264468,0.12090271,0.051663343,0.96844053,0.4881657
0.1,-0.1,1.0999999999999999,0.5235987755982988,0.5235987755982988,0,-0.46727285,-0.9321593,-0.9665924,0.03265488,0.0946785,1.0707618,-1.0088811,-0.9988621,-1.5894,2.5286126,0.020343356,-0.19939187,1.1432245,0.1318333
0.1,-0.1,1.0999999999999999,0.5235987755982988,0.5235987755982988,0,-0.45815095,-0.93479824,-0.54003066,0.11539549,0.06508153,0.91111714,-1.0812123,-0.99536866,-1.5840381,2.524749,0.06346581,0.12827761,1.2698563,-1.2967526
0.1,-0.1,1.0999999999999999,0.5235987755982988,0.5235987755982988,0,-0.4723774,-0.9344391,-0.81718504,0.11946644,0.053228542,1.0307145,-1.7782797,-0.9975003,-1.5833174,2.5263536,-0.12703975,0.20300347,0.96042454,0.22242865
0.1,-0.1,1.0999999999999999,0.5235987755982988,0.5235987755982988,0,-0.46688598,-0.9301691,-0.73237514,0.05833227,-0.13023609,0.7194104,-1.6136452,-1.0007759,-1.5865388,2.5283098,0.09095364,0.4197516,1.1275108,-1.1638031
0.1,-0.1,1.0999999999999999,0.5235987755982988,0.5235987755982988,0,-0.46197015,-0.93268174,-0.47312692,0.2780031,-0.09087791,0.4462438,-1.1033784,-0.9955064,-1.5852711,2.527475,-0.08182015,0.18765712,1.1685759,-1.6568862
0.1,-0.1,1.0999999999999999,0.5235987755982988,0.5235987755982988,0,-0.48039,-0.93444693,-0.9226364,0.15071627,-0.21497935,0.9486972,-0.09518145,-0.99859816,-1.5867227,2.5329592,0.03812663,0.3353413,1.0723524,-0.3847141
0.1,-0.1,1.0999999999999999,0.5235987755982988,0.5235987755982988,0,-0.46654528,-0.93299526,-0.76213586,0.104326345,-0.19457954,0.9300837,-1.1419717,-0.99524814,-1.5863845,2.5295448,-0.09841139,0.42436963,0.94267535,0.12804744
0.1,-0.1,1.0999999999999999,0.5235987755982988,0.5235987755982988,0,-0.48816314,-0.93422604,-0.83055735,0.02071235,0.04648314,0.9910562,-0.24781026,-0.99834985,-1.585698,2.5313036,-0.043183245,0.46801296,1.000682,-0.5233238
0.1,-0.1,1.0999999999999999,0.5235987755982988,0.5235987755982988,0,-0.46379277,-0.9344756,-0.9459922,0.12407434,0.00150599,1.3003162,-1.4166924,-0.9992537,-1.58414,2.5310454,-0.11753439,0.29126772,1.2496358,-0.28745383
0.1,-0.1,1.0999999999999999,0.5235987755982988,0.5235987755982988,0,-0.46036276,-0.9363711,-0.96521544,0.09117281,-0.08246273,0.99513924,-1.2720048,-0.9973759,-1.5866334,2.5282748,-0.085424945,0.49357235,1.0727744,-1.1411269
0.1,-0.1,1.0999999999999999,0.5235987755982988,0.5235987755982988,0,-0.4640988,-0.9309089,-0.5039132,0.16903901,0.027676852,0.75701493,-1.2017239,-1.0029624,-1.5866326,2.5305183,-0.05867191,-0.36793292,1.1588817,-0.34326145
0.1,-0.1,1.0999999999999999,0.5235987755982988,0.5235987755982988,0,-0.47058034,-0.9345917,-0.7083263,0.21660377,-0.06062766,0.97531545,-1.4022487,-1.001807,-1.5857329,2.5305161,0.10207675,0.10226976,0.99152666,-0.21642078
0.1,-0.1,1.0999999999999999,0.5235987755982988,0.5235987755982988,0,-0.46786493,-0.930553,-0.3155436,0.047346435,-0.09484138,1.1839333,-0.7569423,-1.0002068,-1.5870488,2.5292583,-0.08870628,-0.068340376,1.1644452,-0.45823452
0.1,-0.1,1.0999999999999999,0.5235987755982988,0.5235987755982988,0,-0.47133267,-0.930009,-0.49883744,0.14799309,0.07027667,0.89805794,-1.2669033,-0.9950369,-1.5837768,2.5310664,0.007268253,0.010274391,1.0038091,0.2475654
0.1,-0.1,1.0999999999999999,0.5235987755982988,0.5235987755982988,0,-0.453059,-0.93291783,-0.4714977,0.20075946,0.29077867,0.58594286,-2.4896672,-0.99957126,-1.5854969,2.5342646,-0.046291675,0.41549954,1.1449637,0.715438
0.1,-0.1,1.0999999999999999,0.5235987755982988,0.5235987755982988,0,-0.45922327,-0.93456495,-0.9525162,0.21295942,-0.08997156,1.0857613,-1.0311803,-0.99871397,-1.5862883,2.5291367,0.020143095,0.17090091,1.366818,-0.32989162
0.1,-0.1,1.0999999999999999,0.5235987755982988,0.5235987755982988,0,-0.47649613,-0.9310917,-0.4725975,0.11270642,-0.14216737,1.0807741,-1.5147341,-0.9998894,-1.5849668,2.5342247,-0.10345016,-0.16811022,1.2320963,-1.2993906
0.1,-0.1,1.0999999999999999,0.5235987755982988,0.5235987755982988,0,-0.45810464,-0.93612325,-1.1470399,0.09941955,0.08710092,0.8997942,-0.98304486,-0.9958849,-1.5846975,2.5324936,-0.07633002,0.24280322,0.84076023,-0.24545623
