sanky1234/BimanualDexCatch/isaacgymenvs/cem_results/football_pose_0.0_0.0_1.2999999999999998_0.5235987755982988_-0.5235987755982988_0_2025-05-26.csv
x,y,z,roll,pitch,yaw,robot1/joint1,robot1/joint2,robot1/joint3,robot1/joint4,robot1/joint5,robot1/joint6,robot1/joint7,robot2/joint1,robot2/joint2,robot2/joint3,robot2/joint4,robot2/joint5,robot2/joint6,robot2/joint7
0.0,0.0,1.2999999999999998,0.5235987755982988,-0.5235987755982988,0,-0.540086,-0.9137928,0.9751185,-0.11171413,0.064060345,1.1307365,1.2974102,-1.059613,1.2912307,0.010495179,-0.08669757,-0.041232407,1.2654972,-0.7303746
0.0,0.0,1.2999999999999998,0.5235987755982988,-0.5235987755982988,0,-0.5421032,-0.91298723,0.9824435,-0.10575491,-0.057076536,1.1181821,0.10274075,-1.0533946,1.2853118,0.0011449725,-0.06029752,0.0013031402,1.2980131,0.090681
0.0,0.0,1.2999999999999998,0.5235987755982988,-0.5235987755982988,0,-0.540872,-0.91382414,0.9884345,-0.12527795,-0.05279623,1.1401794,0.30363154,-0.5898669,1.2495897,-0.13877295,-0.052302126,0.021138905,1.2576663,0.6936887
0.0,0.0,1.2999999999999998,0.5235987755982988,-0.5235987755982988,0,-0.5416275,-0.9132684,0.9862882,-0.09809335,0.050646435,1.1459628,0.2566705,-0.86018467,1.276813,0.0843348,-0.08545319,-0.007679406,1.2128928,0.6357053
0.0,0.0,1.2999999999999998,0.5235987755982988,-0.5235987755982988,0,-0.5400726,-0.913295,1.0929345,-0.08677158,-0.047775052,1.108028,0.170365,-0.38603127,1.3162934,-0.08760259,-0.08418514,-0.04474916,1.2655498,-0.7239873
0.0,0.0,1.2999999999999998,0.5235987755982988,-0.5235987755982988,0,-0.5410077,-0.9139765,1.0059677,-0.13485508,0.046041332,1.1620419,0.040701766,-1.4448931,1.2934741,-0.106951356,-0.049176104,-0.039558295,1.2294599,0.70180917
0.0,0.0,1.2999999999999998,0.5235987755982988,-0.5235987755982988,0,-0.5422916,-0.914008,1.0127555,-0.092713475,0.0052824947,1.1167524,0.12784547,-0.31533965,1.3259674,-0.13413508,-0.11852488,0.046226136,1.2409616,0.029297406
0.0,0.0,1.2999999999999998,0.5235987755982988,-0.5235987755982988,0,-0.5410148,-0.91397095,1.018832,-0.096070476,-0.021679493,1.0632958,-0.0729681,-0.5990551,1.2865213,-0.06583023,-0.09152467,0.08104023,1.2474085,0.7819162
0.0,0.0,1.2999999999999998,0.5235987755982988,-0.5235987755982988,0,-0.54229605,-0.9130086,1.0608295,-0.09180239,0.020118652,1.0858681,0.36203268,-0.8090616,1.3004562,0.08010391,-0.071592025,0.020926585,1.227014,0.4087046
0.0,0.0,1.2999999999999998,0.5235987755982988,-0.5235987755982988,0,-0.5419295,-0.9140032,1.0885447,-0.09397379,0.029795583,1.0926192,0.54756296,-1.0126911,1.2518225,-0.13358083,-0.07663684,-0.14694525,1.2145088,-0.1919563
0.0,0.0,1.2999999999999998,0.5235987755982988,-0.5235987755982988,0,-0.54210657,-0.9139953,0.967879,-0.08277466,-0.09797934,1.0996513,0.5009047,-0.7589931,1.337253,0.026386362,-0.051737905,-0.01504488,1.2395974,0.018607507
0.0,0.0,1.2999999999999998,0.5235987755982988,-0.5235987755982988,0,-0.54100823,-0.9130723,1.010312,-0.11217613,-0.06638257,1.1468406,-0.11158252,-0.72075385,1.3185558,0.052715812,-0.11380493,0.026650487,1.2157167,1.097735
0.0,0.0,1.2999999999999998,0.5235987755982988,-0.5235987755982988,0,-0.54234976,-0.9135579,1.0372058,-0.11805848,0.04114217,1.1290292,-0.5381349,-0.59044856,1.2975327,0.010117352,-0.08336632,0.028124489,1.2134374,-0.2448761
0.0,0.0,1.2999999999999998,0.5235987755982988,-0.5235987755982988,0,-0.540391,-0.91371125,1.1628709,-0.113135554,0.07290476,1.0969095,0.20802765,-1.1338304,1.346907,-0.17821093,-0.092717744,0.0069078044,1.239703,-1.0151037
0.0,0.0,1.2999999999999998,0.5235987755982988,-0.5235987755982988,0,-0.54441863,-0.9145719,0.9201077,-0.09711742,-0.03608022,1.0283495,-0.23570934,-0.4404643,1.2765267,-0.019231029,-0.08014691,-0.04201762,1.2110004,1.2036476
0.0,0.0,1.2999999999999998,0.5235987755982988,-0.5235987755982988,0,-0.54038024,-0.9143553,0.9376346,-0.11199115,-0.01855833,1.1571971,-0.44635007,-0.31525558,1.2496928,-0.0120134,-0.11074784,-0.04076191,1.308109,0.23520394
0.0,0.0,1.2999999999999998,0.5235987755982988,-0.5235987755982988,0,-0.5400793,-0.91314787,1.0830473,-0.08031382,-0.020819085,1.1597395,0.48486796,-0.6299122,1.2786206,-0.07026016,-0.053767674,-0.15039973,1.2453512,-0.78669685
0.0,0.0,1.2999999999999998,0.5235987755982988,-0.5235987755982988,0,-0.5414179,-0.91347116,1.0671582,-0.102545366,0.0038914727,1.1398293,-0.33721295,-0.7885887,1.3544865,-0.018553952,-0.07370623,0.14601003,1.2525848,0.64799345
0.0,0.0,1.2999999999999998,0.5235987755982988,-0.5235987755982988,0,-0.54176617,-0.9132636,1.0222524,-0.13693582,0.15420428,1.1305387,-0.63637495,-0.82212865,1.3174669,0.006215908,-0.08897459,-0.08410196,1.2506438,0.7844261
0.0,0.0,1.2999999999999998,0.5235987755982988,-0.5235987755982988,0,-0.5421892,-0.91328645,1.0372368,-0.113636345,0.057587527,1.1354065,0.49969846,-0.82459474,1.3001965,0.27816173,-0.09701668,-0.09243984,1.2774132,-0.66629356
0.0,0.0,1.2999999999999998,0.5235987755982988,-0.5235987755982988,0,-0.5402136,-0.913173,1.0290989,-0.08048288,-0.028847843,1.192353,0.5230356,-0.7661035,1.3010799,-0.058189027,-0.092098504,-0.059282206,1.2483112,-0.9192691
0.0,0.0,1.2999999999999998,0.5235987755982988,-0.5235987755982988,0,-0.5423214,-0.91321146,0.950774,-0.104043454,-0.035556946,1.13794,0.7661958,-1.0387977,1.3143044,-0.037028294,-0.073369496,0.10361829,1.248047,-0.4982613
0.0,0.0,1.2999999999999998,0.5235987755982988,-0.5235987755982988,0,-0.5420875,-0.9134723,1.0731055,-0.11197644,0.090490595,1.1260473,-0.0971025,-0.9208459,1.3117155,-0.024580667,-0.06966593,-0.027148148,1.2548078,-0.114031166
0.0,0.0,1.2999999999999998,0.5235987755982988,-0.5235987755982988,0,-0.53988755,-0.9125931,1.0908235,-0.10408298,0.010875011,1.1919649,0.12218178,-0.6066243,1.3582743,-0.07399305,-0.08124569,-0.059531372,1.2210201,1.6188256
0.0,0.0,1.2999999999999998,0.5235987755982988,-0.5235987755982988,0,-0.54180586,-0.91315746,1.0190032,-0.09165626,0.016594213,1.1616702,-0.28441316,-0.319188,1.2755331,-0.06479347,-0.09335002,-0.011479833,1.2170645,1.163342
0.0,0.0,1.2999999999999998,0.5235987755982988,-0.5235987755982988,0,-0.5406126,-0.913661,0.97931266,-0.13506866,-0.015751058,1.0663161,-0.19277169,-0.9967534,1.2632813,-0.0006747997,-0.061955716,0.0400016,1.2492558,-0.06179613
0.0,0.0,1.2999999999999998,0.5235987755982988,-0.5235987755982988,0,-0.5412851,-0.912876,1.0552522,-0.08258733,-0.096509464,1.1517674,-0.23509157,-0.58715886,1.2847879,0.05728573,-0.05657825,-0.009037122,1.2521764,0.33806723
0.0,0.0,1.2999999999999998,0.5235987755982988,-0.5235987755982988,0,-0.5430106,-0.9148895,0.81284666,-0.1324561,0.03895065,1.1418109,0.43219763,-0.62422097,1.340191,0.038848635,-0.06354698,0.010060128,1.2478986,-0.28569147
0.0,0.0,1.2999999999999998,0.5235987755982988,-0.5235987755982988,0,-0.5416585,-0.9145319,1.081614,-0.070933774,0.004293987,1.0574644,-1.09766,-0.9161225,1.2828993,0.044012018,-0.05177084,0.06979898,1.2727202,0.011319591
0.0,0.0,1.2999999999999998,0.5235987755982988,-0.5235987755982988,0,-0.54333395,-0.9134787,0.8406783,-0.07750293,0.047273483,1.1178479,0.6428021,-0.41729853,1.327825,-0.31470302,-0.11317407,0.22636147,1.2298346,-0.10181818
0.0,0.0,1.2999999999999998,0.5235987755982988,-0.5235987755982988,0,-0.54083335,-0.9132938,1.08505,-0.10825187,-0.0055516455,1.2020108,1.0122516,-0.7593516,1.2669941,-0.07203831,-0.10672577,-0.012406505,1.1892581,-1.408381
0.0,0.0,1.2999999999999998,0.5235987755982988,-0.5235987755982988,0,-0.54284716,-0.9132182,1.0074717,-0.10974664,0.0036087737,1.18423,0.71806455,-0.783036,1.285548,0.105026856,-0.112891,0.03524387,1.1932225,0.45502636
0.0,0.0,1.2999999999999998,0.5235987755982988,-0.5235987755982988,0,-0.54167914,-0.91397804,0.93889886,-0.11990305,0.04017866,1.1488129,-0.020989034,-0.23307833,1.2692215,-0.009113808,-0.059803583,-0.06460959,1.2886391,-0.21026085
0.0,0.0,1.2999999999999998,0.5235987755982988,-0.5235987755982988,0,-0.54072934,-0.9137999,1.0386696,-0.12128384,0.08638323,1.0830806,0.62498915,-0.555097,1.26369,0.18804772,-0.076607265,-0.029937671,1.2429856,-1.3256091
0.0,0.0,1.2999999999999998,0.5235987755982988,-0.5235987755982988,0,-0.5432862,-0.9147723,0.99287075,-0.095095105,0.051408745,1.1616585,-0.25350606,-1.1205225,1.2983242,-0.11970544,-0.07108273,-0.09065851,1.2238101,0.8319957
0.0,0.0,1.2999999999999998,0.5235987755982988,-0.5235987755982988,0,-0.54136163,-0.91397315,1.0623443,-0.09386797,0.02583445,1.1301256,1.5654097,-0.65302855,1.2579955,0.0018072088,-0.084354386,-0.103284396,1.254205,0.068962514
0.0,0.0,1.2999999999999998,0.5235987755982988,-0.5235987755982988,0,-0.540894,-0.91306674,1.1157411,-0.09731791,-0.040588472,1.0802455,0.45900336,-1.1429322,1.2659544,-0.04807127,-0.106616594,0.00030746206,1.3084364,-0.83022416
0.0,0.0,1.2999999999999998,0.5235987755982988,-0.5235987755982988,0,-0.54007435,-0.91324985,1.0477291,-0.13437071,0.027983593,1.1270485,1.3643309,-0.7552275,1.2556982,-0.16162679,-0.08899033,0.022406058,1.2613195,-0.88440675
0.0,0.0,1.2999999999999998,0.5235987755982988,-0.5235987755982988,0,-0.54135615,-0.9143407,1.0329947,-0.114720255,0.006582699,1.0452018,0.62582695,-1.0424235,1.3098539,0.019475937,-0.074060366,-0.034514487,1.2411098,0.5122842
0.0,0.0,1.2999999999999998,0.5235987755982988,-0.5235987755982988,0,-0.53968483,-0.9138018,1.0687039,-0.12096357,0.011769586,1.1238006,-1.0930753,-0.4584398,1.2800809,0.053858012,-0.09823324,-0.08337211,1.2377421,-1.9496384
0.0,0.0,1.2999999999999998,0.5235987755982988,-0.5235987755982988,0,-0.5398655,-0.91363895,0.95782083,-0.12020788,-0.07093679,1.1373473,-0.969849,-0.24676335,1.2705047,0.036972154,-0.06994009,0.18016684,1.2520331,-1.3027884
0.0,0.0,1.2999999999999998,0.5235987755982988,-0.5235987755982988,0,-0.5444564,-0.9145462,0.9610793,-0.123143,-0.03352986,1.1141169,0.7639863,-0.5149072,1.2871205,0.022683334,-0.06966494,-0.11465519,1.205112,-1.2238002
0.0,0.0,1.2999999999999998,0.5235987755982988,-0.5235987755982988,0,-0.5400528,-0.9134645,1.0532868,-0.104926996,0.011297339,1.1556637,0.14121161,-0.7883496,1.3091727,-0.08329755,-0.07509261,0.05250979,1.19504,-0.5899965
0.0,0.0,1.2999999999999998,0.5235987755982988,-0.5235987755982988,0,-0.5414692,-0.91354084,1.0794811,-0.12589277,-0.00063844764,1.1246054,0.3072617,-0.7883645,1.2279836,-0.22008435,-0.093023814,-0.047163278,1.3082097,-0.30811882
0.0,0.0,1.2999999999999998,0.5235987755982988,-0.5235987755982988,0,-0.54019326,-0.9130001,0.9984347,-0.09964409,-0.06536189,1.1212537,0.04564029,-0.7894876,1.2168931,-0.07128108,-0.100638606,-0.043133534,1.2692364,0.5991235
0.0,0.0,1.2999999999999998,0.5235987755982988,-0.5235987755982988,0,-0.54084224,-0.91334647,0.8887122,-0.09800475,0.06973838,1.1819795,0.6735789,-0.79168755,1.2274202,-0.17031267,-0.09672649,0.017441189,1.2268224,0.67101735
0.0,0.0,1.2999999999999998,0.5235987755982988,-0.5235987755982988,0,-0.5415659,-0.9139344,1.0686182,-0.11705804,-0.0064296196,1.1461053,0.34420788,-0.70805955,1.2687253,-0.019089703,-0.06391197,0.10966302,1.1946509,-1.0620406
0.0,0.0,1.2999999999999998,0.5235987755982988,-0.5235987755982988,0,-0.5441724,-0.91377366,0.996458,-0.080682375,-0.06648767,1.0724044,-0.74092835,-0.42218724,1.2995895,0.017913118,-0.062003087,-0.059445385,1.2017504,-0.32597962
0.0,0.0,1.2999999999999998,0.5235987755982988,-0.5235987755982988,0,-0.5416216,-0.9138889,0.921054,-0.10455933,0.099358946,1.1201879,0.45760566,-0.56809753,1.3423907,-0.23014337,-0.11095192,-0.091172725,1.2563046,0.93717384
0.0,0.0,1.2999999999999998,0.5235987755982988,-0.5235987755982988,0,-0.5408933,-0.91364455,0.888311,-0.075512886,-0.03015239,1.1494969,-0.028703019,-0.6190201,1.2377236,-0.017059505,-0.08107175,0.07562065,1.2351205,0.26047888
0.0,0.0,1.2999999999999998,0.5235987755982988,-0.5235987755982988,0,-0.5431188,-0.9137659,1.0629573,-0.13591447,0.06529265,1.136399,0.43786645,-0.65734076,1.3963349,-0.13373592,-0.118773215,-0.06442428,1.2677068,1.0795581
0.0,0.0,1.2999999999999998,0.5235987755982988,-0.5235987755982988,0,-0.54055935,-0.91456413,0.86828244,-0.07258283,0.051187392,1.1535089,0.97889084,-0.39455315,1.2762527,0.08041367,-0.07749453,0.084236085,1.2546706,0.4672344
0.0,0.0,1.2999999999999998,0.5235987755982988,-0.5235987755982988,0,-0.5431666,-0.9150049,1.0088358,-0.15281674,-0.012052397,1.1681238,-0.8621997,-0.79390603,1.2679591,0.03238912,-0.12056783,0.28107747,1.2158319,0.59090954
0.0,0.0,1.2999999999999998,0.5235987755982988,-0.5235987755982988,0,-0.5436634,-0.91418505,0.9048575,-0.12087634,0.037260976,1.0407962,1.0548978,-0.52556366,1.2302006,0.12027105,-0.0853306,-0.0670054,1.2404693,-1.0072484
0.0,0.0,1.2999999999999998,0.5235987755982988,-0.5235987755982988,0,-0.5418297,-0.914205,0.8729396,-0.10157804,0.047207735,1.0645121,0.5225071,-0.4825584,1.2992349,-0.25389108,-0.10845618,0.04163618,1.242193,0.20805995
0.0,0.0,1.2999999999999998,0.5235987755982988,-0.5235987755982988,0,-0.54410046,-0.91308737,1.0260254,-0.129731,0.026933907,1.1002103,0.70574707,-0.60070795,1.2511638,0.14237078,-0.07617559,-0.015067385,1.2742099,0.7690631
0.0,0.0,1.2999999999999998,0.5235987755982988,-0.5235987755982988,0,-0.5391781,-0.9152165,1.0038716,-0.12329122,-0.02235941,1.0763756,-1.0690413,-1.192185,1.2513263,-0.030955974,-0.069007345,-0.11823357,1.2367516,-1.1935905
0.0,0.0,1.2999999999999998,0.5235987755982988,-0.5235987755982988,0,-0.5436497,-0.9145301,1.0168418,-0.095580265,-0.035156175,1.1352154,-0.33039415,-0.29633233,1.3038898,0.03269661,-0.067257166,-0.0031630066,1.2073629,-1.954267
0.0,0.0,1.2999999999999998,0.5235987755982988,-0.5235987755982988,0,-0.5392501,-0.91425025,0.9586765,-0.056887362,0.014985269,1.030853,-0.66547656,-0.5954449,1.3213212,-0.067030765,-0.10944044,-0.079468906,1.2139212,-0.28984028
0.0,0.0,1.2999999999999998,0.5235987755982988,-0.5235987755982988,0,-0.54041404,-0.9138605,1.0420948,-0.050439954,0.046239156,1.1516619,-0.5478788,-0.8258871,1.3230461,0.08209649,-0.07258469,0.07391088,1.2772348,0.14108633
0.0,0.0,1.2999999999999998,0.5235987755982988,-0.5235987755982988,0,-0.54275805,-0.9134536,0.97798103,-0.12496446,-0.050076712,1.0453447,-0.2549163,-0.44704816,1.261723,-0.09710283,-0.03920049,-0.10467845,1.1730464,0.7675743
0.0,0.0,1.2999999999999998,0.5235987755982988,-0.5235987755982988,0,-0.5419888,-0.9144784,0.9709783,-0.09467128,0.011526864,1.1037613,0.91309345,-0.81992847,1.2977691,-0.07118475,-0.110953204,0.0065344325,1.2379187,-0.97053814
0.0,0.0,1.2999999999999998,0.5235987755982988,-0.5235987755982988,0,-0.54215586,-0.9146484,0.9258308,-0.11310501,0.12419896,1.1590909,0.019235145,-0.5605213,1.2896304,-0.06954491,-0.104784384,0.052310128,1.2580324,-0.5062607
0.0,0.0,1.2999999999999998,0.5235987755982988,-0.5235987755982988,0,-0.5432086,-0.9133067,1.1207856,-0.122226596,-0.096692435,1.0937492,0.3335227,-0.7844967,1.3007587,-0.12341987,-0.045051068,-0.22399732,1.2776527,-0.15884991
0.0,0.0,1.2999999999999998,0.5235987755982988,-0.5235987755982988,0,-0.54334986,-0.91461575,1.1729587,-0.08007677,0.022871539,1.0426996,0.7438731,-0.5496229,1.268637,-0.07232686,-0.058975182,0.08246747,1.2803996,-0.88804513
0.0,0.0,1.2999999999999998,0.5235987755982988,-0.5235987755982988,0,-0.5431521,-0.91314197,1.031056,-0.14429937,-0.12550612,1.163673,0.23359682,-0.8750974,1.3257363,-0.13443397,-0.07670467,0.037723254,1.2644563,-0.5074549
0.0,0.0,1.2999999999999998,0.5235987755982988,-0.5235987755982988,0,-0.5402753,-0.9140925,0.9215837,-0.100951456,-0.016613014,1.0807111,-0.53575104,-0.51298547,1.2795838,0.010860547,-0.06625313,0.16569597,1.2656254,-0.5961767
0.0,0.0,1.2999999999999998,0.5235987755982988,-0.5235987755982988,0,-0.54132146,-0.91257805,1.0481205,-0.07009758,-0.07426431,1.1674759,-0.65802693,-0.5607423,1.3195517,-0.002283267,-0.091296405,-0.18861565,1.2152267,-0.10511034
0.0,0.0,1.2999999999999998,0.5235987755982988,-0.5235987755982988,0,-0.54230714,-0.91400826,0.95364547,-0.11640043,0.009042317,1.0562046,0.033174988,-0.4905077,1.1932887,-0.07495908,-0.04576333,-0.13870879,1.2100232,0.19003075
0.0,0.0,1.2999999999999998,0.5235987755982988,-0.5235987755982988,0,-0.54211915,-0.91451,0.97188514,-0.113408,0.04199056,1.1396484,-0.85729057,-0.32751733,1.3642952,-0.059035923,-0.053468354,0.07814155,1.2912685,1.2578738
0.0,0.0,1.2999999999999998,0.5235987755982988,-0.5235987755982988,0,-0.54122543,-0.91421324,1.145293,-0.11385719,-0.020437334,1.232436,-0.4666417,-0.5869328,1.284729,-0.052085258,-0.072556704,-0.012411842,1.2959727,-0.6155799
0.0,0.0,1.2999999999999998,0.5235987755982988,-0.5235987755982988,0,-0.5401127,-0.91396517,1.0242792,-0.113129586,0.014338492,1.1916115,0.4763963,-0.72213435,1.3254846,-0.17503797,-0.060799327,0.06106368,1.2270436,0.44388634
0.0,0.0,1.2999999999999998,0.5235987755982988,-0.5235987755982988,0,-0.5426966,-0.9138455,1.018246,-0.113251686,-0.026726672,1.1117607,-0.37297174,-0.8791274,1.3262926,0.04890273,-0.08157142,-0.067740224,1.2671497,-0.3304051
0.0,0.0,1.2999999999999998,0.5235987755982988,-0.5235987755982988,0,-0.54260576,-0.91432977,0.93082315,-0.095556475,0.09061447,1.1134585,-0.52489865,-1.0836244,1.2657034,0.11297481,-0.07106992,-0.14737014,1.2856882,0.58964574
0.0,0.0,1.2999999999999998,0.5235987755982988,-0.5235987755982988,0,-0.53971076,-0.91356695,0.9254188,-0.11789057,0.02113981,1.1287334,-1.3745497,-0.58275944,1.2880585,-0.02101101,-0.060642987,-0.13788384,1.2544531,-0.64535457
0.0,0.0,1.2999999999999998,0.5235987755982988,-0.5235987755982988,0,-0.54266834,-0.91483545,1.0155458,-0.07372169,0.009648136,1.1924584,0.8272825,-1.0756625,1.2419494,-0.06995534,-0.07570175,0.0327494,1.2731804,-0.56237394
0.0,0.0,1.2999999999999998,0.5235987755982988,-0.5235987755982988,0,-0.54334706,-0.914584,1.0360276,-0.12783329,-0.09006839,1.0997865,-0.72828513,-0.6344111,1.261381,-0.009914775,-0.07721076,-0.23724602,1.2123507,0.34779736
0.0,0.0,1.2999999999999998,0.5235987755982988,-0.5235987755982988,0,-0.5424869,-0.9138881,0.98848194,-0.12548627,0.03447022,1.2399714,-0.5981201,-0.76931727,1.2657279,-0.0955253,-0.07967782,0.12282667,1.2207563,0.3592072
0.0,0.0,1.2999999999999998,0.5235987755982988,-0.5235987755982988,0,-0.5408958,-0.91335696,0.97474796,-0.09925812,-0.09721933,1.1652222,0.3933093,-0.45914719,1.28364,-0.15169905,-0.071941,-0.0032886835,1.2484196,0.38698536
0.0,0.0,1.2999999999999998,0.5235987755982988,-0.5235987755982988,0,-0.5443453,-0.9134339,1.0398632,-0.107971765,-0.018679716,1.1024463,-0.47119936,-1.2637836,1.260084,0.09084443,-0.059256427,-0.044353865,1.1870064,0.15278694
0.0,0.0,1.2999999999999998,0.5235987755982988,-0.5235987755982988,0,-0.5431327,-0.9138078,1.0102158,-0.11152277,-0.025655586,1.1562543,0.521602,-0.6722815,1.2960225,0.04752773,-0.10002471,0.110313565,1.2102224,0.4872717
0.0,0.0,1.2999999999999998,0.5235987755982988,-0.5235987755982988,0,-0.5391762,-0.91385084,0.9683602,-0.11414119,-0.015995808,1.1134876,-0.51936066,-0.53845674,1.3337295,0.13065834,-0.1097308,-0.18072058,1.2269733,-1.9738638
0.0,0.0,1.2999999999999998,0.5235987755982988,-0.5235987755982988,0,-0.543335,-0.91345894,1.0358154,-0.10396044,0.20340997,1.1327381,0.38286686,-0.30595374,1.3087492,-0.18961552,-0.10346813,-0.11154771,1.2876246,-0.2913726
0.0,0.0,1.2999999999999998,0.5235987755982988,-0.5235987755982988,0,-0.5440783,-0.9128424,1.0148329,-0.08689776,0.034378536,1.1390978,0.5073516,-0.6998666,1.2993487,0.10454486,-0.09554708,0.026754042,1.2556055,0.5610102
0.0,0.0,1.2999999999999998,0.5235987755982988,-0.5235987755982988,0,-0.5436178,-0.9139634,1.1090834,-0.06808539,-0.05551797,1.1306779,-1.0906473,-0.86317044,1.306065,-0.018975815,-0.06661383,-0.036162227,1.3096153,-0.706555
0.0,0.0,1.2999999999999998,0.5235987755982988,-0.5235987755982988,0,-0.5408861,-0.914971,1.0385007,-0.09923177,-0.033218328,1.2576257,-0.18041596,-0.684551,1.2501476,-0.047830153,-0.07876082,-0.07653135,1.2259909,0.4176175
0.0,0.0,1.2999999999999998,0.5235987755982988,-0.5235987755982988,0,-0.5412489,-0.91364855,0.92062986,-0.11959842,0.078797325,1.0957242,-0.31758076,-0.25119293,1.3081518,-0.14279692,-0.05985717,-0.05134742,1.1988581,0.52506393
0.0,0.0,1.2999999999999998,0.5235987755982988,-0.5235987755982988,0,-0.54397535,-0.9129918,1.0827197,-0.07447779,0.0022752765,1.1350348,-0.74509054,-0.8971855,1.3161778,0.02237645,-0.06502173,-0.018202504,1.2963221,0.2866224
0.0,0.0,1.2999999999999998,0.5235987755982988,-0.5235987755982988,0,-0.54330415,-0.91432893,1.0796307,-0.09699736,-0.0019889928,1.1523862,0.055137843,-0.46615493,1.2723205,-0.07881033,-0.058414493,-0.011735137,1.2752122,0.18085529
0.0,0.0,1.2999999999999998,0.5235987755982988,-0.5235987755982988,0,-0.54292965,-0.91415787,0.96100175,-0.0818838,-0.005424805,1.151932,-0.295756,-0.19398901,1.2207135,-0.052470386,-0.063757494,0.025896288,1.2212983,-0.64442956
0.0,0.0,1.2999999999999998,0.5235987755982988,-0.5235987755982988,0,-0.5418647,-0.9153401,1.1287436,-0.122564085,-0.029493766,1.1109833,0.5366872,-0.56418276,1.1828558,0.05191655,-0.056896172,-0.026021162,1.2165341,0.49344754
0.0,0.0,1.2999999999999998,0.5235987755982988,-0.5235987755982988,0,-0.54233825,-0.9144701,0.99979347,-0.10765031,0.0031282485,1.1740402,0.60983783,-0.87464374,1.2475122,0.05690587,-0.076843485,-0.084471956,1.1981627,-0.89226663
0.0,0.0,1.2999999999999998,0.5235987755982988,-0.5235987755982988,0,-0.5430571,-0.9132729,1.0142637,-0.10516977,0.01487425,1.0547539,0.07718859,-0.1602022,1.257526,-0.010261663,-0.11106274,-0.12393947,1.2667763,0.45848754
0.0,0.0,1.2999999999999998,0.5235987755982988,-0.5235987755982988,0,-0.5420064,-0.913835,0.89258885,-0.098719686,-0.011469191,1.1393225,0.39203203,-0.69368905,1.2722031,0.019091543,-0.08266538,-0.060563307,1.2121964,-0.9294674
0.0,0.0,1.2999999999999998,0.5235987755982988,-0.5235987755982988,0,-0.5418061,-0.91437525,1.1029533,-0.13520439,-0.10227072,1.1842418,-0.45292914,-1.0326114,1.2763029,-0.12393139,-0.072662085,0.0478517,1.2682247,1.7100778
0.0,0.0,1.2999999999999998,0.5235987755982988,-0.5235987755982988,0,-0.5417762,-0.9129288,1.1045177,-0.10092241,-0.025527526,1.1149967,-0.849483,-1.090754,1.1940105,-0.14309277,-0.051595297,-0.2009792,1.1931723,0.24727897
0.0,0.0,1.2999999999999998,0.5235987755982988,-0.5235987755982988,0,-0.54252917,-0.9140512,0.9195413,-0.07063757,-0.014140898,1.113714,-0.6162652,-0.9321172,1.3029472,-0.06562593,-0.0803374,-0.022538824,1.251048,1.3761947
0.0,0.0,1.2999999999999998,0.5235987755982988,-0.5235987755982988,0,-0.542291,-0.9135423,0.9669953,-0.09925399,-0.00019764538,1.1250967,-0.4964939,-0.6283164,1.2056766,0.06523419,-0.09573287,-0.14309552,1.2776195,1.541448
0.0,0.0,1.2999999999999998,0.5235987755982988,-0.5235987755982988,0,-0.5432745,-0.9148108,1.1165581,-0.09635777,0.0910643,1.0791073,-0.5806432,-0.70370346,1.3274794,0.03716167,-0.09435281,-0.02160758,1.2384056,-1.9302621
0.0,0.0,1.2999999999999998,0.5235987755982988,-0.5235987755982988,0,-0.5418287,-0.9132934,0.9760711,-0.12801743,0.04676927,1.1974152,0.7566498,-0.67823726,1.3165417,-0.17735194,-0.07169542,0.035621252,1.167255,-0.08546544
0.0,0.0,1.2999999999999998,0.5235987755982988,-0.5235987755982988,0,-0.54207206,-0.913431,0.98044634,-0.10061188,0.014644327,1.0777199,0.49989447,-0.6304796,1.3011321,0.045047484,-0.10916671,-0.021938385,1.2563777,0.42421603
0.0,0.0,1.2999999999999998,0.5235987755982988,-0.5235987755982988,0,-0.54286504,-0.9143942,1.1000216,-0.12416887,0.07167953,1.1562543,-0.6478724,-0.86854637,1.2807289,-0.03248469,-0.070225954,-0.024285557,1.2674683,-0.42793307
0.0,0.0,1.2999999999999998,0.5235987755982988,-0.5235987755982988,0,-0.54264706,-0.91441196,1.1143174,-0.077563584,0.12121004,1.1768398,0.34260252,-0.9427137,1.3182821,-0.065795474,-0.06940651,-0.1668683,1.2521112,-1.5298963
0.0,0.0,1.2999999999999998,0.5235987755982988,-0.5235987755982988,0,-0.5423619,-0.912523,0.903426,-0.08704951,0.047136363,1.1242038,-0.8264429,-0.7517431,1.2759292,-0.04471612,-0.07609336,0.0150784515,1.1989253,0.58588666
0.0,0.0,1.2999999999999998,0.5235987755982988,-0.5235987755982988,0,-0.54346704,-0.9131876,1.0311238,-0.1413981,-0.022928827,1.1396799,0.36102074,-0.56265205,1.2841674,-0.029466184,-0.076632306,-0.063093014,1.2545365,1.5319419
0.0,0.0,1.2999999999999998,0.5235987755982988,-0.5235987755982988,0,-0.54363614,-0.91305864,1.0756423,-0.119542934,0.060728334,1.2128986,0.7084148,-0.43759838,1.2554967,0.04859372,-0.069534265,0.1583204,1.2336084,2.5759044
0.0,0.0,1.2999999999999998,0.5235987755982988,-0.5235987755982988,0,-0.5436962,-0.9134598,1.1118385,-0.14354116,0.042006105,1.0997347,-0.6328782,-0.82755274,1.2227845,-0.117180154,-0.082712844,0.04685335,1.2874589,-1.0991923
0.0,0.0,1.2999999999999998,0.5235987755982988,-0.5235987755982988,0,-0.5429368,-0.91372854,1.0441413,-0.08800514,0.04760115,1.1052324,-0.04996422,-0.674738,1.3074754,-0.12625355,-0.08955881,-0.10606294,1.2427934,0.75298053
0.0,0.0,1.2999999999999998,0.5235987755982988,-0.5235987755982988,0,-0.5420503,-0.9148235,0.94187695,-0.11978335,-0.013350054,1.0494367,0.085476585,-0.48637542,1.2866766,-0.09947089,-0.08617811,0.025649857,1.2465866,0.6371125
0.0,0.0,1.2999999999999998,0.5235987755982988,-0.5235987755982988,0,-0.5426902,-0.9132514,0.9554025,-0.099497505,-0.006076991,1.1516503,-0.53349304,-1.0367908,1.2642864,-0.18009686,-0.10245681,0.17454849,1.2209966,1.8200684
0.0,0.0,1.2999999999999998,0.5235987755982988,-0.5235987755982988,0,-0.54209113,-0.91493106,0.9946962,-0.13417575,0.02895925,1.1628668,1.4291484,-0.62904,1.2774985,0.016120393,-0.07143283,0.08292817,1.254786,0.7989375
0.0,0.0,1.2999999999999998,0.5235987755982988,-0.5235987755982988,0,-0.54190445,-0.91388613,0.9399289,-0.09835653,0.013800643,1.1558108,0.7678852,-1.0433242,1.2616869,-0.048964135,-0.06496445,-0.081239596,1.2765261,0.8354197
0.0,0.0,1.2999999999999998,0.5235987755982988,-0.5235987755982988,0,-0.5428343,-0.9135219,1.0459764,-0.100531586,0.016270846,1.2176065,-0.56038433,-0.48990202,1.3445706,0.09678118,-0.05525968,-0.1639636,1.2628697,0.5819376
0.0,0.0,1.2999999999999998,0.5235987755982988,-0.5235987755982988,0,-0.54257876,-0.91299206,0.9443726,-0.09602704,0.10331629,1.1367345,-0.8144693,-0.67026144,1.222468,-0.013807528,-0.08296321,-0.064857036,1.2533395,-0.028349455
0.0,0.0,1.2999999999999998,0.5235987755982988,-0.5235987755982988,0,-0.5422485,-0.9132813,0.9674426,-0.09405016,0.063337766,1.1049093,0.0028921787,-0.64740396,1.2614449,-0.0028951128,-0.08245806,-0.11078355,1.256941,-0.48413202
0.0,0.0,1.2999999999999998,0.5235987755982988,-0.5235987755982988,0,-0.5411057,-0.91450775,0.91453505,-0.12888509,0.09746532,1.125667,-0.39377558,-0.3517762,1.325501,0.022131562,-0.09558285,0.02413025,1.2518882,-0.4747183
0.0,0.0,1.2999999999999998,0.5235987755982988,-0.5235987755982988,0,-0.5434856,-0.913881,1.0719053,-0.08486145,0.0067923823,1.1304083,-0.43348712,-1.082704,1.263798,-0.20079675,-0.07595309,-0.09967019,1.3092196,-0.67796427
0.0,0.0,1.2999999999999998,0.5235987755982988,-0.5235987755982988,0,-0.54114604,-0.9145468,1.0192522,-0.10989678,-0.023589581,1.1546587,-0.006210088,-0.5846096,1.2896096,-0.058419924,-0.073236704,0.0042813355,1.218136,-0.14397937
0.0,0.0,1.2999999999999998,0.5235987755982988,-0.5235987755982988,0,-0.5417884,-0.91314465,0.9959712,-0.11589146,0.07059709,1.1557328,-1.5852557,-0.8569516,1.2922286,-0.20983738,-0.08253058,-0.11309989,1.2042396,0.71083504
0.0,0.0,1.2999999999999998,0.5235987755982988,-0.5235987755982988,0,-0.54190576,-0.91297543,0.952313,-0.14134936,-0.038604487,1.0905259,0.13634849,-1.0120697,1.2743176,0.3166751,-0.063057154,-0.19500692,1.2306585,-0.009944037
0.0,0.0,1.2999999999999998,0.5235987755982988,-0.5235987755982988,0,-0.5406614,-0.91386455,1.0212494,-0.12370209,0.037138555,1.1137753,-0.13937262,-0.42181802,1.2513278,-0.088448234,-0.052230865,0.040916383,1.2172459,0.83081263
0.0,0.0,1.2999999999999998,0.5235987755982988,-0.5235987755982988,0,-0.54212815,-0.91371614,1.1059248,-0.09778432,0.031129878,1.1328815,0.9130239,-1.0466107,1.2156198,0.030370368,-0.10710638,0.19830874,1.2660023,-0.83168644
0.0,0.0,1.2999999999999998,0.5235987755982988,-0.5235987755982988,0,-0.54218054,-0.914147,0.9870363,-0.11270425,0.03658299,1.1387436,-0.32972804,-0.47015134,1.2729816,-0.092513576,-0.047898278,0.015874362,1.2875849,0.8960199
0.0,0.0,1.2999999999999998,0.5235987755982988,-0.5235987755982988,0,-0.541899,-0.91405654,0.970897,-0.11249954,-0.008473891,1.0514351,-0.7568376,-0.7834196,1.2536051,0.073507436,-0.083822064,-0.3063408,1.2790089,0.6258617
0.0,0.0,1.2999999999999998,0.5235987755982988,-0.5235987755982988,0,-0.5428926,-0.91359067,0.9986231,-0.08665727,-0.0005756047,1.0788025,-0.005108979,-0.6245312,1.3242389,0.019420037,-0.072715655,-0.15004012,1.2320237,0.990175
0.0,0.0,1.2999999999999998,0.5235987755982988,-0.5235987755982988,0,-0.54330814,-0.913371,1.0602338,-0.10770288,0.01100284,1.0779474,0.44188583,-0.58949196,1.350853,-0.005559011,-0.11383135,-0.025678353,1.2823393,-0.29789674
0.0,0.0,1.2999999999999998,0.5235987755982988,-0.5235987755982988,0,-0.5427194,-0.9127707,1.0990951,-0.12598597,0.014129266,1.229158,-0.028707657,-0.49443826,1.2861528,0.10159729,-0.10074503,0.17703624,1.2022485,0.067566894
0.0,0.0,1.2999999999999998,0.5235987755982988,-0.5235987755982988,0,-0.54165965,-0.9138011,1.0099125,-0.13394,0.010714423,1.153057,1.3042867,-1.1241415,1.2875233,0.016537344,-0.045819305,-0.0808655,1.2506471,0.76567286
0.0,0.0,1.2999999999999998,0.5235987755982988,-0.5235987755982988,0,-0.54190063,-0.91494673,1.1159573,-0.1234088,-0.13678055,1.111587,0.233917,-0.6967945,1.304985,0.1090441,-0.12191136,-0.023751695,1.3074416,0.053992286
0.0,0.0,1.2999999999999998,0.5235987755982988,-0.5235987755982988,0,-0.54284716,-0.9134193,1.062944,-0.08899564,0.04369533,1.187846,0.5692525,-0.78323066,1.3013576,-0.073886395,-0.10756028,0.012172681,1.2274063,0.41855928
0.0,0.0,1.2999999999999998,0.5235987755982988,-0.5235987755982988,0,-0.54150885,-0.9139016,0.9802029,-0.11110976,0.003373274,1.1750964,0.8731269,-0.54834193,1.2587667,0.121190146,-0.12055681,0.09055072,1.2590461,-0.47084856
0.0,0.0,1.2999999999999998,0.5235987755982988,-0.5235987755982988,0,-0.53950804,-0.9137924,1.1401308,-0.11578981,-0.033201538,1.2441043,0.24991553,-0.6235071,1.3201561,-0.034496546,-0.060329217,0.115492195,1.2569814,0.58759296
0.0,0.0,1.2999999999999998,0.5235987755982988,-0.5235987755982988,0,-0.541709,-0.9133509,0.95304245,-0.075568475,0.008075423,1.1299989,-0.45436057,-1.0368373,1.2811866,-0.11004151,-0.120186105,-0.010508905,1.2332568,-1.6216378
0.0,0.0,1.2999999999999998,0.5235987755982988,-0.5235987755982988,0,-0.5430581,-0.91280395,0.96363366,-0.10361491,0.010762511,1.1330464,0.5277967,-0.19843403,1.2755678,-0.1550905,-0.09850706,0.039134797,1.2833747,2.1288807
0.0,0.0,1.2999999999999998,0.5235987755982988,-0.5235987755982988,0,-0.54042214,-0.9138383,0.9243771,-0.13923323,0.010466192,1.1163601,0.08687785,-1.2467625,1.2577095,0.10375893,-0.042944465,0.06328889,1.2618561,-1.2412143
0.0,0.0,1.2999999999999998,0.5235987755982988,-0.5235987755982988,0,-0.5408215,-0.9136599,1.0384499,-0.12280756,0.0409302,1.0605922,0.3392203,-1.0011975,1.2785474,-0.12304008,-0.076265916,0.07336686,1.2521161,0.21006171
0.0,0.0,1.2999999999999998,0.5235987755982988,-0.5235987755982988,0,-0.54182047,-0.9153483,1.0448571,-0.11690732,-0.017321702,1.145043,-0.40872133,-0.63061255,1.2410465,0.0064101117,-0.08491362,-0.04850256,1.2372973,0.7580337
0.0,0.0,1.2999999999999998,0.5235987755982988,-0.5235987755982988,0,-0.54239905,-0.9136137,1.0910913,-0.15560949,0.025184508,1.2048166,-1.1398407,-0.5716803,1.3303742,-0.1341983,-0.084689684,0.016105961,1.2167348,-0.8034509
0.0,0.0,1.2999999999999998,0.5235987755982988,-0.5235987755982988,0,-0.54144794,-0.91242003,0.90754014,-0.08604553,-0.033322822,1.161226,0.8647682,-0.8058536,1.2826955,0.04982715,-0.082962185,0.03173515,1.1788573,1.3399698
0.0,0.0,1.2999999999999998,0.5235987755982988,-0.5235987755982988,0,-0.5410644,-0.9126993,0.9932542,-0.09795447,0.032640878,1.1863475,-0.1160485,-0.5555502,1.3194295,-0.054042816,-0.11672557,0.057041638,1.2838712,0.25320426
0.0,0.0,1.2999999999999998,0.5235987755982988,-0.5235987755982988,0,-0.5410204,-0.91371316,1.0316596,-0.1009658,0.015860692,1.1542416,-0.71237314,-0.45552862,1.3382151,-0.06808273,-0.088462524,0.0037318752,1.2525477,-0.98457366
0.0,0.0,1.2999999999999998,0.5235987755982988,-0.5235987755982988,0,-0.5424684,-0.9135828,1.1152036,-0.06761706,0.03667357,1.150902,0.4416446,-0.5303828,1.2606034,-0.05164584,-0.07539244,0.013674513,1.2747134,1.2054276
0.0,0.0,1.2999999999999998,0.5235987755982988,-0.5235987755982988,0,-0.54203904,-0.91401833,1.0123214,-0.12448621,0.05567639,1.1214726,0.12512681,-0.7988062,1.2480333,-0.12269106,-0.08509942,0.00017923253,1.2655277,-0.9470681
0.0,0.0,1.2999999999999998,0.5235987755982988,-0.5235987755982988,0,-0.5410604,-0.9140334,0.9489327,-0.05921586,-0.023741335,1.0985245,0.32115465,-0.65434825,1.2950811,0.05556804,-0.08101744,-0.21021849,1.2603444,-0.69837433
0.0,0.0,1.2999999999999998,0.5235987755982988,-0.5235987755982988,0,-0.5409056,-0.91325283,0.8929674,-0.13995124,-0.0048936866,1.2096238,-0.23478995,-1.2161056,1.2718655,-0.06402101,-0.08352624,-0.12324466,1.2808408,-0.81270725
0.0,0.0,1.2999999999999998,0.5235987755982988,-0.5235987755982988,0,-0.5415764,-0.91484505,0.9977403,-0.10363103,-0.009997901,1.1642591,0.7683399,-0.5534118,1.3227421,0.03214138,-0.06314508,0.01750506,1.259608,0.06691595
0.0,0.0,1.2999999999999998,0.5235987755982988,-0.5235987755982988,0,-0.5411261,-0.91407794,0.957252,-0.11552224,0.033007503,1.1640302,-0.13986275,-0.73222816,1.3083785,-0.04161512,-0.080566294,-0.024738068,1.254595,-0.9194627
0.0,0.0,1.2999999999999998,0.5235987755982988,-0.5235987755982988,0,-0.54221755,-0.91266465,0.8627686,-0.12763782,0.15260556,1.1455466,0.535324,-0.33624983,1.2368804,-0.032635022,-0.07275335,-0.043411773,1.2779123,-1.9768643
0.0,0.0,1.2999999999999998,0.5235987755982988,-0.5235987755982988,0,-0.5406716,-0.9147459,1.0521522,-0.094094366,0.085805796,1.1489973,0.3568807,-0.60594726,1.3383223,0.04259225,-0.096878834,0.1255926,1.2495902,0.76328164
0.0,0.0,1.2999999999999998,0.5235987755982988,-0.5235987755982988,0,-0.5413457,-0.9128748,1.0392693,-0.12839839,0.07814398,1.1864214,0.2470741,-0.34421265,1.3732941,0.026976723,-0.073837064,0.032554474,1.2510426,1.4025854
0.0,0.0,1.2999999999999998,0.5235987755982988,-0.5235987755982988,0,-0.5418463,-0.91378003,1.1718003,-0.14117077,0.020474104,1.1602689,0.05553073,-0.7485806,1.2789572,-0.12092256,-0.1252505,-0.016998237,1.1774608,-1.5332445
0.0,0.0,1.2999999999999998,0.5235987755982988,-0.5235987755982988,0,-0.5414326,-0.9140731,1.0831202,-0.15465535,0.0067334627,1.1057982,-0.44821924,-1.1913277,1.3183156,0.04837497,-0.067699894,-0.054869138,1.2381785,2.122258
0.0,0.0,1.2999999999999998,0.5235987755982988,-0.5235987755982988,0,-0.54034925,-0.9135621,0.9802501,-0.085259154,0.06308551,1.2050921,1.0109127,-0.79475397,1.2012119,-0.225803,-0.08720313,-0.20362645,1.2268147,1.7516499
0.0,0.0,1.2999999999999998,0.5235987755982988,-0.5235987755982988,0,-0.54130906,-0.91417646,1.1453514,-0.12904616,0.011793057,1.2174097,-0.5228765,-0.5072517,1.3071648,-0.06290223,-0.095178895,0.100716814,1.2790455,-0.14713992
0.0,0.0,1.2999999999999998,0.5235987755982988,-0.5235987755982988,0,-0.54147416,-0.91296536,0.9862216,-0.10884698,0.09054181,1.1276269,-0.0351975,-1.0643413,1.3067774,0.024091965,-0.08898437,-0.06571582,1.2665882,0.016900398
0.0,0.0,1.2999999999999998,0.5235987755982988,-0.5235987755982988,0,-0.53938526,-0.9130622,1.0654868,-0.08729836,-0.017574055,1.1859168,-0.5176299,-1.038552,1.3224297,-0.029948171,-0.097018406,0.12944391,1.2600406,-0.25498793
0.0,0.0,1.2999999999999998,0.5235987755982988,-0.5235987755982988,0,-0.54134834,-0.91273534,0.9845335,-0.09112087,-0.012471676,1.036009,0.22945094,-0.63929063,1.2682714,-0.011520559,-0.097653344,-0.001037884,1.2501287,-0.70726323
0.0,0.0,1.2999999999999998,0.5235987755982988,-0.5235987755982988,0,-0.5414427,-0.913672,1.0796298,-0.10697986,-0.0314807,1.1332347,0.65044564,-0.48973736,1.2447898,-0.0004238096,-0.13010618,-0.016976593,1.2550229,1.345507
0.0,0.0,1.2999999999999998,0.5235987755982988,-0.5235987755982988,0,-0.54180044,-0.91198915,1.0366493,-0.118470356,0.0036346624,1.1806217,0.17691596,-1.0979888,1.2974758,-0.18113467,-0.06934799,-0.17967764,1.2943386,1.5268552
0.0,0.0,1.2999999999999998,0.5235987755982988,-0.5235987755982988,0,-0.5415458,-0.91428375,1.0161104,-0.07947307,0.12435681,1.0909467,0.49255225,-0.7663914,1.3256989,0.256127,-0.072248384,-0.041564483,1.214479,-0.26148152
0.0,0.0,1.2999999999999998,0.5235987755982988,-0.5235987755982988,0,-0.54082507,-0.9143133,0.97139764,-0.12139094,-0.01639543,1.0326946,0.8656194,-0.69974744,1.317113,-0.044764373,-0.06685881,0.1265861,1.2185858,-1.4378994
0.0,0.0,1.2999999999999998,0.5235987755982988,-0.5235987755982988,0,-0.5419946,-0.9133221,1.094576,-0.094757415,0.08397766,1.1758454,0.615147,-0.5790594,1.2992882,0.071360536,-0.095900916,-0.21854855,1.226441,-0.5406734
0.0,0.0,1.2999999999999998,0.5235987755982988,-0.5235987755982988,0,-0.5414784,-0.91423357,1.0165889,-0.13189898,0.022053206,1.1077363,0.029949054,-0.27488756,1.2501861,-0.29581907,-0.076113924,0.08692763,1.234964,1.2927959
0.0,0.0,1.2999999999999998,0.5235987755982988,-0.5235987755982988,0,-0.5421865,-0.9133741,1.2089564,-0.10393931,-0.047172684,1.0639136,-0.4614908,-1.3886834,1.2974977,0.11645422,-0.04632922,-0.11390488,1.2551891,0.266794
0.0,0.0,1.2999999999999998,0.5235987755982988,-0.5235987755982988,0,-0.5415184,-0.9128149,1.05348,-0.13102664,-0.08083622,1.1865735,0.37553778,-0.83803487,1.3407912,0.0932719,-0.0948707,-0.04199282,1.3185749,-0.026824918
0.0,0.0,1.2999999999999998,0.5235987755982988,-0.5235987755982988,0,-0.54099447,-0.91404754,1.0104077,-0.12074192,0.008756932,1.1073427,0.3349945,-0.8713926,1.2212198,0.110912666,-0.08032608,-0.0860066,1.2456343,-0.4468018
0.0,0.0,1.2999999999999998,0.5235987755982988,-0.5235987755982988,0,-0.5416946,-0.9122879,0.9423026,-0.11373777,-0.020262059,1.1715704,0.27641177,-0.46420205,1.2695683,0.15791959,-0.1004763,0.22046798,1.2414962,1.0985353
0.0,0.0,1.2999999999999998,0.5235987755982988,-0.5235987755982988,0,-0.5419918,-0.91391563,1.0360254,-0.0853315,0.017746277,1.1887373,-0.77870643,-0.50284153,1.2888558,-0.037620828,-0.08604371,0.04245617,1.2216591,-1.350682
0.0,0.0,1.2999999999999998,0.5235987755982988,-0.5235987755982988,0,-0.54192036,-0.9140941,1.1172858,-0.11724608,-0.028213726,1.0962503,0.7933405,-0.3445081,1.2897445,0.026402261,-0.09614186,-0.122559346,1.2226905,-0.3116224
0.0,0.0,1.2999999999999998,0.5235987755982988,-0.5235987755982988,0,-0.54193157,-0.9130812,1.0163208,-0.13578667,0.120939896,1.1973314,-0.712043,-0.78651196,1.2685592,-0.024374602,-0.0767161,0.06998875,1.2559671,0.3366403
0.0,0.0,1.2999999999999998,0.5235987755982988,-0.5235987755982988,0,-0.54079664,-0.91479594,1.1966367,-0.11930851,0.046223205,1.0901479,-0.81505543,-0.9433947,1.3369751,-0.12625091,-0.06223608,-0.09624051,1.179959,0.19278534
0.0,0.0,1.2999999999999998,0.5235987755982988,-0.5235987755982988,0,-0.5415545,-0.91338927,1.0197088,-0.11398208,-0.03070553,1.1219252,1.3873914,-0.60748863,1.3094022,0.015993081,-0.11325221,-0.09525401,1.2759877,0.3551365
0.0,0.0,1.2999999999999998,0.5235987755982988,-0.5235987755982988,0,-0.5421504,-0.91394293,0.9386208,-0.1051097,-0.026807645,1.1384778,-1.4718183,-0.43386567,1.3074508,0.043197837,-0.120472714,0.20062453,1.2636464,0.2055631
0.0,0.0,1.2999999999999998,0.5235987755982988,-0.5235987755982988,0,-0.5417572,-0.9131634,1.0790694,-0.076065324,-0.043392677,1.0993091,-0.97264045,-1.1044216,1.3104918,-0.1883565,-0.087522134,0.029357294,1.2014834,-0.1708437
0.0,0.0,1.2999999999999998,0.5235987755982988,-0.5235987755982988,0,-0.54163414,-0.91291845,1.1212671,-0.12665258,0.04668509,1.0802491,0.16254652,-1.0001419,1.2808869,0.1022744,-0.06632334,-0.009685569,1.2278458,-0.4336918
0.0,0.0,1.2999999999999998,0.5235987755982988,-0.5235987755982988,0,-0.5409705,-0.91282165,0.96984464,-0.11417922,-0.026181877,1.1625588,0.20105124,-0.9767592,1.2701279,-0.15863661,-0.0953431,-0.009330055,1.2657491,-0.991206
0.0,0.0,1.2999999999999998,0.5235987755982988,-0.5235987755982988,0,-0.5411026,-0.9135609,1.033288,-0.11725204,0.016010908,1.2482581,0.015059382,-0.8539327,1.2935231,-0.04385122,-0.119054414,0.3346174,1.2424917,1.5006766
0.0,0.0,1.2999999999999998,0.5235987755982988,-0.5235987755982988,0,-0.5414044,-0.914303,1.012735,-0.12122221,-0.023885155,1.1109939,1.2867938,-0.7808673,1.3100016,0.07770888,-0.09060082,0.081617445,1.2811587,0.16313784
0.0,0.0,1.2999999999999998,0.5235987755982988,-0.5235987755982988,0,-0.5408472,-0.91382045,1.021295,-0.1068324,0.009813439,1.0263637,0.47659343,-0.8963328,1.3093264,-0.023955882,-0.09475996,0.03914326,1.2696724,-0.91390264
0.0,0.0,1.2999999999999998,0.5235987755982988,-0.5235987755982988,0,-0.54072315,-0.91439646,0.93308926,-0.09358215,-0.081305794,1.1352155,-0.30181718,-0.61882544,1.3440236,-0.12756725,-0.0738998,0.0059630075,1.2281594,0.40500376
0.0,0.0,1.2999999999999998,0.5235987755982988,-0.5235987755982988,0,-0.5403815,-0.91376615,0.9670579,-0.11323966,-0.047688518,1.2160847,0.08415865,-0.24668565,1.2884886,-0.0813369,-0.124211624,-0.03061198,1.2244389,0.15226588
0.0,0.0,1.2999999999999998,0.5235987755982988,-0.5235987755982988,0,-0.541166,-0.91394114,1.1137065,-0.14896892,0.019985149,1.2260776,-0.03967013,-0.7444014,1.3364213,0.0028874844,-0.07249807,-0.101104505,1.2613332,0.29268372
0.0,0.0,1.2999999999999998,0.5235987755982988,-0.5235987755982988,0,-0.5409307,-0.9128831,1.0461514,-0.08735875,0.011321066,1.1628355,1.0034318,-0.88222647,1.2276547,0.06049387,-0.117149234,-0.0757411,1.1896148,-0.20258176
0.0,0.0,1.2999999999999998,0.5235987755982988,-0.5235987755982988,0,-0.5414886,-0.9133874,0.99995565,-0.08899641,-0.0043182094,1.2047726,-0.45570174,-0.6329743,1.3412931,-0.15001078,-0.09987392,-0.03525211,1.2574112,-0.7917477
0.0,0.0,1.2999999999999998,0.5235987755982988,-0.5235987755982988,0,-0.5406847,-0.91383284,1.0042506,-0.16173825,0.07633949,1.0817193,0.45831642,-0.7384768,1.283088,-0.09119784,-0.08948853,-0.028191948,1.2253153,0.10066405
0.0,0.0,1.2999999999999998,0.5235987755982988,-0.5235987755982988,0,-0.5406194,-0.91416496,1.0188236,-0.14012101,0.0037406334,1.1149344,0.056740034,-0.6392299,1.3133866,0.004408179,-0.06786121,0.11671733,1.2615343,0.71965164
0.0,0.0,1.2999999999999998,0.5235987755982988,-0.5235987755982988,0,-0.5410518,-0.91365033,1.030641,-0.09393472,0.05204074,1.0884068,-0.045136586,-0.8043964,1.27869,-0.06517016,-0.106352136,0.036726467,1.2574916,1.0907011
0.0,0.0,1.2999999999999998,0.5235987755982988,-0.5235987755982988,0,-0.5405436,-0.9142823,1.0165657,-0.1150992,0.02985417,1.1313043,-0.59083515,-0.35130346,1.2536328,0.0045812298,-0.07570768,-0.031597566,1.272266,1.2326733
0.0,0.0,1.2999999999999998,0.5235987755982988,-0.5235987755982988,0,-0.54141325,-0.9137,1.0154507,-0.087067895,0.010836768,1.1305463,0.66022676,-0.8248349,1.320749,-0.049804967,-0.084820755,-0.08450732,1.1924772,-1.1263047
0.0,0.0,1.2999999999999998,0.5235987755982988,-0.5235987755982988,0,-0.5398887,-0.91378576,0.8626681,-0.13243486,-0.05581678,1.1505761,0.74220604,-0.5851464,1.3384112,-0.12313888,-0.06430877,-0.011493728,1.2707139,0.09889118
0.0,0.0,1.2999999999999998,0.5235987755982988,-0.5235987755982988,0,-0.5404986,-0.91360426,1.0002846,-0.09419179,0.082399055,1.114188,0.9548378,-0.68651617,1.2880096,-0.034450237,-0.022689106,-0.05510504,1.3084646,-1.7529074
0.0,0.0,1.2999999999999998,0.5235987755982988,-0.5235987755982988,0,-0.54129344,-0.91413623,0.9900394,-0.13180505,-0.08548141,1.189851,-0.5053114,-0.48870647,1.2676512,0.13773991,-0.0633011,-0.08712788,1.2149885,-0.9365469
0.0,0.0,1.2999999999999998,0.5235987755982988,-0.5235987755982988,0,-0.53940207,-0.9143914,0.9541582,-0.12413228,0.09130945,1.1110282,-0.8362594,-0.5950426,1.2739899,-0.03474258,-0.114670075,0.06653493,1.1953743,1.3112884
0.0,0.0,1.2999999999999998,0.5235987755982988,-0.5235987755982988,0,-0.5408762,-0.91359055,1.056534,-0.08411838,0.05108424,1.0646716,-0.026734343,-1.0950446,1.3334205,-0.056110755,-0.075129144,0.037149332,1.1986086,0.12621386
0.0,0.0,1.2999999999999998,0.5235987755982988,-0.5235987755982988,0,-0.5411483,-0.9135436,1.0610156,-0.10808882,-0.023888113,1.1375458,0.4348245,-0.8875642,1.310921,-0.019629087,-0.08884236,-0.100164786,1.2185023,-0.5034088
0.0,0.0,1.2999999999999998,0.5235987755982988,-0.5235987755982988,0,-0.54145217,-0.912988,1.0244161,-0.10400468,-0.021566316,1.0300479,0.8660246,-0.30272618,1.3351407,-0.08690066,-0.0602967,-0.038425907,1.2458761,0.51765996
0.0,0.0,1.2999999999999998,0.5235987755982988,-0.5235987755982988,0,-0.54066676,-0.9144766,0.8737933,-0.09143639,0.062640935,1.0467502,0.4993447,-0.5905071,1.3262268,-0.019960595,-0.07245032,0.2530208,1.2925601,-0.004229639
0.0,0.0,1.2999999999999998,0.5235987755982988,-0.5235987755982988,0,-0.5412908,-0.9133035,1.0379399,-0.10429609,-0.023370069,1.1151805,-1.1610978,-0.9480795,1.3069447,0.19794363,-0.05822861,0.044677828,1.2798336,0.3354542
0.0,0.0,1.2999999999999998,0.5235987755982988,-0.5235987755982988,0,-0.5394238,-0.91427046,0.96458924,-0.11312613,-0.013619124,1.1308314,-0.18251908,-0.5253525,1.2825404,-0.10220955,-0.106530495,0.06544372,1.23833,1.9378549
0.0,0.0,1.2999999999999998,0.5235987755982988,-0.5235987755982988,0,-0.540248,-0.9142718,1.0045798,-0.10638196,-0.009950901,1.1784875,0.35248962,-0.8092129,1.257029,-0.08438394,-0.06612289,-0.04202091,1.2823772,0.1609903
0.0,0.0,1.2999999999999998,0.5235987755982988,-0.5235987755982988,0,-0.54102474,-0.91370356,1.0292814,-0.114586845,-0.036288656,1.1252564,-0.36419433,-0.9328081,1.329125,-0.10728918,-0.07981905,0.008867045,1.2536659,-1.4980302
0.0,0.0,1.2999999999999998,0.5235987755982988,-0.5235987755982988,0,-0.5405402,-0.91421276,0.96512556,-0.11136327,0.03191986,1.1065718,-0.19606954,-0.53568536,1.2930173,-0.19366685,-0.09288603,0.026447922,1.2284592,-1.0907071
0.0,0.0,1.2999999999999998,0.5235987755982988,-0.5235987755982988,0,-0.5404115,-0.9134254,1.1268613,-0.11485583,0.01671789,1.1261251,-0.8001641,-0.73902965,1.3341807,-0.026218466,-0.09603907,-0.022175148,1.2355022,0.6433936
0.0,0.0,1.2999999999999998,0.5235987755982988,-0.5235987755982988,0,-0.53941315,-0.9155709,0.98409486,-0.13078226,-0.017950147,1.1065667,-0.79250115,-0.63913155,1.2550559,0.059450135,-0.098982796,0.06621397,1.2306129,-0.60875654
0.0,0.0,1.2999999999999998,0.5235987755982988,-0.5235987755982988,0,-0.53974676,-0.914287,1.0025356,-0.101408735,-0.00023460377,1.1878272,1.1902645,-0.7311852,1.2349145,-0.12066336,-0.15884125,-0.05574524,1.2391044,1.6698569
0.0,0.0,1.2999999999999998,0.5235987755982988,-0.5235987755982988,0,-0.54080653,-0.9137647,1.0984726,-0.112085365,0.045432497,1.0754088,-0.48185572,-0.7778545,1.2961429,-0.02445731,-0.12870021,-0.10554824,1.280222,0.70281124
0.0,0.0,1.2999999999999998,0.5235987755982988,-0.5235987755982988,0,-0.5409114,-0.914088,1.0505042,-0.11709012,0.11877106,1.13788,0.40574095,-0.9530059,1.2919391,-0.30190897,-0.080986075,-0.12600718,1.3024805,-1.9495549
0.0,0.0,1.2999999999999998,0.5235987755982988,-0.5235987755982988,0,-0.5396861,-0.9133268,1.0170338,-0.10487977,-0.048021566,1.1475146,1.2280837,-0.65579665,1.3169816,0.11388711,-0.09932388,-0.084326975,1.3027745,-1.1933755
0.0,0.0,1.2999999999999998,0.5235987755982988,-0.5235987755982988,0,-0.5406781,-0.9140356,0.9576342,-0.11710422,0.036172926,1.1187572,-0.37983286,-0.675837,1.3495942,0.12092368,-0.09504935,0.06742071,1.1901921,-0.9820218
0.0,0.0,1.2999999999999998,0.5235987755982988,-0.5235987755982988,0,-0.5395163,-0.9136919,0.89123344,-0.112030156,-0.0076355366,1.0848433,-0.6372188,-0.6767189,1.2673486,-0.016600732,-0.084817,-0.04761757,1.2174648,0.35650527
0.0,0.0,1.2999999999999998,0.5235987755982988,-0.5235987755982988,0,-0.5420355,-0.91348,1.0472498,-0.08956105,0.055883326,1.1101865,-0.29283306,-0.20835947,1.3207171,-0.03224741,-0.10603035,-0.15208708,1.2638745,-0.4476371
0.0,0.0,1.2999999999999998,0.5235987755982988,-0.5235987755982988,0,-0.5406178,-0.91409194,0.9158952,-0.1191093,-0.020380719,1.1676232,0.85480714,-0.6346669,1.3329995,0.06303281,-0.07008578,0.028871378,1.2209065,-1.1082696
0.0,0.0,1.2999999999999998,0.5235987755982988,-0.5235987755982988,0,-0.540228,-0.9145899,1.1028272,-0.08707901,0.016269606,1.1632009,-0.6010922,-0.73404217,1.3753667,0.12185288,-0.08720157,-0.09839751,1.2495524,1.0829157
0.0,0.0,1.2999999999999998,0.5235987755982988,-0.5235987755982988,0,-0.5412579,-0.91356725,1.0052656,-0.16142347,0.112458445,1.1941332,0.25236812,-0.74106205,1.2905667,0.034802992,-0.07404562,0.13617262,1.2821177,-1.2165856
0.0,0.0,1.2999999999999998,0.5235987755982988,-0.5235987755982988,0,-0.539928,-0.9133569,1.0168697,-0.097020395,0.04383649,1.1910474,0.42763495,-0.46525934,1.3009211,0.11541341,-0.09095903,-0.096803874,1.2742592,0.9655471
0.0,0.0,1.2999999999999998,0.5235987755982988,-0.5235987755982988,0,-0.53977597,-0.9138349,1.0803815,-0.090653144,0.08061318,1.1522814,0.76543456,-0.29886356,1.2554497,-0.10562112,-0.063644476,0.06762521,1.2392557,-0.18954311
0.0,0.0,1.2999999999999998,0.5235987755982988,-0.5235987755982988,0,-0.5419351,-0.91378677,0.84221417,-0.10689843,-0.07111517,1.1190642,0.23312536,-0.9552911,1.344451,-0.22490503,-0.03237615,-0.0633585,1.2388657,1.2753617
0.0,0.0,1.2999999999999998,0.5235987755982988,-0.5235987755982988,0,-0.54202545,-0.9152363,0.92728794,-0.095964074,0.02664014,1.1536692,0.2217426,-0.64135045,1.2853627,-0.10011623,-0.074839026,0.0049917037,1.2555697,0.784018
0.0,0.0,1.2999999999999998,0.5235987755982988,-0.5235987755982988,0,-0.5431808,-0.91347605,0.98885185,-0.11560312,-0.012366545,1.1443019,-0.34034604,-1.0788083,1.2408069,0.07411495,-0.082166374,-0.03820646,1.1644183,-0.41460505
0.0,0.0,1.2999999999999998,0.5235987755982988,-0.5235987755982988,0,-0.54180366,-0.91501635,1.0557283,-0.11655239,0.097929545,1.1388682,-1.0837532,-0.44340536,1.2443599,-0.003085834,-0.05155769,-0.08996337,1.2174369,0.3321201
0.0,0.0,1.2999999999999998,0.5235987755982988,-0.5235987755982988,0,-0.54197216,-0.9156118,0.9957555,-0.0654188,0.09296918,1.0952845,-0.08844497,-0.62615865,1.2917004,-0.20850967,-0.11963429,-0.14235964,1.2314675,-0.046273347
0.0,0.0,1.2999999999999998,0.5235987755982988,-0.5235987755982988,0,-0.5406698,-0.91401297,1.0633115,-0.12149951,0.09906143,1.1534668,-0.5019083,-0.5019257,1.2340403,-0.0026817156,-0.058112513,-0.002656898,1.2147845,0.001728843
0.0,0.0,1.2999999999999998,0.5235987755982988,-0.5235987755982988,0,-0.5413314,-0.91463107,1.0666268,-0.12571892,-0.04680016,1.175962,0.14750259,-0.86162966,1.2835808,-0.050542198,-0.051923126,0.025126021,1.2428513,0.4294352
0.0,0.0,1.2999999999999998,0.5235987755982988,-0.5235987755982988,0,-0.5449895,-0.9134525,1.049693,-0.10565656,0.032036863,1.1227559,1.0700735,-0.7217851,1.2857292,0.064368606,-0.06654874,0.007868169,1.2344139,-0.5859565
0.0,0.0,1.2999999999999998,0.5235987755982988,-0.5235987755982988,0,-0.54210067,-0.91382205,0.9288947,-0.09208133,0.011154195,1.0210798,-0.21996765,-0.89828825,1.2860813,0.15517409,-0.1126564,0.01561477,1.2589848,0.5819739
0.0,0.0,1.2999999999999998,0.5235987755982988,-0.5235987755982988,0,-0.5402735,-0.91444415,1.0150673,-0.1258001,-0.054578435,1.0729384,0.504092,-0.99145,1.2887746,-0.0918566,-0.07275267,-0.023848401,1.2525964,0.9775283
0.0,0.0,1.2999999999999998,0.5235987755982988,-0.5235987755982988,0,-0.5426784,-0.9129491,0.954597,-0.08369492,-0.0134640895,1.1407464,0.17328094,-0.8155211,1.280392,0.13356689,-0.056689765,0.07534676,1.2423493,2.3734791
0.0,0.0,1.2999999999999998,0.5235987755982988,-0.5235987755982988,0,-0.54201657,-0.9139936,0.9569959,-0.091535166,0.016101904,1.0520588,0.7595683,-1.0255936,1.3175465,0.010471001,-0.08841721,0.054580938,1.2228082,-0.6175606
0.0,0.0,1.2999999999999998,0.5235987755982988,-0.5235987755982988,0,-0.54313874,-0.91309875,1.070004,-0.084039435,-0.12270767,1.1161712,-0.37148115,-0.88880503,1.3719865,-0.052996796,-0.053491734,0.0023900555,1.2674788,0.9043304
0.0,0.0,1.2999999999999998,0.5235987755982988,-0.5235987755982988,0,-0.5413187,-0.9142459,1.1507652,-0.11704954,0.0638767,1.1685804,0.7247984,-0.8356726,1.2491051,0.018987233,-0.08253808,-0.09460323,1.2670751,-1.1353698
0.0,0.0,1.2999999999999998,0.5235987755982988,-0.5235987755982988,0,-0.5429432,-0.9136338,0.96264535,-0.06910632,-0.011046341,1.1491647,-0.06897569,-0.62642634,1.2644044,-0.12165377,-0.108497046,0.009778257,1.2680483,0.37047875
0.0,0.0,1.2999999999999998,0.5235987755982988,-0.5235987755982988,0,-0.541428,-0.91371286,1.0900394,-0.12145212,0.02770446,1.1184767,0.5847206,-0.35767704,1.2845471,-0.08615989,-0.08269979,-0.23279342,1.2305989,0.72624826
0.0,0.0,1.2999999999999998,0.5235987755982988,-0.5235987755982988,0,-0.54056066,-0.91389364,1.0774289,-0.122977555,0.058534518,1.1080527,-0.11339639,-0.5183684,1.2554742,-0.17303343,-0.055911634,-0.08104801,1.2408944,-0.037617605
0.0,0.0,1.2999999999999998,0.5235987755982988,-0.5235987755982988,0,-0.5401366,-0.913839,1.0662736,-0.08027983,-0.051338345,1.0554968,0.31812814,-0.51373535,1.3195444,0.009740171,-0.0877183,-0.07496716,1.2124254,-1.3710729
0.0,0.0,1.2999999999999998,0.5235987755982988,-0.5235987755982988,0,-0.5402764,-0.9137667,0.9895388,-0.12013667,-0.015234337,1.1321872,0.3234039,-0.59818405,1.2912736,-0.045148324,-0.093444295,0.14569096,1.2802937,-0.28314623
0.0,0.0,1.2999999999999998,0.5235987755982988,-0.5235987755982988,0,-0.5427147,-0.9151936,1.0351971,-0.1112508,0.02359296,1.1367174,0.9118252,-0.77922994,1.3111969,0.21823919,-0.058035165,-0.04443385,1.1991701,1.1360712
0.0,0.0,1.2999999999999998,0.5235987755982988,-0.5235987755982988,0,-0.5450971,-0.91375154,1.0026547,-0.11684178,0.0145563865,1.1735064,0.047806222,-0.7452772,1.1733583,-0.13004772,-0.06002808,0.075439304,1.2357705,0.08929917
0.0,0.0,1.2999999999999998,0.5235987755982988,-0.5235987755982988,0,-0.54342854,-0.91358423,1.1298989,-0.072611675,-0.041724246,1.0954198,-0.15185775,-0.35855576,1.3197814,-0.1576088,-0.10897421,0.1260567,1.2063637,1.1042702
0.0,0.0,1.2999999999999998,0.5235987755982988,-0.5235987755982988,0,-0.5422008,-0.913368,1.1015955,-0.0860628,0.036815353,1.1435667,0.2291086,-0.54123217,1.3040066,-0.013386948,-0.08395468,0.09648397,1.2155645,0.29905322
0.0,0.0,1.2999999999999998,0.5235987755982988,-0.5235987755982988,0,-0.5432211,-0.9141198,0.94833875,-0.091086574,0.10307815,1.0862232,0.84744513,-0.80024177,1.3050234,0.10053547,-0.10382952,0.039068956,1.3005992,0.9230285
0.0,0.0,1.2999999999999998,0.5235987755982988,-0.5235987755982988,0,-0.5426547,-0.91388935,1.0264896,-0.0810029,0.11846077,1.1247852,0.2667747,-0.72525674,1.2568485,0.044534065,-0.017198257,-0.16329432,1.2150756,-1.0000525
0.0,0.0,1.2999999999999998,0.5235987755982988,-0.5235987755982988,0,-0.5438361,-0.9131819,1.103037,-0.13663219,0.062047187,1.1342068,0.5696788,-0.84756535,1.266718,-0.014374903,-0.09006981,-0.05700184,1.2099133,-0.42219564
0.0,0.0,1.2999999999999998,0.5235987755982988,-0.5235987755982988,0,-0.54223585,-0.91395164,0.93678313,-0.14103498,-0.017709551,1.1792165,0.24169913,-0.80221206,1.312357,-0.045427363,-0.0456225,-0.077920794,1.2266036,0.31685555
0.0,0.0,1.2999999999999998,0.5235987755982988,-0.5235987755982988,0,-0.5404392,-0.9145317,0.9145778,-0.10890717,-0.028290207,1.1292691,0.419968,-0.6405127,1.2687894,-0.015062122,-0.04925691,0.021491706,1.2183466,0.53326553
0.0,0.0,1.2999999999999998,0.5235987755982988,-0.5235987755982988,0,-0.54104877,-0.9138107,1.007108,-0.06621858,-0.013118801,1.107369,-0.731728,-0.7339135,1.2700263,-0.025927052,-0.08484629,0.07723147,1.3031261,0.37470987
0.0,0.0,1.2999999999999998,0.5235987755982988,-0.5235987755982988,0,-0.54070693,-0.91365457,1.0323688,-0.16341941,0.053417537,1.145228,0.64384013,-0.71391207,1.3396074,0.18240593,-0.10978511,-0.07900841,1.2638156,0.6730825
0.0,0.0,1.2999999999999998,0.5235987755982988,-0.5235987755982988,0,-0.5410177,-0.91329163,1.0112035,-0.12073601,0.04676024,1.1634173,0.7466769,-0.80302143,1.276345,0.02791207,-0.057309162,-0.038458355,1.2384219,-1.4051083
0.0,0.0,1.2999999999999998,0.5235987755982988,-0.5235987755982988,0,-0.54176766,-0.91377187,0.857027,-0.064993516,0.018991983,1.1162784,-0.09104111,-0.891382,1.2641741,-0.0057316357,-0.10162775,-0.13286473,1.2889708,-0.7350961
0.0,0.0,1.2999999999999998,0.5235987755982988,-0.5235987755982988,0,-0.54321367,-0.9123598,1.0764902,-0.13255982,0.08695085,1.1255054,0.6124454,-0.91949767,1.3432367,-0.04627007,-0.05231946,0.02132958,1.2206181,-0.10665587
0.0,0.0,1.2999999999999998,0.5235987755982988,-0.5235987755982988,0,-0.5410584,-0.9139163,1.0221303,-0.10405954,-0.00037619993,1.0912285,0.6087775,-0.715425,1.2755466,0.025719212,-0.07536914,0.011740046,1.2672441,0.49328798
0.0,0.0,1.2999999999999998,0.5235987755982988,-0.5235987755982988,0,-0.5401448,-0.9136444,0.9500031,-0.09660259,-0.0020192338,1.1449615,0.1319361,-0.4687533,1.401759,0.034831055,-0.063211225,-0.12485786,1.3084666,1.1686581
0.0,0.0,1.2999999999999998,0.5235987755982988,-0.5235987755982988,0,-0.54404014,-0.914068,1.0431323,-0.119059466,-0.024435265,1.1999029,0.24345094,-0.2919612,1.3263956,-0.102239065,-0.05908397,-0.06240997,1.2835032,-0.39455506
0.0,0.0,1.2999999999999998,0.5235987755982988,-0.5235987755982988,0,-0.54006463,-0.9131473,0.98103404,-0.09300256,-0.016465178,1.1767359,0.23089482,-0.5650499,1.256234,0.028624471,-0.10319954,0.015948093,1.1979985,0.6143725
0.0,0.0,1.2999999999999998,0.5235987755982988,-0.5235987755982988,0,-0.5438068,-0.91340244,1.1401426,-0.13587946,0.0033917744,1.1056596,0.75145775,-0.48971078,1.2458786,0.12374309,-0.08124634,0.117361344,1.2579362,1.9238853
0.0,0.0,1.2999999999999998,0.5235987755982988,-0.5235987755982988,0,-0.5428214,-0.91265535,1.1030492,-0.11759114,-0.100276224,1.0991017,-0.18798836,-0.8054749,1.2581409,-0.06938405,-0.12356339,0.12734641,1.2217923,-0.10646888
0.0,0.0,1.2999999999999998,0.5235987755982988,-0.5235987755982988,0,-0.54174924,-0.9138953,0.9941813,-0.1408504,-0.044911254,1.0822601,0.18406928,-0.8835351,1.3260213,-0.022832898,-0.072128244,0.008769369,1.2432386,-1.1423128
