sanky1234/BimanualDexCatch/isaacgymenvs/cem_results/football_pose_0.0_0.0_0.9999999999999999_0.0_0.5235987755982988_0_2025-05-26.csv
x,y,z,roll,pitch,yaw,robot1/joint1,robot1/joint2,robot1/joint3,robot1/joint4,robot1/joint5,robot1/joint6,robot1/joint7,robot2/joint1,robot2/joint2,robot2/joint3,robot2/joint4,robot2/joint5,robot2/joint6,robot2/joint7
0.0,0.0,0.9999999999999999,0.0,0.5235987755982988,0,-0.04958888,-0.8881397,-2.2791398,-0.12955733,-0.56243974,1.5683708,0.7403422,0.7034692,-1.2619079,-0.3079683,-0.06498927,-0.17668201,1.0677639,-0.28501317
0.0,0.0,0.9999999999999999,0.0,0.5235987755982988,0,-0.050431542,-0.8887801,-2.2775564,-0.13731162,-0.47453448,1.532024,0.94094586,0.7024275,-1.2606335,-0.25751165,-0.033566047,-0.02744858,1.0372255,0.17466834
0.0,0.0,0.9999999999999999,0.0,0.5235987755982988,0,-0.049883854,-0.8890234,-2.2779896,-0.11618556,-0.5189578,1.5188305,0.96871656,0.7021116,-1.2639346,-0.5655845,-0.06703455,-0.032202385,1.1357253,0.028705725
0.0,0.0,0.9999999999999999,0.0,0.5235987755982988,0,-0.051639423,-0.8886579,-2.2739706,-0.14696233,-0.5062989,1.5302409,0.83824545,0.7025097,-1.2597303,-0.3576743,-0.05656492,-0.17892255,1.1139214,-0.20483862
0.0,0.0,0.9999999999999999,0.0,0.5235987755982988,0,-0.049863018,-0.8886934,-2.272363,-0.13777632,-0.51450896,1.5315421,0.88515496,0.70352423,-1.2596142,-0.2625978,-0.08380482,-0.08081785,1.0272946,-0.41277397
0.0,0.0,0.9999999999999999,0.0,0.5235987755982988,0,-0.048426352,-0.8885552,-2.26943,-0.12267008,-0.50999004,1.5218375,0.9727197,0.70222133,-1.2584699,-0.4108649,-0.110894315,-0.1163403,1.0422195,-0.22514327
0.0,0.0,0.9999999999999999,0.0,0.5235987755982988,0,-0.051463228,-0.88866836,-2.2749646,-0.12679891,-0.51124567,1.5422778,0.9117978,0.70323783,-1.2615007,-0.60454214,-0.055060323,-0.12073264,1.0529481,-0.4600441
0.0,0.0,0.9999999999999999,0.0,0.5235987755982988,0,-0.050509606,-0.88881785,-2.2764885,-0.14052759,-0.4280395,1.5394435,0.9723145,0.7025674,-1.2575684,-0.64049006,-0.08653198,-0.05332474,1.0070181,-0.25430715
0.0,0.0,0.9999999999999999,0.0,0.5235987755982988,0,-0.048375268,-0.88841444,-2.2795954,-0.1641134,-0.45638907,1.552496,1.1704371,0.7021063,-1.2606837,-0.5312199,-0.120255336,0.14352748,1.0286744,-1.4287325
0.0,0.0,0.9999999999999999,0.0,0.5235987755982988,0,-0.052469175,-0.8887589,-2.2802167,-0.12600563,-0.46565652,1.5412676,0.8813044,0.70349765,-1.2629287,-0.50568664,-0.049267862,0.028199906,1.0487585,-1.1869684
0.0,0.0,0.9999999999999999,0.0,0.5235987755982988,0,-0.051579457,-0.8883655,-2.2763686,-0.11802791,-0.39838785,1.5440149,0.8480614,0.7022997,-1.2611209,-0.10041672,-0.015247272,-0.049193382,1.168564,0.616382
0.0,0.0,0.9999999999999999,0.0,0.5235987755982988,0,-0.048292127,-0.88836706,-2.2795281,-0.12904257,-0.52765554,1.5601039,0.6963312,0.703708,-1.2619609,-0.10980398,-0.06498757,-0.102805816,1.045568,0.0314264
0.0,0.0,0.9999999999999999,0.0,0.5235987755982988,0,-0.051331405,-0.88856673,-2.2771008,-0.14849442,-0.50681776,1.541429,0.8832671,0.7031188,-1.2604688,0.032611188,-0.054475434,-0.1373768,1.0416743,-0.5290764
0.0,0.0,0.9999999999999999,0.0,0.5235987755982988,0,-0.048690528,-0.8886393,-2.2766192,-0.13080664,-0.4986503,1.527057,0.9754398,0.7031056,-1.2610044,-0.22609423,-0.046797216,0.0631487,1.0688741,-1.2209227
0.0,0.0,0.9999999999999999,0.0,0.5235987755982988,0,-0.048669238,-0.888787,-2.2742147,-0.13185328,-0.4621222,1.5506995,0.9885246,0.70378655,-1.260921,0.08232876,-0.038754247,-0.09320883,1.1238271,0.57868505
0.0,0.0,0.9999999999999999,0.0,0.5235987755982988,0,-0.04893785,-0.8886633,-2.27764,-0.14521293,-0.4460517,1.5445371,0.84412456,0.70345676,-1.2620437,-0.27732933,-0.07600292,-0.17484441,1.1075013,-0.12772833
0.0,0.0,0.9999999999999999,0.0,0.5235987755982988,0,-0.04743045,-0.88869166,-2.2753336,-0.14058337,-0.49116775,1.5406232,0.93675345,0.7028835,-1.261572,-0.40527695,-0.05497657,-0.10264148,1.0732254,0.063088484
0.0,0.0,0.9999999999999999,0.0,0.5235987755982988,0,-0.04822354,-0.888172,-2.2811964,-0.13921991,-0.51228064,1.559268,0.7792573,0.7017362,-1.2605584,-0.089301966,-0.085471086,-0.08183711,1.0194942,1.0953516
0.0,0.0,0.9999999999999999,0.0,0.5235987755982988,0,-0.04928057,-0.8886925,-2.2809863,-0.13766296,-0.47837877,1.5190992,0.90871644,0.7018673,-1.2617241,-0.593759,-0.1080164,-0.060957216,1.1497368,-0.17907763
0.0,0.0,0.9999999999999999,0.0,0.5235987755982988,0,-0.05232857,-0.88810897,-2.2747338,-0.12263971,-0.45923275,1.5484551,0.9033066,0.70338064,-1.2653471,-0.2786893,-0.058265466,-0.14245223,1.013281,0.93342763
0.0,0.0,0.9999999999999999,0.0,0.5235987755982988,0,-0.050366763,-0.88862854,-2.2671373,-0.13268311,-0.51938117,1.5555991,1.0063746,0.7025819,-1.263098,-0.35928345,-0.025923437,-0.02137978,1.0675988,-0.31666368
0.0,0.0,0.9999999999999999,0.0,0.5235987755982988,0,-0.05003555,-0.8885315,-2.2745094,-0.13055375,-0.46815762,1.5432216,0.869242,0.70178235,-1.2627658,-0.34427902,-0.060719486,0.039710894,1.1336837,0.10586832
0.0,0.0,0.9999999999999999,0.0,0.5235987755982988,0,-0.05270564,-0.8889326,-2.2711775,-0.124222554,-0.527269,1.5376277,0.8388099,0.7029538,-1.2616022,-0.36060485,-0.08213745,0.010108966,1.0865741,-0.5759945
0.0,0.0,0.9999999999999999,0.0,0.5235987755982988,0,-0.049138565,-0.8882358,-2.2771142,-0.11635456,-0.53777707,1.522191,0.8078363,0.70345616,-1.259668,-0.29375434,-0.051972006,-0.028538756,1.0095007,0.5092539
0.0,0.0,0.9999999999999999,0.0,0.5235987755982988,0,-0.051720567,-0.8880214,-2.2775102,-0.12837934,-0.45367467,1.5342654,0.78659654,0.7025643,-1.2609899,-0.47014022,-0.022391131,-0.055533484,1.0013071,0.625889
0.0,0.0,0.9999999999999999,0.0,0.5235987755982988,0,-0.049011715,-0.8890458,-2.2705142,-0.13474773,-0.4973723,1.5150996,0.9716205,0.70182663,-1.2638172,-0.54345876,-0.029391859,-0.08199017,1.0961406,0.27626967
0.0,0.0,0.9999999999999999,0.0,0.5235987755982988,0,-0.050915692,-0.8889618,-2.2665057,-0.13113867,-0.47934642,1.565713,0.8775295,0.70311004,-1.2620356,-0.04427345,-0.013515276,0.08975662,1.0605673,0.28746858
0.0,0.0,0.9999999999999999,0.0,0.5235987755982988,0,-0.049630772,-0.88820666,-2.2732413,-0.12580736,-0.419199,1.5319784,0.680661,0.70249987,-1.2635887,-0.35747254,-0.08034986,0.025368117,1.0297261,-0.937873
0.0,0.0,0.9999999999999999,0.0,0.5235987755982988,0,-0.051028717,-0.88911855,-2.2735157,-0.13753615,-0.49856704,1.5621539,0.90676534,0.70260656,-1.2608577,-0.32038453,-0.080207914,0.039828707,1.0759745,-0.8426988
0.0,0.0,0.9999999999999999,0.0,0.5235987755982988,0,-0.050230227,-0.8883868,-2.272147,-0.14051597,-0.48386195,1.5274694,1.0540043,0.7041229,-1.2619724,-0.25046214,-0.036169823,-0.08372837,1.118153,0.5471431
0.0,0.0,0.9999999999999999,0.0,0.5235987755982988,0,-0.048364267,-0.88880855,-2.273621,-0.18051194,-0.46124363,1.5422823,0.788719,0.7033673,-1.2600693,-0.43533316,-0.027634554,-0.09945843,1.0717399,0.051077142
0.0,0.0,0.9999999999999999,0.0,0.5235987755982988,0,-0.051397104,-0.8889307,-2.2719758,-0.14618151,-0.48665997,1.5347728,0.9885521,0.70193565,-1.2628318,-0.0835236,-0.053031515,-0.029671142,1.0866102,-1.4942644
0.0,0.0,0.9999999999999999,0.0,0.5235987755982988,0,-0.048505634,-0.8888695,-2.2712414,-0.14412783,-0.493333,1.548493,0.97398597,0.7033955,-1.2601323,-0.30911264,-0.05192228,0.041896176,1.0221823,-0.30662116
0.0,0.0,0.9999999999999999,0.0,0.5235987755982988,0,-0.051156837,-0.8888995,-2.2696664,-0.12666461,-0.52247864,1.5318502,1.1148431,0.70237845,-1.2611349,-0.39520112,-0.049591105,-0.09779362,1.1046553,-0.625736
0.0,0.0,0.9999999999999999,0.0,0.5235987755982988,0,-0.051836565,-0.88827056,-2.274875,-0.11980256,-0.5129787,1.5178393,0.9544859,0.7037596,-1.2622093,-0.11816229,-0.057387143,-0.047268335,1.0576717,0.011602779
0.0,0.0,0.9999999999999999,0.0,0.5235987755982988,0,-0.04969432,-0.88877314,-2.274533,-0.124387845,-0.47907728,1.5251142,0.69016904,0.702218,-1.2604704,-0.49387974,-0.070301205,-0.040956654,1.0483509,0.4011583
0.0,0.0,0.9999999999999999,0.0,0.5235987755982988,0,-0.050641734,-0.8889991,-2.2741697,-0.1384638,-0.56806046,1.5428774,0.8952694,0.70333916,-1.263851,-0.4099172,0.019921608,-0.1122791,1.0606084,-0.2162428
0.0,0.0,0.9999999999999999,0.0,0.5235987755982988,0,-0.045046415,-0.8887925,-2.280268,-0.13826437,-0.54046816,1.5360156,1.023747,0.70260495,-1.2612934,-0.30969888,-0.059230942,0.0338747,1.0556073,0.3628206
0.0,0.0,0.9999999999999999,0.0,0.5235987755982988,0,-0.052607298,-0.88865787,-2.2739773,-0.14344585,-0.45531696,1.5555466,1.1036128,0.7018381,-1.262358,-0.33002684,-0.07614739,-0.024310833,1.0436012,-1.1904951
0.0,0.0,0.9999999999999999,0.0,0.5235987755982988,0,-0.04928855,-0.8883848,-2.2758965,-0.13261347,-0.55565125,1.5455354,0.9207146,0.7026341,-1.2604611,-0.2921383,-0.05251624,0.036806487,1.0980676,-0.4193989
0.0,0.0,0.9999999999999999,0.0,0.5235987755982988,0,-0.05038592,-0.8887906,-2.2788613,-0.1325675,-0.48040327,1.5343732,0.8786409,0.7027924,-1.2616273,-0.29887074,-0.057739906,-0.07442704,1.0663282,0.6752128
0.0,0.0,0.9999999999999999,0.0,0.5235987755982988,0,-0.05019478,-0.88841194,-2.2811508,-0.14232893,-0.56485045,1.5180718,1.0372869,0.70346415,-1.2621956,-0.29728097,-0.073006146,-0.061965827,1.0612698,-1.2639556
0.0,0.0,0.9999999999999999,0.0,0.5235987755982988,0,-0.04746987,-0.8884187,-2.2738416,-0.15321669,-0.41166767,1.5436261,0.821699,0.70278037,-1.2597113,-0.48599717,-0.035910174,-0.011753177,1.0350829,-0.36434364
0.0,0.0,0.9999999999999999,0.0,0.5235987755982988,0,-0.04707868,-0.88866234,-2.2671428,-0.13809624,-0.508447,1.5541782,0.9991491,0.70348424,-1.2622955,-0.09333554,-0.07838241,-0.0458089,1.1325556,0.40004233
0.0,0.0,0.9999999999999999,0.0,0.5235987755982988,0,-0.049309976,-0.88833135,-2.2776752,-0.13498193,-0.47772136,1.552193,0.80129147,0.70381963,-1.2610359,-0.16865794,-0.029347725,-0.042450894,1.0586463,0.112099275
0.0,0.0,0.9999999999999999,0.0,0.5235987755982988,0,-0.046920232,-0.88884073,-2.2786126,-0.14450453,-0.42692018,1.5477463,0.8150089,0.7030467,-1.2593132,-0.39212364,-0.09560799,0.008811776,1.0645152,0.69744736
0.0,0.0,0.9999999999999999,0.0,0.5235987755982988,0,-0.05372973,-0.8887538,-2.272172,-0.13925008,-0.46958485,1.5309368,0.7167402,0.7035795,-1.2601316,-0.2729478,-0.045970317,-0.0036153544,1.0776612,1.183894
0.0,0.0,0.9999999999999999,0.0,0.5235987755982988,0,-0.0497523,-0.88858366,-2.2775583,-0.1168777,-0.46759018,1.5356164,0.92022425,0.7033218,-1.2601683,-0.6946466,-0.063121475,0.04561529,1.1433754,-0.6852763
0.0,0.0,0.9999999999999999,0.0,0.5235987755982988,0,-0.04821506,-0.8886766,-2.2705693,-0.14043464,-0.48241845,1.5448016,0.8552677,0.7035675,-1.2606452,-0.1665732,-0.1254903,0.011532969,1.1387812,1.42688
0.0,0.0,0.9999999999999999,0.0,0.5235987755982988,0,-0.048060264,-0.8886192,-2.2672298,-0.11391511,-0.49799153,1.531994,0.96987724,0.7029074,-1.2628934,-0.30227736,-0.047817755,-0.085957184,0.9948228,-0.17353459
0.0,0.0,0.9999999999999999,0.0,0.5235987755982988,0,-0.050219484,-0.88830996,-2.2756307,-0.12578858,-0.4634657,1.5415825,0.9326086,0.7030775,-1.2634634,-0.44222996,-0.013819157,-0.05860008,1.0784951,0.012596349
0.0,0.0,0.9999999999999999,0.0,0.5235987755982988,0,-0.05039962,-0.8887731,-2.2682776,-0.13613674,-0.50177073,1.5426439,0.8795588,0.70303917,-1.2620382,-0.06727421,-0.07027747,-0.067288466,1.0794404,1.6797303
0.0,0.0,0.9999999999999999,0.0,0.5235987755982988,0,-0.049915798,-0.8888314,-2.2657146,-0.13202894,-0.44443518,1.5564898,0.8416922,0.702286,-1.2630017,-0.33022362,-0.017590078,-0.06278783,1.0741773,-0.3020634
0.0,0.0,0.9999999999999999,0.0,0.5235987755982988,0,-0.05432141,-0.8888612,-2.280276,-0.118060075,-0.57612103,1.5326693,0.9823493,0.7023942,-1.2581667,-0.5624664,-0.048084583,-0.08850666,1.0592517,-0.2214861
0.0,0.0,0.9999999999999999,0.0,0.5235987755982988,0,-0.050302774,-0.8891917,-2.2784896,-0.12678708,-0.4347252,1.5480019,0.9078534,0.7027748,-1.2617023,-0.45167977,-0.08463487,0.025400009,1.0450261,0.033758223
0.0,0.0,0.9999999999999999,0.0,0.5235987755982988,0,-0.048974223,-0.8891112,-2.2715116,-0.13885377,-0.43412873,1.5447737,0.89594144,0.7039318,-1.2598959,-0.16790225,-0.061158646,0.095844306,1.0011153,1.0134785
0.0,0.0,0.9999999999999999,0.0,0.5235987755982988,0,-0.048487525,-0.88832444,-2.2769144,-0.12166945,-0.5862168,1.5552801,0.8666534,0.7030179,-1.2617869,-0.7009046,0.0036682868,-0.1389822,1.0035075,-0.28477305
0.0,0.0,0.9999999999999999,0.0,0.5235987755982988,0,-0.04730463,-0.88888264,-2.2704113,-0.14782959,-0.5152289,1.54052,0.87734294,0.7027192,-1.2620596,-0.33579576,-0.049054965,0.002030901,1.0878873,0.06900739
0.0,0.0,0.9999999999999999,0.0,0.5235987755982988,0,-0.051491547,-0.888698,-2.2783542,-0.1352325,-0.48598424,1.5576543,0.9123468,0.7029032,-1.2619413,-0.17573088,0.013146472,-0.0061448948,1.0635582,0.5166151
0.0,0.0,0.9999999999999999,0.0,0.5235987755982988,0,-0.05081824,-0.88888323,-2.2767355,-0.13504583,-0.5332762,1.5306127,0.87872785,0.70284885,-1.262077,-0.3579512,-0.06508968,-0.007138289,1.0715843,-1.1433951
0.0,0.0,0.9999999999999999,0.0,0.5235987755982988,0,-0.051039636,-0.888583,-2.2696376,-0.12812206,-0.5081903,1.5584033,0.6414092,0.701581,-1.2621242,-0.3524918,-0.09779882,-0.08259773,1.0659904,-0.05570599
0.0,0.0,0.9999999999999999,0.0,0.5235987755982988,0,-0.050490893,-0.8888321,-2.2784522,-0.14274989,-0.54551613,1.536202,0.77531433,0.70286447,-1.2609166,-0.30487543,-0.066738024,-0.10388219,1.080803,0.38898358
0.0,0.0,0.9999999999999999,0.0,0.5235987755982988,0,-0.052112818,-0.888485,-2.2720072,-0.14787081,-0.4225421,1.5449462,0.9385683,0.704569,-1.2613887,-0.3182512,-0.06482166,0.01850682,1.1037304,0.5789831
0.0,0.0,0.9999999999999999,0.0,0.5235987755982988,0,-0.047973204,-0.88888085,-2.2738633,-0.13032424,-0.5166676,1.5555958,0.7636241,0.70400554,-1.2637414,-0.20345452,-0.047673717,-0.047425907,1.1220407,0.6148507
0.0,0.0,0.9999999999999999,0.0,0.5235987755982988,0,-0.050938595,-0.8880214,-2.2847314,-0.12695175,-0.5218247,1.5422182,1.0315187,0.7025921,-1.2584635,-0.61811894,-0.05223302,-0.16447382,1.0630448,-0.1382776
0.0,0.0,0.9999999999999999,0.0,0.5235987755982988,0,-0.04794161,-0.8883072,-2.2769969,-0.13305831,-0.53877324,1.5384704,0.99896586,0.7022166,-1.2597543,-0.575864,-0.03446203,-0.008560639,1.0273656,0.13946858
0.0,0.0,0.9999999999999999,0.0,0.5235987755982988,0,-0.04927184,-0.8887375,-2.2759936,-0.13485895,-0.45001906,1.533973,0.81215394,0.7027298,-1.2630652,-0.3003569,-0.03882632,-0.15773067,1.0833734,-0.2591957
0.0,0.0,0.9999999999999999,0.0,0.5235987755982988,0,-0.053015687,-0.8886634,-2.2741392,-0.13170075,-0.41460797,1.5375636,0.9662867,0.70253956,-1.2604408,-0.35559192,-0.06886535,-0.06871766,1.0867667,-0.4119231
0.0,0.0,0.9999999999999999,0.0,0.5235987755982988,0,-0.04984069,-0.88857377,-2.277087,-0.13557169,-0.5000866,1.5359417,0.9338442,0.7028777,-1.2621672,-0.27625996,-0.05521182,-0.030806364,1.065246,-1.416466
0.0,0.0,0.9999999999999999,0.0,0.5235987755982988,0,-0.05219958,-0.8887616,-2.2791867,-0.14628136,-0.45667672,1.5286981,1.0426444,0.7019755,-1.2593822,-0.28509134,-0.09830708,-0.08134696,1.0363926,0.98426485
0.0,0.0,0.9999999999999999,0.0,0.5235987755982988,0,-0.053093508,-0.88838065,-2.2699504,-0.14440589,-0.5192255,1.534919,0.75671375,0.70237863,-1.2619007,-0.15206559,-0.068307176,-0.052496146,1.0421556,0.59379447
0.0,0.0,0.9999999999999999,0.0,0.5235987755982988,0,-0.05128929,-0.8883932,-2.2736163,-0.12718514,-0.46912497,1.5600231,1.0771741,0.7025828,-1.2615601,-0.36554918,-0.048332345,-0.07058247,1.0580838,-0.5858588
0.0,0.0,0.9999999999999999,0.0,0.5235987755982988,0,-0.04878331,-0.88854545,-2.273254,-0.1380926,-0.44368726,1.5514679,0.99888504,0.7027683,-1.2628714,-0.41373107,-0.08154083,-0.05876491,1.0683308,-1.647528
0.0,0.0,0.9999999999999999,0.0,0.5235987755982988,0,-0.051881015,-0.8881911,-2.2792222,-0.13522889,-0.4831926,1.5686303,0.85477227,0.70285726,-1.2633615,-0.32300678,-0.05321535,0.008375787,1.0917464,-0.42867687
0.0,0.0,0.9999999999999999,0.0,0.5235987755982988,0,-0.0502608,-0.8890565,-2.2727993,-0.15365846,-0.45055544,1.5532478,1.0164942,0.70229626,-1.2599386,-0.5646533,-0.12691541,-0.20790887,1.0740311,-0.18271956
0.0,0.0,0.9999999999999999,0.0,0.5235987755982988,0,-0.04999066,-0.88847846,-2.2737386,-0.12020147,-0.41815543,1.5405014,1.0759965,0.70156825,-1.2626387,-0.1650529,-0.05949516,0.00792294,1.0450647,-0.3593811
0.0,0.0,0.9999999999999999,0.0,0.5235987755982988,0,-0.05015364,-0.88884515,-2.2732553,-0.13046196,-0.46661702,1.5288627,0.70824015,0.70300335,-1.259336,-0.7058757,-0.013409833,-0.044676486,1.0696808,-0.502757
0.0,0.0,0.9999999999999999,0.0,0.5235987755982988,0,-0.054666046,-0.8884378,-2.272504,-0.14488356,-0.44133422,1.5337853,0.6185738,0.70387614,-1.2621008,-0.1812748,-0.018013638,-0.12826137,1.1500479,0.7759969
0.0,0.0,0.9999999999999999,0.0,0.5235987755982988,0,-0.05201816,-0.88886285,-2.2716017,-0.12578245,-0.4710984,1.5358561,0.87837166,0.70390856,-1.2619861,-0.090792924,-0.06419147,-0.04697328,1.0731543,-0.69504404
0.0,0.0,0.9999999999999999,0.0,0.5235987755982988,0,-0.051083203,-0.88863146,-2.2762616,-0.14510202,-0.4338325,1.5457424,1.0028661,0.7035856,-1.2636492,-0.5998577,-0.0413725,-0.10439493,1.0573554,0.2975026
0.0,0.0,0.9999999999999999,0.0,0.5235987755982988,0,-0.047581714,-0.8885465,-2.277989,-0.1354033,-0.59089243,1.5475024,1.0594178,0.702968,-1.2611041,-0.1422313,-0.089786686,-0.06876361,1.0610018,0.11607268
0.0,0.0,0.9999999999999999,0.0,0.5235987755982988,0,-0.050652437,-0.88862157,-2.2793305,-0.11929595,-0.52098876,1.5569792,0.98740304,0.7021509,-1.2634248,-0.25547495,-0.13347332,-0.002768688,1.0258613,0.96203905
0.0,0.0,0.9999999999999999,0.0,0.5235987755982988,0,-0.049818646,-0.8884359,-2.2741442,-0.13019024,-0.5503743,1.523104,1.0250949,0.70315176,-1.2617639,-0.36084896,-0.03888409,-0.105868846,1.0926797,-0.2295236
0.0,0.0,0.9999999999999999,0.0,0.5235987755982988,0,-0.046681814,-0.8882322,-2.2748952,-0.15199207,-0.44499978,1.5430002,0.9428524,0.7034002,-1.2599434,-0.4147112,-0.109069616,0.08457504,1.0647429,0.036141478
0.0,0.0,0.9999999999999999,0.0,0.5235987755982988,0,-0.049445096,-0.88847685,-2.2730126,-0.13718773,-0.47270316,1.5294154,0.8408529,0.7033611,-1.2618239,-0.34496495,-0.056087513,-0.013930417,1.0979874,0.53175056
0.0,0.0,0.9999999999999999,0.0,0.5235987755982988,0,-0.048488364,-0.88856095,-2.2645993,-0.1396312,-0.5416331,1.5192524,1.0247289,0.70235455,-1.2609823,-0.1648384,-0.07271959,-0.1412524,1.0545623,0.35904214
0.0,0.0,0.9999999999999999,0.0,0.5235987755982988,0,-0.050046753,-0.8885487,-2.2857375,-0.15124692,-0.5297699,1.5455782,1.0258071,0.7024885,-1.2646942,-0.26266402,-0.0023411952,-0.023205366,1.0981445,0.24849437
0.0,0.0,0.9999999999999999,0.0,0.5235987755982988,0,-0.047521368,-0.8885657,-2.2688901,-0.14058506,-0.5754763,1.5270051,1.03872,0.7032131,-1.2607968,-0.059882972,-0.026037639,-0.18638319,1.1214815,0.15918294
0.0,0.0,0.9999999999999999,0.0,0.5235987755982988,0,-0.050796635,-0.8881989,-2.2730198,-0.14126378,-0.45427904,1.5083218,0.9015795,0.70328915,-1.2637695,-0.30502787,-0.05076591,0.0025226518,1.1116767,0.27012923
0.0,0.0,0.9999999999999999,0.0,0.5235987755982988,0,-0.04909211,-0.8885995,-2.2789266,-0.12204274,-0.43549567,1.5236353,0.8929574,0.7023423,-1.2615042,-0.22792844,-0.048738163,-0.050929207,1.0162123,0.4736365
0.0,0.0,0.9999999999999999,0.0,0.5235987755982988,0,-0.04824141,-0.88852537,-2.2694314,-0.13074602,-0.4618716,1.5481547,0.6440686,0.70310754,-1.2585573,-0.36192372,-0.08869621,-0.11697447,1.0648463,-0.56832963
0.0,0.0,0.9999999999999999,0.0,0.5235987755982988,0,-0.052037105,-0.88841814,-2.2746289,-0.13592061,-0.47004697,1.5548073,0.6926074,0.70244795,-1.2640954,-0.2097702,-0.068032116,-0.10241321,1.0487064,0.1436882
0.0,0.0,0.9999999999999999,0.0,0.5235987755982988,0,-0.049073752,-0.8890107,-2.2747536,-0.13272862,-0.5456835,1.5651753,0.9814483,0.7028172,-1.2641368,-0.08600509,-0.08530659,-0.016273154,1.0989695,0.39013445
0.0,0.0,0.9999999999999999,0.0,0.5235987755982988,0,-0.0532016,-0.88905334,-2.2789483,-0.1270395,-0.54733574,1.5582262,1.0624495,0.7017474,-1.2605376,-0.35383007,-0.10010611,-0.16899173,1.0566987,0.45986065
0.0,0.0,0.9999999999999999,0.0,0.5235987755982988,0,-0.04955537,-0.88817674,-2.2753649,-0.112508886,-0.5343609,1.5509714,0.887067,0.703079,-1.2650731,-0.4454868,-0.0002779817,-0.1275137,1.089441,1.5904083
0.0,0.0,0.9999999999999999,0.0,0.5235987755982988,0,-0.049953055,-0.8887819,-2.2731898,-0.12049583,-0.5237378,1.5362186,0.95120233,0.7036751,-1.2626714,-0.20864102,0.00081616663,-0.11394619,1.1059344,-0.35257477
0.0,0.0,0.9999999999999999,0.0,0.5235987755982988,0,-0.04826882,-0.8887062,-2.278741,-0.1266284,-0.53994787,1.5422735,0.9815839,0.7037024,-1.2621673,-0.64453834,-0.08474959,-0.047633912,0.97833836,0.2113921
0.0,0.0,0.9999999999999999,0.0,0.5235987755982988,0,-0.05069644,-0.88878495,-2.280893,-0.12757418,-0.5273454,1.5427614,1.0281264,0.7044291,-1.2626859,-0.40645716,-0.06664587,0.010598883,1.109279,-1.1585431
0.0,0.0,0.9999999999999999,0.0,0.5235987755982988,0,-0.05090489,-0.8879832,-2.2772756,-0.112876005,-0.4257089,1.5522331,1.0559859,0.7010349,-1.2628578,-0.059104398,-0.008436761,0.031374734,1.0416694,-0.8361756
0.0,0.0,0.9999999999999999,0.0,0.5235987755982988,0,-0.050924055,-0.8887279,-2.2800536,-0.1381949,-0.436136,1.5484536,0.96686333,0.70259815,-1.2626394,-0.28982288,-0.027734471,-0.08705997,1.1061991,-0.5038884
0.0,0.0,0.9999999999999999,0.0,0.5235987755982988,0,-0.048976615,-0.88905615,-2.2799094,-0.12673752,-0.43525264,1.5430979,0.8396642,0.70239186,-1.2605878,-0.17455417,-0.128292,-0.053753678,1.0391568,0.008167758
0.0,0.0,0.9999999999999999,0.0,0.5235987755982988,0,-0.052487716,-0.88858,-2.2753727,-0.126067,-0.5656318,1.5432006,1.0654004,0.70357144,-1.2626519,-0.23114443,-0.05860586,-0.10280077,1.1034483,-0.39479935
0.0,0.0,0.9999999999999999,0.0,0.5235987755982988,0,-0.053359877,-0.88858676,-2.2768867,-0.120421395,-0.49020454,1.5548815,0.94576603,0.7042478,-1.2615324,-0.2997744,-0.08940439,-0.11368787,1.076877,0.5681631
0.0,0.0,0.9999999999999999,0.0,0.5235987755982988,0,-0.051446557,-0.88906735,-2.2764523,-0.15934816,-0.56906474,1.5689765,0.830015,0.70267403,-1.258011,-0.5071661,-0.091759354,-0.055261903,1.1090468,-0.15216745
0.0,0.0,0.9999999999999999,0.0,0.5235987755982988,0,-0.052950554,-0.8886342,-2.2724864,-0.13284522,-0.55206704,1.5469828,0.7915813,0.7013813,-1.260812,-0.5979439,-0.106720686,-0.040376075,1.0449106,-0.40086186
0.0,0.0,0.9999999999999999,0.0,0.5235987755982988,0,-0.0484583,-0.88826174,-2.2814765,-0.14916566,-0.35458672,1.5352587,1.1448609,0.70371336,-1.2590536,-0.05686479,-0.040814366,-0.054192737,1.0571871,1.2046314
0.0,0.0,0.9999999999999999,0.0,0.5235987755982988,0,-0.04780514,-0.8892061,-2.27649,-0.1398806,-0.5043332,1.5227829,0.8309435,0.70413816,-1.2608892,-0.18639566,-0.07480923,-6.934478e-05,1.0210135,0.9853797
0.0,0.0,0.9999999999999999,0.0,0.5235987755982988,0,-0.051339097,-0.8888031,-2.2836072,-0.121605605,-0.53667283,1.543768,1.0287006,0.70382947,-1.2603459,-0.37085,-0.056197554,-0.07523985,1.0495477,0.5010827
0.0,0.0,0.9999999999999999,0.0,0.5235987755982988,0,-0.05052339,-0.88890713,-2.2728724,-0.1401871,-0.46990722,1.5453017,0.656616,0.7040149,-1.262732,0.026045345,-0.033885125,0.06524283,1.0047427,-0.11480581
0.0,0.0,0.9999999999999999,0.0,0.5235987755982988,0,-0.049933773,-0.88894284,-2.2732964,-0.12484992,-0.407628,1.5395657,0.9143757,0.7030375,-1.2616009,-0.17300022,-0.0693011,-0.07937212,1.0540318,0.46346244
0.0,0.0,0.9999999999999999,0.0,0.5235987755982988,0,-0.05114634,-0.8886213,-2.2731185,-0.13202216,-0.4319391,1.5467815,0.9102811,0.7027411,-1.2616049,-0.42401165,-0.09964806,-0.12909451,1.14443,0.8456513
0.0,0.0,0.9999999999999999,0.0,0.5235987755982988,0,-0.05162905,-0.8883402,-2.278557,-0.117140315,-0.49883965,1.5430317,1.0404755,0.70346177,-1.2612942,-0.49182647,0.020510226,-0.061186142,1.0766029,-0.18276861
0.0,0.0,0.9999999999999999,0.0,0.5235987755982988,0,-0.050278567,-0.889086,-2.2721684,-0.1257494,-0.4718913,1.5508461,0.68371123,0.7037401,-1.2640663,-0.22584015,-0.08253806,-0.13246065,1.113551,-1.0770642
0.0,0.0,0.9999999999999999,0.0,0.5235987755982988,0,-0.051016275,-0.8886022,-2.2887952,-0.0947412,-0.50922084,1.5599102,0.77699393,0.70388246,-1.2610649,-0.26283565,-0.16608301,-0.12140306,1.0794138,0.06723088
0.0,0.0,0.9999999999999999,0.0,0.5235987755982988,0,-0.045503467,-0.8884938,-2.2819507,-0.13375488,-0.45132446,1.5569082,1.0967824,0.7030048,-1.2630503,-0.62734413,-0.08586983,-0.05347017,1.0470874,0.8264541
0.0,0.0,0.9999999999999999,0.0,0.5235987755982988,0,-0.05083716,-0.88845,-2.2786863,-0.13594909,-0.46925843,1.5530443,0.83295244,0.7027422,-1.2606161,-0.17409775,-0.14662164,-0.10324363,1.0588282,-0.68436486
0.0,0.0,0.9999999999999999,0.0,0.5235987755982988,0,-0.050799727,-0.8885616,-2.2729423,-0.124498054,-0.4112129,1.549289,1.0000687,0.70266837,-1.2581918,-0.26426786,-0.060472004,-0.047770556,1.0917583,-1.0628853
0.0,0.0,0.9999999999999999,0.0,0.5235987755982988,0,-0.048520606,-0.88833135,-2.277997,-0.16180319,-0.54555416,1.541868,0.853228,0.7027009,-1.2617139,-0.15477262,0.0039856113,-0.021629825,1.0554395,-0.024389537
0.0,0.0,0.9999999999999999,0.0,0.5235987755982988,0,-0.048738718,-0.8889339,-2.2685173,-0.11992761,-0.48298678,1.5495882,0.92611736,0.7019026,-1.2618127,-0.17913005,-0.04673548,-0.04698033,1.055291,-0.69540256
0.0,0.0,0.9999999999999999,0.0,0.5235987755982988,0,-0.046203766,-0.8884972,-2.2731664,-0.119295366,-0.49434322,1.5632278,0.9881847,0.70300615,-1.2590252,-0.17175676,0.007948077,-0.115519926,1.0080376,0.35350993
0.0,0.0,0.9999999999999999,0.0,0.5235987755982988,0,-0.05021397,-0.8892498,-2.2736208,-0.14594088,-0.5112943,1.5442096,1.0453511,0.7019547,-1.2612426,-0.4050665,-0.02378478,0.045294173,1.0738821,0.018715182
0.0,0.0,0.9999999999999999,0.0,0.5235987755982988,0,-0.052477513,-0.8891052,-2.2741513,-0.12144487,-0.4857311,1.5386391,0.9363767,0.7027159,-1.260241,-0.3110094,-0.018207984,-0.038798865,1.0469834,-0.26949307
0.0,0.0,0.9999999999999999,0.0,0.5235987755982988,0,-0.047196247,-0.8888174,-2.2732458,-0.13473694,-0.46014616,1.5319194,0.8110608,0.7020994,-1.2603804,-0.47276378,-0.0048626536,-0.023085665,1.0757749,-0.09297798
0.0,0.0,0.9999999999999999,0.0,0.5235987755982988,0,-0.052301574,-0.8892826,-2.275964,-0.12271307,-0.51546407,1.5585638,1.0122539,0.7027334,-1.2578939,-0.29920807,-0.07935386,-0.019389302,1.0792855,0.21802697
0.0,0.0,0.9999999999999999,0.0,0.5235987755982988,0,-0.046473783,-0.88888085,-2.2815325,-0.12112276,-0.44871098,1.5665859,0.92052805,0.70133287,-1.260822,-0.10065893,-0.028236132,-0.13213587,1.0115335,0.78716254
0.0,0.0,0.9999999999999999,0.0,0.5235987755982988,0,-0.049821127,-0.88921887,-2.284863,-0.13381274,-0.51050824,1.5534644,0.9275874,0.7033174,-1.2614433,-0.38004327,-0.016682077,-0.062329378,1.1314456,0.04811901
0.0,0.0,0.9999999999999999,0.0,0.5235987755982988,0,-0.048721883,-0.8886442,-2.2754948,-0.13261506,-0.533725,1.5547061,0.99485886,0.7024445,-1.2624663,-0.5171557,-0.09816787,-0.17636989,1.0258219,0.43668583
0.0,0.0,0.9999999999999999,0.0,0.5235987755982988,0,-0.046972036,-0.8891462,-2.2696297,-0.12979993,-0.4993275,1.5307148,0.81213754,0.70283735,-1.2629267,-0.68069607,0.0033171424,0.048849158,1.0918201,0.28060445
0.0,0.0,0.9999999999999999,0.0,0.5235987755982988,0,-0.050428808,-0.88890654,-2.2749782,-0.13991041,-0.47057372,1.5315567,0.8552757,0.70224065,-1.2598,-0.09107587,-0.034901787,-0.028148167,1.0591557,1.018449
0.0,0.0,0.9999999999999999,0.0,0.5235987755982988,0,-0.046408273,-0.8889088,-2.278823,-0.13053194,-0.46603438,1.5543759,0.8139954,0.70327526,-1.2640601,-0.31170362,-0.060184605,-0.19203432,1.0524006,2.4578695
0.0,0.0,0.9999999999999999,0.0,0.5235987755982988,0,-0.052280538,-0.88872933,-2.28424,-0.1419807,-0.48956764,1.5436623,0.95612615,0.70425636,-1.257804,-0.29096577,-0.03906759,-0.02118174,1.0877686,0.05400621
0.0,0.0,0.9999999999999999,0.0,0.5235987755982988,0,-0.050485585,-0.88904333,-2.2735765,-0.1512305,-0.4647491,1.5502005,0.9119236,0.7011991,-1.2619222,-0.51506674,-0.059962697,0.046516255,1.083837,-0.32397068
0.0,0.0,0.9999999999999999,0.0,0.5235987755982988,0,-0.050128784,-0.88968974,-2.2802415,-0.1353805,-0.4886938,1.5625244,1.0873764,0.70284486,-1.2630155,-0.206161,-0.058291197,-0.057403788,1.0533607,0.13352525
0.0,0.0,0.9999999999999999,0.0,0.5235987755982988,0,-0.051422946,-0.88891196,-2.2763338,-0.12037169,-0.4717113,1.5431054,0.9632499,0.7022815,-1.2584778,-0.26401114,-0.0008155778,-0.1255799,1.0832248,-1.5257205
0.0,0.0,0.9999999999999999,0.0,0.5235987755982988,0,-0.047566466,-0.8886019,-2.2736557,-0.122861065,-0.55718905,1.5447158,0.7996781,0.70149404,-1.2596225,-0.66823167,-0.038154624,-0.15492313,1.0475023,-0.9712206
0.0,0.0,0.9999999999999999,0.0,0.5235987755982988,0,-0.050963152,-0.8893138,-2.2772071,-0.13046657,-0.4721166,1.5598161,0.8795105,0.7027325,-1.2624627,-0.5096346,-0.067756854,-0.052709345,1.0230905,1.1091639
0.0,0.0,0.9999999999999999,0.0,0.5235987755982988,0,-0.05228665,-0.888091,-2.2766635,-0.12622826,-0.5616172,1.5468165,0.98556143,0.70392454,-1.2603197,-0.38694933,-0.048892695,0.047154114,0.96987903,-0.422979
0.0,0.0,0.9999999999999999,0.0,0.5235987755982988,0,-0.048483774,-0.8887074,-2.2718031,-0.11844057,-0.48535123,1.5531484,0.90441495,0.70180976,-1.2640657,-0.34392387,-0.088480346,-0.086355574,1.0687953,-0.2350633
0.0,0.0,0.9999999999999999,0.0,0.5235987755982988,0,-0.048347946,-0.8887189,-2.2834082,-0.12971698,-0.4823084,1.5493867,1.0184525,0.70325667,-1.2589924,-0.59560955,-0.108634174,-0.10197756,1.0613248,0.4304171
0.0,0.0,0.9999999999999999,0.0,0.5235987755982988,0,-0.048350595,-0.8889751,-2.2711608,-0.12577643,-0.46382865,1.5515583,0.76291555,0.7033685,-1.2601168,-0.14417171,-0.02797076,0.03342382,1.07679,-1.2181696
0.0,0.0,0.9999999999999999,0.0,0.5235987755982988,0,-0.04860895,-0.8891099,-2.2781641,-0.114701465,-0.44019955,1.5324551,0.92369086,0.70336336,-1.2629435,-0.45318046,-0.03612194,-0.109969,1.0267867,0.63705957
0.0,0.0,0.9999999999999999,0.0,0.5235987755982988,0,-0.05243747,-0.88884485,-2.2842674,-0.12634,-0.4931483,1.5433687,0.85731435,0.70356464,-1.2582065,-0.30516672,-0.027803471,-0.08973086,1.0438824,-1.0213845
0.0,0.0,0.9999999999999999,0.0,0.5235987755982988,0,-0.05368743,-0.88903165,-2.2838588,-0.14103992,-0.48196277,1.5666395,1.1073033,0.70402145,-1.259707,-0.34448132,-0.019247763,-0.07083473,0.98504734,0.2381464
0.0,0.0,0.9999999999999999,0.0,0.5235987755982988,0,-0.050173998,-0.8890914,-2.27231,-0.118046895,-0.437507,1.5453774,0.8275309,0.7028709,-1.2614301,-0.24719961,-0.08534412,-0.113872364,1.0831032,0.31226355
0.0,0.0,0.9999999999999999,0.0,0.5235987755982988,0,-0.049910493,-0.88891345,-2.2807913,-0.124641225,-0.55263686,1.5393763,0.71345484,0.7029264,-1.2613813,-0.2757843,-0.036225706,-0.105633356,1.0069164,0.14785604
0.0,0.0,0.9999999999999999,0.0,0.5235987755982988,0,-0.04764476,-0.88843304,-2.273892,-0.11260512,-0.5285187,1.5398384,0.698345,0.70326346,-1.2616174,-0.003556705,0.022650873,0.03815484,1.1112311,0.543667
0.0,0.0,0.9999999999999999,0.0,0.5235987755982988,0,-0.04945463,-0.88904756,-2.2793727,-0.119229026,-0.42700914,1.5375718,1.0005568,0.7036774,-1.2607667,-0.03258238,-0.01858339,-0.13488932,1.0599887,0.25443348
0.0,0.0,0.9999999999999999,0.0,0.5235987755982988,0,-0.0526956,-0.8884403,-2.2719047,-0.14708804,-0.4567212,1.5373615,0.9477514,0.70387316,-1.2611532,-0.10764776,-0.06773836,-0.116411775,1.0092248,1.1656326
0.0,0.0,0.9999999999999999,0.0,0.5235987755982988,0,-0.050995134,-0.8890976,-2.2712057,-0.14802842,-0.44811964,1.5347182,0.9495651,0.7023106,-1.2632213,-0.29591498,-0.11573184,-0.075230226,1.0855559,-1.4030588
0.0,0.0,0.9999999999999999,0.0,0.5235987755982988,0,-0.050435357,-0.8887391,-2.2764957,-0.13129643,-0.4476991,1.5416955,0.9540402,0.70355076,-1.2603774,-0.67508984,-0.093268566,-0.10441081,1.0763307,0.4701705
0.0,0.0,0.9999999999999999,0.0,0.5235987755982988,0,-0.05130381,-0.88866395,-2.2751262,-0.13385163,-0.4755037,1.521889,0.95414513,0.7007956,-1.2625479,-0.25942397,-0.032624006,-0.08740472,1.0719775,-1.0536392
0.0,0.0,0.9999999999999999,0.0,0.5235987755982988,0,-0.049566902,-0.8889386,-2.2754855,-0.14031248,-0.4244678,1.5549864,1.0529025,0.70325327,-1.2578852,-0.42979077,0.05896226,-0.10687048,1.0186446,0.90195453
0.0,0.0,0.9999999999999999,0.0,0.5235987755982988,0,-0.04941779,-0.8880007,-2.2749364,-0.12663217,-0.43890092,1.538627,1.0518966,0.70173836,-1.26253,-0.184161,-0.06265469,-0.0807103,1.0669302,-1.8865767
0.0,0.0,0.9999999999999999,0.0,0.5235987755982988,0,-0.04893436,-0.88868093,-2.2731912,-0.13131489,-0.49747756,1.5223311,0.93955475,0.7034945,-1.2605509,-0.3603851,-0.08757277,-0.11857595,1.0616298,0.045817357
0.0,0.0,0.9999999999999999,0.0,0.5235987755982988,0,-0.05186399,-0.88821435,-2.2728183,-0.14173777,-0.46423066,1.5564519,1.1444763,0.7032039,-1.2612652,-0.24059132,-0.025339479,-0.014174886,1.0996568,-0.1942555
0.0,0.0,0.9999999999999999,0.0,0.5235987755982988,0,-0.050513957,-0.8888105,-2.2792172,-0.14280795,-0.43105248,1.5475781,1.311716,0.70411897,-1.263311,-0.3847351,0.032004572,0.039874293,1.060793,-0.073456116
0.0,0.0,0.9999999999999999,0.0,0.5235987755982988,0,-0.052186985,-0.88924336,-2.2702909,-0.1217738,-0.46525383,1.5472541,0.81546813,0.7034226,-1.2602007,-0.45934406,0.0065715117,0.010970342,1.0739971,0.015584681
0.0,0.0,0.9999999999999999,0.0,0.5235987755982988,0,-0.053243816,-0.88846153,-2.2763798,-0.14566049,-0.5169422,1.5398476,0.75929296,0.7032601,-1.262126,-0.4014595,-0.019869905,-0.04578717,1.036784,-0.59316593
0.0,0.0,0.9999999999999999,0.0,0.5235987755982988,0,-0.04903212,-0.8894483,-2.274021,-0.14348216,-0.4834331,1.5446287,1.0682268,0.7027679,-1.258997,-0.16690671,-0.029777197,-0.02291039,0.9884953,0.5267756
0.0,0.0,0.9999999999999999,0.0,0.5235987755982988,0,-0.047765933,-0.88902885,-2.277472,-0.12337255,-0.54212546,1.555145,0.95438427,0.70260227,-1.2618206,-0.22592328,-0.084511496,-0.0236685,1.0494888,0.2345153
0.0,0.0,0.9999999999999999,0.0,0.5235987755982988,0,-0.050689872,-0.888356,-2.270802,-0.14207739,-0.5477714,1.5307912,0.7806866,0.703417,-1.2617308,-0.28839284,0.013113935,-0.04813532,1.0915676,-1.2841486
0.0,0.0,0.9999999999999999,0.0,0.5235987755982988,0,-0.0515056,-0.8886982,-2.2815294,-0.13412505,-0.5012131,1.5422797,0.9187742,0.70343035,-1.2635478,-0.35647985,-0.06006141,-0.18906586,1.1040299,-0.2792506
0.0,0.0,0.9999999999999999,0.0,0.5235987755982988,0,-0.051980942,-0.8883764,-2.2721045,-0.1256759,-0.5353728,1.5474445,0.63951325,0.70313483,-1.2603834,-0.23259328,-0.022148626,-0.09548484,1.1564121,0.36203432
0.0,0.0,0.9999999999999999,0.0,0.5235987755982988,0,-0.050601643,-0.8878836,-2.276737,-0.14177129,-0.52235436,1.5532368,0.8869632,0.70245224,-1.2607294,-0.50479573,-0.038058985,-0.21527241,1.0191542,0.66985476
0.0,0.0,0.9999999999999999,0.0,0.5235987755982988,0,-0.053327076,-0.88920325,-2.2703674,-0.1270008,-0.47439364,1.5413936,0.7397412,0.7041274,-1.2587395,-0.37711626,-0.11549155,-0.029102474,1.0643953,0.020422721
0.0,0.0,0.9999999999999999,0.0,0.5235987755982988,0,-0.049780764,-0.88903224,-2.2793348,-0.12523043,-0.518495,1.5504985,0.92748463,0.70155066,-1.2600625,-0.27913377,-0.061139066,-0.021716915,1.0919027,-0.43591604
0.0,0.0,0.9999999999999999,0.0,0.5235987755982988,0,-0.051648732,-0.8893372,-2.2815073,-0.13250251,-0.48976368,1.5149071,0.985776,0.70288223,-1.2609477,-0.6016362,-0.064551726,-0.055853713,1.0493257,-1.0154958
0.0,0.0,0.9999999999999999,0.0,0.5235987755982988,0,-0.048660874,-0.8881371,-2.2744207,-0.1202612,-0.51613414,1.5594771,1.1155081,0.7031106,-1.2636527,-0.18709064,-0.042263024,-0.054109585,1.030554,0.6064471
0.0,0.0,0.9999999999999999,0.0,0.5235987755982988,0,-0.049440246,-0.88884944,-2.2764375,-0.14150809,-0.43474764,1.5314229,0.85684997,0.7032669,-1.2620412,-0.22874095,-0.028518815,-0.20838445,1.0204762,1.2748153
0.0,0.0,0.9999999999999999,0.0,0.5235987755982988,0,-0.050351687,-0.8884575,-2.2840347,-0.11808853,-0.51752394,1.5420035,0.7895827,0.7030638,-1.2608436,-0.52576256,-0.042825226,-0.13575247,1.0709546,-0.25652304
0.0,0.0,0.9999999999999999,0.0,0.5235987755982988,0,-0.050332833,-0.8886936,-2.2805378,-0.12441414,-0.4814966,1.5373986,0.97028613,0.70406365,-1.2622865,-0.13848817,-0.062306993,0.009678239,1.0637946,-0.4819442
0.0,0.0,0.9999999999999999,0.0,0.5235987755982988,0,-0.048394136,-0.88864344,-2.2705157,-0.1197191,-0.4267682,1.5370805,0.9610724,0.7036936,-1.2596744,-0.05473015,-0.08016305,-0.1134075,1.072685,-0.003875724
0.0,0.0,0.9999999999999999,0.0,0.5235987755982988,0,-0.050547563,-0.88874835,-2.27646,-0.13181038,-0.5386977,1.5159189,0.952865,0.702749,-1.2621965,-0.39684206,0.0035468205,-0.11892471,1.0617849,0.5146133
0.0,0.0,0.9999999999999999,0.0,0.5235987755982988,0,-0.049422063,-0.8887365,-2.2763793,-0.12026911,-0.49791992,1.5489521,0.8209565,0.7020433,-1.2597921,-0.3759725,0.016141897,-0.057748687,1.0498784,-0.02204188
0.0,0.0,0.9999999999999999,0.0,0.5235987755982988,0,-0.049383786,-0.88905287,-2.2741692,-0.12567787,-0.49103075,1.528569,0.9843396,0.7019931,-1.2632859,-0.7050234,-0.012306843,-0.020283153,1.0725503,-0.43170452
0.0,0.0,0.9999999999999999,0.0,0.5235987755982988,0,-0.049895503,-0.88892823,-2.2713988,-0.13723849,-0.55473876,1.5442102,0.9130461,0.70340353,-1.2639208,-0.35009572,-0.052853107,-0.11216986,1.1392572,-1.421293
0.0,0.0,0.9999999999999999,0.0,0.5235987755982988,0,-0.053832747,-0.8892672,-2.269044,-0.1262751,-0.44342276,1.5266266,0.847683,0.70405585,-1.2626102,-0.42755565,-0.09963254,-0.13801953,1.0899545,0.7986288
0.0,0.0,0.9999999999999999,0.0,0.5235987755982988,0,-0.052357826,-0.8894408,-2.2735336,-0.12615305,-0.5132048,1.5392529,0.9938293,0.7027916,-1.2569116,-0.37189704,-0.07329741,-0.012634315,1.1052749,0.04240844
0.0,0.0,0.9999999999999999,0.0,0.5235987755982988,0,-0.048459545,-0.88901466,-2.2790635,-0.14450242,-0.43156835,1.5450243,0.8800754,0.70368636,-1.2611012,-0.39626703,-0.018397277,0.012226954,1.1041039,0.0164214
0.0,0.0,0.9999999999999999,0.0,0.5235987755982988,0,-0.04770843,-0.8886888,-2.2685623,-0.12666717,-0.46839482,1.5277717,1.0118514,0.7025558,-1.2589366,-0.47060144,-0.028053947,0.007019663,1.0731456,0.8005528
0.0,0.0,0.9999999999999999,0.0,0.5235987755982988,0,-0.049880326,-0.88871723,-2.271348,-0.124205895,-0.5929713,1.539382,0.7757834,0.7017561,-1.2590547,-0.29966497,-0.047004428,-0.024621239,1.0597608,0.9385651
0.0,0.0,0.9999999999999999,0.0,0.5235987755982988,0,-0.050808683,-0.8883382,-2.274738,-0.13983083,-0.42895755,1.5409143,0.75496507,0.703606,-1.2624584,-0.37023377,-0.009399836,-0.015733495,1.0358217,0.9334689
0.0,0.0,0.9999999999999999,0.0,0.5235987755982988,0,-0.048702642,-0.8886685,-2.275112,-0.14412947,-0.48362577,1.5339302,0.7710697,0.70299786,-1.2615101,-0.48078117,-0.044912364,-0.07249065,1.0834177,0.3718394
0.0,0.0,0.9999999999999999,0.0,0.5235987755982988,0,-0.04818164,-0.8889395,-2.275787,-0.12410803,-0.48107263,1.5597314,0.8294931,0.7027576,-1.2625397,-0.27870345,-0.09155137,-0.13294119,1.090423,-1.3479334
0.0,0.0,0.9999999999999999,0.0,0.5235987755982988,0,-0.050254453,-0.88866097,-2.270385,-0.13392892,-0.47038242,1.5554348,0.8877604,0.7027878,-1.2578425,-0.26533157,0.006985797,-0.07663196,0.99422646,0.9751734
0.0,0.0,0.9999999999999999,0.0,0.5235987755982988,0,-0.053394243,-0.88854784,-2.2769463,-0.14073637,-0.43992797,1.5319536,0.7994421,0.70257103,-1.2586639,-0.14970592,-0.04837891,-0.06750668,1.0526439,0.8637837
0.0,0.0,0.9999999999999999,0.0,0.5235987755982988,0,-0.05236975,-0.88833404,-2.2779014,-0.1289403,-0.4538383,1.5486274,0.97031164,0.7037722,-1.2618016,-0.02493523,-0.049283464,-0.10538609,1.034145,-0.07747747
0.0,0.0,0.9999999999999999,0.0,0.5235987755982988,0,-0.05083243,-0.88830423,-2.2821393,-0.1355726,-0.45870286,1.560064,0.99043375,0.7036954,-1.2608547,-0.4551199,-0.058084898,0.028709177,1.0767374,0.63315815
0.0,0.0,0.9999999999999999,0.0,0.5235987755982988,0,-0.048033807,-0.889172,-2.2770734,-0.13028234,-0.48997718,1.5667826,0.9392046,0.7034206,-1.2622362,-0.18843295,-0.056745373,-0.12254111,1.0541342,0.666519
0.0,0.0,0.9999999999999999,0.0,0.5235987755982988,0,-0.049769152,-0.88885415,-2.2791107,-0.1267558,-0.45539072,1.5610185,1.019886,0.7027592,-1.2612308,-0.086729944,-0.07640423,-0.20919786,1.0825975,-0.71898246
0.0,0.0,0.9999999999999999,0.0,0.5235987755982988,0,-0.050674178,-0.8890007,-2.2710702,-0.15383033,-0.5442315,1.5355514,0.94659114,0.70348835,-1.260721,-0.09577867,-0.03147823,-0.11300157,1.0845752,0.81737673
0.0,0.0,0.9999999999999999,0.0,0.5235987755982988,0,-0.05029642,-0.88883346,-2.280747,-0.13971832,-0.48757136,1.5335426,1.1109061,0.7023884,-1.2623758,-0.13206811,-0.039007235,-0.0965449,1.1030502,-0.031485084
0.0,0.0,0.9999999999999999,0.0,0.5235987755982988,0,-0.05119451,-0.88867855,-2.2760072,-0.12959951,-0.43790224,1.5390146,0.93510133,0.70368207,-1.2606958,-0.053670306,-0.060028933,-0.05089067,1.0810262,-0.43096885
0.0,0.0,0.9999999999999999,0.0,0.5235987755982988,0,-0.051915877,-0.88869506,-2.2790465,-0.14055924,-0.48643473,1.5432677,0.86008275,0.702403,-1.261704,-0.24315825,-0.022143373,-0.093841255,1.1031238,0.6303317
0.0,0.0,0.9999999999999999,0.0,0.5235987755982988,0,-0.051462352,-0.8888243,-2.2815142,-0.13375148,-0.4829471,1.5342597,0.882762,0.7034542,-1.2637613,-0.046802245,-0.056688245,-0.12535353,1.0320036,-0.04946204
0.0,0.0,0.9999999999999999,0.0,0.5235987755982988,0,-0.049802303,-0.88915354,-2.2747016,-0.15398964,-0.4553875,1.5315192,0.94405776,0.703079,-1.2609475,-0.32263336,-0.035851188,0.06342558,1.1309735,1.154089
0.0,0.0,0.9999999999999999,0.0,0.5235987755982988,0,-0.05252292,-0.88816285,-2.2747276,-0.12675989,-0.41807556,1.5392088,0.94159514,0.7027291,-1.259988,-0.45518148,-0.047350895,0.003831596,1.0394939,0.10088865
0.0,0.0,0.9999999999999999,0.0,0.5235987755982988,0,-0.04802171,-0.8886655,-2.2778268,-0.13105032,-0.48139355,1.547254,0.84204066,0.70362943,-1.263284,-0.41194406,-0.118949205,-0.07871645,1.0248396,0.03670014
0.0,0.0,0.9999999999999999,0.0,0.5235987755982988,0,-0.049834486,-0.8887647,-2.2757382,-0.12783438,-0.43106872,1.5444735,0.84298897,0.7041729,-1.2610464,-0.21466391,-0.04932297,-0.083324306,1.1764129,0.24341437
0.0,0.0,0.9999999999999999,0.0,0.5235987755982988,0,-0.052922837,-0.8891355,-2.2713926,-0.12984607,-0.46748263,1.5275035,1.1258708,0.70236045,-1.261082,-0.47934607,-0.031976283,-0.12597212,1.0838486,-0.34306413
0.0,0.0,0.9999999999999999,0.0,0.5235987755982988,0,-0.049800612,-0.8889447,-2.2787182,-0.15450798,-0.4697446,1.5485625,1.0681541,0.70250845,-1.2626508,-0.21860608,-0.07060044,-0.052766457,1.108022,-0.90141726
0.0,0.0,0.9999999999999999,0.0,0.5235987755982988,0,-0.048240133,-0.88852465,-2.2801518,-0.13434213,-0.46527407,1.5513849,1.0504518,0.7028783,-1.2606028,-0.08737238,-0.086216845,-0.18911517,1.1034077,1.0855895
0.0,0.0,0.9999999999999999,0.0,0.5235987755982988,0,-0.05143092,-0.8884971,-2.273219,-0.1387943,-0.53340924,1.5581852,0.89830863,0.7016108,-1.2580274,-0.29435557,-0.13607074,0.042755425,1.0154464,-0.38989815
0.0,0.0,0.9999999999999999,0.0,0.5235987755982988,0,-0.04976551,-0.88857144,-2.2792723,-0.12633346,-0.46833864,1.5416226,0.93117833,0.70144564,-1.26061,0.19761047,-0.047692142,-0.017966019,1.0675337,0.68361884
0.0,0.0,0.9999999999999999,0.0,0.5235987755982988,0,-0.052719973,-0.8887297,-2.2682672,-0.13761714,-0.46364692,1.5602366,0.8069303,0.7023692,-1.2622763,-0.24701911,-0.12554194,-0.12779547,1.0808973,-0.09519091
0.0,0.0,0.9999999999999999,0.0,0.5235987755982988,0,-0.050540157,-0.8889126,-2.2715247,-0.1284286,-0.46802166,1.5453436,1.0494579,0.7022006,-1.2608199,-0.46652284,-0.12949944,0.022224857,1.0698013,-0.007438398
0.0,0.0,0.9999999999999999,0.0,0.5235987755982988,0,-0.04884407,-0.8891227,-2.2779992,-0.12850374,-0.46045774,1.5668565,0.8463849,0.70233214,-1.2614774,-0.26928338,-0.07643271,0.019148638,1.1078109,-0.018412905
0.0,0.0,0.9999999999999999,0.0,0.5235987755982988,0,-0.047622398,-0.8887464,-2.2738087,-0.13700011,-0.4836077,1.5597662,0.90875226,0.7020789,-1.2585609,-0.4294839,-0.09799786,0.028556643,1.082207,-0.29525143
0.0,0.0,0.9999999999999999,0.0,0.5235987755982988,0,-0.04980615,-0.88884795,-2.2773468,-0.14844373,-0.44263893,1.5576136,0.8559662,0.7025654,-1.2610997,-0.35386232,-0.06372243,0.0010110671,1.070794,-1.5113071
0.0,0.0,0.9999999999999999,0.0,0.5235987755982988,0,-0.04694565,-0.8886719,-2.274304,-0.15345702,-0.49087667,1.5310345,0.97336125,0.70300263,-1.2636529,-0.34099215,-0.01784708,-0.07745106,1.0572833,0.4209867
0.0,0.0,0.9999999999999999,0.0,0.5235987755982988,0,-0.048404567,-0.8889613,-2.2783868,-0.13072972,-0.43242887,1.5320759,0.9328648,0.70298374,-1.260996,-0.30677366,-0.039420206,-0.09848343,0.97797424,0.05217477
0.0,0.0,0.9999999999999999,0.0,0.5235987755982988,0,-0.04801653,-0.8889153,-2.2782583,-0.12912425,-0.42557198,1.5353086,0.9308091,0.7030314,-1.261532,-0.2328288,-0.052305914,-0.018547434,1.1236609,0.7717369
0.0,0.0,0.9999999999999999,0.0,0.5235987755982988,0,-0.049678966,-0.8883594,-2.269656,-0.12405925,-0.39739174,1.5576367,0.96477354,0.70251733,-1.263026,-0.35774142,-0.089888334,-0.04172403,1.0701975,-1.0895697
0.0,0.0,0.9999999999999999,0.0,0.5235987755982988,0,-0.049548633,-0.88861775,-2.2726815,-0.13012129,-0.5406073,1.5438164,0.7556506,0.702639,-1.2576758,-0.27382478,-0.091979295,0.019384049,1.0857195,0.41051567
0.0,0.0,0.9999999999999999,0.0,0.5235987755982988,0,-0.051008325,-0.8884332,-2.2746427,-0.12675436,-0.4396637,1.5258156,0.8759139,0.7026502,-1.2615237,-0.46884152,-0.057762887,-0.05048082,1.0770304,0.117916636
0.0,0.0,0.9999999999999999,0.0,0.5235987755982988,0,-0.05160713,-0.8889497,-2.273873,-0.13900086,-0.49337348,1.5590878,0.8706999,0.7034746,-1.2611153,-0.37716347,-0.07547257,0.009197716,1.0238228,-1.3044492
0.0,0.0,0.9999999999999999,0.0,0.5235987755982988,0,-0.05064021,-0.8884523,-2.278629,-0.14199184,-0.4908384,1.5348893,0.9854356,0.70304215,-1.2617594,-0.22256224,-0.08813751,0.014137592,1.0543185,0.173182
0.0,0.0,0.9999999999999999,0.0,0.5235987755982988,0,-0.049953956,-0.8883615,-2.2765946,-0.1303393,-0.47287178,1.5474699,0.9653468,0.703686,-1.2639688,-0.29059985,-0.11770008,0.09268306,1.0307516,-0.0409189
0.0,0.0,0.9999999999999999,0.0,0.5235987755982988,0,-0.049621176,-0.8892243,-2.2719395,-0.13445283,-0.45809397,1.5268893,1.0181439,0.7030645,-1.2615969,-0.4359604,-0.041876256,0.025019668,1.0879288,0.2596575
0.0,0.0,0.9999999999999999,0.0,0.5235987755982988,0,-0.050456237,-0.88866925,-2.2773635,-0.14282236,-0.47452,1.538209,0.88301164,0.7032173,-1.2611578,-0.15045917,-0.09677836,-0.20036449,1.1354007,-0.6143467
0.0,0.0,0.9999999999999999,0.0,0.5235987755982988,0,-0.052804172,-0.8887869,-2.2774274,-0.13452561,-0.46306324,1.5476955,0.9438259,0.70298326,-1.2631536,-0.39140454,-0.053734776,0.04788238,1.1372879,-0.16445807
0.0,0.0,0.9999999999999999,0.0,0.5235987755982988,0,-0.052682023,-0.88912576,-2.275534,-0.13373792,-0.55837256,1.5534803,0.80843985,0.7032301,-1.2640123,-0.4153841,-0.05230729,-0.058945566,1.1072912,-0.51521266
0.0,0.0,0.9999999999999999,0.0,0.5235987755982988,0,-0.049390074,-0.8883146,-2.276206,-0.13856298,-0.46335742,1.5439683,0.7502794,0.7040075,-1.2598021,-0.36640388,-0.068198286,-0.08968351,1.0860729,-0.4491864
0.0,0.0,0.9999999999999999,0.0,0.5235987755982988,0,-0.050190467,-0.88924015,-2.2719233,-0.14249039,-0.55254304,1.5357909,1.0265493,0.7026378,-1.2608601,-0.107659,-0.021265894,-0.12407351,1.0686122,0.15206417
0.0,0.0,0.9999999999999999,0.0,0.5235987755982988,0,-0.051702533,-0.88877684,-2.2784917,-0.12938209,-0.51529634,1.5563898,0.7592877,0.7027613,-1.2620732,-0.22801171,-0.06679383,-0.034588356,1.0867653,-0.84727776
0.0,0.0,0.9999999999999999,0.0,0.5235987755982988,0,-0.050555598,-0.88861406,-2.2780209,-0.1553327,-0.53129447,1.5316731,1.1107669,0.70289737,-1.2644259,-0.20188363,0.020607099,-0.041463614,1.0900607,0.32826802
0.0,0.0,0.9999999999999999,0.0,0.5235987755982988,0,-0.049894355,-0.88824934,-2.2728326,-0.1369822,-0.46175072,1.5448697,1.0751678,0.70177317,-1.2617935,-0.14020401,-0.10867961,-0.04793537,1.0928004,0.52058595
0.0,0.0,0.9999999999999999,0.0,0.5235987755982988,0,-0.048876584,-0.8884356,-2.2792933,-0.13470535,-0.5768957,1.542969,1.006587,0.70244944,-1.2626361,-0.111301176,-0.059943497,0.098647304,1.0439832,0.15474497
0.0,0.0,0.9999999999999999,0.0,0.5235987755982988,0,-0.05092795,-0.8888671,-2.272622,-0.13798471,-0.4860147,1.5451939,0.9664146,0.70255446,-1.2614989,-0.02297314,-0.03637759,0.05075457,1.0587676,-0.4345599
0.0,0.0,0.9999999999999999,0.0,0.5235987755982988,0,-0.05051673,-0.88861895,-2.27341,-0.13427489,-0.47713682,1.5305867,0.80362535,0.70159197,-1.2615982,-0.49927709,-0.07827768,-0.026679726,1.0384779,0.9620259
0.0,0.0,0.9999999999999999,0.0,0.5235987755982988,0,-0.04783933,-0.88863593,-2.2731128,-0.14159147,-0.4977919,1.5591475,0.86373585,0.702687,-1.2642196,-0.2766332,-0.0115796365,-0.022176782,1.0829841,-1.2540959
0.0,0.0,0.9999999999999999,0.0,0.5235987755982988,0,-0.05279437,-0.8885211,-2.2735205,-0.14365353,-0.42267856,1.5300148,1.1179776,0.7021872,-1.2639447,-0.3347029,-0.026277125,0.022837752,1.0461867,-0.18667232
0.0,0.0,0.9999999999999999,0.0,0.5235987755982988,0,-0.049889393,-0.88828903,-2.266605,-0.14182602,-0.52903247,1.5443686,1.0039674,0.7021265,-1.2658973,-0.3687914,-0.06491129,-0.025574708,1.0588748,0.075159855
0.0,0.0,0.9999999999999999,0.0,0.5235987755982988,0,-0.0514241,-0.8885811,-2.2753024,-0.13455455,-0.43335027,1.5288343,0.882736,0.7027037,-1.2620423,-0.34857264,-0.064798035,-0.04645535,1.1149763,-0.47449595
0.0,0.0,0.9999999999999999,0.0,0.5235987755982988,0,-0.04800674,-0.8884431,-2.2743304,-0.121263824,-0.5035726,1.5205065,0.8919157,0.7025604,-1.2615137,-0.6934232,-0.084440336,-0.16202047,1.0897112,-0.32852918
0.0,0.0,0.9999999999999999,0.0,0.5235987755982988,0,-0.050195277,-0.88843507,-2.272492,-0.13164534,-0.48793855,1.5516157,1.103751,0.7014993,-1.262333,-0.4061999,-0.05478703,-0.18171614,1.0978376,-0.6050749
0.0,0.0,0.9999999999999999,0.0,0.5235987755982988,0,-0.047221616,-0.8883961,-2.279244,-0.11243379,-0.54816794,1.5445045,0.8528196,0.70293796,-1.2624484,-0.33098552,-0.04923011,0.047013227,1.0753415,-0.37886652
0.0,0.0,0.9999999999999999,0.0,0.5235987755982988,0,-0.050524857,-0.8887043,-2.2715125,-0.14980417,-0.4140518,1.5416261,0.8561533,0.70222497,-1.261366,-0.36295757,-0.055890825,-0.04008235,1.0994713,1.5266784
0.0,0.0,0.9999999999999999,0.0,0.5235987755982988,0,-0.04723274,-0.8886232,-2.2722774,-0.12628078,-0.48402357,1.557015,0.8509571,0.7031632,-1.261351,-0.38637322,-0.019902486,-0.14483085,1.0984855,0.56542146
0.0,0.0,0.9999999999999999,0.0,0.5235987755982988,0,-0.049879942,-0.8887184,-2.2808502,-0.14185496,-0.50921315,1.5616671,0.91451675,0.7017176,-1.2642797,-0.45730418,-0.025130054,-0.08400549,1.0457639,-0.31270054
0.0,0.0,0.9999999999999999,0.0,0.5235987755982988,0,-0.052681882,-0.8885687,-2.2759993,-0.13074309,-0.47682282,1.5669858,1.0066375,0.70421314,-1.2611363,-0.31939912,-0.049727757,-0.05238893,1.0119225,-0.6175329
0.0,0.0,0.9999999999999999,0.0,0.5235987755982988,0,-0.04864809,-0.8886946,-2.2780032,-0.109593615,-0.5594394,1.5657884,0.8979712,0.7037893,-1.259788,-0.65939665,-0.064516954,0.09340552,1.0267155,0.73090184
0.0,0.0,0.9999999999999999,0.0,0.5235987755982988,0,-0.05028548,-0.88871783,-2.272866,-0.114087075,-0.54019314,1.5671953,0.9311906,0.70310086,-1.2598596,-0.6467748,-0.044718362,-0.055247504,1.0383904,2.3247468
0.0,0.0,0.9999999999999999,0.0,0.5235987755982988,0,-0.048706286,-0.8884238,-2.2809396,-0.14124522,-0.4718482,1.5277948,0.76426476,0.7020355,-1.2621571,-0.35332188,-0.049549483,-0.09019168,1.0252111,-0.29567847
0.0,0.0,0.9999999999999999,0.0,0.5235987755982988,0,-0.053096384,-0.88857573,-2.2687492,-0.14585473,-0.43312764,1.5470978,0.9781069,0.7038023,-1.2620164,-0.20374696,-0.009412178,0.051497366,1.0485585,-0.0074030557
0.0,0.0,0.9999999999999999,0.0,0.5235987755982988,0,-0.0489056,-0.8883317,-2.2752264,-0.14176892,-0.5639959,1.5567389,1.2719656,0.70216846,-1.2613522,-0.4410524,-0.10323544,-0.036015414,1.1059446,-1.584112
0.0,0.0,0.9999999999999999,0.0,0.5235987755982988,0,-0.05046208,-0.88906753,-2.2780504,-0.13300158,-0.48875043,1.5455766,0.7127777,0.70107293,-1.2631508,-0.3981572,-0.011636593,0.13323347,1.0434783,-0.32146832
0.0,0.0,0.9999999999999999,0.0,0.5235987755982988,0,-0.052473083,-0.8887171,-2.2760794,-0.14926992,-0.55541307,1.5446966,0.9684526,0.70307225,-1.2610753,-0.33100796,-0.048230346,-0.06840726,1.1080053,0.33308783
0.0,0.0,0.9999999999999999,0.0,0.5235987755982988,0,-0.0509499,-0.88836676,-2.2785268,-0.13586293,-0.4520377,1.5432117,0.7165485,0.70159435,-1.2586514,-0.39619592,-0.14534667,-0.12281599,1.0883871,0.30005825
0.0,0.0,0.9999999999999999,0.0,0.5235987755982988,0,-0.05004511,-0.88900083,-2.2737937,-0.1224152,-0.43519205,1.5413908,0.9234462,0.7038682,-1.2613517,-0.08197576,-0.03611277,-0.057167094,1.0450987,1.3264468
0.0,0.0,0.9999999999999999,0.0,0.5235987755982988,0,-0.0517283,-0.88884556,-2.2635431,-0.13851002,-0.50296175,1.558903,0.7383852,0.70365626,-1.2590889,-0.13807254,-0.044619948,-0.037316155,1.1134878,0.058970753
0.0,0.0,0.9999999999999999,0.0,0.5235987755982988,0,-0.050334197,-0.88884425,-2.2779667,-0.13445945,-0.43453076,1.5442772,0.91156965,0.70294136,-1.26013,-0.34502476,-0.106646605,-0.058032133,1.0593003,0.2052088
0.0,0.0,0.9999999999999999,0.0,0.5235987755982988,0,-0.05082061,-0.8885842,-2.2741413,-0.14883079,-0.5086902,1.5345025,0.6668691,0.70268446,-1.2624024,-0.33380347,-0.08682134,-0.10875003,1.0504059,-0.0035366337
0.0,0.0,0.9999999999999999,0.0,0.5235987755982988,0,-0.05047227,-0.8886628,-2.2751894,-0.13438094,-0.57000273,1.5601076,0.8373168,0.7028275,-1.2612429,-0.43515664,-0.09829551,0.021506796,1.00289,0.009659043
0.0,0.0,0.9999999999999999,0.0,0.5235987755982988,0,-0.049769115,-0.88847286,-2.2773724,-0.121291555,-0.44303092,1.5336411,0.74908745,0.7027872,-1.2610418,-0.38247705,-0.07007573,-0.16179901,1.0078083,-0.48390487
0.0,0.0,0.9999999999999999,0.0,0.5235987755982988,0,-0.04916879,-0.8890477,-2.2774296,-0.107570834,-0.6046164,1.5506539,0.88558877,0.7029818,-1.2622617,-0.3409953,-0.067029804,-0.02053509,1.0458728,0.22485968
