sanky1234/BimanualDexCatch/isaacgymenvs/cem_results/football_pose_-0.2_-0.2_1.0999999999999999_0.5235987755982988_0.5235987755982988_0_2025-05-24.csv
x,y,z,roll,pitch,yaw,robot1/joint1,robot1/joint2,robot1/joint3,robot1/joint4,robot1/joint5,robot1/joint6,robot1/joint7,robot2/joint1,robot2/joint2,robot2/joint3,robot2/joint4,robot2/joint5,robot2/joint6,robot2/joint7
-0.2,-0.2,1.0999999999999999,0.5235987755982988,0.5235987755982988,0,0.086363845,-1.2909666,1.7534498,-0.3277083,0.18466486,1.270113,0.7230165,-1.2434462,0.39786467,-0.020785574,0.086878635,-0.013961475,1.0839926,-0.22440699
-0.2,-0.2,1.0999999999999999,0.5235987755982988,0.5235987755982988,0,0.08396443,-1.2844497,1.7468648,-0.3261894,0.18125038,1.2666821,0.75008804,-1.2332106,0.39919153,-0.08736243,-0.12663767,-0.14948697,1.1096133,-0.5868933
-0.2,-0.2,1.0999999999999999,0.5235987755982988,0.5235987755982988,0,0.079767466,-1.2810158,1.752884,-0.33077624,0.17823362,1.2685055,0.724894,-1.2245388,0.39843512,-0.05297851,0.024347942,-0.13326181,1.1125805,0.16796993
-0.2,-0.2,1.0999999999999999,0.5235987755982988,0.5235987755982988,0,0.08061372,-1.2871168,1.7476572,-0.32886615,0.1796523,1.2695901,0.7305897,-1.2265651,0.39240023,-0.049681555,-0.08466505,-0.19678774,1.05887,-0.44396624
-0.2,-0.2,1.0999999999999999,0.5235987755982988,0.5235987755982988,0,0.08126912,-1.288205,1.7553712,-0.32515824,0.17280604,1.2678988,0.7025998,-1.2320337,0.39478433,-0.024032101,-0.24420288,-0.048399083,0.95434743,-0.74470335
-0.2,-0.2,1.0999999999999999,0.5235987755982988,0.5235987755982988,0,0.081958145,-1.2905859,1.750871,-0.32971373,0.17589125,1.2706292,0.7072048,-1.2333057,0.41178092,-0.03474863,0.007997529,-0.1979962,0.9520122,-0.03635616
-0.2,-0.2,1.0999999999999999,0.5235987755982988,0.5235987755982988,0,0.08878837,-1.2866063,1.7551093,-0.33055744,0.18222308,1.2721695,0.71966106,-1.2343442,0.39954445,-0.004744095,-0.075458296,-0.19238758,0.9387415,-0.3117855
-0.2,-0.2,1.0999999999999999,0.5235987755982988,0.5235987755982988,0,0.08030289,-1.2862138,1.7535484,-0.3284974,0.17659189,1.2712309,0.7261376,-1.2178924,0.39247057,-0.017794698,0.016515616,-0.11781898,1.0331243,-0.4139926
-0.2,-0.2,1.0999999999999999,0.5235987755982988,0.5235987755982988,0,0.08553617,-1.2966801,1.7567906,-0.32911643,0.1826822,1.2726036,0.72339725,-1.2273877,0.39293888,-0.052365784,-0.13534348,-0.09331873,1.0475459,-0.592885
-0.2,-0.2,1.0999999999999999,0.5235987755982988,0.5235987755982988,0,0.08041714,-1.2900693,1.748627,-0.3263308,0.18402724,1.2740296,0.72015285,-1.2362086,0.40648443,-0.0947195,0.06012069,-0.2566783,1.1504203,-0.15745443
-0.2,-0.2,1.0999999999999999,0.5235987755982988,0.5235987755982988,0,0.085199185,-1.2878166,1.7486613,-0.33180058,0.1854166,1.269887,0.7343176,-1.2245122,0.4030603,-0.056820024,-0.04531442,-0.27802363,1.1430104,-0.33451143
-0.2,-0.2,1.0999999999999999,0.5235987755982988,0.5235987755982988,0,0.08163188,-1.2846471,1.7529666,-0.32616052,0.17569539,1.2701818,0.7105113,-1.2153865,0.40685454,-0.017761407,-0.057135407,-0.037558522,0.9923843,-0.6868759
-0.2,-0.2,1.0999999999999999,0.5235987755982988,0.5235987755982988,0,0.085420325,-1.2879922,1.7512882,-0.32865033,0.17812155,1.2688354,0.721878,-1.2280024,0.4028061,-0.014702908,-0.04778287,-0.13410108,1.0042092,-0.38016668
-0.2,-0.2,1.0999999999999999,0.5235987755982988,0.5235987755982988,0,0.079844154,-1.291139,1.7489805,-0.3307823,0.17833307,1.2685946,0.7139044,-1.2227097,0.39004976,-0.050643977,-0.17819297,0.10808192,1.0975558,-0.46460643
-0.2,-0.2,1.0999999999999999,0.5235987755982988,0.5235987755982988,0,0.082535535,-1.2865288,1.7542859,-0.3294377,0.17289889,1.2661886,0.71127707,-1.2271062,0.39348602,-0.04879488,-0.16469903,0.07800256,1.0980072,0.07453051
-0.2,-0.2,1.0999999999999999,0.5235987755982988,0.5235987755982988,0,0.081689045,-1.2848088,1.7519443,-0.32922092,0.18092157,1.269538,0.7127628,-1.2235206,0.38869706,-0.053569432,-0.13292235,-0.13333908,1.0836489,-1.0248615
-0.2,-0.2,1.0999999999999999,0.5235987755982988,0.5235987755982988,0,0.08073077,-1.2881104,1.747956,-0.3305545,0.17664285,1.27226,0.70582074,-1.237152,0.4027793,-0.09941151,-0.0857425,0.014390544,1.0144551,-0.34736657
-0.2,-0.2,1.0999999999999999,0.5235987755982988,0.5235987755982988,0,0.082499295,-1.288771,1.751639,-0.3308988,0.18781903,1.2668353,0.71536773,-1.2148733,0.39818612,-0.07259522,-0.15213881,0.046721015,0.99785507,-0.42284477
-0.2,-0.2,1.0999999999999999,0.5235987755982988,0.5235987755982988,0,0.082005545,-1.2882229,1.7482716,-0.32682452,0.17839873,1.271769,0.71556485,-1.2365795,0.4038694,-0.05909268,0.02688748,-0.11269226,1.1061083,-0.6770645
-0.2,-0.2,1.0999999999999999,0.5235987755982988,0.5235987755982988,0,0.08471295,-1.2864704,1.7527338,-0.32996073,0.18555853,1.2715462,0.7080728,-1.2302302,0.39652047,-0.11576024,-0.15402848,-0.20144992,1.0042231,-0.19359046
-0.2,-0.2,1.0999999999999999,0.5235987755982988,0.5235987755982988,0,0.08563109,-1.285229,1.755786,-0.3334568,0.16863558,1.2688575,0.7274631,-1.2311996,0.39946505,-0.10305795,-0.13305633,-0.08426697,1.0333468,-0.6137523
-0.2,-0.2,1.0999999999999999,0.5235987755982988,0.5235987755982988,0,0.08316598,-1.2817744,1.7480346,-0.33075604,0.17508312,1.2691888,0.7445414,-1.2410762,0.3928788,-0.02662529,-0.047575444,-0.20082942,1.1967872,-0.41997635
-0.2,-0.2,1.0999999999999999,0.5235987755982988,0.5235987755982988,0,0.08595167,-1.2877878,1.7481638,-0.3294224,0.18142487,1.2630459,0.70702493,-1.2189916,0.397171,-0.0383453,0.05012965,-0.14531228,1.0891933,-0.2987507
-0.2,-0.2,1.0999999999999999,0.5235987755982988,0.5235987755982988,0,0.085144274,-1.2877755,1.7513443,-0.32890636,0.18322402,1.2726116,0.71176624,-1.2337847,0.39150107,-0.07122967,-0.058776446,0.12881744,1.0711752,-0.22901836
-0.2,-0.2,1.0999999999999999,0.5235987755982988,0.5235987755982988,0,0.08509586,-1.2838917,1.7507828,-0.32950175,0.18392512,1.2711676,0.7294211,-1.2219665,0.3994827,-0.033539902,-0.17998765,0.016171774,1.0195037,-0.44151393
-0.2,-0.2,1.0999999999999999,0.5235987755982988,0.5235987755982988,0,0.08565522,-1.2861693,1.7514564,-0.3264051,0.17618333,1.2665703,0.6940998,-1.216874,0.40180874,-0.059134565,-0.08068918,0.21724543,1.0159707,-0.21643828
-0.2,-0.2,1.0999999999999999,0.5235987755982988,0.5235987755982988,0,0.084504314,-1.2852786,1.7521706,-0.3297411,0.18443343,1.2718245,0.7131944,-1.2278072,0.39374506,-0.063900344,-0.10264973,0.130217,1.0365194,-0.8632536
-0.2,-0.2,1.0999999999999999,0.5235987755982988,0.5235987755982988,0,0.08398302,-1.2897569,1.7513196,-0.32589987,0.17637981,1.269882,0.7158552,-1.221311,0.39206213,-0.028333811,0.011362845,-0.020432837,0.9181553,-0.028922448
-0.2,-0.2,1.0999999999999999,0.5235987755982988,0.5235987755982988,0,0.08240079,-1.2834092,1.7504952,-0.33272314,0.18266837,1.2719357,0.71624696,-1.2430152,0.40733168,-0.075610206,-0.07705814,0.23074585,0.962078,-0.2513795
-0.2,-0.2,1.0999999999999999,0.5235987755982988,0.5235987755982988,0,0.08092596,-1.2899691,1.7510581,-0.3305566,0.1768721,1.2730558,0.7307258,-1.2213182,0.40228865,-0.034226604,-0.0018344364,-0.18279363,1.1352223,-0.048337467
-0.2,-0.2,1.0999999999999999,0.5235987755982988,0.5235987755982988,0,0.08575088,-1.284547,1.7522744,-0.3315419,0.17686176,1.2722888,0.7416704,-1.2263075,0.40028453,-0.02210036,0.046261467,0.07020914,1.0793661,-0.58146596
-0.2,-0.2,1.0999999999999999,0.5235987755982988,0.5235987755982988,0,0.08158882,-1.2790095,1.7501636,-0.32488862,0.18198138,1.2698743,0.7341061,-1.2185729,0.3975486,-0.029093444,-0.19959442,-0.35531315,1.0121439,-0.67215025
-0.2,-0.2,1.0999999999999999,0.5235987755982988,0.5235987755982988,0,0.083334535,-1.2870021,1.7519805,-0.33128524,0.1809352,1.2686154,0.7292271,-1.2266419,0.40018916,-0.022967657,-0.04538212,0.02872505,0.9876099,-0.36672738
-0.2,-0.2,1.0999999999999999,0.5235987755982988,0.5235987755982988,0,0.08220188,-1.2835412,1.7522762,-0.33622277,0.17507066,1.2730337,0.7169215,-1.2223511,0.3960396,-0.030196883,-0.083678804,-0.100999065,1.0425363,-0.6399247
-0.2,-0.2,1.0999999999999999,0.5235987755982988,0.5235987755982988,0,0.0821987,-1.286915,1.754918,-0.33309102,0.1844007,1.2742368,0.70779616,-1.2290759,0.3971732,-0.0853525,-0.08153785,0.017549613,1.0845162,-0.77533656
-0.2,-0.2,1.0999999999999999,0.5235987755982988,0.5235987755982988,0,0.08509847,-1.2876083,1.7580599,-0.3295889,0.17710656,1.268599,0.72562295,-1.2356297,0.40657648,-0.036983497,-0.05192718,0.004824983,1.0220498,0.106328376
-0.2,-0.2,1.0999999999999999,0.5235987755982988,0.5235987755982988,0,0.08407861,-1.2822157,1.751542,-0.33081546,0.17847683,1.2731754,0.7410969,-1.225597,0.387401,-0.048382573,-0.09807613,0.030353198,1.0799472,-0.74844116
-0.2,-0.2,1.0999999999999999,0.5235987755982988,0.5235987755982988,0,0.080804534,-1.2888142,1.7534757,-0.32790157,0.18164577,1.2671875,0.7212307,-1.2166884,0.396296,-0.044333745,-0.0754711,-0.30921268,0.97560847,-0.5317576
-0.2,-0.2,1.0999999999999999,0.5235987755982988,0.5235987755982988,0,0.08422598,-1.2925689,1.756299,-0.32659265,0.17917539,1.2650255,0.6999891,-1.2163935,0.38746554,-0.027615843,-0.105266854,-0.21534613,1.1629208,-0.85149497
-0.2,-0.2,1.0999999999999999,0.5235987755982988,0.5235987755982988,0,0.086879425,-1.2861167,1.7504786,-0.33057487,0.1844095,1.264006,0.7106184,-1.2292247,0.40682963,-0.05425704,-0.05411598,-0.1712911,1.0721086,-0.28432176
-0.2,-0.2,1.0999999999999999,0.5235987755982988,0.5235987755982988,0,0.08661384,-1.2878355,1.7492607,-0.32848164,0.17525052,1.2706198,0.7285884,-1.2263075,0.39908144,-0.03083138,-0.057124965,-0.026140735,1.0132215,-0.8663655
-0.2,-0.2,1.0999999999999999,0.5235987755982988,0.5235987755982988,0,0.08357965,-1.2887303,1.7474118,-0.3312552,0.1857716,1.2661463,0.709481,-1.2312784,0.39478335,-0.055968273,-0.007221264,-0.2284385,1.0192487,-0.4954071
-0.2,-0.2,1.0999999999999999,0.5235987755982988,0.5235987755982988,0,0.08151476,-1.283507,1.752768,-0.32901767,0.17970745,1.2726562,0.71658397,-1.2164284,0.39651415,-0.057979856,-0.07506201,-0.08794375,1.0422156,-0.51430726
-0.2,-0.2,1.0999999999999999,0.5235987755982988,0.5235987755982988,0,0.083791845,-1.2857205,1.7521771,-0.32841742,0.18551663,1.2691537,0.6940644,-1.2137735,0.3901181,-0.025376877,0.022428721,-0.36396527,0.9276618,-0.9460673
-0.2,-0.2,1.0999999999999999,0.5235987755982988,0.5235987755982988,0,0.088322274,-1.287824,1.7586544,-0.3268079,0.18240531,1.2696382,0.7118863,-1.2320635,0.40354076,-0.083812736,-0.08654702,-0.051709842,1.0995729,-0.29134557
-0.2,-0.2,1.0999999999999999,0.5235987755982988,0.5235987755982988,0,0.081337735,-1.2869023,1.7554153,-0.32812604,0.1837601,1.2697337,0.7327281,-1.2308621,0.39366958,-0.06660582,0.0025136783,-0.13261466,1.0972729,0.09712377
-0.2,-0.2,1.0999999999999999,0.5235987755982988,0.5235987755982988,0,0.083257586,-1.2798064,1.7530599,-0.33002466,0.17840014,1.2723314,0.6999016,-1.2193319,0.40661594,-0.012036413,0.051445182,-0.099619955,0.9972671,-0.4516893
-0.2,-0.2,1.0999999999999999,0.5235987755982988,0.5235987755982988,0,0.08621412,-1.2885087,1.7513772,-0.32553998,0.17597833,1.2730623,0.7159725,-1.2403437,0.3905564,-0.0830481,-0.1430202,-0.041135278,1.0736444,-1.0077963
-0.2,-0.2,1.0999999999999999,0.5235987755982988,0.5235987755982988,0,0.08438115,-1.2924241,1.7509453,-0.32952467,0.18440841,1.2749242,0.73185134,-1.2192866,0.40099743,-0.018578354,-0.10674095,-0.12381437,1.0032406,-0.4437151
-0.2,-0.2,1.0999999999999999,0.5235987755982988,0.5235987755982988,0,0.08444794,-1.2909993,1.7512553,-0.32749915,0.17981505,1.2729278,0.7266245,-1.2273008,0.39355978,-0.040398415,-0.048667844,-0.041520696,1.02009,-0.5774098
-0.2,-0.2,1.0999999999999999,0.5235987755982988,0.5235987755982988,0,0.08336235,-1.2892277,1.7495097,-0.33100653,0.17844516,1.2697579,0.71625924,-1.224098,0.39477348,-0.09911404,-0.16042511,0.018075388,1.0870917,-0.2647814
-0.2,-0.2,1.0999999999999999,0.5235987755982988,0.5235987755982988,0,0.08572179,-1.2923511,1.7507915,-0.32613468,0.1777598,1.2731904,0.7362622,-1.2268678,0.4000486,-0.0011043224,0.01930107,0.039265625,1.1107609,0.4894004
-0.2,-0.2,1.0999999999999999,0.5235987755982988,0.5235987755982988,0,0.083828524,-1.2894708,1.752696,-0.33005783,0.18250144,1.2696495,0.7192602,-1.2215359,0.40283796,-0.044442546,0.024316883,-0.111017644,1.0336044,-0.44820628
-0.2,-0.2,1.0999999999999999,0.5235987755982988,0.5235987755982988,0,0.08272555,-1.287294,1.7521162,-0.32808384,0.1784694,1.2727269,0.742102,-1.2273625,0.40082136,-0.09378174,-0.07129193,-0.09605997,1.0533975,-0.343329
-0.2,-0.2,1.0999999999999999,0.5235987755982988,0.5235987755982988,0,0.08450847,-1.2870847,1.7469515,-0.33157837,0.18404488,1.2709944,0.728137,-1.2258765,0.39832747,-0.05194208,0.00016169323,-0.14201035,1.1613379,-1.1351895
-0.2,-0.2,1.0999999999999999,0.5235987755982988,0.5235987755982988,0,0.08604273,-1.2888218,1.7490638,-0.32472754,0.18195842,1.2733192,0.7338809,-1.2266849,0.39686367,-0.05718253,0.06620881,-0.2943726,1.0370309,-0.117147304
-0.2,-0.2,1.0999999999999999,0.5235987755982988,0.5235987755982988,0,0.0828661,-1.2844671,1.7481087,-0.3318525,0.18842131,1.2683269,0.7470649,-1.230471,0.39677075,-0.04345679,-0.141483,-0.2489023,0.9784589,-0.7998543
-0.2,-0.2,1.0999999999999999,0.5235987755982988,0.5235987755982988,0,0.08329062,-1.2886082,1.7474475,-0.33249193,0.18285666,1.2706335,0.7145455,-1.2251874,0.39989892,-0.025917448,-0.058653545,-0.0005450385,1.0052212,-0.7700123
-0.2,-0.2,1.0999999999999999,0.5235987755982988,0.5235987755982988,0,0.08202519,-1.293321,1.750379,-0.33075327,0.17865235,1.2671865,0.7361033,-1.2299669,0.4004695,-0.032929186,-0.045962114,-0.04845551,1.0737592,-1.1748216
-0.2,-0.2,1.0999999999999999,0.5235987755982988,0.5235987755982988,0,0.08041465,-1.287877,1.7532492,-0.3265779,0.17993465,1.2680961,0.71500796,-1.2254753,0.4003998,-0.026481837,-0.12823999,-0.28290558,1.1212567,-0.14033246
-0.2,-0.2,1.0999999999999999,0.5235987755982988,0.5235987755982988,0,0.083967775,-1.2841251,1.7521797,-0.33060354,0.18168713,1.2664504,0.73709035,-1.2282099,0.38967603,-0.10150569,-0.17480256,-0.036705885,1.0916548,-0.7943698
-0.2,-0.2,1.0999999999999999,0.5235987755982988,0.5235987755982988,0,0.07967993,-1.2920098,1.7496455,-0.32801357,0.17935598,1.2691189,0.7205629,-1.2239301,0.3859495,-0.07372121,-0.12388943,0.030651743,1.0852994,-0.15823884
-0.2,-0.2,1.0999999999999999,0.5235987755982988,0.5235987755982988,0,0.083266586,-1.284272,1.7508972,-0.3281458,0.1748632,1.2704229,0.73222274,-1.2336036,0.39421043,-0.059811376,-0.10306339,0.01078968,1.1273158,-0.51813865
-0.2,-0.2,1.0999999999999999,0.5235987755982988,0.5235987755982988,0,0.0895352,-1.2817504,1.7490133,-0.32877526,0.18191606,1.2688143,0.7317774,-1.2301002,0.39109653,-0.07342125,-0.12463152,0.17775135,0.9660106,-0.34683535
-0.2,-0.2,1.0999999999999999,0.5235987755982988,0.5235987755982988,0,0.08689504,-1.2862881,1.7510573,-0.33141947,0.18068357,1.2669326,0.70476115,-1.2115998,0.38449103,-0.0155296335,-0.15546983,-0.06998984,1.0319995,-0.619137
-0.2,-0.2,1.0999999999999999,0.5235987755982988,0.5235987755982988,0,0.086965956,-1.2932992,1.7476913,-0.3298065,0.1779651,1.2705767,0.7230543,-1.2433519,0.39112565,-0.057910617,-0.13745038,-0.42911533,1.0381017,-0.8381091
-0.2,-0.2,1.0999999999999999,0.5235987755982988,0.5235987755982988,0,0.083108425,-1.293647,1.7527963,-0.32551152,0.18110438,1.26689,0.72141486,-1.2253025,0.40052745,-0.04718574,-0.022002235,-0.12352128,1.2078,-0.2340666
-0.2,-0.2,1.0999999999999999,0.5235987755982988,0.5235987755982988,0,0.08383214,-1.2812618,1.7523828,-0.3268562,0.18330875,1.2689458,0.73964083,-1.2305523,0.4084683,-0.11170411,-0.09814391,-0.25317064,1.0034201,-0.93937254
-0.2,-0.2,1.0999999999999999,0.5235987755982988,0.5235987755982988,0,0.082538456,-1.2869793,1.7505069,-0.33155203,0.18469363,1.2700628,0.72285146,-1.2213289,0.39011315,-0.026737478,-0.115953945,0.24574646,0.9884821,0.21087705
-0.2,-0.2,1.0999999999999999,0.5235987755982988,0.5235987755982988,0,0.08245707,-1.2893721,1.7517908,-0.32909364,0.17949316,1.2724502,0.7158763,-1.223444,0.4011688,-0.060271163,-0.22155981,0.0689799,1.0911483,-0.6697297
-0.2,-0.2,1.0999999999999999,0.5235987755982988,0.5235987755982988,0,0.08586611,-1.288436,1.7503642,-0.33025274,0.17535172,1.2665077,0.737886,-1.2384919,0.39229065,-0.003629733,-0.10604355,-0.21355872,1.0209455,-0.23142722
-0.2,-0.2,1.0999999999999999,0.5235987755982988,0.5235987755982988,0,0.08522334,-1.2843499,1.7505586,-0.333184,0.17893146,1.2720655,0.72368175,-1.2180252,0.3893312,-0.06427621,-0.071537435,0.099482104,1.0972941,-0.73615044
-0.2,-0.2,1.0999999999999999,0.5235987755982988,0.5235987755982988,0,0.083788596,-1.2834102,1.755943,-0.32725373,0.17562655,1.2665107,0.7515092,-1.2249908,0.39753157,-0.042261377,-0.07579628,-0.16048409,0.9474949,-0.2164663
-0.2,-0.2,1.0999999999999999,0.5235987755982988,0.5235987755982988,0,0.086042985,-1.2880505,1.7516572,-0.3304099,0.17535332,1.2713178,0.72580224,-1.2366699,0.39656928,0.012898469,-0.12822722,0.05489307,1.142242,-0.34793815
-0.2,-0.2,1.0999999999999999,0.5235987755982988,0.5235987755982988,0,0.08248703,-1.2856704,1.751468,-0.32827693,0.17674512,1.2725792,0.71221274,-1.2122011,0.39696404,-0.0545313,-0.014968676,-0.21339512,1.1026553,-0.8569468
-0.2,-0.2,1.0999999999999999,0.5235987755982988,0.5235987755982988,0,0.07940249,-1.2856348,1.7504003,-0.3276146,0.18083885,1.2737421,0.7160943,-1.2322776,0.4061261,-0.06953836,-0.09029963,0.03801417,1.0764239,-0.6424796
-0.2,-0.2,1.0999999999999999,0.5235987755982988,0.5235987755982988,0,0.083299,-1.2847224,1.7495154,-0.32867774,0.18103613,1.2679336,0.72958004,-1.2313385,0.38740888,-0.014170373,-0.23869745,0.11866766,1.081415,-0.5950706
-0.2,-0.2,1.0999999999999999,0.5235987755982988,0.5235987755982988,0,0.08957821,-1.2825952,1.7541763,-0.32804897,0.18190609,1.2649548,0.72912073,-1.2388358,0.39718008,-0.04945165,-0.14953947,-0.16762175,1.1108042,-0.65649384
-0.2,-0.2,1.0999999999999999,0.5235987755982988,0.5235987755982988,0,0.082675986,-1.2885234,1.750607,-0.32943073,0.17998083,1.2697732,0.7406177,-1.2444904,0.40090352,-0.033675425,-0.04719278,-0.098371,1.1492872,-0.7967057
-0.2,-0.2,1.0999999999999999,0.5235987755982988,0.5235987755982988,0,0.08280316,-1.293952,1.7538558,-0.33071172,0.17791316,1.266872,0.7284738,-1.2272868,0.39231375,-0.057850357,-0.13898052,-0.14570647,0.87022763,-0.3641504
-0.2,-0.2,1.0999999999999999,0.5235987755982988,0.5235987755982988,0,0.08295767,-1.2885965,1.7556651,-0.32569253,0.17572694,1.2706094,0.721357,-1.2248158,0.40093488,-0.10783848,0.001783369,-0.1953084,1.011271,-0.57700324
-0.2,-0.2,1.0999999999999999,0.5235987755982988,0.5235987755982988,0,0.08099449,-1.2862451,1.750476,-0.3277291,0.17955178,1.2721949,0.74515027,-1.2383962,0.39842054,-0.019769456,-0.12302815,-0.11641332,1.0683572,-0.49526563
-0.2,-0.2,1.0999999999999999,0.5235987755982988,0.5235987755982988,0,0.08596019,-1.2866901,1.7524835,-0.32740337,0.17180744,1.2685933,0.7081818,-1.224579,0.39512593,-0.051670052,-0.025200216,-0.01749789,1.0736951,-0.74750125
-0.2,-0.2,1.0999999999999999,0.5235987755982988,0.5235987755982988,0,0.08430937,-1.2927684,1.7487695,-0.3304654,0.17539154,1.2696825,0.7226175,-1.235373,0.39871377,-0.025761135,-0.07585499,-0.26281315,1.0431701,-0.57970107
-0.2,-0.2,1.0999999999999999,0.5235987755982988,0.5235987755982988,0,0.08087631,-1.2816283,1.7551126,-0.32967573,0.18014856,1.2671915,0.70837474,-1.2304189,0.39532208,-0.060548842,-0.05586732,0.09020778,1.0171585,-0.7445066
-0.2,-0.2,1.0999999999999999,0.5235987755982988,0.5235987755982988,0,0.085545875,-1.2828137,1.7504805,-0.3274347,0.18167564,1.2707579,0.72308517,-1.230172,0.3947227,-0.050582346,-0.028791087,-0.038951434,1.0802187,-0.1510213
-0.2,-0.2,1.0999999999999999,0.5235987755982988,0.5235987755982988,0,0.083960705,-1.2894124,1.7569764,-0.32502168,0.17759243,1.2717075,0.73992705,-1.2235998,0.3974401,-0.033710063,-0.12915257,0.030094186,1.0623654,0.21469583
-0.2,-0.2,1.0999999999999999,0.5235987755982988,0.5235987755982988,0,0.08383435,-1.2835456,1.7497598,-0.3309091,0.18556958,1.2697031,0.73402464,-1.2250813,0.3925546,-0.050260417,-0.0040300465,-0.11961148,1.0911977,-0.90781975
-0.2,-0.2,1.0999999999999999,0.5235987755982988,0.5235987755982988,0,0.0888501,-1.286257,1.7571659,-0.3296515,0.18216823,1.2703148,0.73325604,-1.2327584,0.38409144,0.0021141889,-0.0016299101,0.07598543,0.9974718,-0.073448725
-0.2,-0.2,1.0999999999999999,0.5235987755982988,0.5235987755982988,0,0.08627473,-1.2908791,1.751134,-0.33165428,0.17025821,1.2677602,0.72006667,-1.2396185,0.39590874,-0.02392718,-0.17812406,-0.10146394,1.021162,-0.3196135
-0.2,-0.2,1.0999999999999999,0.5235987755982988,0.5235987755982988,0,0.08517575,-1.2902921,1.7485152,-0.32814065,0.18043071,1.2725375,0.7346576,-1.2352675,0.40640658,-0.056336373,-0.20391612,-0.076301225,1.1604213,-0.47389132
-0.2,-0.2,1.0999999999999999,0.5235987755982988,0.5235987755982988,0,0.08170568,-1.2838801,1.7510978,-0.3304253,0.1776905,1.2726113,0.71519053,-1.2313428,0.4058625,-0.1142034,-0.05909344,0.18930212,1.1276605,-0.3973998
-0.2,-0.2,1.0999999999999999,0.5235987755982988,0.5235987755982988,0,0.08354038,-1.2867279,1.7474247,-0.32912534,0.17468472,1.2695568,0.7157041,-1.2363638,0.39764532,-0.025652112,-0.0040233727,-0.10372951,1.1787888,-0.3756446
-0.2,-0.2,1.0999999999999999,0.5235987755982988,0.5235987755982988,0,0.08213302,-1.2876818,1.752726,-0.32819536,0.17271666,1.2709979,0.71561384,-1.2252463,0.3942652,-0.046904594,-0.07325131,-0.17318408,0.9993985,-0.4639646
-0.2,-0.2,1.0999999999999999,0.5235987755982988,0.5235987755982988,0,0.083401926,-1.2889578,1.7534487,-0.3294846,0.17693743,1.2683573,0.7372535,-1.2292769,0.39516333,-0.01121294,-0.023761043,-0.22782154,1.0887328,-0.26539603
-0.2,-0.2,1.0999999999999999,0.5235987755982988,0.5235987755982988,0,0.08625576,-1.291928,1.7476631,-0.32643002,0.1860193,1.2682261,0.7124934,-1.2251146,0.40497103,-0.029821772,-0.007508186,0.25603577,0.9943362,-0.05221715
-0.2,-0.2,1.0999999999999999,0.5235987755982988,0.5235987755982988,0,0.081125386,-1.2853175,1.751809,-0.3308198,0.17612515,1.2701099,0.72316796,-1.2357898,0.3892705,-0.008676424,0.041619416,-0.07481682,1.0280039,-0.14297767
-0.2,-0.2,1.0999999999999999,0.5235987755982988,0.5235987755982988,0,0.080595896,-1.285732,1.7502261,-0.32900205,0.17750733,1.2752838,0.72888637,-1.2233866,0.39267907,-0.04508551,-0.03688583,-0.037308823,1.0807047,-0.35810065
-0.2,-0.2,1.0999999999999999,0.5235987755982988,0.5235987755982988,0,0.084310494,-1.2888644,1.749183,-0.33098492,0.18202968,1.2695494,0.7082922,-1.236067,0.39670646,-0.0113928225,-0.006161758,-0.21735243,1.1413685,-0.08060597
-0.2,-0.2,1.0999999999999999,0.5235987755982988,0.5235987755982988,0,0.08150435,-1.2872617,1.7522634,-0.32358527,0.1790576,1.2643585,0.70412976,-1.2247036,0.39481035,-0.0090747895,-0.09568986,-0.12911211,1.0229278,-0.6734015
-0.2,-0.2,1.0999999999999999,0.5235987755982988,0.5235987755982988,0,0.08384232,-1.2925496,1.7457993,-0.33283865,0.18005313,1.2735852,0.73960286,-1.2309445,0.3972765,-0.02687394,-0.21266815,-0.123184785,1.1006799,-1.022317
-0.2,-0.2,1.0999999999999999,0.5235987755982988,0.5235987755982988,0,0.08319198,-1.2883396,1.7503483,-0.32969505,0.17691144,1.274331,0.7191175,-1.2389877,0.39367738,-0.08575508,-0.10964275,-0.12254777,0.94006455,-0.2962656
-0.2,-0.2,1.0999999999999999,0.5235987755982988,0.5235987755982988,0,0.08167646,-1.2882779,1.7486018,-0.33156,0.18618102,1.2711378,0.69989383,-1.228387,0.3980617,-0.070556045,-0.14726903,0.09196746,0.9690963,-0.34402245
-0.2,-0.2,1.0999999999999999,0.5235987755982988,0.5235987755982988,0,0.082801424,-1.2857016,1.7537353,-0.32663253,0.18462093,1.2696118,0.75325227,-1.2082025,0.38802174,-0.0011975293,-0.10828967,-0.08111391,1.0892597,-0.22042964
-0.2,-0.2,1.0999999999999999,0.5235987755982988,0.5235987755982988,0,0.08330508,-1.2916222,1.7545757,-0.3282343,0.17097218,1.2699968,0.7481458,-1.2278963,0.39491722,-0.04832598,-0.16020976,-0.07237652,0.9938943,0.095076375
-0.2,-0.2,1.0999999999999999,0.5235987755982988,0.5235987755982988,0,0.08531383,-1.2867655,1.7547574,-0.32624885,0.18980956,1.2692765,0.72390646,-1.2159742,0.3928959,-0.08525887,-0.09870567,-0.03475849,0.99128526,-0.12563324
-0.2,-0.2,1.0999999999999999,0.5235987755982988,0.5235987755982988,0,0.08433152,-1.2847357,1.7497004,-0.32687333,0.18092169,1.2701901,0.6961107,-1.2274287,0.39425936,-0.06144685,-0.06316621,-0.17830451,1.0135075,-0.38696858
-0.2,-0.2,1.0999999999999999,0.5235987755982988,0.5235987755982988,0,0.07929134,-1.2846663,1.7514284,-0.3287586,0.18779907,1.2705923,0.7384658,-1.2299454,0.40137225,-0.08162885,-0.103018016,0.059146352,0.9856461,-0.36102936
-0.2,-0.2,1.0999999999999999,0.5235987755982988,0.5235987755982988,0,0.08222776,-1.2861754,1.7546594,-0.32680783,0.18309328,1.2709516,0.732984,-1.2168963,0.39776254,-0.07148746,-0.17706226,-0.2902662,1.0444072,-0.4747148
-0.2,-0.2,1.0999999999999999,0.5235987755982988,0.5235987755982988,0,0.08439505,-1.2905464,1.7552038,-0.32915786,0.18107416,1.2708696,0.75293833,-1.2224885,0.4035685,-0.03841763,-0.13249576,-0.028457228,0.9393248,-0.37426302
-0.2,-0.2,1.0999999999999999,0.5235987755982988,0.5235987755982988,0,0.0867339,-1.2846491,1.7543844,-0.32854122,0.18205655,1.270264,0.71347964,-1.2325037,0.39294767,-0.04319254,-0.06553445,-0.07354745,1.053431,-1.0430456
-0.2,-0.2,1.0999999999999999,0.5235987755982988,0.5235987755982988,0,0.08074853,-1.29193,1.7566308,-0.33053407,0.17975593,1.2703671,0.73695344,-1.2148403,0.3956881,-0.077189215,-0.12732065,-0.038325276,1.1581496,-0.17443152
-0.2,-0.2,1.0999999999999999,0.5235987755982988,0.5235987755982988,0,0.085293636,-1.2854263,1.7518222,-0.3263171,0.18110445,1.2708366,0.75448406,-1.2288963,0.4036055,-0.013723255,-0.060583077,-0.16263354,1.1528285,-0.8818383
-0.2,-0.2,1.0999999999999999,0.5235987755982988,0.5235987755982988,0,0.08708233,-1.2879119,1.7527678,-0.32796928,0.18285696,1.2741194,0.747943,-1.2213329,0.40268067,-0.014766108,-0.060678646,-0.12532833,1.1199317,-0.8407019
-0.2,-0.2,1.0999999999999999,0.5235987755982988,0.5235987755982988,0,0.082223825,-1.2885436,1.7523124,-0.32991707,0.18659362,1.265466,0.7266405,-1.2216417,0.3904127,-0.023612065,-0.15807518,-0.07744867,0.9903989,-0.42527798
-0.2,-0.2,1.0999999999999999,0.5235987755982988,0.5235987755982988,0,0.083296925,-1.2902373,1.75007,-0.33072293,0.18292387,1.271873,0.72439086,-1.2172631,0.39534366,-0.040847987,-0.03015006,-0.07083337,1.1144645,-0.49292973
-0.2,-0.2,1.0999999999999999,0.5235987755982988,0.5235987755982988,0,0.086629905,-1.2922322,1.7430519,-0.32705393,0.1685186,1.2674075,0.70495903,-1.222351,0.4006747,-0.03847961,-0.004918554,-0.24790198,1.0815467,-0.800995
-0.2,-0.2,1.0999999999999999,0.5235987755982988,0.5235987755982988,0,0.08287677,-1.2903403,1.7542615,-0.32665166,0.18383741,1.2698914,0.75198525,-1.2350388,0.40461367,-0.028579088,-0.09812281,-0.05324416,0.9976489,-0.6987208
-0.2,-0.2,1.0999999999999999,0.5235987755982988,0.5235987755982988,0,0.084535114,-1.2915847,1.7498242,-0.3323353,0.17859332,1.2695403,0.69596475,-1.232962,0.39654973,-0.07144519,0.024490643,-0.006422993,1.0714067,-1.106381
-0.2,-0.2,1.0999999999999999,0.5235987755982988,0.5235987755982988,0,0.080367476,-1.2864922,1.75068,-0.3276082,0.18822598,1.2712369,0.7398999,-1.2298113,0.4036119,-0.070047915,-0.07247725,-0.06575102,1.0243934,0.1785553
-0.2,-0.2,1.0999999999999999,0.5235987755982988,0.5235987755982988,0,0.08420859,-1.2868685,1.7547565,-0.32965264,0.17819926,1.2677417,0.72020286,-1.2222747,0.3956457,-0.04520691,-0.016965995,0.079101205,1.0382377,-0.41370606
-0.2,-0.2,1.0999999999999999,0.5235987755982988,0.5235987755982988,0,0.08347157,-1.2877508,1.7538717,-0.3320764,0.18044356,1.2686317,0.7175608,-1.2363063,0.4007483,0.0021143667,0.075050645,-0.009191583,1.0974915,-0.6086071
-0.2,-0.2,1.0999999999999999,0.5235987755982988,0.5235987755982988,0,0.08446457,-1.2835389,1.7498958,-0.33058363,0.17945729,1.2714298,0.71628714,-1.2384983,0.3898765,-0.0587974,-0.12880458,0.04687739,1.0815238,-0.331911
-0.2,-0.2,1.0999999999999999,0.5235987755982988,0.5235987755982988,0,0.08390132,-1.2854285,1.7512298,-0.3286606,0.1788315,1.266946,0.7027278,-1.2356691,0.3845342,-0.016378831,-0.13235508,-0.25956276,1.0825725,-0.64357066
-0.2,-0.2,1.0999999999999999,0.5235987755982988,0.5235987755982988,0,0.08443628,-1.2871938,1.7522099,-0.33045754,0.18263765,1.2713412,0.72988266,-1.2218988,0.39242643,-0.06365746,-0.084743574,-0.05889109,0.9893003,-0.6653331
-0.2,-0.2,1.0999999999999999,0.5235987755982988,0.5235987755982988,0,0.08433474,-1.2823621,1.753526,-0.32768363,0.17086479,1.2678362,0.72613585,-1.2383081,0.39565292,-0.017063681,-0.028713616,-0.35975832,1.1461138,-0.64397955
-0.2,-0.2,1.0999999999999999,0.5235987755982988,0.5235987755982988,0,0.08474981,-1.2871952,1.7496173,-0.33168802,0.17932492,1.2697884,0.73275065,-1.2356577,0.39449283,-0.07869501,0.11322538,0.12253658,1.0478522,-0.23738639
-0.2,-0.2,1.0999999999999999,0.5235987755982988,0.5235987755982988,0,0.08422726,-1.288286,1.7521347,-0.32577717,0.17516492,1.2728922,0.7181247,-1.2222106,0.39258787,-0.04534351,-0.18720196,-0.21335039,1.04355,-0.53283066
-0.2,-0.2,1.0999999999999999,0.5235987755982988,0.5235987755982988,0,0.08471948,-1.2948217,1.7510604,-0.32835725,0.17808771,1.2687,0.73523754,-1.2352954,0.40264654,-0.052346155,-0.08628902,-0.23057377,1.0711619,-0.26344925
-0.2,-0.2,1.0999999999999999,0.5235987755982988,0.5235987755982988,0,0.08291502,-1.2932675,1.7538956,-0.32719794,0.17765689,1.2683654,0.7107836,-1.2268667,0.40020004,-0.053560324,-0.21008277,-0.3268042,1.1187801,-0.5699542
-0.2,-0.2,1.0999999999999999,0.5235987755982988,0.5235987755982988,0,0.08684512,-1.2892233,1.7519433,-0.3252939,0.17766722,1.2678926,0.7347727,-1.2283976,0.40213293,-0.029182004,-0.0033950945,-0.090062864,1.024437,-0.83776397
-0.2,-0.2,1.0999999999999999,0.5235987755982988,0.5235987755982988,0,0.08508994,-1.2855327,1.7517482,-0.32959807,0.17728351,1.2734295,0.7413985,-1.2299972,0.39129424,-0.01394399,-0.12527485,0.09329663,1.0090431,-0.46313426
-0.2,-0.2,1.0999999999999999,0.5235987755982988,0.5235987755982988,0,0.08309847,-1.2848928,1.7518727,-0.3296747,0.18427409,1.2698126,0.7370485,-1.2371624,0.40402737,-0.005363136,-0.13957256,-0.29539326,1.0090683,-0.22039641
-0.2,-0.2,1.0999999999999999,0.5235987755982988,0.5235987755982988,0,0.08021742,-1.2934675,1.7519472,-0.32634452,0.1799837,1.2685839,0.731439,-1.2334204,0.39989182,-0.03018822,-0.06231906,-0.13004279,1.0283904,-0.2312322
-0.2,-0.2,1.0999999999999999,0.5235987755982988,0.5235987755982988,0,0.087505944,-1.2850609,1.7529912,-0.3244936,0.1803846,1.2697182,0.72543395,-1.218975,0.39472136,-0.120717265,0.017624328,-0.053633254,1.0259496,-0.64396507
-0.2,-0.2,1.0999999999999999,0.5235987755982988,0.5235987755982988,0,0.084622,-1.2913376,1.751765,-0.32485193,0.18417926,1.2750179,0.7285661,-1.2121019,0.38473266,-0.031711824,0.0645928,-0.2856435,1.1000732,-0.15567298
-0.2,-0.2,1.0999999999999999,0.5235987755982988,0.5235987755982988,0,0.084538184,-1.283991,1.7537758,-0.33146438,0.18163341,1.2708071,0.7344205,-1.2280139,0.397032,-0.062384106,-0.15234198,-0.108605236,1.0189792,-0.44079953
-0.2,-0.2,1.0999999999999999,0.5235987755982988,0.5235987755982988,0,0.08736781,-1.2856388,1.7471095,-0.33090103,0.1863085,1.2691498,0.7024185,-1.2326901,0.3979279,-0.04083522,0.14864793,-0.041604556,1.0230505,-0.2205646
-0.2,-0.2,1.0999999999999999,0.5235987755982988,0.5235987755982988,0,0.08583628,-1.283573,1.7524382,-0.33111444,0.18093227,1.27,0.7207869,-1.2298524,0.39091977,-0.041694723,-0.13612007,-0.23242123,1.00141,-0.092698514
-0.2,-0.2,1.0999999999999999,0.5235987755982988,0.5235987755982988,0,0.086392485,-1.2838181,1.749742,-0.3345209,0.18481489,1.2739396,0.7274058,-1.2235992,0.39228553,-0.0070509138,-0.082748905,-0.2753361,1.0426267,-0.55404127
-0.2,-0.2,1.0999999999999999,0.5235987755982988,0.5235987755982988,0,0.08135476,-1.2851925,1.7521982,-0.3289939,0.1825999,1.2684633,0.7103095,-1.2237493,0.39576477,-0.084766485,0.045436345,-0.14790115,1.0077518,-0.4662486
-0.2,-0.2,1.0999999999999999,0.5235987755982988,0.5235987755982988,0,0.08716609,-1.29109,1.7454599,-0.32771042,0.18150447,1.2719475,0.7223586,-1.238594,0.39388123,-0.07274996,0.061779097,-0.026536372,1.005164,-0.5788137
-0.2,-0.2,1.0999999999999999,0.5235987755982988,0.5235987755982988,0,0.08311959,-1.2840756,1.7541949,-0.32550433,0.17960934,1.2718012,0.6966774,-1.2266579,0.40318617,-0.0015166168,0.058105312,-0.20305237,0.9418926,-0.11060592
-0.2,-0.2,1.0999999999999999,0.5235987755982988,0.5235987755982988,0,0.08362822,-1.2916038,1.7521416,-0.32963946,0.17533393,1.2714515,0.72275424,-1.2295079,0.39220506,-0.036645405,-0.11442446,-0.14674957,1.094005,-0.35447723
-0.2,-0.2,1.0999999999999999,0.5235987755982988,0.5235987755982988,0,0.082257584,-1.2874005,1.750555,-0.3302654,0.18562934,1.2708668,0.7182311,-1.2368696,0.39823657,-0.028760552,-0.017399022,0.13888124,1.1060729,-0.4165081
-0.2,-0.2,1.0999999999999999,0.5235987755982988,0.5235987755982988,0,0.08319497,-1.2857525,1.7511849,-0.32729995,0.18724535,1.2708514,0.7097102,-1.2356671,0.40490562,-0.026553044,-0.14208096,0.15235394,1.0624592,0.11321188
-0.2,-0.2,1.0999999999999999,0.5235987755982988,0.5235987755982988,0,0.08595939,-1.2877029,1.7535154,-0.33101714,0.18854412,1.266331,0.7172322,-1.2298913,0.40767598,-0.043580458,-0.030091742,-0.20818052,1.0772913,-0.42815778
-0.2,-0.2,1.0999999999999999,0.5235987755982988,0.5235987755982988,0,0.084309325,-1.287605,1.7512717,-0.32782882,0.17771068,1.2728075,0.702974,-1.2440885,0.40510303,-0.053875353,-0.107455455,-0.15863344,1.074224,-0.184402
-0.2,-0.2,1.0999999999999999,0.5235987755982988,0.5235987755982988,0,0.085053794,-1.2883254,1.7521358,-0.32610118,0.18240128,1.2696835,0.740753,-1.2285223,0.3878068,-0.033428047,-0.19158012,-0.1547138,0.9999645,-0.595315
-0.2,-0.2,1.0999999999999999,0.5235987755982988,0.5235987755982988,0,0.082566775,-1.2907901,1.7509624,-0.3284052,0.18003462,1.2707825,0.7168319,-1.2314808,0.40061992,-0.04279436,-0.06307834,-0.059180953,1.0317262,-0.5514452
-0.2,-0.2,1.0999999999999999,0.5235987755982988,0.5235987755982988,0,0.08259953,-1.290808,1.7513518,-0.32530212,0.17537151,1.2735609,0.74516845,-1.2237923,0.38983658,-0.017132813,-0.15593646,0.0009600025,1.1323909,-0.41779327
-0.2,-0.2,1.0999999999999999,0.5235987755982988,0.5235987755982988,0,0.0839938,-1.2823384,1.752745,-0.3272591,0.18087266,1.2739798,0.71477425,-1.2343811,0.39776653,0.0042739725,-0.018688567,-0.34347075,1.0142446,-0.63438404
-0.2,-0.2,1.0999999999999999,0.5235987755982988,0.5235987755982988,0,0.0815508,-1.2870672,1.7520674,-0.33158687,0.1827657,1.2695295,0.74453884,-1.2275271,0.3948466,0.007017287,-0.057660405,-0.18909708,1.0554367,-0.53002137
-0.2,-0.2,1.0999999999999999,0.5235987755982988,0.5235987755982988,0,0.08393246,-1.2890924,1.7524941,-0.3309601,0.18516083,1.2690041,0.72927105,-1.2239431,0.41089267,-0.04301718,-0.045021422,-0.19566727,1.1394788,0.359661
-0.2,-0.2,1.0999999999999999,0.5235987755982988,0.5235987755982988,0,0.07876686,-1.2827001,1.7560905,-0.32972077,0.18272907,1.2692205,0.72295415,-1.2264376,0.39169288,-0.0134025775,-0.12145765,0.018971484,1.0987797,-0.31404614
-0.2,-0.2,1.0999999999999999,0.5235987755982988,0.5235987755982988,0,0.08289087,-1.289874,1.7524207,-0.3302256,0.17991075,1.2698181,0.73491794,-1.2285365,0.39372253,-0.05567471,-0.03185706,-0.0012953191,1.0794252,-0.3493653
-0.2,-0.2,1.0999999999999999,0.5235987755982988,0.5235987755982988,0,0.08288623,-1.2883253,1.7534939,-0.32841495,0.17822312,1.272652,0.7176396,-1.2265776,0.40071172,-0.05285228,-0.03001336,-0.096650876,0.9839594,-0.44768637
-0.2,-0.2,1.0999999999999999,0.5235987755982988,0.5235987755982988,0,0.08708911,-1.2905582,1.7511871,-0.3277101,0.18328021,1.2697345,0.71810013,-1.2257657,0.40197444,-0.04523308,-0.030746175,-0.039138574,0.9867345,-0.5779512
-0.2,-0.2,1.0999999999999999,0.5235987755982988,0.5235987755982988,0,0.08036027,-1.2874393,1.7529364,-0.33161023,0.18365131,1.2742499,0.705502,-1.225838,0.4019475,-0.037726197,-0.0676159,0.011667881,1.0392444,-0.37641475
-0.2,-0.2,1.0999999999999999,0.5235987755982988,0.5235987755982988,0,0.08269847,-1.2872335,1.7515516,-0.32799095,0.17686296,1.2692251,0.7594882,-1.2278495,0.3920773,0.0003110738,-0.030723799,-0.03056909,1.1065342,-0.38005248
-0.2,-0.2,1.0999999999999999,0.5235987755982988,0.5235987755982988,0,0.0822438,-1.2896922,1.7521653,-0.3327571,0.17783257,1.2742797,0.7240914,-1.2282108,0.39422393,-0.029099556,-0.14978376,-0.15455712,1.1452312,-0.11272616
-0.2,-0.2,1.0999999999999999,0.5235987755982988,0.5235987755982988,0,0.0876746,-1.289952,1.7501341,-0.32715744,0.1801462,1.2697796,0.71563685,-1.2269009,0.3926993,-0.07930053,0.10584751,0.20337215,1.0374812,-0.27251834
-0.2,-0.2,1.0999999999999999,0.5235987755982988,0.5235987755982988,0,0.08186147,-1.2882025,1.751989,-0.33236945,0.18011072,1.2739007,0.7020118,-1.2277933,0.399012,-0.06467143,-0.10549125,-0.15104814,1.0806347,-0.76864797
-0.2,-0.2,1.0999999999999999,0.5235987755982988,0.5235987755982988,0,0.08626983,-1.2792158,1.7539315,-0.3272019,0.18422633,1.270081,0.70712394,-1.2283145,0.39641485,-0.042422254,-0.15950562,-0.13225445,0.99172777,-0.76806235
-0.2,-0.2,1.0999999999999999,0.5235987755982988,0.5235987755982988,0,0.08024586,-1.2914608,1.7542785,-0.32811365,0.18029165,1.2660738,0.7376269,-1.2244222,0.3953413,-0.07664959,-0.043896016,0.059898492,1.0141851,-0.31350064
-0.2,-0.2,1.0999999999999999,0.5235987755982988,0.5235987755982988,0,0.08455819,-1.2882985,1.7565392,-0.32781154,0.17828369,1.2690334,0.71201247,-1.2222644,0.39836812,-0.08915159,-0.17851649,-0.1345179,1.1193061,-0.40984356
-0.2,-0.2,1.0999999999999999,0.5235987755982988,0.5235987755982988,0,0.083126076,-1.2859092,1.7528363,-0.32259458,0.18015249,1.2687303,0.7308022,-1.2458963,0.40164092,-0.061920043,-0.10310861,-0.04686186,1.1300267,0.086095296
-0.2,-0.2,1.0999999999999999,0.5235987755982988,0.5235987755982988,0,0.08240491,-1.2881614,1.7548165,-0.33007497,0.18191312,1.2697171,0.71906716,-1.2202113,0.40385205,-0.10937746,-0.04796298,-0.25860858,1.0664126,-0.25174236
-0.2,-0.2,1.0999999999999999,0.5235987755982988,0.5235987755982988,0,0.0813953,-1.2905266,1.7517642,-0.32405758,0.17742021,1.2713883,0.7294282,-1.2185425,0.3992039,-0.07248388,-0.015048091,-0.10975035,0.9610596,-0.6658579
-0.2,-0.2,1.0999999999999999,0.5235987755982988,0.5235987755982988,0,0.079885796,-1.2879398,1.752719,-0.3296258,0.18217951,1.2696775,0.739206,-1.2251352,0.39728707,-0.07456782,0.013034328,0.0072068684,1.1423748,-0.84643555
-0.2,-0.2,1.0999999999999999,0.5235987755982988,0.5235987755982988,0,0.082090534,-1.2833221,1.75168,-0.33229873,0.18422897,1.2711517,0.7152844,-1.2255176,0.39399955,-0.08533062,-0.101511426,0.007265569,1.0820749,-0.40025404
-0.2,-0.2,1.0999999999999999,0.5235987755982988,0.5235987755982988,0,0.08293994,-1.2888572,1.7531363,-0.32979,0.1794937,1.2746737,0.7155045,-1.2430582,0.38752276,-0.0032826753,-0.018508479,-0.25314736,1.0414543,-0.29151222
-0.2,-0.2,1.0999999999999999,0.5235987755982988,0.5235987755982988,0,0.083308086,-1.292876,1.7514595,-0.32458502,0.1821261,1.2712268,0.7202267,-1.2123332,0.3931618,-0.05109603,-0.049045753,-0.20147872,0.967417,-0.8285867
-0.2,-0.2,1.0999999999999999,0.5235987755982988,0.5235987755982988,0,0.08658087,-1.2940484,1.7482833,-0.32830948,0.18117522,1.2681243,0.70632404,-1.2220131,0.38777763,-0.07979438,-0.050910313,0.084928654,1.0608058,-0.62483585
-0.2,-0.2,1.0999999999999999,0.5235987755982988,0.5235987755982988,0,0.08706104,-1.2857186,1.7511503,-0.3281629,0.1877946,1.2705895,0.7226906,-1.2366297,0.40121347,-0.08005038,-0.00014929402,0.039572485,0.9125209,-0.4556579
-0.2,-0.2,1.0999999999999999,0.5235987755982988,0.5235987755982988,0,0.0831411,-1.2857385,1.7558635,-0.3301721,0.18459499,1.2669126,0.7195309,-1.2391484,0.40656307,-0.050417893,-0.043136895,-0.07764374,1.1308613,-0.57986015
-0.2,-0.2,1.0999999999999999,0.5235987755982988,0.5235987755982988,0,0.08507992,-1.2910614,1.7542351,-0.3294986,0.18097441,1.2694129,0.7593239,-1.2092735,0.40201268,-0.059906237,0.07939629,-0.04168087,1.0800078,-0.3375979
-0.2,-0.2,1.0999999999999999,0.5235987755982988,0.5235987755982988,0,0.08718051,-1.29059,1.7504611,-0.32648253,0.18212934,1.2717621,0.69689256,-1.2218103,0.40003902,-0.027000265,-0.06877725,-0.09870322,1.0227858,-0.0071977265
-0.2,-0.2,1.0999999999999999,0.5235987755982988,0.5235987755982988,0,0.08305574,-1.2848297,1.7510992,-0.325598,0.18302234,1.2700686,0.7113202,-1.2185787,0.39694816,-0.087178424,0.035933837,0.08590949,1.0387855,0.17756808
-0.2,-0.2,1.0999999999999999,0.5235987755982988,0.5235987755982988,0,0.0831472,-1.2872864,1.7535864,-0.32903126,0.18314084,1.2679065,0.7153766,-1.2243946,0.3955128,-0.0036992528,-0.15498285,-0.22870679,0.9971557,-0.82918763
-0.2,-0.2,1.0999999999999999,0.5235987755982988,0.5235987755982988,0,0.08384777,-1.2889757,1.7504438,-0.32653454,0.18310034,1.2725487,0.72504133,-1.2300761,0.39614135,-0.065755,0.0302819,-0.2281883,1.0041621,-0.34412122
-0.2,-0.2,1.0999999999999999,0.5235987755982988,0.5235987755982988,0,0.087320894,-1.2860413,1.7498592,-0.32765657,0.17892529,1.2703037,0.7525483,-1.222043,0.40447578,-0.038856905,-0.10018677,-0.16345285,1.0817873,-0.4739892
-0.2,-0.2,1.0999999999999999,0.5235987755982988,0.5235987755982988,0,0.083607025,-1.2919443,1.7520798,-0.32765526,0.18338628,1.2702812,0.7242147,-1.2261449,0.39277154,-0.042428564,-0.17454799,0.11958547,1.012564,-0.08145007
-0.2,-0.2,1.0999999999999999,0.5235987755982988,0.5235987755982988,0,0.082884885,-1.2903255,1.7556903,-0.3250852,0.1776716,1.2738881,0.7232118,-1.2285783,0.39785382,-0.04884461,-0.10756177,-0.21820216,1.1324008,-0.5882209
-0.2,-0.2,1.0999999999999999,0.5235987755982988,0.5235987755982988,0,0.08683054,-1.2858905,1.7520518,-0.32839704,0.17639807,1.2679371,0.72241604,-1.2372074,0.39151567,-0.057804085,-0.051481538,0.024084048,1.1279268,-0.49925533
-0.2,-0.2,1.0999999999999999,0.5235987755982988,0.5235987755982988,0,0.08753981,-1.2856948,1.7522916,-0.32758975,0.18421772,1.2677463,0.70838976,-1.2350336,0.4013544,-0.056638017,0.042057805,-0.045160614,0.9668115,-0.6222093
-0.2,-0.2,1.0999999999999999,0.5235987755982988,0.5235987755982988,0,0.08049293,-1.29141,1.7545205,-0.3263852,0.1823611,1.2650702,0.7462849,-1.2225357,0.40308985,-0.04303107,0.06941385,0.072515644,1.1077824,-0.37750313
-0.2,-0.2,1.0999999999999999,0.5235987755982988,0.5235987755982988,0,0.086760536,-1.2890499,1.7564694,-0.33338425,0.17782822,1.2676736,0.7181926,-1.2209934,0.40500882,-0.06495272,-0.03948174,-0.14840765,1.0336977,-0.039153423
-0.2,-0.2,1.0999999999999999,0.5235987755982988,0.5235987755982988,0,0.0844731,-1.2828112,1.7572085,-0.33287868,0.18446685,1.2728585,0.74250245,-1.2124368,0.38966104,-0.0061963643,-0.07244565,-0.19278713,1.0543516,-0.3816253
-0.2,-0.2,1.0999999999999999,0.5235987755982988,0.5235987755982988,0,0.08330194,-1.2934095,1.7516104,-0.32762814,0.17757589,1.2682003,0.7090358,-1.2374128,0.38792014,-0.026967693,-0.040360317,0.009460439,1.0355037,-0.45746383
-0.2,-0.2,1.0999999999999999,0.5235987755982988,0.5235987755982988,0,0.087926686,-1.2878836,1.7528286,-0.32763016,0.17941155,1.2737174,0.71727604,-1.2137372,0.39397424,-0.030451017,-0.1091392,-0.27989322,1.2020164,-0.6286234
-0.2,-0.2,1.0999999999999999,0.5235987755982988,0.5235987755982988,0,0.08387966,-1.2901773,1.7564166,-0.33018145,0.1739337,1.2753335,0.7315768,-1.2157885,0.39407972,-0.07875855,-0.040602345,0.14886792,1.0529877,-0.57295895
-0.2,-0.2,1.0999999999999999,0.5235987755982988,0.5235987755982988,0,0.08488676,-1.2866808,1.7530836,-0.32911238,0.17742792,1.2720544,0.7146541,-1.2343639,0.40083858,-0.082970105,-0.009256467,-0.05519647,1.1358069,0.061720323
-0.2,-0.2,1.0999999999999999,0.5235987755982988,0.5235987755982988,0,0.084870584,-1.2915112,1.7538658,-0.3269745,0.18117262,1.2682137,0.725876,-1.2379516,0.39907625,0.010261841,-0.009451029,-0.1735103,1.0490917,-0.4355659
-0.2,-0.2,1.0999999999999999,0.5235987755982988,0.5235987755982988,0,0.08295277,-1.286924,1.7483344,-0.32574153,0.17534979,1.2664987,0.7201728,-1.2260784,0.39307582,-0.09081549,-0.003974791,-0.27439812,1.1374393,-0.11645724
-0.2,-0.2,1.0999999999999999,0.5235987755982988,0.5235987755982988,0,0.079384714,-1.285733,1.7557228,-0.3291814,0.1784996,1.2716337,0.7405287,-1.2187409,0.40397656,-0.019856608,0.011666292,-0.39361495,1.0469494,0.10583403
-0.2,-0.2,1.0999999999999999,0.5235987755982988,0.5235987755982988,0,0.083545275,-1.2909187,1.7544613,-0.32971546,0.18213014,1.2705954,0.7202555,-1.2298094,0.4012297,-0.045138434,-0.09884526,-0.060074892,1.0048163,-0.35680485
-0.2,-0.2,1.0999999999999999,0.5235987755982988,0.5235987755982988,0,0.08499248,-1.2854717,1.7550654,-0.3320748,0.18035768,1.2701243,0.69998205,-1.2177154,0.39719915,-0.016505206,-0.09228945,-0.21046856,0.99732715,-0.51172805
-0.2,-0.2,1.0999999999999999,0.5235987755982988,0.5235987755982988,0,0.08813167,-1.2857554,1.7534673,-0.32819209,0.17931925,1.2720048,0.73727614,-1.2375426,0.40173742,-0.030241096,0.15705347,-0.08728992,1.0342441,-0.55630034
-0.2,-0.2,1.0999999999999999,0.5235987755982988,0.5235987755982988,0,0.08538593,-1.2892644,1.7508917,-0.3273511,0.1800671,1.271111,0.7078737,-1.2260973,0.39739046,-0.08859102,-0.070529856,-0.15410288,0.9662213,-0.47017604
-0.2,-0.2,1.0999999999999999,0.5235987755982988,0.5235987755982988,0,0.08537763,-1.295115,1.7505645,-0.3285898,0.1823905,1.2708782,0.73160523,-1.2278707,0.39492387,-0.05066282,-0.11434694,-0.23489833,1.0834486,-0.08972816
-0.2,-0.2,1.0999999999999999,0.5235987755982988,0.5235987755982988,0,0.08672122,-1.2940975,1.7539682,-0.33107898,0.17927386,1.2705162,0.71630085,-1.2127284,0.39541978,-0.02698432,-0.07231874,0.014751199,1.0895345,-0.5467254
-0.2,-0.2,1.0999999999999999,0.5235987755982988,0.5235987755982988,0,0.08210653,-1.2873331,1.7525977,-0.33035782,0.18524206,1.2686591,0.72625357,-1.2308514,0.39217132,0.017222624,-0.08792809,-0.104658194,1.0208995,-0.14092235
-0.2,-0.2,1.0999999999999999,0.5235987755982988,0.5235987755982988,0,0.08211085,-1.2922561,1.7529353,-0.33156076,0.18241127,1.273924,0.7233689,-1.2205566,0.3978276,-0.052987806,0.030842843,-0.15634999,1.0088499,0.63833666
-0.2,-0.2,1.0999999999999999,0.5235987755982988,0.5235987755982988,0,0.082384616,-1.2853261,1.7573743,-0.32992873,0.17721418,1.2722768,0.7156489,-1.2310231,0.3906484,-0.027870066,-0.11292794,0.17731926,1.0870641,-0.18484326
-0.2,-0.2,1.0999999999999999,0.5235987755982988,0.5235987755982988,0,0.083904944,-1.2897601,1.7541069,-0.32966375,0.18025674,1.2743993,0.7255713,-1.2280066,0.4065432,0.005740829,-0.09037572,-0.09742673,1.0502042,-0.58151245
-0.2,-0.2,1.0999999999999999,0.5235987755982988,0.5235987755982988,0,0.08406505,-1.2914921,1.7541907,-0.3284391,0.18204497,1.2668029,0.72251797,-1.2320304,0.39036602,-0.05222014,-0.16946027,-0.1979613,1.058654,-0.8616105
-0.2,-0.2,1.0999999999999999,0.5235987755982988,0.5235987755982988,0,0.086762086,-1.2933698,1.7549677,-0.32903138,0.18254174,1.2726595,0.7536348,-1.2147031,0.3964954,-0.051711872,-0.00808473,-0.094186775,1.0367072,-0.38062376
-0.2,-0.2,1.0999999999999999,0.5235987755982988,0.5235987755982988,0,0.08452006,-1.2879759,1.754191,-0.3275528,0.17726935,1.2720429,0.7108313,-1.224963,0.3935173,-0.015716173,-0.19095963,-0.21694563,1.0546684,-0.68174386
-0.2,-0.2,1.0999999999999999,0.5235987755982988,0.5235987755982988,0,0.080818616,-1.2896754,1.7521755,-0.3255786,0.17923898,1.2737461,0.74374634,-1.2169307,0.40161824,-0.036908746,0.03364174,-0.0615412,0.99374837,-0.7246682
-0.2,-0.2,1.0999999999999999,0.5235987755982988,0.5235987755982988,0,0.083202004,-1.2898129,1.7550459,-0.3294303,0.17784534,1.2745303,0.70636016,-1.2354623,0.38702083,-0.037649028,-0.054011088,-0.27713186,1.0332572,-0.2925631
-0.2,-0.2,1.0999999999999999,0.5235987755982988,0.5235987755982988,0,0.08638109,-1.2948416,1.7532346,-0.33063257,0.17044437,1.2732306,0.7127525,-1.2256438,0.3958065,0.0002159249,-0.055146717,0.037303783,1.0392771,-0.72067535
-0.2,-0.2,1.0999999999999999,0.5235987755982988,0.5235987755982988,0,0.08537164,-1.2841384,1.7529854,-0.32795802,0.1773831,1.2677418,0.72666705,-1.2237908,0.39993885,-0.04721371,0.058088128,-0.07249894,1.0896391,-0.35918912
-0.2,-0.2,1.0999999999999999,0.5235987755982988,0.5235987755982988,0,0.086051315,-1.2877514,1.7501575,-0.32937825,0.18119343,1.2738457,0.7060457,-1.2265894,0.39441594,-0.04040242,-0.044016216,0.08709057,1.108334,-0.6843575
-0.2,-0.2,1.0999999999999999,0.5235987755982988,0.5235987755982988,0,0.081925556,-1.2937605,1.754384,-0.3292438,0.18581714,1.2703915,0.73051745,-1.2281427,0.4085149,-0.060661327,-0.21062292,-0.14115183,1.135313,-0.047055718
-0.2,-0.2,1.0999999999999999,0.5235987755982988,0.5235987755982988,0,0.08486195,-1.2902651,1.758683,-0.3276353,0.17822845,1.2699392,0.70568895,-1.224024,0.39113396,-0.06060901,0.014957493,0.014438595,1.0218427,-0.86987835
-0.2,-0.2,1.0999999999999999,0.5235987755982988,0.5235987755982988,0,0.085279666,-1.2941408,1.7536032,-0.33152023,0.18117665,1.272334,0.74235106,-1.2246367,0.38914877,-0.057642136,-0.17998122,-0.07987578,1.0716089,-0.32010347
-0.2,-0.2,1.0999999999999999,0.5235987755982988,0.5235987755982988,0,0.08534862,-1.2905382,1.7540674,-0.3262184,0.1835946,1.2678046,0.70127976,-1.2152351,0.39511192,-0.033618778,-0.010273354,-0.019914232,1.0115902,-0.67728645
-0.2,-0.2,1.0999999999999999,0.5235987755982988,0.5235987755982988,0,0.08828914,-1.2918309,1.7504296,-0.3222649,0.18140851,1.2720419,0.72945905,-1.2109395,0.38878885,-0.02765448,-0.057784293,-0.06363477,0.9650397,-0.37718764
-0.2,-0.2,1.0999999999999999,0.5235987755982988,0.5235987755982988,0,0.088266775,-1.2876081,1.7511135,-0.32865638,0.18104295,1.2695224,0.7229784,-1.2267523,0.38671732,-0.053160712,-0.09098183,-0.113899454,1.083926,0.023353983
-0.2,-0.2,1.0999999999999999,0.5235987755982988,0.5235987755982988,0,0.08441227,-1.2897185,1.7529141,-0.32365894,0.18209273,1.269029,0.74205244,-1.2340646,0.39142182,-0.02512013,-0.10144963,-0.07123771,0.94695795,-0.9962458
-0.2,-0.2,1.0999999999999999,0.5235987755982988,0.5235987755982988,0,0.08636361,-1.2937632,1.7539678,-0.3288601,0.18255575,1.2637872,0.72635955,-1.2394897,0.39988345,-0.100745864,0.006960381,0.11648419,1.1259824,-0.27658617
-0.2,-0.2,1.0999999999999999,0.5235987755982988,0.5235987755982988,0,0.08636604,-1.2856923,1.7493223,-0.33135736,0.18298945,1.2710427,0.7370276,-1.2381971,0.40470952,0.0011755477,-0.076981254,-0.14524275,1.0750136,-0.7259851
-0.2,-0.2,1.0999999999999999,0.5235987755982988,0.5235987755982988,0,0.08379865,-1.2841176,1.755706,-0.3262365,0.18264927,1.2680285,0.71147925,-1.2303195,0.39887795,-0.015124059,-0.14867908,0.0017894079,1.0475943,-0.40910104
-0.2,-0.2,1.0999999999999999,0.5235987755982988,0.5235987755982988,0,0.08949734,-1.287214,1.7552401,-0.32656953,0.17753631,1.2688924,0.7175328,-1.2260959,0.39506876,-0.011582625,-0.19124772,-0.062194705,1.0527493,-0.6205922
-0.2,-0.2,1.0999999999999999,0.5235987755982988,0.5235987755982988,0,0.09169011,-1.2885767,1.7509502,-0.32871795,0.17503484,1.2732826,0.74878865,-1.2237455,0.39399457,-0.059725665,-0.09007189,-0.016923515,0.99326265,-0.4619672
-0.2,-0.2,1.0999999999999999,0.5235987755982988,0.5235987755982988,0,0.08674019,-1.2955948,1.7524713,-0.33149305,0.17455497,1.2694919,0.7246284,-1.2243143,0.39625224,-0.029269861,-0.14853874,-0.022159679,1.1621505,-0.47692642
-0.2,-0.2,1.0999999999999999,0.5235987755982988,0.5235987755982988,0,0.0812554,-1.2939535,1.751256,-0.32601944,0.18276092,1.272113,0.7140338,-1.2285821,0.40266883,-0.0794433,0.0019195912,-0.053353388,1.0669272,-0.59938306
-0.2,-0.2,1.0999999999999999,0.5235987755982988,0.5235987755982988,0,0.08297758,-1.2893472,1.7543943,-0.3317243,0.18164353,1.2725579,0.7341654,-1.231177,0.4006721,-0.10019581,-0.03895607,-0.18234222,1.0360032,-0.24484539
-0.2,-0.2,1.0999999999999999,0.5235987755982988,0.5235987755982988,0,0.08423274,-1.2890286,1.7549484,-0.32992062,0.18209143,1.2740729,0.72517323,-1.2285807,0.40534928,-0.020921387,-0.08558237,-0.098844595,1.0532134,0.0471839
-0.2,-0.2,1.0999999999999999,0.5235987755982988,0.5235987755982988,0,0.085082136,-1.2880259,1.7524348,-0.32683736,0.18263894,1.2711328,0.7091799,-1.2345166,0.4040514,-0.07122496,-0.0623752,-0.0066540814,1.171913,-0.88425803
-0.2,-0.2,1.0999999999999999,0.5235987755982988,0.5235987755982988,0,0.082632236,-1.2857493,1.7564107,-0.32557714,0.1811972,1.2707075,0.7409709,-1.2392913,0.39946148,-0.044799134,-0.07870247,-0.08691618,1.1114233,-0.91804385
-0.2,-0.2,1.0999999999999999,0.5235987755982988,0.5235987755982988,0,0.0817805,-1.2918917,1.7529981,-0.33095673,0.18215315,1.2714995,0.7123213,-1.2376705,0.39645815,-0.0610467,-0.15906139,-0.1380281,1.0816598,-0.7514362
-0.2,-0.2,1.0999999999999999,0.5235987755982988,0.5235987755982988,0,0.08483659,-1.2920214,1.755288,-0.33018675,0.17608385,1.2729986,0.73721576,-1.2259396,0.3941616,-0.044322237,-0.14355695,0.059398063,1.1457863,-0.6142097
-0.2,-0.2,1.0999999999999999,0.5235987755982988,0.5235987755982988,0,0.084864624,-1.2919546,1.7544228,-0.32895756,0.18409231,1.2686285,0.7136879,-1.2343878,0.4067693,-0.058050495,-0.06405247,-0.01857326,1.0540262,-0.5926569
-0.2,-0.2,1.0999999999999999,0.5235987755982988,0.5235987755982988,0,0.08601205,-1.2854091,1.7555238,-0.32546777,0.17788659,1.2637317,0.71426755,-1.2311782,0.39971852,0.018634679,0.009053248,0.18485042,1.1424761,-0.32813805
-0.2,-0.2,1.0999999999999999,0.5235987755982988,0.5235987755982988,0,0.08332239,-1.2941878,1.7561517,-0.3293829,0.17532568,1.273987,0.7411811,-1.2387589,0.39750484,-0.043700937,-0.15146582,-0.14689803,0.99731517,-0.29701787
-0.2,-0.2,1.0999999999999999,0.5235987755982988,0.5235987755982988,0,0.08577798,-1.2890971,1.7534082,-0.3260869,0.17936897,1.2701597,0.7049831,-1.2289577,0.39568955,0.017886154,-0.007442158,-0.18182619,1.1228703,-0.23519014
-0.2,-0.2,1.0999999999999999,0.5235987755982988,0.5235987755982988,0,0.087891996,-1.2860668,1.7510891,-0.33016056,0.18332714,1.2764076,0.7282757,-1.225992,0.39533386,-0.06033212,-0.08905397,0.008147796,0.9588062,-0.38318798
-0.2,-0.2,1.0999999999999999,0.5235987755982988,0.5235987755982988,0,0.086417645,-1.2882553,1.7553909,-0.33019194,0.18281248,1.2726634,0.7325706,-1.2270317,0.39457235,-0.07387042,0.0033933315,-0.14386934,1.0783464,-0.8754601
-0.2,-0.2,1.0999999999999999,0.5235987755982988,0.5235987755982988,0,0.08532221,-1.2942424,1.7464148,-0.32855365,0.17840166,1.2708809,0.7128492,-1.2295556,0.39666113,-0.041923255,-0.029212745,-0.06529756,1.1041459,-0.28680545
-0.2,-0.2,1.0999999999999999,0.5235987755982988,0.5235987755982988,0,0.08209354,-1.2863556,1.7526824,-0.32669967,0.17638424,1.2713541,0.70688266,-1.2543768,0.40557313,-0.073131815,-0.032537945,-0.27768943,1.0848576,-0.00568288
-0.2,-0.2,1.0999999999999999,0.5235987755982988,0.5235987755982988,0,0.08520443,-1.2893504,1.7523222,-0.3287277,0.18321414,1.2755166,0.74020255,-1.2285951,0.38979426,-0.058762677,0.031767733,-0.0042166547,1.0865932,-0.74354845
-0.2,-0.2,1.0999999999999999,0.5235987755982988,0.5235987755982988,0,0.08486293,-1.2879589,1.7562156,-0.32709673,0.17681573,1.273864,0.7170585,-1.2341225,0.39382666,-0.05787234,-0.10053682,-0.16382793,1.0072129,-0.46601138
-0.2,-0.2,1.0999999999999999,0.5235987755982988,0.5235987755982988,0,0.08110156,-1.2961364,1.7456222,-0.32853562,0.17151186,1.2709686,0.7513333,-1.2139578,0.40367836,0.00783344,0.0029437337,-0.050676882,1.0506551,-0.50352037
-0.2,-0.2,1.0999999999999999,0.5235987755982988,0.5235987755982988,0,0.086145855,-1.2890704,1.7613567,-0.3249199,0.18134709,1.266863,0.73270637,-1.2347949,0.40487906,-0.018520184,-0.0489987,0.051868252,1.0095099,-0.9967207
-0.2,-0.2,1.0999999999999999,0.5235987755982988,0.5235987755982988,0,0.08926742,-1.2824377,1.7561622,-0.3295427,0.18128352,1.2681755,0.7109511,-1.2375859,0.3970545,-0.023842597,-0.029023193,-0.29522672,1.0336909,-0.6127789
-0.2,-0.2,1.0999999999999999,0.5235987755982988,0.5235987755982988,0,0.087981574,-1.2884315,1.7504945,-0.32831734,0.18569167,1.2745582,0.73733646,-1.2291232,0.39370248,-0.074777536,0.059401177,-0.04270685,1.1178983,-0.7051579
-0.2,-0.2,1.0999999999999999,0.5235987755982988,0.5235987755982988,0,0.0767816,-1.2872654,1.757969,-0.33271623,0.18973418,1.2720678,0.73131454,-1.2249385,0.4008904,-0.0049770274,0.004157584,-0.088299684,0.9669193,-0.18336363
-0.2,-0.2,1.0999999999999999,0.5235987755982988,0.5235987755982988,0,0.0877455,-1.2859992,1.7568227,-0.32848275,0.18128526,1.2731892,0.71964234,-1.2387928,0.3978761,-0.057956632,-0.100624554,0.01283295,1.0844741,-0.63077694
-0.2,-0.2,1.0999999999999999,0.5235987755982988,0.5235987755982988,0,0.087007694,-1.2903174,1.7579213,-0.3290993,0.18594255,1.2707983,0.715369,-1.2227665,0.39851117,-0.067661926,-0.01940458,-0.021660145,1.0405364,-0.19887526
-0.2,-0.2,1.0999999999999999,0.5235987755982988,0.5235987755982988,0,0.0855566,-1.290371,1.7581173,-0.32564163,0.18748777,1.2727393,0.7125392,-1.2336022,0.3967005,-0.017631209,0.05770166,-0.00020780833,1.1283973,-0.55765325
-0.2,-0.2,1.0999999999999999,0.5235987755982988,0.5235987755982988,0,0.08518085,-1.2878288,1.7534164,-0.33280373,0.18778759,1.2701554,0.747975,-1.2342585,0.39220858,0.004666107,-0.14901206,-0.24813469,1.1850657,-0.7124104
-0.2,-0.2,1.0999999999999999,0.5235987755982988,0.5235987755982988,0,0.084982365,-1.2882209,1.7500842,-0.32878357,0.18342867,1.2681179,0.68883187,-1.223543,0.40205213,-0.036938306,-0.01463145,-0.30667827,1.0821229,-0.6154308
-0.2,-0.2,1.0999999999999999,0.5235987755982988,0.5235987755982988,0,0.08441514,-1.2957683,1.751421,-0.3295269,0.17709446,1.2672691,0.71324086,-1.2248976,0.3973451,0.0073159146,-0.10499223,0.19396867,1.0114431,0.104516484
-0.2,-0.2,1.0999999999999999,0.5235987755982988,0.5235987755982988,0,0.084198326,-1.2929313,1.7535787,-0.33170208,0.1744302,1.2687724,0.72678345,-1.2222784,0.39383626,-0.081270754,-0.044400305,0.028286753,1.0293543,-0.75660527
