sanky1234/BimanualDexCatch/isaacgymenvs/cem_results/football_pose_-0.2_-0.2_0.6_-0.34906585039886584_-0.34906585039886584_-0.34906585039886584.csv
x,y,z,roll,pitch,yaw,robot1/joint1,robot1/joint2,robot1/joint3,robot1/joint4,robot1/joint5,robot1/joint6,robot1/joint7,robot2/joint1,robot2/joint2,robot2/joint3,robot2/joint4,robot2/joint5,robot2/joint6,robot2/joint7
-0.2,-0.2,0.6,-0.34906585039886584,-0.34906585039886584,-0.34906585039886584,1.3280377,1.5089445,0.22364657,0.0830627,0.274653,1.0355893,0.49226874,-0.34776327,1.3911983,-0.258486,-0.5495772,0.21412326,1.2861165,0.07373948
-0.2,-0.2,0.6,-0.34906585039886584,-0.34906585039886584,-0.34906585039886584,1.323789,1.5020195,0.22338681,0.085747674,0.27221265,1.0422438,0.5014166,-0.35003257,1.397319,-0.25815094,-0.547308,0.20394053,1.2891688,0.11775722
-0.2,-0.2,0.6,-0.34906585039886584,-0.34906585039886584,-0.34906585039886584,1.3268296,1.5062683,0.22505234,0.08310192,0.27417728,1.036101,0.49928084,-0.3490752,1.3972014,-0.2596865,-0.5479223,0.21349497,1.2884916,0.09822661
-0.2,-0.2,0.6,-0.34906585039886584,-0.34906585039886584,-0.34906585039886584,1.3398858,1.511305,0.22387919,0.08555165,0.2608748,1.0375233,0.4967076,-0.35229033,1.4049412,-0.253,-0.54671335,0.21461931,1.2844493,0.12727891
-0.2,-0.2,0.6,-0.34906585039886584,-0.34906585039886584,-0.34906585039886584,1.3313769,1.5080936,0.22329122,0.0858669,0.27468547,1.0372213,0.4915249,-0.34750882,1.3983458,-0.2588105,-0.5484832,0.20321648,1.2861031,0.11729448
-0.2,-0.2,0.6,-0.34906585039886584,-0.34906585039886584,-0.34906585039886584,1.3429557,1.507776,0.22370234,0.08387854,0.26314372,1.0353732,0.49865493,-0.34664795,1.3971709,-0.25671783,-0.5483723,0.20054723,1.28559,0.10340254
-0.2,-0.2,0.6,-0.34906585039886584,-0.34906585039886584,-0.34906585039886584,1.3434548,1.5070348,0.22870263,0.08575076,0.26560304,1.0346994,0.50189084,-0.34894142,1.3806487,-0.26694962,-0.5454561,0.20837197,1.2824798,0.12056231
-0.2,-0.2,0.6,-0.34906585039886584,-0.34906585039886584,-0.34906585039886584,1.337681,1.5001155,0.22666648,0.08139784,0.26723796,1.0310553,0.4910191,-0.3536069,1.3915745,-0.25271288,-0.54577386,0.20394719,1.286991,0.066070154
-0.2,-0.2,0.6,-0.34906585039886584,-0.34906585039886584,-0.34906585039886584,1.3481175,1.5080551,0.22725774,0.08069308,0.26616016,1.0406916,0.49488688,-0.34960213,1.3974967,-0.25516942,-0.5469289,0.20331104,1.2890449,0.12819247
-0.2,-0.2,0.6,-0.34906585039886584,-0.34906585039886584,-0.34906585039886584,1.3313434,1.5100561,0.22566535,0.083397575,0.2623857,1.0380543,0.48669466,-0.35205978,1.378713,-0.25694743,-0.5482837,0.20731004,1.2822535,0.11176535
-0.2,-0.2,0.6,-0.34906585039886584,-0.34906585039886584,-0.34906585039886584,1.340245,1.5062544,0.22633529,0.080218785,0.26535246,1.0360354,0.4952628,-0.35387838,1.3884224,-0.2521591,-0.55059916,0.20991595,1.2895228,0.13792977
-0.2,-0.2,0.6,-0.34906585039886584,-0.34906585039886584,-0.34906585039886584,1.3359089,1.5000558,0.22823526,0.08066958,0.26473975,1.0317591,0.4931085,-0.34883463,1.3864684,-0.26287174,-0.5490142,0.20923626,1.2834625,0.09017721
-0.2,-0.2,0.6,-0.34906585039886584,-0.34906585039886584,-0.34906585039886584,1.3342915,1.5139949,0.2225522,0.0878082,0.27899587,1.0330348,0.50283396,-0.35252437,1.3893826,-0.25367752,-0.5460953,0.20840628,1.2853532,0.09138087
-0.2,-0.2,0.6,-0.34906585039886584,-0.34906585039886584,-0.34906585039886584,1.3204437,1.5090883,0.22611043,0.08681394,0.27174643,1.0336101,0.50308657,-0.34591582,1.3903853,-0.2549379,-0.5495783,0.19766364,1.2836616,0.1263956
-0.2,-0.2,0.6,-0.34906585039886584,-0.34906585039886584,-0.34906585039886584,1.3279614,1.5040385,0.2286609,0.08168698,0.26354375,1.0368475,0.49553475,-0.34638345,1.3865798,-0.25500634,-0.54551816,0.21184364,1.2873175,0.11969012
-0.2,-0.2,0.6,-0.34906585039886584,-0.34906585039886584,-0.34906585039886584,1.3194776,1.5066001,0.22789674,0.085670866,0.2656002,1.0387745,0.502818,-0.3502087,1.3899076,-0.26010424,-0.5419834,0.21582462,1.2837204,0.09115098
-0.2,-0.2,0.6,-0.34906585039886584,-0.34906585039886584,-0.34906585039886584,1.3236109,1.5065063,0.22417064,0.0840833,0.27101564,1.0385225,0.48261544,-0.349787,1.3914949,-0.2568024,-0.5487712,0.21913397,1.2857176,0.123117566
-0.2,-0.2,0.6,-0.34906585039886584,-0.34906585039886584,-0.34906585039886584,1.334982,1.5041865,0.22427927,0.08286024,0.2646616,1.0362041,0.4859557,-0.3537323,1.4108928,-0.26146185,-0.5474833,0.21840775,1.2856752,0.10629371
-0.2,-0.2,0.6,-0.34906585039886584,-0.34906585039886584,-0.34906585039886584,1.342505,1.5099974,0.22591259,0.07951054,0.27431625,1.0344322,0.49008334,-0.3502554,1.4110973,-0.2571004,-0.54783565,0.20781831,1.2868434,0.10544324
-0.2,-0.2,0.6,-0.34906585039886584,-0.34906585039886584,-0.34906585039886584,1.3331656,1.5041349,0.2204699,0.08277599,0.26529297,1.0400174,0.50640863,-0.35095683,1.393783,-0.2515891,-0.54410535,0.2053515,1.2845948,0.12205249
-0.2,-0.2,0.6,-0.34906585039886584,-0.34906585039886584,-0.34906585039886584,1.3391323,1.5086788,0.22722992,0.08455791,0.26790193,1.0372767,0.49473593,-0.35337785,1.3892227,-0.25759536,-0.5494162,0.21096677,1.2866153,0.10698519
-0.2,-0.2,0.6,-0.34906585039886584,-0.34906585039886584,-0.34906585039886584,1.3359426,1.5070857,0.2254578,0.08034643,0.26807168,1.0358996,0.4976888,-0.35230917,1.378024,-0.2563156,-0.5466038,0.2087525,1.2849934,0.13087678
-0.2,-0.2,0.6,-0.34906585039886584,-0.34906585039886584,-0.34906585039886584,1.3314623,1.5082328,0.22590508,0.08553612,0.27602327,1.035035,0.48264575,-0.3496313,1.4026415,-0.25942066,-0.55164474,0.20175138,1.2847323,0.1187275
-0.2,-0.2,0.6,-0.34906585039886584,-0.34906585039886584,-0.34906585039886584,1.3306582,1.5021638,0.22771779,0.08521594,0.26630035,1.0360137,0.4857818,-0.35001025,1.3972569,-0.2583913,-0.54753506,0.20785886,1.2874916,0.14667445
-0.2,-0.2,0.6,-0.34906585039886584,-0.34906585039886584,-0.34906585039886584,1.326158,1.5094213,0.22629535,0.08899904,0.2754011,1.0346519,0.50147766,-0.35453925,1.3748121,-0.26199967,-0.5470213,0.21754761,1.2865989,0.08692204
-0.2,-0.2,0.6,-0.34906585039886584,-0.34906585039886584,-0.34906585039886584,1.3420427,1.5096942,0.22709744,0.083451904,0.25989434,1.0396974,0.4913393,-0.34615773,1.3927655,-0.26148388,-0.54682267,0.20714645,1.2898513,0.10213645
-0.2,-0.2,0.6,-0.34906585039886584,-0.34906585039886584,-0.34906585039886584,1.3393254,1.506789,0.22610252,0.084288664,0.27403367,1.0393623,0.4944078,-0.35000303,1.3839148,-0.26334968,-0.54485905,0.22032371,1.2895627,0.10125266
-0.2,-0.2,0.6,-0.34906585039886584,-0.34906585039886584,-0.34906585039886584,1.3347778,1.5045228,0.22426012,0.083167166,0.26251626,1.0376338,0.49380982,-0.3480601,1.391398,-0.25828254,-0.5463588,0.20981432,1.2842163,0.07893629
-0.2,-0.2,0.6,-0.34906585039886584,-0.34906585039886584,-0.34906585039886584,1.3419837,1.5104139,0.22694044,0.08139612,0.27206892,1.0392108,0.50151366,-0.34521452,1.3863485,-0.26139215,-0.5479184,0.21501856,1.2871989,0.13590829
-0.2,-0.2,0.6,-0.34906585039886584,-0.34906585039886584,-0.34906585039886584,1.3161232,1.507066,0.22418027,0.08231674,0.27506435,1.0314819,0.49755794,-0.34576166,1.3968765,-0.25644138,-0.5463063,0.21841782,1.2810668,0.13957429
-0.2,-0.2,0.6,-0.34906585039886584,-0.34906585039886584,-0.34906585039886584,1.3369681,1.5020459,0.22285956,0.08544393,0.25908154,1.0382125,0.4835351,-0.34972662,1.3939496,-0.2562996,-0.54387826,0.21701102,1.2851679,0.09967396
-0.2,-0.2,0.6,-0.34906585039886584,-0.34906585039886584,-0.34906585039886584,1.3344902,1.5060115,0.22405863,0.0840888,0.26728895,1.037001,0.5028869,-0.34527677,1.3882189,-0.26255098,-0.5481144,0.20769821,1.286,0.09372329
-0.2,-0.2,0.6,-0.34906585039886584,-0.34906585039886584,-0.34906585039886584,1.3303416,1.5089135,0.22814728,0.082914375,0.26218733,1.0415504,0.49378744,-0.3489398,1.4029772,-0.25755784,-0.54861504,0.20776407,1.2873839,0.10091165
-0.2,-0.2,0.6,-0.34906585039886584,-0.34906585039886584,-0.34906585039886584,1.325471,1.5087487,0.22743282,0.08373671,0.27197558,1.036984,0.49134696,-0.35115823,1.3998467,-0.2500027,-0.5462018,0.1978395,1.2803683,0.102108516
-0.2,-0.2,0.6,-0.34906585039886584,-0.34906585039886584,-0.34906585039886584,1.3267708,1.5066382,0.23080963,0.083276205,0.27512822,1.0393976,0.49855843,-0.35045007,1.382167,-0.26352757,-0.54877937,0.20640135,1.288925,0.10822348
-0.2,-0.2,0.6,-0.34906585039886584,-0.34906585039886584,-0.34906585039886584,1.337895,1.5037408,0.222567,0.08251742,0.26896337,1.0377748,0.5015476,-0.3500615,1.4010199,-0.25564602,-0.54652244,0.20190512,1.2863525,0.061579037
-0.2,-0.2,0.6,-0.34906585039886584,-0.34906585039886584,-0.34906585039886584,1.3299354,1.5087804,0.22268718,0.081286855,0.26570633,1.0400937,0.5046868,-0.3474549,1.4091182,-0.25855404,-0.54966885,0.20467241,1.2869403,0.08255615
-0.2,-0.2,0.6,-0.34906585039886584,-0.34906585039886584,-0.34906585039886584,1.3311794,1.5018477,0.2235074,0.08292096,0.2742192,1.0348917,0.49600855,-0.35179913,1.4048129,-0.25632098,-0.5479019,0.20928237,1.287521,0.10437436
-0.2,-0.2,0.6,-0.34906585039886584,-0.34906585039886584,-0.34906585039886584,1.3232038,1.5070122,0.22819708,0.08337253,0.26850054,1.0392854,0.4850437,-0.35069883,1.383207,-0.26392624,-0.55241525,0.20813265,1.2863553,0.124584734
-0.2,-0.2,0.6,-0.34906585039886584,-0.34906585039886584,-0.34906585039886584,1.3307332,1.5051336,0.22602892,0.08496807,0.2662746,1.0342813,0.5057818,-0.34575942,1.3951305,-0.25752416,-0.54292476,0.20205583,1.2827173,0.061455283
-0.2,-0.2,0.6,-0.34906585039886584,-0.34906585039886584,-0.34906585039886584,1.3337204,1.5096593,0.22502139,0.08575341,0.27146116,1.0389023,0.48133954,-0.34719765,1.3906876,-0.25658897,-0.5449247,0.20936866,1.2859803,0.08821292
-0.2,-0.2,0.6,-0.34906585039886584,-0.34906585039886584,-0.34906585039886584,1.3365399,1.5025144,0.22372714,0.08453636,0.27391362,1.0318397,0.5027618,-0.34944668,1.3750786,-0.25979406,-0.5442099,0.21018417,1.2822676,0.13125686
-0.2,-0.2,0.6,-0.34906585039886584,-0.34906585039886584,-0.34906585039886584,1.336299,1.510672,0.22655189,0.084457934,0.27697638,1.0386533,0.47726882,-0.35271025,1.3886542,-0.24858473,-0.5422557,0.21194804,1.2879461,0.12535821
-0.2,-0.2,0.6,-0.34906585039886584,-0.34906585039886584,-0.34906585039886584,1.325266,1.504022,0.22723871,0.08205922,0.25435695,1.0418825,0.4979737,-0.351117,1.4105294,-0.26032907,-0.5503453,0.20414732,1.284392,0.11264817
-0.2,-0.2,0.6,-0.34906585039886584,-0.34906585039886584,-0.34906585039886584,1.3345819,1.504259,0.22471258,0.081207044,0.26756147,1.0355237,0.48502114,-0.35023525,1.3795694,-0.25036943,-0.5478973,0.20126876,1.2822516,0.09064593
-0.2,-0.2,0.6,-0.34906585039886584,-0.34906585039886584,-0.34906585039886584,1.3314441,1.5067991,0.22502264,0.07871845,0.2636355,1.0366085,0.51139057,-0.35106567,1.3915871,-0.2462609,-0.54590803,0.20010516,1.2829324,0.122555144
-0.2,-0.2,0.6,-0.34906585039886584,-0.34906585039886584,-0.34906585039886584,1.331557,1.5091456,0.22493164,0.084733926,0.26949182,1.0367758,0.4851975,-0.3480284,1.3963623,-0.25397143,-0.54722494,0.20179386,1.2849771,0.13612184
-0.2,-0.2,0.6,-0.34906585039886584,-0.34906585039886584,-0.34906585039886584,1.3306301,1.5123833,0.22524326,0.0842118,0.2778689,1.0343437,0.48243,-0.3486185,1.390637,-0.25790226,-0.54791087,0.21401016,1.2881371,0.110774055
-0.2,-0.2,0.6,-0.34906585039886584,-0.34906585039886584,-0.34906585039886584,1.3267641,1.5027466,0.22618774,0.083712235,0.26107174,1.038513,0.4888957,-0.34602833,1.3832091,-0.255661,-0.544968,0.20212834,1.2842373,0.12105942
-0.2,-0.2,0.6,-0.34906585039886584,-0.34906585039886584,-0.34906585039886584,1.3356061,1.5026753,0.22565371,0.08544352,0.26256332,1.0357677,0.4941617,-0.34706968,1.3840821,-0.2588358,-0.5491474,0.20450069,1.2870543,0.10458183
-0.2,-0.2,0.6,-0.34906585039886584,-0.34906585039886584,-0.34906585039886584,1.321457,1.4988747,0.2257491,0.08507483,0.26223063,1.039414,0.4903205,-0.34740016,1.3831908,-0.25508204,-0.5411955,0.21126685,1.2869067,0.0639743
-0.2,-0.2,0.6,-0.34906585039886584,-0.34906585039886584,-0.34906585039886584,1.336422,1.5135403,0.2289851,0.0847199,0.26233497,1.0385252,0.5024692,-0.34641102,1.392198,-0.25725976,-0.5427216,0.21144591,1.2852685,0.117026635
-0.2,-0.2,0.6,-0.34906585039886584,-0.34906585039886584,-0.34906585039886584,1.3246175,1.5064398,0.22545682,0.08596841,0.26223135,1.034507,0.5014284,-0.34824046,1.3911222,-0.25442338,-0.5460751,0.20725079,1.2841345,0.10556555
-0.2,-0.2,0.6,-0.34906585039886584,-0.34906585039886584,-0.34906585039886584,1.3321092,1.5066966,0.22706637,0.085665315,0.2742346,1.0331995,0.49931678,-0.35104352,1.3831496,-0.2564401,-0.5467912,0.21442789,1.2877427,0.10425811
-0.2,-0.2,0.6,-0.34906585039886584,-0.34906585039886584,-0.34906585039886584,1.3226632,1.505621,0.2288397,0.08363455,0.27029413,1.037758,0.49481648,-0.3476305,1.3852942,-0.25862402,-0.5491578,0.2130651,1.2897146,0.11865748
-0.2,-0.2,0.6,-0.34906585039886584,-0.34906585039886584,-0.34906585039886584,1.3343662,1.496527,0.22735102,0.083515115,0.27369887,1.0323349,0.4867011,-0.35069132,1.398504,-0.25820056,-0.5463206,0.20830218,1.2858605,0.112817995
-0.2,-0.2,0.6,-0.34906585039886584,-0.34906585039886584,-0.34906585039886584,1.336341,1.5064014,0.23376726,0.07933546,0.2771507,1.0424608,0.4883251,-0.3538372,1.3914555,-0.26782972,-0.54436743,0.20762584,1.2826096,0.09322345
-0.2,-0.2,0.6,-0.34906585039886584,-0.34906585039886584,-0.34906585039886584,1.3310186,1.5013504,0.22712667,0.078810774,0.26630747,1.028389,0.49798468,-0.35060963,1.3945976,-0.25389168,-0.54667616,0.2155529,1.2820814,0.094964765
-0.2,-0.2,0.6,-0.34906585039886584,-0.34906585039886584,-0.34906585039886584,1.3276472,1.4993602,0.22271895,0.09030613,0.25802815,1.037208,0.49975696,-0.34765598,1.3758469,-0.25577903,-0.5454729,0.20268725,1.2876818,0.08889254
-0.2,-0.2,0.6,-0.34906585039886584,-0.34906585039886584,-0.34906585039886584,1.321256,1.5051932,0.22955249,0.08445158,0.2621065,1.038515,0.48185447,-0.35243338,1.3795387,-0.25980687,-0.5546035,0.21629441,1.2894413,0.11421017
-0.2,-0.2,0.6,-0.34906585039886584,-0.34906585039886584,-0.34906585039886584,1.3324237,1.5069866,0.22573096,0.0858291,0.25891528,1.0385357,0.49508062,-0.34917137,1.3738673,-0.26042834,-0.54552376,0.21732537,1.2834069,0.118493944
-0.2,-0.2,0.6,-0.34906585039886584,-0.34906585039886584,-0.34906585039886584,1.320984,1.5016863,0.22549132,0.08572361,0.27392045,1.0398172,0.4891807,-0.34659642,1.3981242,-0.25926158,-0.54453564,0.20930865,1.2877454,0.09717106
-0.2,-0.2,0.6,-0.34906585039886584,-0.34906585039886584,-0.34906585039886584,1.3324314,1.503567,0.22197868,0.0843592,0.27035162,1.0386146,0.4892413,-0.3458806,1.3831891,-0.2582806,-0.5407772,0.2117434,1.2832775,0.113843255
-0.2,-0.2,0.6,-0.34906585039886584,-0.34906585039886584,-0.34906585039886584,1.3234459,1.5062786,0.2285449,0.084470175,0.263849,1.0373633,0.4802756,-0.34620094,1.3929077,-0.2542763,-0.5458219,0.20892504,1.2874826,0.13109481
-0.2,-0.2,0.6,-0.34906585039886584,-0.34906585039886584,-0.34906585039886584,1.3306277,1.5081859,0.22335415,0.083406925,0.27013734,1.0404003,0.49299484,-0.3492029,1.402182,-0.25818536,-0.5447059,0.21951391,1.2869911,0.121596165
-0.2,-0.2,0.6,-0.34906585039886584,-0.34906585039886584,-0.34906585039886584,1.3310765,1.5057667,0.22260696,0.08392432,0.26512367,1.0394601,0.49757397,-0.34722212,1.3899184,-0.26554495,-0.5484447,0.19745688,1.2871511,0.11192514
-0.2,-0.2,0.6,-0.34906585039886584,-0.34906585039886584,-0.34906585039886584,1.3253874,1.5114356,0.22663133,0.086480506,0.26518983,1.038216,0.48873657,-0.3505115,1.385592,-0.25757504,-0.5534512,0.21394593,1.2869489,0.11671317
-0.2,-0.2,0.6,-0.34906585039886584,-0.34906585039886584,-0.34906585039886584,1.3160577,1.5091801,0.22685736,0.08643794,0.2607852,1.037471,0.4917407,-0.34944445,1.388441,-0.25983402,-0.5510587,0.20569372,1.2805403,0.110950686
-0.2,-0.2,0.6,-0.34906585039886584,-0.34906585039886584,-0.34906585039886584,1.3334439,1.5125585,0.22803152,0.08259839,0.26835015,1.0367398,0.5119493,-0.34724927,1.388565,-0.25437355,-0.54771763,0.19566536,1.2843742,0.12257447
-0.2,-0.2,0.6,-0.34906585039886584,-0.34906585039886584,-0.34906585039886584,1.3338414,1.5046108,0.22350147,0.09121376,0.25926992,1.0350962,0.49164382,-0.3492173,1.3809503,-0.25877398,-0.5474058,0.21126443,1.2837516,0.12282894
-0.2,-0.2,0.6,-0.34906585039886584,-0.34906585039886584,-0.34906585039886584,1.3326023,1.5065057,0.22769353,0.085220106,0.2757917,1.033308,0.49351868,-0.34948426,1.3807315,-0.25581586,-0.54694635,0.2147,1.2866825,0.13243528
-0.2,-0.2,0.6,-0.34906585039886584,-0.34906585039886584,-0.34906585039886584,1.3276922,1.5117428,0.22683986,0.08329265,0.26688775,1.0396667,0.49285665,-0.3452533,1.3890016,-0.25870883,-0.54647315,0.20986414,1.2868369,0.1296496
-0.2,-0.2,0.6,-0.34906585039886584,-0.34906585039886584,-0.34906585039886584,1.338639,1.5075063,0.22317496,0.086008765,0.2685103,1.0373639,0.50121063,-0.35249147,1.3828499,-0.2528789,-0.5453728,0.19975063,1.2881683,0.12531675
-0.2,-0.2,0.6,-0.34906585039886584,-0.34906585039886584,-0.34906585039886584,1.3280152,1.510204,0.22329827,0.084741734,0.26706052,1.0381231,0.50318414,-0.35438588,1.4021118,-0.25659737,-0.55129415,0.21307795,1.2880279,0.11394943
-0.2,-0.2,0.6,-0.34906585039886584,-0.34906585039886584,-0.34906585039886584,1.3210818,1.5025301,0.22699372,0.08764737,0.2686688,1.0374614,0.48660764,-0.35271415,1.383605,-0.26164657,-0.5500476,0.20351705,1.2848626,0.12774211
-0.2,-0.2,0.6,-0.34906585039886584,-0.34906585039886584,-0.34906585039886584,1.3252586,1.5045018,0.22385879,0.0828981,0.26730597,1.0325241,0.49197614,-0.3482763,1.3906983,-0.25854227,-0.548447,0.2157293,1.2839401,0.12842035
-0.2,-0.2,0.6,-0.34906585039886584,-0.34906585039886584,-0.34906585039886584,1.327972,1.511306,0.22455303,0.07910087,0.27003172,1.0430698,0.5046892,-0.3495527,1.386771,-0.25706953,-0.54303885,0.21751803,1.2859267,0.10719995
-0.2,-0.2,0.6,-0.34906585039886584,-0.34906585039886584,-0.34906585039886584,1.3390118,1.5000774,0.22908913,0.08317783,0.2672066,1.0407794,0.5011406,-0.34835672,1.3801562,-0.26686037,-0.5452757,0.20933673,1.2891477,0.07444529
-0.2,-0.2,0.6,-0.34906585039886584,-0.34906585039886584,-0.34906585039886584,1.3287042,1.506862,0.22342364,0.08562161,0.27282152,1.0358384,0.48998028,-0.34781027,1.3866343,-0.2574105,-0.5432868,0.21298662,1.2892283,0.10849227
-0.2,-0.2,0.6,-0.34906585039886584,-0.34906585039886584,-0.34906585039886584,1.3381369,1.5065339,0.22260644,0.07799752,0.28072852,1.0361627,0.5011907,-0.35101047,1.3930963,-0.26513448,-0.5482434,0.21835512,1.2816443,0.11797997
-0.2,-0.2,0.6,-0.34906585039886584,-0.34906585039886584,-0.34906585039886584,1.3393364,1.5112214,0.22391298,0.08134611,0.26252657,1.037746,0.4908453,-0.34669214,1.3977858,-0.26100528,-0.5518633,0.20618492,1.2846268,0.12158289
-0.2,-0.2,0.6,-0.34906585039886584,-0.34906585039886584,-0.34906585039886584,1.3473231,1.5094099,0.2254693,0.08416177,0.26845956,1.03803,0.4981774,-0.35130578,1.3790673,-0.25785637,-0.5447111,0.21619944,1.2875476,0.0997611
-0.2,-0.2,0.6,-0.34906585039886584,-0.34906585039886584,-0.34906585039886584,1.3448105,1.5154732,0.22596459,0.08490109,0.25906235,1.0388023,0.49218714,-0.34801477,1.3832805,-0.2566214,-0.5499632,0.21293293,1.2873836,0.08366252
-0.2,-0.2,0.6,-0.34906585039886584,-0.34906585039886584,-0.34906585039886584,1.3390757,1.502074,0.22597483,0.08312874,0.26369527,1.0327797,0.49859163,-0.3521331,1.395751,-0.25960138,-0.546144,0.20412114,1.2837753,0.07117312
-0.2,-0.2,0.6,-0.34906585039886584,-0.34906585039886584,-0.34906585039886584,1.3208694,1.5077081,0.22614408,0.0838721,0.27622616,1.0383431,0.4973416,-0.35116106,1.3934811,-0.25870362,-0.5458519,0.20457715,1.2832254,0.07198297
-0.2,-0.2,0.6,-0.34906585039886584,-0.34906585039886584,-0.34906585039886584,1.3235394,1.5015372,0.2282876,0.08330371,0.26397556,1.0359744,0.47664428,-0.35024756,1.3946159,-0.25929078,-0.55105835,0.2187106,1.287011,0.108437635
-0.2,-0.2,0.6,-0.34906585039886584,-0.34906585039886584,-0.34906585039886584,1.3275257,1.5019145,0.22836441,0.08441656,0.2689008,1.0342245,0.50090027,-0.34947696,1.3943808,-0.25542825,-0.5441217,0.20666979,1.2866931,0.07717622
-0.2,-0.2,0.6,-0.34906585039886584,-0.34906585039886584,-0.34906585039886584,1.3199719,1.5035703,0.22822933,0.08400639,0.27105415,1.0353293,0.4867527,-0.34701866,1.3882936,-0.25973698,-0.5487326,0.21645653,1.2885439,0.12919603
-0.2,-0.2,0.6,-0.34906585039886584,-0.34906585039886584,-0.34906585039886584,1.338794,1.5125995,0.22411792,0.08199512,0.2642682,1.0375458,0.49128163,-0.34737873,1.3854678,-0.26293358,-0.5530734,0.20370257,1.287074,0.081511095
-0.2,-0.2,0.6,-0.34906585039886584,-0.34906585039886584,-0.34906585039886584,1.3360044,1.5063779,0.22571927,0.08541705,0.27061954,1.0388945,0.48409143,-0.34665138,1.39611,-0.2580184,-0.5487151,0.20710602,1.2911112,0.13022959
-0.2,-0.2,0.6,-0.34906585039886584,-0.34906585039886584,-0.34906585039886584,1.3302739,1.5109161,0.22226357,0.08556069,0.2710927,1.0364573,0.48798347,-0.348612,1.3903508,-0.2495127,-0.5474078,0.20185232,1.2840334,0.07900888
-0.2,-0.2,0.6,-0.34906585039886584,-0.34906585039886584,-0.34906585039886584,1.3165674,1.5048512,0.22926088,0.081386425,0.27009058,1.0385549,0.49227265,-0.34507397,1.38019,-0.2557776,-0.54884344,0.20656611,1.2877166,0.092068486
-0.2,-0.2,0.6,-0.34906585039886584,-0.34906585039886584,-0.34906585039886584,1.3228879,1.5089871,0.22470552,0.08351608,0.26162702,1.0383399,0.49187377,-0.35264966,1.3863717,-0.2682801,-0.5529143,0.21569338,1.2875011,0.062808104
-0.2,-0.2,0.6,-0.34906585039886584,-0.34906585039886584,-0.34906585039886584,1.3418634,1.5025846,0.22693914,0.08567236,0.2659051,1.0332879,0.49892378,-0.3486548,1.3773862,-0.25892967,-0.5454133,0.20293213,1.2867259,0.0736238
-0.2,-0.2,0.6,-0.34906585039886584,-0.34906585039886584,-0.34906585039886584,1.3225245,1.5012829,0.22536512,0.08670469,0.26424316,1.0361792,0.49343273,-0.34860706,1.3896545,-0.25690535,-0.5428209,0.20877934,1.2846326,0.13148771
-0.2,-0.2,0.6,-0.34906585039886584,-0.34906585039886584,-0.34906585039886584,1.333295,1.509001,0.23011784,0.081915446,0.26572192,1.0362777,0.4995816,-0.34541327,1.4036916,-0.25945824,-0.546904,0.20174955,1.2846769,0.093544215
-0.2,-0.2,0.6,-0.34906585039886584,-0.34906585039886584,-0.34906585039886584,1.3404716,1.5054401,0.22939244,0.08515798,0.25858417,1.0359544,0.48474586,-0.3454947,1.3868855,-0.2531793,-0.54609424,0.19907832,1.2867397,0.13356477
-0.2,-0.2,0.6,-0.34906585039886584,-0.34906585039886584,-0.34906585039886584,1.3286217,1.5076696,0.23039356,0.08103573,0.26650164,1.0349836,0.49154365,-0.35211727,1.3893318,-0.25679672,-0.5425723,0.2144469,1.2822294,0.096128255
-0.2,-0.2,0.6,-0.34906585039886584,-0.34906585039886584,-0.34906585039886584,1.3345685,1.5087849,0.22457907,0.079420425,0.2625441,1.0374243,0.49971384,-0.34830573,1.3893422,-0.26227656,-0.5462375,0.21680848,1.2832211,0.06531331
-0.2,-0.2,0.6,-0.34906585039886584,-0.34906585039886584,-0.34906585039886584,1.3254404,1.5074342,0.2264469,0.085480414,0.26140544,1.0350279,0.4938763,-0.34751073,1.3926715,-0.2604787,-0.548396,0.20667261,1.2839818,0.07521668
-0.2,-0.2,0.6,-0.34906585039886584,-0.34906585039886584,-0.34906585039886584,1.3332572,1.5076356,0.22551794,0.08480433,0.27334023,1.0363142,0.4987726,-0.3487563,1.4014281,-0.26310757,-0.54503655,0.21193826,1.2867948,0.103819296
-0.2,-0.2,0.6,-0.34906585039886584,-0.34906585039886584,-0.34906585039886584,1.3276885,1.4964042,0.225437,0.082582675,0.27222836,1.0338725,0.49163932,-0.351281,1.4056747,-0.25469795,-0.5450335,0.2110129,1.2895757,0.084790334
-0.2,-0.2,0.6,-0.34906585039886584,-0.34906585039886584,-0.34906585039886584,1.3327212,1.5079023,0.22810799,0.08478075,0.26775575,1.0383079,0.48512304,-0.34832147,1.3885455,-0.25656796,-0.5407026,0.21575594,1.2832414,0.12591028
-0.2,-0.2,0.6,-0.34906585039886584,-0.34906585039886584,-0.34906585039886584,1.3265711,1.4990861,0.2234385,0.08389884,0.2601469,1.035664,0.49002334,-0.34696397,1.3918637,-0.2507965,-0.5462302,0.2082864,1.2859616,0.1276689
-0.2,-0.2,0.6,-0.34906585039886584,-0.34906585039886584,-0.34906585039886584,1.3201418,1.507622,0.23089635,0.08749475,0.2713112,1.0316029,0.48942095,-0.353407,1.3915845,-0.25702316,-0.5469155,0.20888263,1.2868319,0.06693755
-0.2,-0.2,0.6,-0.34906585039886584,-0.34906585039886584,-0.34906585039886584,1.3190911,1.4997691,0.22581734,0.083023764,0.2591445,1.0396292,0.49759337,-0.34745306,1.3967777,-0.26246342,-0.5510822,0.21052296,1.2884965,0.09780603
-0.2,-0.2,0.6,-0.34906585039886584,-0.34906585039886584,-0.34906585039886584,1.3346254,1.5029874,0.22553673,0.0815369,0.27477026,1.0323571,0.49215394,-0.34877288,1.383765,-0.26896408,-0.5522535,0.22108124,1.2856817,0.12983158
-0.2,-0.2,0.6,-0.34906585039886584,-0.34906585039886584,-0.34906585039886584,1.335188,1.5093409,0.22760746,0.08318958,0.26321197,1.0373317,0.49311927,-0.35022447,1.389662,-0.25218734,-0.5500683,0.20359392,1.2867438,0.1257792
-0.2,-0.2,0.6,-0.34906585039886584,-0.34906585039886584,-0.34906585039886584,1.3372525,1.5085746,0.22563599,0.08226175,0.25973183,1.0355433,0.49545372,-0.35059917,1.391995,-0.25517026,-0.548002,0.19994526,1.2851137,0.080789834
-0.2,-0.2,0.6,-0.34906585039886584,-0.34906585039886584,-0.34906585039886584,1.3243394,1.5039744,0.2253118,0.084882535,0.26474044,1.0370181,0.50625545,-0.34536508,1.3954029,-0.25844255,-0.54438823,0.20426574,1.2839289,0.07914496
-0.2,-0.2,0.6,-0.34906585039886584,-0.34906585039886584,-0.34906585039886584,1.3313984,1.5117142,0.2278209,0.084031105,0.26769903,1.0347322,0.49346626,-0.3483827,1.3813766,-0.25309637,-0.54794127,0.21381238,1.2860467,0.109244965
-0.2,-0.2,0.6,-0.34906585039886584,-0.34906585039886584,-0.34906585039886584,1.3362613,1.5067832,0.22503458,0.08189691,0.2661406,1.0399599,0.4839005,-0.34343168,1.3704773,-0.26399884,-0.5499799,0.21205164,1.2871155,0.12103719
-0.2,-0.2,0.6,-0.34906585039886584,-0.34906585039886584,-0.34906585039886584,1.3463914,1.5023321,0.2241298,0.08487144,0.26435608,1.0366341,0.48956975,-0.3499222,1.3872045,-0.25964352,-0.54799813,0.20611793,1.2860805,0.12065235
-0.2,-0.2,0.6,-0.34906585039886584,-0.34906585039886584,-0.34906585039886584,1.330673,1.5069399,0.22352526,0.08579569,0.26741865,1.0372968,0.48939085,-0.34569338,1.3859397,-0.25857395,-0.5489107,0.20854242,1.2867044,0.088377886
-0.2,-0.2,0.6,-0.34906585039886584,-0.34906585039886584,-0.34906585039886584,1.340448,1.5049301,0.23041202,0.08294593,0.2648082,1.034953,0.48798612,-0.3501191,1.3818196,-0.26030427,-0.5465768,0.2105442,1.2854538,0.1068883
-0.2,-0.2,0.6,-0.34906585039886584,-0.34906585039886584,-0.34906585039886584,1.3290207,1.5058761,0.22827752,0.083269715,0.27344903,1.0433327,0.4725329,-0.3488884,1.3969439,-0.2594927,-0.5430464,0.20496525,1.2852639,0.10162584
-0.2,-0.2,0.6,-0.34906585039886584,-0.34906585039886584,-0.34906585039886584,1.314846,1.5032054,0.22351182,0.08521099,0.26650336,1.0407913,0.49839267,-0.3513726,1.3877258,-0.2634306,-0.54806584,0.22295186,1.288907,0.07922086
-0.2,-0.2,0.6,-0.34906585039886584,-0.34906585039886584,-0.34906585039886584,1.338741,1.5039706,0.22624907,0.08372885,0.26810676,1.0404196,0.49335933,-0.3522402,1.3914272,-0.25955412,-0.5416696,0.20828229,1.282958,0.08640149
-0.2,-0.2,0.6,-0.34906585039886584,-0.34906585039886584,-0.34906585039886584,1.3268206,1.5107657,0.22358248,0.085004084,0.2639881,1.0356352,0.50823164,-0.34769198,1.3932619,-0.26514792,-0.54844975,0.21251145,1.2838612,0.07614569
-0.2,-0.2,0.6,-0.34906585039886584,-0.34906585039886584,-0.34906585039886584,1.34073,1.5000311,0.2198524,0.085445866,0.2593498,1.0376592,0.4915382,-0.34960422,1.3891784,-0.2592536,-0.5475631,0.2104237,1.2862837,0.0882614
-0.2,-0.2,0.6,-0.34906585039886584,-0.34906585039886584,-0.34906585039886584,1.3333583,1.5040131,0.2259307,0.08486674,0.26004884,1.0387793,0.5023227,-0.3476992,1.3908231,-0.25642717,-0.54380864,0.20919031,1.2887604,0.080874
-0.2,-0.2,0.6,-0.34906585039886584,-0.34906585039886584,-0.34906585039886584,1.3281529,1.5029417,0.22146204,0.0847123,0.2705536,1.0360519,0.49172315,-0.34854606,1.3773807,-0.26075345,-0.5519567,0.20697458,1.2879264,0.12069936
-0.2,-0.2,0.6,-0.34906585039886584,-0.34906585039886584,-0.34906585039886584,1.3187741,1.5066664,0.2252361,0.085771844,0.26664448,1.0412861,0.48840877,-0.34777805,1.3885949,-0.2562482,-0.5471922,0.20126511,1.283599,0.0972808
-0.2,-0.2,0.6,-0.34906585039886584,-0.34906585039886584,-0.34906585039886584,1.3163247,1.508222,0.22768427,0.08375654,0.2706019,1.0366149,0.47994024,-0.3494257,1.3878306,-0.25931925,-0.54816645,0.2190903,1.2838353,0.13361876
-0.2,-0.2,0.6,-0.34906585039886584,-0.34906585039886584,-0.34906585039886584,1.3306973,1.5122167,0.22816166,0.08695719,0.27305892,1.0340242,0.4900442,-0.34708384,1.3956047,-0.25684297,-0.54379565,0.2057539,1.2844411,0.11911274
-0.2,-0.2,0.6,-0.34906585039886584,-0.34906585039886584,-0.34906585039886584,1.3191203,1.5114946,0.22445309,0.083801724,0.27137226,1.0381107,0.49076107,-0.34485003,1.3916736,-0.25018793,-0.54464847,0.2153767,1.2888218,0.1030412
-0.2,-0.2,0.6,-0.34906585039886584,-0.34906585039886584,-0.34906585039886584,1.3405119,1.5043112,0.22860898,0.08070208,0.26241422,1.0382411,0.49218068,-0.3491395,1.3830557,-0.2624879,-0.5501197,0.1980324,1.2883815,0.10997419
-0.2,-0.2,0.6,-0.34906585039886584,-0.34906585039886584,-0.34906585039886584,1.320398,1.5053331,0.22494136,0.08516035,0.2612007,1.0393211,0.4988932,-0.34924924,1.3981421,-0.25319105,-0.54793584,0.21479571,1.2900819,0.12437308
-0.2,-0.2,0.6,-0.34906585039886584,-0.34906585039886584,-0.34906585039886584,1.3285733,1.5066068,0.2263709,0.08285582,0.26509193,1.0374674,0.4918,-0.3451538,1.3921368,-0.2616648,-0.55013055,0.20937926,1.2859051,0.09395588
-0.2,-0.2,0.6,-0.34906585039886584,-0.34906585039886584,-0.34906585039886584,1.3174975,1.5099889,0.23059742,0.081641875,0.26581126,1.0350465,0.49438468,-0.34739253,1.3970158,-0.25697687,-0.5444382,0.21482591,1.285257,0.09968049
-0.2,-0.2,0.6,-0.34906585039886584,-0.34906585039886584,-0.34906585039886584,1.3242097,1.5142833,0.22596109,0.08788964,0.25934514,1.0383801,0.49652755,-0.34863898,1.3992016,-0.25276002,-0.54718584,0.2127742,1.2882866,0.10145661
-0.2,-0.2,0.6,-0.34906585039886584,-0.34906585039886584,-0.34906585039886584,1.3449045,1.5086633,0.22440778,0.085679725,0.2677733,1.0344456,0.4865033,-0.34669548,1.3896201,-0.25747228,-0.5456548,0.20723335,1.2838373,0.13612036
-0.2,-0.2,0.6,-0.34906585039886584,-0.34906585039886584,-0.34906585039886584,1.3374256,1.5055931,0.22698689,0.08275822,0.26436758,1.034454,0.48895577,-0.34685948,1.3968618,-0.25818455,-0.54462135,0.21408613,1.28728,0.06420176
-0.2,-0.2,0.6,-0.34906585039886584,-0.34906585039886584,-0.34906585039886584,1.3447665,1.5038227,0.22747894,0.0811951,0.27084574,1.0332476,0.49567786,-0.35337803,1.3943412,-0.2595199,-0.54839534,0.2007274,1.2850906,0.08460921
-0.2,-0.2,0.6,-0.34906585039886584,-0.34906585039886584,-0.34906585039886584,1.3432347,1.5079546,0.22393756,0.0839245,0.26074558,1.0348527,0.50043315,-0.349734,1.3751253,-0.2532279,-0.5467388,0.20943446,1.2848381,0.09493682
-0.2,-0.2,0.6,-0.34906585039886584,-0.34906585039886584,-0.34906585039886584,1.3359768,1.5018275,0.22343117,0.0848311,0.2712492,1.0359564,0.5080551,-0.3482035,1.3723321,-0.2568548,-0.5431132,0.20074017,1.2864021,0.05773688
-0.2,-0.2,0.6,-0.34906585039886584,-0.34906585039886584,-0.34906585039886584,1.334443,1.502426,0.22589894,0.082947195,0.25487882,1.0365195,0.48403075,-0.34870437,1.413218,-0.25420323,-0.5482381,0.20901449,1.285557,0.13444059
-0.2,-0.2,0.6,-0.34906585039886584,-0.34906585039886584,-0.34906585039886584,1.3435844,1.5069267,0.22750689,0.083891034,0.2587022,1.0399715,0.4952726,-0.34929875,1.3857584,-0.255258,-0.5489706,0.19830704,1.2881187,0.09214578
-0.2,-0.2,0.6,-0.34906585039886584,-0.34906585039886584,-0.34906585039886584,1.3428795,1.5063336,0.22345272,0.08428394,0.2617696,1.0338354,0.49424663,-0.35147753,1.3903378,-0.25799313,-0.55094206,0.20091684,1.2884904,0.09934625
-0.2,-0.2,0.6,-0.34906585039886584,-0.34906585039886584,-0.34906585039886584,1.3357669,1.5036339,0.22799854,0.08326452,0.27169633,1.0375153,0.49670795,-0.35194618,1.3850776,-0.25787118,-0.54649466,0.20445706,1.2879086,0.100167386
-0.2,-0.2,0.6,-0.34906585039886584,-0.34906585039886584,-0.34906585039886584,1.3318884,1.5059351,0.2251179,0.08334977,0.2601335,1.0388093,0.487764,-0.35081464,1.3873749,-0.2541876,-0.5445961,0.21612945,1.2839752,0.082791366
-0.2,-0.2,0.6,-0.34906585039886584,-0.34906585039886584,-0.34906585039886584,1.3336519,1.5037315,0.2240217,0.08555581,0.2659497,1.0346708,0.49662042,-0.35024637,1.3798732,-0.2527887,-0.5474223,0.20759681,1.2861624,0.10267719
-0.2,-0.2,0.6,-0.34906585039886584,-0.34906585039886584,-0.34906585039886584,1.3295413,1.5085278,0.22940288,0.082599916,0.2661574,1.0436047,0.49143702,-0.3518853,1.3881837,-0.26285917,-0.54939693,0.21106544,1.2879572,0.09243592
-0.2,-0.2,0.6,-0.34906585039886584,-0.34906585039886584,-0.34906585039886584,1.3346561,1.5060947,0.21946785,0.081117645,0.26839668,1.0367811,0.5074989,-0.346583,1.4054749,-0.2562416,-0.5456879,0.20648855,1.2836187,0.09801551
-0.2,-0.2,0.6,-0.34906585039886584,-0.34906585039886584,-0.34906585039886584,1.3297293,1.5096618,0.22381961,0.085925974,0.2647991,1.0379936,0.4962601,-0.3505191,1.3910282,-0.25488922,-0.5464275,0.20779526,1.2862189,0.07422963
-0.2,-0.2,0.6,-0.34906585039886584,-0.34906585039886584,-0.34906585039886584,1.3295408,1.5122391,0.22452013,0.08431223,0.26775715,1.0357314,0.4817006,-0.34610462,1.3940457,-0.24799512,-0.54743826,0.1998849,1.2856387,0.061199363
-0.2,-0.2,0.6,-0.34906585039886584,-0.34906585039886584,-0.34906585039886584,1.3223608,1.5061219,0.22931212,0.08484445,0.268487,1.0392443,0.49753022,-0.35489118,1.4058714,-0.26234707,-0.54536104,0.21211614,1.2857206,0.08705228
-0.2,-0.2,0.6,-0.34906585039886584,-0.34906585039886584,-0.34906585039886584,1.3290092,1.5095049,0.22853106,0.081832394,0.27545747,1.0348951,0.49627173,-0.35115266,1.3959091,-0.25400704,-0.543299,0.20933051,1.2846372,0.07120147
-0.2,-0.2,0.6,-0.34906585039886584,-0.34906585039886584,-0.34906585039886584,1.3362015,1.5012629,0.22217742,0.083938055,0.27259627,1.0337553,0.4896087,-0.34792802,1.3848475,-0.2577044,-0.5460464,0.21029215,1.2849351,0.12057384
-0.2,-0.2,0.6,-0.34906585039886584,-0.34906585039886584,-0.34906585039886584,1.3399572,1.5138965,0.22404048,0.09030503,0.26687568,1.0416737,0.49791202,-0.3477362,1.3859162,-0.26037174,-0.5443582,0.21713191,1.2890456,0.11539277
-0.2,-0.2,0.6,-0.34906585039886584,-0.34906585039886584,-0.34906585039886584,1.3343068,1.502677,0.22704078,0.08298731,0.261313,1.0386317,0.48512322,-0.3500843,1.3822935,-0.25941905,-0.5504832,0.21639894,1.2886984,0.122064516
-0.2,-0.2,0.6,-0.34906585039886584,-0.34906585039886584,-0.34906585039886584,1.3301871,1.4958875,0.22612378,0.08549938,0.2607787,1.0394984,0.502001,-0.34824973,1.3884835,-0.26070303,-0.544984,0.20930059,1.290398,0.10532503
-0.2,-0.2,0.6,-0.34906585039886584,-0.34906585039886584,-0.34906585039886584,1.337734,1.5074503,0.228914,0.07918268,0.27052978,1.0362347,0.4901806,-0.3457697,1.3935801,-0.25570178,-0.54474074,0.21380727,1.2876619,0.12792617
-0.2,-0.2,0.6,-0.34906585039886584,-0.34906585039886584,-0.34906585039886584,1.3241081,1.5101247,0.22468625,0.08549901,0.27133355,1.0362785,0.4895149,-0.35217968,1.3855203,-0.25708923,-0.55044097,0.21321695,1.2830875,0.10380438
-0.2,-0.2,0.6,-0.34906585039886584,-0.34906585039886584,-0.34906585039886584,1.3289287,1.5014088,0.22128041,0.084612004,0.26408443,1.0364617,0.48339054,-0.35074267,1.3841273,-0.25370747,-0.5453422,0.21751556,1.2849904,0.11817111
-0.2,-0.2,0.6,-0.34906585039886584,-0.34906585039886584,-0.34906585039886584,1.3146014,1.5097481,0.22962986,0.0850432,0.25957522,1.0377293,0.4954058,-0.34992683,1.394858,-0.2578596,-0.54437965,0.21102318,1.279006,0.11644992
-0.2,-0.2,0.6,-0.34906585039886584,-0.34906585039886584,-0.34906585039886584,1.3180549,1.5086389,0.22417942,0.08658622,0.26765698,1.038151,0.5015071,-0.34540266,1.3870713,-0.2618209,-0.5479333,0.21312538,1.2852212,0.082621895
-0.2,-0.2,0.6,-0.34906585039886584,-0.34906585039886584,-0.34906585039886584,1.322774,1.5041572,0.22533023,0.08157854,0.2723713,1.0361066,0.4883925,-0.34890646,1.4038191,-0.26652288,-0.54785347,0.22374967,1.2843405,0.114155225
-0.2,-0.2,0.6,-0.34906585039886584,-0.34906585039886584,-0.34906585039886584,1.3377988,1.516332,0.22643857,0.08723948,0.26114577,1.0361348,0.500082,-0.34657452,1.3948549,-0.259854,-0.54590076,0.21109006,1.2846189,0.14038536
-0.2,-0.2,0.6,-0.34906585039886584,-0.34906585039886584,-0.34906585039886584,1.3197721,1.5082935,0.22520354,0.082690254,0.26710808,1.0335723,0.47904366,-0.34424183,1.3958417,-0.2598177,-0.55174696,0.21607268,1.2797686,0.15179883
-0.2,-0.2,0.6,-0.34906585039886584,-0.34906585039886584,-0.34906585039886584,1.3314121,1.5071293,0.22892337,0.084988855,0.26218238,1.0371106,0.47955668,-0.34721893,1.3958315,-0.2563368,-0.5402425,0.21724568,1.285488,0.09185164
-0.2,-0.2,0.6,-0.34906585039886584,-0.34906585039886584,-0.34906585039886584,1.3419061,1.509172,0.22269545,0.081477426,0.26439828,1.0366298,0.48951587,-0.34902036,1.3853549,-0.26165542,-0.5453887,0.22477874,1.281428,0.06427214
-0.2,-0.2,0.6,-0.34906585039886584,-0.34906585039886584,-0.34906585039886584,1.3346274,1.5051142,0.22612832,0.080274254,0.26375508,1.0351406,0.48418012,-0.34819618,1.3949395,-0.2547428,-0.5447925,0.21337259,1.2852585,0.0953228
-0.2,-0.2,0.6,-0.34906585039886584,-0.34906585039886584,-0.34906585039886584,1.3351963,1.5067589,0.22599421,0.082885586,0.2631962,1.0412011,0.4931747,-0.34567523,1.3832537,-0.27058348,-0.5500242,0.20871432,1.2827613,0.13042112
-0.2,-0.2,0.6,-0.34906585039886584,-0.34906585039886584,-0.34906585039886584,1.3134453,1.5099744,0.22635424,0.085846655,0.27238002,1.0367273,0.4979805,-0.34936577,1.3831184,-0.2602751,-0.54895467,0.20714357,1.2825129,0.08535839
-0.2,-0.2,0.6,-0.34906585039886584,-0.34906585039886584,-0.34906585039886584,1.3334457,1.5037272,0.2282751,0.08533296,0.26505655,1.0355806,0.4944422,-0.35466948,1.3868221,-0.25643823,-0.5468003,0.20639421,1.2845074,0.09923605
-0.2,-0.2,0.6,-0.34906585039886584,-0.34906585039886584,-0.34906585039886584,1.3290875,1.5040369,0.22455572,0.0849001,0.26720536,1.0338339,0.49423763,-0.34893498,1.3801216,-0.26153398,-0.5484843,0.20858525,1.282956,0.0971903
-0.2,-0.2,0.6,-0.34906585039886584,-0.34906585039886584,-0.34906585039886584,1.3403836,1.5114052,0.22386669,0.083406806,0.2735316,1.0354712,0.48753676,-0.35182497,1.3845983,-0.24549772,-0.5403935,0.20926537,1.2846943,0.08893123
-0.2,-0.2,0.6,-0.34906585039886584,-0.34906585039886584,-0.34906585039886584,1.3299358,1.5053891,0.22690767,0.08582373,0.266151,1.03936,0.48865783,-0.3532982,1.3917366,-0.25142303,-0.54458165,0.20173706,1.2854047,0.12187417
-0.2,-0.2,0.6,-0.34906585039886584,-0.34906585039886584,-0.34906585039886584,1.3296076,1.507945,0.22285727,0.08389176,0.26414108,1.035962,0.4890078,-0.34649312,1.3909024,-0.26017413,-0.5442877,0.22234055,1.2844034,0.112475984
-0.2,-0.2,0.6,-0.34906585039886584,-0.34906585039886584,-0.34906585039886584,1.3375239,1.5045123,0.2253069,0.08378806,0.2696212,1.0371388,0.50338596,-0.34764284,1.3812184,-0.26079768,-0.54525477,0.20832615,1.2875031,0.077706814
-0.2,-0.2,0.6,-0.34906585039886584,-0.34906585039886584,-0.34906585039886584,1.322227,1.4982798,0.22760926,0.08330838,0.26882038,1.0402913,0.4717341,-0.35125586,1.3824005,-0.24965034,-0.54480004,0.19474001,1.2843767,0.113957934
-0.2,-0.2,0.6,-0.34906585039886584,-0.34906585039886584,-0.34906585039886584,1.3474686,1.5108969,0.22586443,0.083187684,0.26944914,1.0306214,0.50362504,-0.34795177,1.3962132,-0.2588358,-0.5469569,0.20682406,1.2862169,0.082432434
-0.2,-0.2,0.6,-0.34906585039886584,-0.34906585039886584,-0.34906585039886584,1.3385292,1.5103899,0.22580233,0.082724705,0.25316283,1.0365833,0.49352774,-0.35021928,1.4022768,-0.25669092,-0.54549336,0.22642207,1.2865199,0.09313658
-0.2,-0.2,0.6,-0.34906585039886584,-0.34906585039886584,-0.34906585039886584,1.3305095,1.5082676,0.22685356,0.08717351,0.2640937,1.0343573,0.4817145,-0.34935892,1.3835719,-0.2544906,-0.54435545,0.20878275,1.2850658,0.109857805
-0.2,-0.2,0.6,-0.34906585039886584,-0.34906585039886584,-0.34906585039886584,1.3185842,1.5109491,0.22672285,0.085634895,0.2722706,1.0386345,0.5147691,-0.35077968,1.3857505,-0.26130962,-0.5478546,0.2064108,1.2873024,0.07321082
-0.2,-0.2,0.6,-0.34906585039886584,-0.34906585039886584,-0.34906585039886584,1.3180782,1.4983457,0.22404453,0.08478091,0.26781717,1.0400842,0.5025215,-0.3480949,1.3856068,-0.26395932,-0.5494733,0.19802456,1.2874327,0.12942243
-0.2,-0.2,0.6,-0.34906585039886584,-0.34906585039886584,-0.34906585039886584,1.3408151,1.5094476,0.22797836,0.08427159,0.26879972,1.0368445,0.48927814,-0.3480299,1.4037569,-0.25484255,-0.54625815,0.1935211,1.2856207,0.09040727
-0.2,-0.2,0.6,-0.34906585039886584,-0.34906585039886584,-0.34906585039886584,1.3276664,1.5018619,0.2254962,0.0824891,0.25968122,1.0342041,0.499888,-0.34685317,1.3926294,-0.25474346,-0.5493885,0.20434429,1.283877,0.1299467
-0.2,-0.2,0.6,-0.34906585039886584,-0.34906585039886584,-0.34906585039886584,1.321193,1.510363,0.22837858,0.08109054,0.26792955,1.0333952,0.47884342,-0.34623834,1.4021213,-0.25289115,-0.5497989,0.20328234,1.2851093,0.09171171
-0.2,-0.2,0.6,-0.34906585039886584,-0.34906585039886584,-0.34906585039886584,1.342205,1.505476,0.22394462,0.08416078,0.2607342,1.0363737,0.49329138,-0.34824345,1.3797714,-0.2624058,-0.5480059,0.20446593,1.2847885,0.11002657
-0.2,-0.2,0.6,-0.34906585039886584,-0.34906585039886584,-0.34906585039886584,1.3320559,1.5080729,0.22744718,0.08676204,0.2609593,1.0364906,0.48954472,-0.35309795,1.3840771,-0.25536746,-0.54588234,0.20731172,1.2857863,0.13182981
-0.2,-0.2,0.6,-0.34906585039886584,-0.34906585039886584,-0.34906585039886584,1.329192,1.5008717,0.22654201,0.08123754,0.26350138,1.0358449,0.48842606,-0.35094,1.3973576,-0.25517488,-0.5441245,0.20760086,1.281679,0.09683395
-0.2,-0.2,0.6,-0.34906585039886584,-0.34906585039886584,-0.34906585039886584,1.3250549,1.5080485,0.22512028,0.087516576,0.26774666,1.0378287,0.5058482,-0.34901723,1.3780812,-0.26683825,-0.54732245,0.21381311,1.28605,0.10017191
-0.2,-0.2,0.6,-0.34906585039886584,-0.34906585039886584,-0.34906585039886584,1.3268316,1.5020232,0.22539555,0.08343176,0.2576601,1.0394468,0.4987281,-0.3470511,1.3840464,-0.2613936,-0.54323995,0.21723689,1.2852856,0.078426994
-0.2,-0.2,0.6,-0.34906585039886584,-0.34906585039886584,-0.34906585039886584,1.333162,1.5127326,0.22697605,0.08382396,0.277535,1.0307596,0.5024428,-0.34781033,1.3985924,-0.26102576,-0.5497048,0.20235987,1.2846183,0.115935035
-0.2,-0.2,0.6,-0.34906585039886584,-0.34906585039886584,-0.34906585039886584,1.3291818,1.5082127,0.22176535,0.08231021,0.27351514,1.0358251,0.49948913,-0.35362816,1.3808424,-0.26047802,-0.55058086,0.2100712,1.2839144,0.101453476
-0.2,-0.2,0.6,-0.34906585039886584,-0.34906585039886584,-0.34906585039886584,1.3337477,1.5032493,0.22359623,0.08592351,0.2606174,1.0386065,0.50005454,-0.3493336,1.3799407,-0.25751656,-0.5432707,0.21093406,1.281471,0.13511859
-0.2,-0.2,0.6,-0.34906585039886584,-0.34906585039886584,-0.34906585039886584,1.3349057,1.505135,0.22028078,0.08350835,0.26511365,1.0378842,0.5085843,-0.35101396,1.4007784,-0.26015162,-0.54632735,0.21841814,1.288371,0.096902944
-0.2,-0.2,0.6,-0.34906585039886584,-0.34906585039886584,-0.34906585039886584,1.3347358,1.5031855,0.22519429,0.08058398,0.27877703,1.0345346,0.502351,-0.3502901,1.4072281,-0.25980747,-0.5421347,0.21001874,1.2834109,0.1162945
-0.2,-0.2,0.6,-0.34906585039886584,-0.34906585039886584,-0.34906585039886584,1.338206,1.5047027,0.23035291,0.08541941,0.26256502,1.038399,0.495835,-0.34622934,1.3955048,-0.25326058,-0.5420552,0.20167941,1.2909125,0.0885966
-0.2,-0.2,0.6,-0.34906585039886584,-0.34906585039886584,-0.34906585039886584,1.3342971,1.5014838,0.22978573,0.08317839,0.2577078,1.0365698,0.4826738,-0.34919438,1.3901583,-0.25883308,-0.5469667,0.20997366,1.2848464,0.10929579
-0.2,-0.2,0.6,-0.34906585039886584,-0.34906585039886584,-0.34906585039886584,1.3253139,1.5066514,0.2272356,0.083374865,0.26682624,1.0351689,0.5011313,-0.3522321,1.3797677,-0.25637716,-0.5449324,0.20852856,1.2831557,0.098683335
-0.2,-0.2,0.6,-0.34906585039886584,-0.34906585039886584,-0.34906585039886584,1.3423893,1.4959662,0.22212066,0.08585412,0.26610565,1.0324687,0.49739617,-0.3486255,1.3897586,-0.25654647,-0.54450977,0.20603256,1.2881591,0.076916434
-0.2,-0.2,0.6,-0.34906585039886584,-0.34906585039886584,-0.34906585039886584,1.3400799,1.5129231,0.22381872,0.08584996,0.2725652,1.036342,0.49356696,-0.35033268,1.3970076,-0.26710334,-0.54813486,0.22626385,1.2857246,0.11776617
-0.2,-0.2,0.6,-0.34906585039886584,-0.34906585039886584,-0.34906585039886584,1.332907,1.5024754,0.22629976,0.08282554,0.25885308,1.0353273,0.50366384,-0.34631595,1.3804684,-0.26081088,-0.5455862,0.2055574,1.284322,0.05689164
-0.2,-0.2,0.6,-0.34906585039886584,-0.34906585039886584,-0.34906585039886584,1.3431116,1.5127473,0.22826177,0.08907415,0.25978673,1.0402799,0.48240176,-0.35288462,1.4035645,-0.25972775,-0.5431317,0.21606724,1.2855542,0.1218089
-0.2,-0.2,0.6,-0.34906585039886584,-0.34906585039886584,-0.34906585039886584,1.3279479,1.5047715,0.2272597,0.0873699,0.25809115,1.0363469,0.48897973,-0.3494208,1.4067607,-0.2571883,-0.5440266,0.2090942,1.2843927,0.10745738
-0.2,-0.2,0.6,-0.34906585039886584,-0.34906585039886584,-0.34906585039886584,1.3305471,1.5101234,0.22624844,0.08151535,0.2630552,1.0407269,0.49183536,-0.34704325,1.4115199,-0.2551001,-0.54820687,0.21054338,1.2874612,0.12598523
-0.2,-0.2,0.6,-0.34906585039886584,-0.34906585039886584,-0.34906585039886584,1.3316962,1.507893,0.228864,0.085968174,0.27587318,1.0330211,0.48621443,-0.34546632,1.3867822,-0.2590918,-0.54826474,0.20032579,1.2896721,0.10569845
-0.2,-0.2,0.6,-0.34906585039886584,-0.34906585039886584,-0.34906585039886584,1.3355793,1.5094091,0.22146575,0.08510456,0.27699122,1.0392224,0.48226964,-0.3476867,1.3852549,-0.25658906,-0.54583347,0.20567176,1.2859088,0.083609104
-0.2,-0.2,0.6,-0.34906585039886584,-0.34906585039886584,-0.34906585039886584,1.3302556,1.5106491,0.22073472,0.087442696,0.2769954,1.0376388,0.49183917,-0.34944284,1.3933882,-0.26005036,-0.5499001,0.21113296,1.2880439,0.10846149
-0.2,-0.2,0.6,-0.34906585039886584,-0.34906585039886584,-0.34906585039886584,1.3294208,1.504975,0.22400126,0.08342994,0.26528358,1.0396215,0.5028261,-0.3462548,1.3889387,-0.25960478,-0.5466032,0.20778601,1.2872297,0.09748587
-0.2,-0.2,0.6,-0.34906585039886584,-0.34906585039886584,-0.34906585039886584,1.3249311,1.5099721,0.22470917,0.0844765,0.26757988,1.033171,0.5140828,-0.34863463,1.3939549,-0.25867933,-0.54803187,0.21593642,1.2849629,0.10882214
-0.2,-0.2,0.6,-0.34906585039886584,-0.34906585039886584,-0.34906585039886584,1.3275281,1.5111426,0.2255152,0.08065876,0.27260053,1.0398787,0.50054157,-0.34817585,1.3986217,-0.2589886,-0.5478494,0.20937182,1.2866162,0.10795639
-0.2,-0.2,0.6,-0.34906585039886584,-0.34906585039886584,-0.34906585039886584,1.3184605,1.5083377,0.22523148,0.08111961,0.26228106,1.0385853,0.5109165,-0.3515175,1.4028592,-0.26315504,-0.5457179,0.21663769,1.2812753,0.083028056
-0.2,-0.2,0.6,-0.34906585039886584,-0.34906585039886584,-0.34906585039886584,1.3362787,1.5053077,0.22454165,0.082179286,0.2657192,1.0358691,0.48937735,-0.34924802,1.3863952,-0.255943,-0.54474884,0.20183674,1.285781,0.07947211
-0.2,-0.2,0.6,-0.34906585039886584,-0.34906585039886584,-0.34906585039886584,1.3398355,1.5043367,0.21841785,0.08165874,0.27356318,1.037419,0.50363564,-0.35201776,1.3979547,-0.25954813,-0.55098456,0.21188603,1.288793,0.09232365
-0.2,-0.2,0.6,-0.34906585039886584,-0.34906585039886584,-0.34906585039886584,1.3312526,1.5035992,0.2274426,0.08699612,0.26411107,1.041148,0.4907221,-0.34983915,1.3883926,-0.2684248,-0.54500335,0.20887226,1.2859857,0.12141047
-0.2,-0.2,0.6,-0.34906585039886584,-0.34906585039886584,-0.34906585039886584,1.3150496,1.5082102,0.22411337,0.085865356,0.2646132,1.0378821,0.5024544,-0.34897757,1.3936907,-0.26136398,-0.54892856,0.21552885,1.2864461,0.08266651
-0.2,-0.2,0.6,-0.34906585039886584,-0.34906585039886584,-0.34906585039886584,1.3245478,1.5044214,0.22731054,0.08560509,0.26174882,1.0372857,0.5049573,-0.34893596,1.3891091,-0.2545905,-0.54626334,0.20287503,1.2868775,0.09513433
-0.2,-0.2,0.6,-0.34906585039886584,-0.34906585039886584,-0.34906585039886584,1.3255168,1.5069883,0.22974843,0.08612677,0.26013002,1.0369436,0.50325495,-0.34630978,1.3789916,-0.26894882,-0.5500247,0.21029773,1.2886412,0.0806875
-0.2,-0.2,0.6,-0.34906585039886584,-0.34906585039886584,-0.34906585039886584,1.328598,1.5079764,0.22693601,0.08436637,0.2710354,1.0349005,0.50741816,-0.3527992,1.3797222,-0.26654696,-0.5495859,0.21925351,1.2868052,0.1078702
-0.2,-0.2,0.6,-0.34906585039886584,-0.34906585039886584,-0.34906585039886584,1.3163878,1.5097442,0.22469416,0.08536697,0.264503,1.0365599,0.49437064,-0.35017025,1.3923401,-0.25304148,-0.5528851,0.20289189,1.284253,0.096886225
-0.2,-0.2,0.6,-0.34906585039886584,-0.34906585039886584,-0.34906585039886584,1.3332852,1.5049961,0.22593018,0.08474621,0.26788497,1.0351676,0.5051958,-0.3522519,1.3914664,-0.25579998,-0.5483959,0.20450749,1.2892872,0.07216963
-0.2,-0.2,0.6,-0.34906585039886584,-0.34906585039886584,-0.34906585039886584,1.3376158,1.5141001,0.22406374,0.08391446,0.26553345,1.0420169,0.49639618,-0.35294604,1.3884277,-0.26360694,-0.54854065,0.21590856,1.2847474,0.088654816
-0.2,-0.2,0.6,-0.34906585039886584,-0.34906585039886584,-0.34906585039886584,1.3270642,1.5068464,0.22552022,0.084664114,0.26492321,1.0325248,0.48877224,-0.35077006,1.3884494,-0.26022345,-0.5465716,0.224828,1.2842406,0.1159159
-0.2,-0.2,0.6,-0.34906585039886584,-0.34906585039886584,-0.34906585039886584,1.3438855,1.5078173,0.22138636,0.085582785,0.26779568,1.0335166,0.5110854,-0.3520085,1.3821903,-0.26124904,-0.54665303,0.2119328,1.2830641,0.099460855
-0.2,-0.2,0.6,-0.34906585039886584,-0.34906585039886584,-0.34906585039886584,1.3276381,1.513103,0.22910812,0.087398335,0.26465568,1.0327202,0.49596763,-0.347589,1.3954775,-0.255663,-0.5481653,0.20589349,1.2897447,0.12942617
-0.2,-0.2,0.6,-0.34906585039886584,-0.34906585039886584,-0.34906585039886584,1.3332819,1.5074117,0.22509734,0.08775927,0.27135321,1.0391878,0.49808645,-0.34933,1.3770305,-0.2628271,-0.54479575,0.20670205,1.2868382,0.07042593
-0.2,-0.2,0.6,-0.34906585039886584,-0.34906585039886584,-0.34906585039886584,1.337933,1.5042274,0.22502287,0.0833111,0.26919553,1.0373238,0.50615555,-0.3470282,1.3910849,-0.2616987,-0.54749554,0.20731297,1.2892841,0.10837664
-0.2,-0.2,0.6,-0.34906585039886584,-0.34906585039886584,-0.34906585039886584,1.3191397,1.4995064,0.22277433,0.08566271,0.2685336,1.0369616,0.4920376,-0.347864,1.3896819,-0.25775716,-0.5442832,0.21233276,1.2853411,0.10111204
-0.2,-0.2,0.6,-0.34906585039886584,-0.34906585039886584,-0.34906585039886584,1.3349949,1.5132548,0.22193933,0.0825524,0.2669598,1.0383906,0.48986396,-0.35080642,1.3920095,-0.25736263,-0.55047065,0.21183838,1.2843906,0.08873365
-0.2,-0.2,0.6,-0.34906585039886584,-0.34906585039886584,-0.34906585039886584,1.3327585,1.5098531,0.23114683,0.0827348,0.25949124,1.0350457,0.5007842,-0.3445069,1.3987218,-0.2580918,-0.54804957,0.19626226,1.2848523,0.10127606
-0.2,-0.2,0.6,-0.34906585039886584,-0.34906585039886584,-0.34906585039886584,1.3266875,1.5092008,0.22657895,0.08438456,0.2730313,1.0320828,0.48571658,-0.34504443,1.3976657,-0.24621533,-0.5458693,0.19705686,1.2848667,0.12120064
-0.2,-0.2,0.6,-0.34906585039886584,-0.34906585039886584,-0.34906585039886584,1.3476174,1.5064783,0.2287034,0.08520665,0.2630749,1.0360179,0.49116063,-0.34676868,1.385929,-0.2558286,-0.54352623,0.20550454,1.2881373,0.10529238
-0.2,-0.2,0.6,-0.34906585039886584,-0.34906585039886584,-0.34906585039886584,1.3388346,1.5043766,0.22458343,0.082979664,0.2618947,1.0357965,0.48839724,-0.3463332,1.3982956,-0.25607,-0.54475737,0.19676833,1.2842829,0.043392494
-0.2,-0.2,0.6,-0.34906585039886584,-0.34906585039886584,-0.34906585039886584,1.3224221,1.5067375,0.22242673,0.084075965,0.26389003,1.0367223,0.49509916,-0.35051498,1.3868642,-0.25502676,-0.55135643,0.20838511,1.2825937,0.071525685
-0.2,-0.2,0.6,-0.34906585039886584,-0.34906585039886584,-0.34906585039886584,1.3276615,1.510362,0.22834289,0.0863654,0.27264693,1.0348976,0.50620806,-0.351943,1.3922031,-0.24681981,-0.5388402,0.20518462,1.2894834,0.094228595
-0.2,-0.2,0.6,-0.34906585039886584,-0.34906585039886584,-0.34906585039886584,1.3363492,1.5088712,0.23035105,0.08166185,0.25938824,1.0386903,0.49814808,-0.343906,1.3921539,-0.2629164,-0.545361,0.20973215,1.2868736,0.092939734
-0.2,-0.2,0.6,-0.34906585039886584,-0.34906585039886584,-0.34906585039886584,1.3237708,1.5072397,0.22805122,0.08779313,0.26823068,1.0353386,0.49337393,-0.35117912,1.3798018,-0.26143008,-0.54778934,0.21922441,1.2906264,0.08785516
-0.2,-0.2,0.6,-0.34906585039886584,-0.34906585039886584,-0.34906585039886584,1.3348293,1.5060323,0.22175366,0.08414496,0.26981497,1.0311133,0.49357945,-0.34880695,1.3996797,-0.2590438,-0.5493492,0.20988038,1.2831483,0.11921527
-0.2,-0.2,0.6,-0.34906585039886584,-0.34906585039886584,-0.34906585039886584,1.3268127,1.5074319,0.2245553,0.081678726,0.26325014,1.0373528,0.50004447,-0.34426174,1.3865992,-0.2566293,-0.54642445,0.22302496,1.2863511,0.1425326
-0.2,-0.2,0.6,-0.34906585039886584,-0.34906585039886584,-0.34906585039886584,1.3263674,1.506935,0.22596252,0.083263524,0.26097095,1.0345076,0.5066561,-0.34710154,1.3865634,-0.2649336,-0.5526376,0.20458533,1.2820036,0.11067
-0.2,-0.2,0.6,-0.34906585039886584,-0.34906585039886584,-0.34906585039886584,1.3399669,1.5090669,0.22520606,0.08666735,0.2636667,1.033642,0.5026331,-0.3477339,1.389038,-0.25909534,-0.54275197,0.20952044,1.2825885,0.1087296
-0.2,-0.2,0.6,-0.34906585039886584,-0.34906585039886584,-0.34906585039886584,1.3285664,1.4988366,0.22973865,0.08630603,0.27435005,1.0342195,0.50949603,-0.35234523,1.4051028,-0.25916663,-0.5423539,0.2045672,1.2916503,0.11620832
-0.2,-0.2,0.6,-0.34906585039886584,-0.34906585039886584,-0.34906585039886584,1.3196983,1.5067201,0.2234992,0.084182225,0.27843943,1.0353867,0.49582127,-0.34888703,1.3809396,-0.2699686,-0.5492462,0.22450046,1.285006,0.09761744
-0.2,-0.2,0.6,-0.34906585039886584,-0.34906585039886584,-0.34906585039886584,1.3245554,1.5040232,0.22502492,0.08474154,0.2676781,1.0355928,0.48191962,-0.35107622,1.3857801,-0.24767278,-0.54393405,0.20514011,1.2840644,0.07179134
-0.2,-0.2,0.6,-0.34906585039886584,-0.34906585039886584,-0.34906585039886584,1.3305373,1.502488,0.22487858,0.08331194,0.26544115,1.0361984,0.49813002,-0.34514755,1.4018221,-0.26149642,-0.55427194,0.20085903,1.2928628,0.09717174
-0.2,-0.2,0.6,-0.34906585039886584,-0.34906585039886584,-0.34906585039886584,1.33236,1.508434,0.22362332,0.081738956,0.2718212,1.0392673,0.4825085,-0.34704328,1.3868532,-0.25956067,-0.5476531,0.21585573,1.286595,0.08604338
-0.2,-0.2,0.6,-0.34906585039886584,-0.34906585039886584,-0.34906585039886584,1.320668,1.5096525,0.22520532,0.08401465,0.2646139,1.0384082,0.4944489,-0.34798244,1.3870769,-0.25804332,-0.547972,0.21360976,1.2861809,0.07997061
-0.2,-0.2,0.6,-0.34906585039886584,-0.34906585039886584,-0.34906585039886584,1.3267192,1.5019931,0.22528927,0.08444753,0.26683408,1.0285629,0.49203148,-0.3453937,1.4024316,-0.249789,-0.55017483,0.206235,1.2909902,0.12151053
-0.2,-0.2,0.6,-0.34906585039886584,-0.34906585039886584,-0.34906585039886584,1.329486,1.5096202,0.22857526,0.08389593,0.27334675,1.0325187,0.48514503,-0.34996706,1.393881,-0.26120257,-0.546017,0.22669235,1.2878512,0.11419061
-0.2,-0.2,0.6,-0.34906585039886584,-0.34906585039886584,-0.34906585039886584,1.3350793,1.5104386,0.22627781,0.08526349,0.26678988,1.0381844,0.50373834,-0.3488969,1.4101471,-0.26378348,-0.5434014,0.21039599,1.2849009,0.089142784
-0.2,-0.2,0.6,-0.34906585039886584,-0.34906585039886584,-0.34906585039886584,1.3196982,1.5024555,0.22608946,0.08410933,0.26841274,1.0367393,0.49147946,-0.34728494,1.3924458,-0.25521433,-0.54748034,0.20376374,1.2891424,0.120057784
-0.2,-0.2,0.6,-0.34906585039886584,-0.34906585039886584,-0.34906585039886584,1.3424909,1.50563,0.22707458,0.08113797,0.2666253,1.0391325,0.49220008,-0.35428026,1.3821398,-0.25750387,-0.54970753,0.21114388,1.2898277,0.14843765
-0.2,-0.2,0.6,-0.34906585039886584,-0.34906585039886584,-0.34906585039886584,1.329984,1.5072825,0.22947069,0.08518936,0.26902056,1.0345619,0.50510395,-0.34405616,1.3843387,-0.2634685,-0.548731,0.19674365,1.2908887,0.14624858
-0.2,-0.2,0.6,-0.34906585039886584,-0.34906585039886584,-0.34906585039886584,1.3323231,1.5046499,0.22811319,0.08715251,0.27069247,1.0366403,0.49215683,-0.3484424,1.3989227,-0.25724056,-0.54761153,0.19954331,1.2888074,0.09458705
-0.2,-0.2,0.6,-0.34906585039886584,-0.34906585039886584,-0.34906585039886584,1.3218615,1.5088187,0.22613382,0.08521302,0.27212206,1.0352696,0.49135217,-0.35037738,1.3946471,-0.2538949,-0.5455232,0.21713166,1.2882688,0.13151146
-0.2,-0.2,0.6,-0.34906585039886584,-0.34906585039886584,-0.34906585039886584,1.327594,1.5104227,0.2266898,0.07910614,0.26521417,1.040825,0.49886236,-0.34960735,1.3753519,-0.25727895,-0.5481855,0.20884824,1.2860179,0.07455592
-0.2,-0.2,0.6,-0.34906585039886584,-0.34906585039886584,-0.34906585039886584,1.3168114,1.5074896,0.22428729,0.08340529,0.26879635,1.034039,0.500916,-0.34557822,1.3889166,-0.25555992,-0.5481493,0.2008123,1.281951,0.11789184
-0.2,-0.2,0.6,-0.34906585039886584,-0.34906585039886584,-0.34906585039886584,1.3412808,1.5087769,0.2210366,0.08207217,0.2682559,1.042216,0.49919495,-0.3467953,1.4004112,-0.25823495,-0.54367596,0.19804494,1.2858903,0.1009382
-0.2,-0.2,0.6,-0.34906585039886584,-0.34906585039886584,-0.34906585039886584,1.3360852,1.5050642,0.22245103,0.0833321,0.2621734,1.0354367,0.5060923,-0.34613654,1.390035,-0.2617701,-0.54939795,0.21013282,1.2868906,0.09954751
-0.2,-0.2,0.6,-0.34906585039886584,-0.34906585039886584,-0.34906585039886584,1.3413712,1.5095754,0.22807755,0.08315089,0.2666731,1.03356,0.4868941,-0.34668612,1.3923464,-0.26202995,-0.5438784,0.22230347,1.2879473,0.0880829
-0.2,-0.2,0.6,-0.34906585039886584,-0.34906585039886584,-0.34906585039886584,1.3443679,1.5018729,0.22338599,0.08272508,0.25970748,1.0385209,0.4936273,-0.34674367,1.3796389,-0.26038536,-0.54660255,0.21378522,1.2894659,0.10220005
-0.2,-0.2,0.6,-0.34906585039886584,-0.34906585039886584,-0.34906585039886584,1.3357277,1.5022625,0.22430788,0.08585797,0.26287144,1.036485,0.5091799,-0.3488083,1.3899932,-0.2528347,-0.5443184,0.19154525,1.287133,0.06641333
-0.2,-0.2,0.6,-0.34906585039886584,-0.34906585039886584,-0.34906585039886584,1.3366828,1.5068069,0.22782262,0.08589167,0.25635463,1.036967,0.49545756,-0.3493037,1.3914685,-0.25261104,-0.5446128,0.20364109,1.2882689,0.15266411
-0.2,-0.2,0.6,-0.34906585039886584,-0.34906585039886584,-0.34906585039886584,1.3173702,1.5007839,0.22860703,0.08539476,0.25959304,1.03858,0.48907685,-0.34373173,1.3831127,-0.25839436,-0.544886,0.21410741,1.2897857,0.09883037
-0.2,-0.2,0.6,-0.34906585039886584,-0.34906585039886584,-0.34906585039886584,1.3373945,1.503953,0.22606821,0.0810903,0.25621855,1.037114,0.50295347,-0.35502595,1.3961984,-0.25032613,-0.5418818,0.20870882,1.283776,0.08893383
-0.2,-0.2,0.6,-0.34906585039886584,-0.34906585039886584,-0.34906585039886584,1.3369423,1.5097362,0.2256479,0.08908491,0.26798573,1.033109,0.49621546,-0.34705028,1.4040827,-0.2585036,-0.54780155,0.20780376,1.2897558,0.12077082
-0.2,-0.2,0.6,-0.34906585039886584,-0.34906585039886584,-0.34906585039886584,1.3476435,1.5077534,0.22467798,0.08319372,0.264857,1.0323381,0.48552868,-0.354589,1.3847007,-0.24786554,-0.5462816,0.20894137,1.2875808,0.09287644
-0.2,-0.2,0.6,-0.34906585039886584,-0.34906585039886584,-0.34906585039886584,1.335143,1.4995283,0.22514771,0.08365122,0.25869167,1.0348567,0.49920705,-0.3501791,1.3845544,-0.26003736,-0.55084264,0.20541754,1.2864332,0.11572322
-0.2,-0.2,0.6,-0.34906585039886584,-0.34906585039886584,-0.34906585039886584,1.3264245,1.5127447,0.22418727,0.0861542,0.26990658,1.0405916,0.49590665,-0.34736362,1.3825774,-0.26355332,-0.5516516,0.21062723,1.286996,0.09987716
-0.2,-0.2,0.6,-0.34906585039886584,-0.34906585039886584,-0.34906585039886584,1.3262224,1.5098636,0.22764477,0.08163687,0.2634985,1.0377332,0.48696235,-0.35239077,1.3923435,-0.26045403,-0.5475942,0.21854681,1.2818311,0.10917408
-0.2,-0.2,0.6,-0.34906585039886584,-0.34906585039886584,-0.34906585039886584,1.3273842,1.5145338,0.22851437,0.08765699,0.27109656,1.0342499,0.500886,-0.34750772,1.3762847,-0.26167366,-0.54633266,0.21112497,1.2856365,0.12449781
-0.2,-0.2,0.6,-0.34906585039886584,-0.34906585039886584,-0.34906585039886584,1.3351461,1.5024847,0.22615398,0.08380827,0.26755565,1.0368047,0.48346826,-0.349339,1.3758411,-0.25613034,-0.5429518,0.20306115,1.283539,0.089877866
-0.2,-0.2,0.6,-0.34906585039886584,-0.34906585039886584,-0.34906585039886584,1.3326305,1.502822,0.22408149,0.08139969,0.25999787,1.0392472,0.49921,-0.3482131,1.3851849,-0.25993228,-0.5506789,0.21033208,1.2850283,0.1384709
-0.2,-0.2,0.6,-0.34906585039886584,-0.34906585039886584,-0.34906585039886584,1.3347253,1.5084386,0.2268367,0.0817938,0.2652365,1.0368266,0.4972698,-0.3435762,1.4016647,-0.2695922,-0.5478989,0.20415056,1.2804824,0.078954175
-0.2,-0.2,0.6,-0.34906585039886584,-0.34906585039886584,-0.34906585039886584,1.335398,1.509644,0.22847459,0.08014833,0.2552594,1.0379838,0.4891536,-0.35189188,1.38738,-0.24703439,-0.5441175,0.21239652,1.2875745,0.11837034
-0.2,-0.2,0.6,-0.34906585039886584,-0.34906585039886584,-0.34906585039886584,1.3187375,1.5046177,0.22550301,0.08155562,0.27313387,1.0364689,0.48728397,-0.349393,1.3988538,-0.2561742,-0.5437075,0.21666327,1.2851329,0.06521482
-0.2,-0.2,0.6,-0.34906585039886584,-0.34906585039886584,-0.34906585039886584,1.3234265,1.503725,0.22417009,0.08785428,0.28244817,1.0364943,0.49140897,-0.34866232,1.3910655,-0.2610983,-0.5449283,0.21067709,1.2873654,0.12768498
-0.2,-0.2,0.6,-0.34906585039886584,-0.34906585039886584,-0.34906585039886584,1.3309917,1.5076916,0.2281317,0.08326567,0.26904407,1.0342218,0.48456916,-0.34844944,1.3854958,-0.25999928,-0.54419905,0.21845376,1.2874641,0.1093452
-0.2,-0.2,0.6,-0.34906585039886584,-0.34906585039886584,-0.34906585039886584,1.3264976,1.5050831,0.22507022,0.08291524,0.26894307,1.0372481,0.49217942,-0.34761554,1.3806916,-0.25660932,-0.54661584,0.20974283,1.2849355,0.09719879
-0.2,-0.2,0.6,-0.34906585039886584,-0.34906585039886584,-0.34906585039886584,1.3271723,1.504868,0.2273792,0.08194438,0.2624413,1.0397432,0.491714,-0.34937608,1.3949728,-0.2603361,-0.5433724,0.218408,1.2852874,0.08286076
-0.2,-0.2,0.6,-0.34906585039886584,-0.34906585039886584,-0.34906585039886584,1.3241484,1.5012888,0.2265352,0.08455152,0.26806748,1.0340517,0.49000525,-0.3473727,1.4017781,-0.25316858,-0.5446552,0.19887377,1.2843386,0.10258414
-0.2,-0.2,0.6,-0.34906585039886584,-0.34906585039886584,-0.34906585039886584,1.3404762,1.5075543,0.22315098,0.08243811,0.26432145,1.042981,0.50989115,-0.34651938,1.3955376,-0.25500518,-0.54775894,0.19499582,1.2899077,0.12995663
-0.2,-0.2,0.6,-0.34906585039886584,-0.34906585039886584,-0.34906585039886584,1.3219143,1.5060871,0.22602275,0.08356113,0.27403247,1.0314848,0.50289947,-0.3481334,1.3723679,-0.24897791,-0.54235905,0.19865727,1.2864878,0.084565535
-0.2,-0.2,0.6,-0.34906585039886584,-0.34906585039886584,-0.34906585039886584,1.3226382,1.5070488,0.22557575,0.0854762,0.26194617,1.0362915,0.4969574,-0.35079765,1.3942628,-0.2579198,-0.5465552,0.21628232,1.2861602,0.110547416
-0.2,-0.2,0.6,-0.34906585039886584,-0.34906585039886584,-0.34906585039886584,1.3358264,1.5063072,0.22389734,0.083230436,0.26441714,1.0376759,0.48738584,-0.3468936,1.3793714,-0.26304847,-0.54736865,0.21684873,1.2860906,0.114246935
-0.2,-0.2,0.6,-0.34906585039886584,-0.34906585039886584,-0.34906585039886584,1.3334424,1.5051761,0.22310942,0.08637207,0.2750845,1.0362587,0.49797636,-0.3490215,1.3843946,-0.26184458,-0.5464674,0.20573443,1.2833327,0.056468915
-0.2,-0.2,0.6,-0.34906585039886584,-0.34906585039886584,-0.34906585039886584,1.3323445,1.5089394,0.22337851,0.08370961,0.2637906,1.0418372,0.4897691,-0.3495735,1.3956157,-0.26265562,-0.5459882,0.22002953,1.2856585,0.06397081
-0.2,-0.2,0.6,-0.34906585039886584,-0.34906585039886584,-0.34906585039886584,1.3316655,1.5042048,0.22342855,0.08257707,0.27406076,1.0352596,0.4955329,-0.34684402,1.3824897,-0.26221234,-0.5453148,0.20723902,1.2857856,0.11451126
-0.2,-0.2,0.6,-0.34906585039886584,-0.34906585039886584,-0.34906585039886584,1.3415176,1.5064373,0.2225777,0.08520226,0.27222732,1.0334091,0.49919853,-0.35359758,1.4050359,-0.26401046,-0.5482332,0.21339777,1.2857307,0.098750316
-0.2,-0.2,0.6,-0.34906585039886584,-0.34906585039886584,-0.34906585039886584,1.3281572,1.5113229,0.22038049,0.08191164,0.26268336,1.0409927,0.49818352,-0.34764728,1.393533,-0.26161757,-0.55132735,0.22490126,1.2883335,0.099851795
-0.2,-0.2,0.6,-0.34906585039886584,-0.34906585039886584,-0.34906585039886584,1.3462977,1.51061,0.22626737,0.0792031,0.26578447,1.0390918,0.4946782,-0.34993348,1.3920561,-0.2546222,-0.54620326,0.20033884,1.2841921,0.092753
-0.2,-0.2,0.6,-0.34906585039886584,-0.34906585039886584,-0.34906585039886584,1.3337635,1.500534,0.22760442,0.08695254,0.258456,1.0367141,0.48923454,-0.34683657,1.3978221,-0.25395474,-0.54479086,0.19219609,1.2844924,0.10383947
-0.2,-0.2,0.6,-0.34906585039886584,-0.34906585039886584,-0.34906585039886584,1.3227904,1.5068351,0.22783564,0.082205296,0.2653328,1.034401,0.50158894,-0.35011885,1.3966633,-0.25927714,-0.55156595,0.20058486,1.2852099,0.078417294
-0.2,-0.2,0.6,-0.34906585039886584,-0.34906585039886584,-0.34906585039886584,1.3297093,1.5148952,0.2262286,0.08408698,0.27659506,1.0350991,0.5069428,-0.3456881,1.3977122,-0.25689504,-0.54377687,0.20506412,1.2855645,0.09511408
-0.2,-0.2,0.6,-0.34906585039886584,-0.34906585039886584,-0.34906585039886584,1.325828,1.5056677,0.22175081,0.0798608,0.26847422,1.0386583,0.4955248,-0.35154286,1.3861382,-0.25336733,-0.54463464,0.2213555,1.2865198,0.11400103
-0.2,-0.2,0.6,-0.34906585039886584,-0.34906585039886584,-0.34906585039886584,1.330805,1.504713,0.22710608,0.08614399,0.26377872,1.0340546,0.4869432,-0.35008356,1.3928491,-0.25158727,-0.54362893,0.20342086,1.2856562,0.12542564
-0.2,-0.2,0.6,-0.34906585039886584,-0.34906585039886584,-0.34906585039886584,1.3486013,1.507659,0.22100598,0.083802134,0.26325017,1.0365459,0.4879605,-0.34965125,1.4014561,-0.2515473,-0.5459595,0.20730674,1.2879595,0.078473315
-0.2,-0.2,0.6,-0.34906585039886584,-0.34906585039886584,-0.34906585039886584,1.33152,1.50989,0.22753195,0.085773714,0.25514355,1.0364695,0.49540365,-0.34949732,1.3986524,-0.25993896,-0.5442037,0.21615583,1.2843444,0.099287346
-0.2,-0.2,0.6,-0.34906585039886584,-0.34906585039886584,-0.34906585039886584,1.3263726,1.5132552,0.22551021,0.08694638,0.26665893,1.0386705,0.48712358,-0.35331276,1.3869691,-0.2520571,-0.54871273,0.20994693,1.2861768,0.08057106
-0.2,-0.2,0.6,-0.34906585039886584,-0.34906585039886584,-0.34906585039886584,1.3185478,1.5105305,0.22540154,0.08565162,0.26953992,1.0342133,0.49031675,-0.34837407,1.3996379,-0.2614847,-0.5477997,0.21678789,1.2822095,0.09074351
-0.2,-0.2,0.6,-0.34906585039886584,-0.34906585039886584,-0.34906585039886584,1.325518,1.5047568,0.22439753,0.08020539,0.26826137,1.0409206,0.49115646,-0.34809524,1.3833715,-0.2562885,-0.5507336,0.21153696,1.2889212,0.14410722
-0.2,-0.2,0.6,-0.34906585039886584,-0.34906585039886584,-0.34906585039886584,1.3210379,1.5051776,0.22285679,0.08216147,0.26643863,1.0334203,0.50248045,-0.34623238,1.3900232,-0.25764903,-0.54824185,0.2125209,1.2854171,0.091290064
-0.2,-0.2,0.6,-0.34906585039886584,-0.34906585039886584,-0.34906585039886584,1.3325496,1.5056424,0.22415367,0.08529458,0.27053958,1.0409508,0.49918637,-0.34597534,1.3957628,-0.25849533,-0.5474,0.20943998,1.2914697,0.13718806
-0.2,-0.2,0.6,-0.34906585039886584,-0.34906585039886584,-0.34906585039886584,1.3242093,1.5072628,0.22587597,0.083073184,0.26511264,1.035554,0.48574492,-0.34751526,1.3809417,-0.25807437,-0.5504901,0.20131584,1.280585,0.10820675
-0.2,-0.2,0.6,-0.34906585039886584,-0.34906585039886584,-0.34906585039886584,1.3263916,1.5069484,0.22487983,0.08283253,0.27238014,1.0377555,0.4881837,-0.349055,1.3942492,-0.25114328,-0.54697657,0.20128042,1.2878141,0.09623699
-0.2,-0.2,0.6,-0.34906585039886584,-0.34906585039886584,-0.34906585039886584,1.3145591,1.5040805,0.22439568,0.08424804,0.25942045,1.0351964,0.49427876,-0.34162492,1.3936199,-0.2600454,-0.54918414,0.20714198,1.284327,0.093898796
-0.2,-0.2,0.6,-0.34906585039886584,-0.34906585039886584,-0.34906585039886584,1.3296798,1.5092045,0.22898594,0.0830499,0.26707992,1.0372715,0.4933133,-0.3464697,1.3857555,-0.25429538,-0.54933566,0.19562794,1.2883954,0.114333995
-0.2,-0.2,0.6,-0.34906585039886584,-0.34906585039886584,-0.34906585039886584,1.3237176,1.5030597,0.2232374,0.08667376,0.2626937,1.0374457,0.48953232,-0.3513837,1.4010156,-0.25530794,-0.5490298,0.2090834,1.2885983,0.10616893
-0.2,-0.2,0.6,-0.34906585039886584,-0.34906585039886584,-0.34906585039886584,1.3285819,1.5002025,0.2241388,0.08148068,0.2667558,1.0328537,0.48752522,-0.3501042,1.4134473,-0.2536286,-0.54613376,0.2050573,1.2848568,0.08448398
-0.2,-0.2,0.6,-0.34906585039886584,-0.34906585039886584,-0.34906585039886584,1.3501582,1.5108536,0.2290724,0.08490569,0.26072866,1.0333669,0.4914918,-0.34774038,1.3887334,-0.25509074,-0.5434474,0.19652176,1.2863481,0.07698491
-0.2,-0.2,0.6,-0.34906585039886584,-0.34906585039886584,-0.34906585039886584,1.3213327,1.511979,0.22714661,0.081293836,0.2662608,1.0355467,0.5070596,-0.35276312,1.3931092,-0.2549049,-0.547586,0.21860835,1.2877312,0.098336995
-0.2,-0.2,0.6,-0.34906585039886584,-0.34906585039886584,-0.34906585039886584,1.3369181,1.502986,0.22505765,0.08372273,0.27081636,1.0320743,0.5062299,-0.34398302,1.3859206,-0.26214296,-0.5412135,0.20867257,1.2838247,0.105813324
-0.2,-0.2,0.6,-0.34906585039886584,-0.34906585039886584,-0.34906585039886584,1.3372352,1.5076139,0.22111818,0.08293426,0.26960444,1.0383413,0.48697788,-0.35051325,1.3864732,-0.25554535,-0.5488426,0.2148457,1.2824662,0.15133521
-0.2,-0.2,0.6,-0.34906585039886584,-0.34906585039886584,-0.34906585039886584,1.3453791,1.510015,0.22580963,0.08379594,0.26362687,1.0427611,0.5007506,-0.34734872,1.392425,-0.25997505,-0.54311115,0.20057368,1.2825595,0.11385863
-0.2,-0.2,0.6,-0.34906585039886584,-0.34906585039886584,-0.34906585039886584,1.3314973,1.504296,0.22623159,0.078147426,0.27816513,1.0325356,0.5016125,-0.34659022,1.3971851,-0.2493336,-0.5401041,0.2013331,1.2839339,0.15724668
-0.2,-0.2,0.6,-0.34906585039886584,-0.34906585039886584,-0.34906585039886584,1.3207866,1.5104812,0.22483069,0.08314253,0.26455352,1.0403643,0.49624178,-0.3470421,1.3799706,-0.26221704,-0.54674935,0.22282922,1.2849764,0.10402068
-0.2,-0.2,0.6,-0.34906585039886584,-0.34906585039886584,-0.34906585039886584,1.3294077,1.508312,0.22836746,0.085653715,0.27506268,1.0367191,0.48564765,-0.34950238,1.37999,-0.25237116,-0.5457186,0.19544095,1.2882384,0.108176686
-0.2,-0.2,0.6,-0.34906585039886584,-0.34906585039886584,-0.34906585039886584,1.3344004,1.5081431,0.22362396,0.084985964,0.27329907,1.0411783,0.48364764,-0.34741154,1.3831348,-0.26144898,-0.5469551,0.21079363,1.2893846,0.089521185
-0.2,-0.2,0.6,-0.34906585039886584,-0.34906585039886584,-0.34906585039886584,1.3328997,1.5078465,0.22708619,0.08231202,0.2563602,1.0361148,0.5146945,-0.35078368,1.3946419,-0.25419265,-0.5426631,0.21601546,1.288902,0.10650454
-0.2,-0.2,0.6,-0.34906585039886584,-0.34906585039886584,-0.34906585039886584,1.324669,1.5061506,0.22320956,0.085122935,0.26698744,1.0379809,0.5036136,-0.35007876,1.3821981,-0.2558387,-0.54512346,0.20474476,1.2850273,0.10615201
-0.2,-0.2,0.6,-0.34906585039886584,-0.34906585039886584,-0.34906585039886584,1.3314322,1.5021151,0.22569282,0.07740642,0.2645846,1.033715,0.49027172,-0.3462486,1.3908999,-0.26535317,-0.54781574,0.21097158,1.2817305,0.0773687
-0.2,-0.2,0.6,-0.34906585039886584,-0.34906585039886584,-0.34906585039886584,1.3338476,1.5062423,0.22188458,0.08103006,0.2633519,1.0366863,0.494614,-0.34752488,1.395083,-0.25695354,-0.54501283,0.2122383,1.2860228,0.09355884
-0.2,-0.2,0.6,-0.34906585039886584,-0.34906585039886584,-0.34906585039886584,1.3335315,1.5125471,0.22503565,0.088116646,0.2672775,1.0386115,0.49679998,-0.34712082,1.3881239,-0.26208642,-0.5471026,0.21633434,1.2846216,0.12437553
-0.2,-0.2,0.6,-0.34906585039886584,-0.34906585039886584,-0.34906585039886584,1.3181405,1.509431,0.23058279,0.084682494,0.2683004,1.0369297,0.5051193,-0.35307667,1.3780338,-0.2551419,-0.54458815,0.21504979,1.288375,0.08974441
-0.2,-0.2,0.6,-0.34906585039886584,-0.34906585039886584,-0.34906585039886584,1.3356701,1.5106761,0.22525294,0.084309235,0.26944464,1.0317054,0.4960502,-0.3477621,1.4023466,-0.25970954,-0.54613465,0.21807158,1.2868568,0.11284739
-0.2,-0.2,0.6,-0.34906585039886584,-0.34906585039886584,-0.34906585039886584,1.3137629,1.5062617,0.2241585,0.087010734,0.26111922,1.0382137,0.4885578,-0.34851667,1.3871772,-0.2597465,-0.54701275,0.21882579,1.284892,0.09477823
-0.2,-0.2,0.6,-0.34906585039886584,-0.34906585039886584,-0.34906585039886584,1.3316251,1.5073867,0.22633061,0.08370818,0.27102038,1.0418379,0.49050245,-0.3521223,1.3900083,-0.25913805,-0.5445542,0.20574954,1.2855206,0.14529012
-0.2,-0.2,0.6,-0.34906585039886584,-0.34906585039886584,-0.34906585039886584,1.3379605,1.5073588,0.22709294,0.086928666,0.26681826,1.0383829,0.4877623,-0.35155395,1.394207,-0.25108978,-0.54169154,0.2074958,1.2878311,0.12940952
-0.2,-0.2,0.6,-0.34906585039886584,-0.34906585039886584,-0.34906585039886584,1.3390412,1.5051302,0.22585188,0.08634317,0.2593837,1.0433351,0.49214557,-0.35286614,1.3803794,-0.2590304,-0.5456111,0.21573865,1.2906245,0.14515756
-0.2,-0.2,0.6,-0.34906585039886584,-0.34906585039886584,-0.34906585039886584,1.3325894,1.5132295,0.22508165,0.08332977,0.27158302,1.0390648,0.504446,-0.34737885,1.3861767,-0.25679228,-0.5481081,0.19415066,1.2870865,0.08470646
-0.2,-0.2,0.6,-0.34906585039886584,-0.34906585039886584,-0.34906585039886584,1.3343385,1.5024688,0.23143142,0.08202009,0.26784107,1.039141,0.490452,-0.34720737,1.3893536,-0.25548485,-0.54386,0.2047065,1.2895203,0.09392081
-0.2,-0.2,0.6,-0.34906585039886584,-0.34906585039886584,-0.34906585039886584,1.327042,1.5117459,0.2288641,0.08399302,0.26721466,1.038483,0.48775974,-0.34674028,1.3801731,-0.262613,-0.55184627,0.20812075,1.2891511,0.074950226
-0.2,-0.2,0.6,-0.34906585039886584,-0.34906585039886584,-0.34906585039886584,1.3185177,1.5064286,0.2309387,0.083878174,0.26461285,1.0336334,0.49877766,-0.35376105,1.3876721,-0.25682998,-0.5485051,0.19970042,1.2833424,0.09239199
-0.2,-0.2,0.6,-0.34906585039886584,-0.34906585039886584,-0.34906585039886584,1.3196485,1.5139847,0.22573735,0.085857294,0.2765586,1.0353887,0.49410883,-0.3526971,1.4032375,-0.2531566,-0.54661137,0.20633103,1.2860537,0.06722952
-0.2,-0.2,0.6,-0.34906585039886584,-0.34906585039886584,-0.34906585039886584,1.3178746,1.5025139,0.22673981,0.0845806,0.2628177,1.0395223,0.50940114,-0.35054892,1.3744901,-0.25604612,-0.54277897,0.21179163,1.2871411,0.11662944
-0.2,-0.2,0.6,-0.34906585039886584,-0.34906585039886584,-0.34906585039886584,1.3429832,1.5072153,0.22618245,0.0846048,0.2603522,1.036232,0.4953414,-0.34417143,1.3808348,-0.25897133,-0.5444886,0.20867836,1.2859654,0.1452946
-0.2,-0.2,0.6,-0.34906585039886584,-0.34906585039886584,-0.34906585039886584,1.3327293,1.5065317,0.22710013,0.083438866,0.2589226,1.0396305,0.51248264,-0.34939831,1.386777,-0.26044846,-0.54683876,0.20337744,1.2854456,0.10522817
-0.2,-0.2,0.6,-0.34906585039886584,-0.34906585039886584,-0.34906585039886584,1.3382971,1.513149,0.2251259,0.081985824,0.26571035,1.0406826,0.4874652,-0.3470715,1.375354,-0.26211408,-0.5485453,0.21891885,1.2877475,0.098000884
-0.2,-0.2,0.6,-0.34906585039886584,-0.34906585039886584,-0.34906585039886584,1.346332,1.5124953,0.22509784,0.08439906,0.2616104,1.036746,0.48507196,-0.35167435,1.3939053,-0.25574538,-0.54730946,0.2163765,1.2897595,0.09775405
-0.2,-0.2,0.6,-0.34906585039886584,-0.34906585039886584,-0.34906585039886584,1.3278456,1.5041975,0.22254878,0.079864666,0.27346528,1.0360711,0.4933404,-0.34700817,1.3822335,-0.25377104,-0.54996574,0.18629682,1.2847197,0.106577426
-0.2,-0.2,0.6,-0.34906585039886584,-0.34906585039886584,-0.34906585039886584,1.3378434,1.5104917,0.22536981,0.085059464,0.26339933,1.0322839,0.48901626,-0.34809974,1.3924221,-0.2576675,-0.54925317,0.21394023,1.2866087,0.12902367
-0.2,-0.2,0.6,-0.34906585039886584,-0.34906585039886584,-0.34906585039886584,1.3343066,1.5038278,0.22163267,0.0818562,0.27478522,1.0367393,0.4882101,-0.34992406,1.399348,-0.25841737,-0.549745,0.20192197,1.2865618,0.10641998
-0.2,-0.2,0.6,-0.34906585039886584,-0.34906585039886584,-0.34906585039886584,1.3363036,1.5021006,0.22108348,0.08313902,0.26612443,1.0347972,0.48919746,-0.3500518,1.4019144,-0.25711566,-0.5479838,0.20989026,1.2856169,0.099594004
-0.2,-0.2,0.6,-0.34906585039886584,-0.34906585039886584,-0.34906585039886584,1.3374532,1.5095462,0.22364588,0.085570276,0.27028328,1.036891,0.5001277,-0.35065293,1.3803369,-0.25736776,-0.54766077,0.20246361,1.2883947,0.099409975
-0.2,-0.2,0.6,-0.34906585039886584,-0.34906585039886584,-0.34906585039886584,1.3227897,1.5128907,0.22455162,0.08706753,0.26221073,1.0408149,0.48874032,-0.34749657,1.3894244,-0.25725585,-0.54912657,0.20940155,1.2884754,0.085676506
-0.2,-0.2,0.6,-0.34906585039886584,-0.34906585039886584,-0.34906585039886584,1.3282658,1.5104607,0.22252536,0.085745916,0.26607025,1.0391448,0.4823083,-0.3505606,1.3952338,-0.2705657,-0.54931444,0.23605828,1.2864442,0.11069813
-0.2,-0.2,0.6,-0.34906585039886584,-0.34906585039886584,-0.34906585039886584,1.340858,1.506084,0.22910008,0.083856076,0.25515512,1.0342284,0.4964351,-0.34988952,1.3874581,-0.25359866,-0.54664856,0.1945299,1.2824558,0.101089194
-0.2,-0.2,0.6,-0.34906585039886584,-0.34906585039886584,-0.34906585039886584,1.3296742,1.5071537,0.22373407,0.083183035,0.26373288,1.0354173,0.49422306,-0.35001788,1.3880461,-0.25167596,-0.5470816,0.20467398,1.2889904,0.09029554
-0.2,-0.2,0.6,-0.34906585039886584,-0.34906585039886584,-0.34906585039886584,1.3334775,1.5088967,0.22563058,0.08181283,0.27078423,1.0357703,0.48704436,-0.34744814,1.3894928,-0.25454256,-0.54414845,0.20795237,1.2845683,0.11661427
-0.2,-0.2,0.6,-0.34906585039886584,-0.34906585039886584,-0.34906585039886584,1.3295871,1.5088723,0.22537309,0.0830413,0.2604108,1.0352393,0.50141734,-0.35111496,1.3841474,-0.25902247,-0.54542094,0.21529,1.281906,0.10389186
-0.2,-0.2,0.6,-0.34906585039886584,-0.34906585039886584,-0.34906585039886584,1.3357565,1.5092628,0.22523801,0.086602286,0.2617258,1.0336539,0.48764452,-0.34974563,1.3880564,-0.25845104,-0.5444959,0.21374898,1.2822807,0.09808657
-0.2,-0.2,0.6,-0.34906585039886584,-0.34906585039886584,-0.34906585039886584,1.3385364,1.5092602,0.22565025,0.08483636,0.27291417,1.037156,0.49604568,-0.352138,1.3806865,-0.24727033,-0.53727657,0.19551262,1.2853701,0.10336148
-0.2,-0.2,0.6,-0.34906585039886584,-0.34906585039886584,-0.34906585039886584,1.3444729,1.5052067,0.22800197,0.08593153,0.27059665,1.0314369,0.49127498,-0.34697163,1.3865972,-0.25448608,-0.5437215,0.20620367,1.2915127,0.104630545
-0.2,-0.2,0.6,-0.34906585039886584,-0.34906585039886584,-0.34906585039886584,1.3274316,1.5086696,0.22874336,0.084979065,0.26616052,1.0349021,0.4980285,-0.35102856,1.4061265,-0.25979614,-0.54439646,0.2119432,1.2857575,0.08705064
-0.2,-0.2,0.6,-0.34906585039886584,-0.34906585039886584,-0.34906585039886584,1.322871,1.5065476,0.22401029,0.08719599,0.27334958,1.0332494,0.49760276,-0.35206208,1.384154,-0.26114327,-0.54943794,0.20647779,1.2855111,0.09651007
-0.2,-0.2,0.6,-0.34906585039886584,-0.34906585039886584,-0.34906585039886584,1.33442,1.5031837,0.21679544,0.085672,0.27097407,1.03166,0.4926284,-0.34731948,1.3834664,-0.26178566,-0.5465398,0.22774935,1.2888969,0.085236184
-0.2,-0.2,0.6,-0.34906585039886584,-0.34906585039886584,-0.34906585039886584,1.3282145,1.5105504,0.22791015,0.08176612,0.25613868,1.0397406,0.48385584,-0.3498573,1.386696,-0.25132677,-0.5452355,0.21816924,1.2854036,0.11935563
-0.2,-0.2,0.6,-0.34906585039886584,-0.34906585039886584,-0.34906585039886584,1.3270814,1.5072769,0.22689484,0.08444058,0.2670946,1.0409006,0.49673957,-0.34880325,1.3890882,-0.2557527,-0.55041987,0.19748656,1.2894562,0.12526903
-0.2,-0.2,0.6,-0.34906585039886584,-0.34906585039886584,-0.34906585039886584,1.323369,1.5133339,0.2228843,0.083856106,0.26048213,1.0372967,0.5129702,-0.3494376,1.4005933,-0.26190662,-0.5513503,0.20747095,1.2838441,0.08074572
-0.2,-0.2,0.6,-0.34906585039886584,-0.34906585039886584,-0.34906585039886584,1.3324431,1.5085808,0.22662285,0.08329682,0.2671391,1.0362148,0.4950753,-0.34769636,1.3895231,-0.25643677,-0.5457511,0.21409938,1.2815408,0.14079209
-0.2,-0.2,0.6,-0.34906585039886584,-0.34906585039886584,-0.34906585039886584,1.3299152,1.5042236,0.2267562,0.08052793,0.2674371,1.0419221,0.48548424,-0.34917906,1.3831048,-0.25713956,-0.54908204,0.19677192,1.2863,0.09249846
-0.2,-0.2,0.6,-0.34906585039886584,-0.34906585039886584,-0.34906585039886584,1.3306569,1.4981102,0.22629124,0.08410915,0.26816213,1.0336657,0.49304688,-0.34964612,1.3909951,-0.2539145,-0.5421392,0.1986855,1.2852707,0.12918167
-0.2,-0.2,0.6,-0.34906585039886584,-0.34906585039886584,-0.34906585039886584,1.3326594,1.50809,0.22659397,0.08627452,0.26492757,1.0338833,0.49458838,-0.34773222,1.3844899,-0.26024923,-0.54334056,0.21481225,1.2866781,0.08835754
-0.2,-0.2,0.6,-0.34906585039886584,-0.34906585039886584,-0.34906585039886584,1.3267872,1.5122309,0.22718142,0.08377363,0.27163288,1.0321723,0.497536,-0.3515399,1.3959494,-0.24560443,-0.5474809,0.19742925,1.2877759,0.09541065
-0.2,-0.2,0.6,-0.34906585039886584,-0.34906585039886584,-0.34906585039886584,1.3296393,1.5082655,0.22626568,0.08488493,0.27893984,1.0391731,0.47575644,-0.34511304,1.3859189,-0.26526132,-0.5427447,0.21776308,1.2874714,0.11761878
-0.2,-0.2,0.6,-0.34906585039886584,-0.34906585039886584,-0.34906585039886584,1.3269359,1.5058808,0.22464205,0.08610157,0.259385,1.0321583,0.49124175,-0.34812778,1.3871288,-0.25652885,-0.5468923,0.21442313,1.2856181,0.091346316
-0.2,-0.2,0.6,-0.34906585039886584,-0.34906585039886584,-0.34906585039886584,1.3353835,1.5041162,0.226151,0.083042234,0.25597847,1.03724,0.50582117,-0.34773263,1.4054092,-0.25971875,-0.5472756,0.20660499,1.2876035,0.12698431
-0.2,-0.2,0.6,-0.34906585039886584,-0.34906585039886584,-0.34906585039886584,1.3406061,1.5036532,0.22327445,0.08106756,0.26209894,1.0367532,0.50364023,-0.34479737,1.3846456,-0.25803018,-0.5455363,0.19760361,1.285732,0.088320605
-0.2,-0.2,0.6,-0.34906585039886584,-0.34906585039886584,-0.34906585039886584,1.3381256,1.5043279,0.2228163,0.085269496,0.26700413,1.0406716,0.4870021,-0.35045993,1.3823075,-0.25775474,-0.54490495,0.20827797,1.286996,0.116895124
-0.2,-0.2,0.6,-0.34906585039886584,-0.34906585039886584,-0.34906585039886584,1.3145728,1.5020597,0.22938187,0.08380039,0.26836473,1.036229,0.5008207,-0.35275236,1.4025682,-0.26124108,-0.5482557,0.20476459,1.284666,0.124857314
-0.2,-0.2,0.6,-0.34906585039886584,-0.34906585039886584,-0.34906585039886584,1.3290355,1.5073454,0.22799522,0.0853162,0.27242061,1.0360206,0.505116,-0.35215786,1.3968941,-0.26650098,-0.54685223,0.20629385,1.2849169,0.079527445
-0.2,-0.2,0.6,-0.34906585039886584,-0.34906585039886584,-0.34906585039886584,1.33296,1.506371,0.22225277,0.084068686,0.26572573,1.0402188,0.50076795,-0.34754682,1.3816494,-0.25447533,-0.54674554,0.19352166,1.2850677,0.07136288
-0.2,-0.2,0.6,-0.34906585039886584,-0.34906585039886584,-0.34906585039886584,1.3404695,1.5109348,0.22538589,0.08335899,0.27161577,1.0336882,0.49399987,-0.3497758,1.3871175,-0.26081455,-0.5472425,0.21115601,1.2874905,0.05924183
-0.2,-0.2,0.6,-0.34906585039886584,-0.34906585039886584,-0.34906585039886584,1.3326013,1.5026565,0.22261362,0.08284272,0.26406568,1.0394067,0.5042027,-0.3496117,1.3750108,-0.2582796,-0.5436989,0.20504403,1.2855524,0.08502766
-0.2,-0.2,0.6,-0.34906585039886584,-0.34906585039886584,-0.34906585039886584,1.3338901,1.5056794,0.22940299,0.08321672,0.27119753,1.0376595,0.48959994,-0.34593502,1.3946979,-0.25475007,-0.54358655,0.20000058,1.2885699,0.07910767
-0.2,-0.2,0.6,-0.34906585039886584,-0.34906585039886584,-0.34906585039886584,1.3343607,1.5112298,0.22475772,0.08406573,0.26438126,1.0385484,0.48507142,-0.35262632,1.3844814,-0.25641328,-0.5474456,0.21293905,1.2838725,0.08392972
-0.2,-0.2,0.6,-0.34906585039886584,-0.34906585039886584,-0.34906585039886584,1.3272414,1.5066651,0.22376646,0.08348959,0.26764002,1.0381258,0.4969874,-0.34796837,1.4057832,-0.26104498,-0.54571104,0.21321554,1.2878565,0.0983987
-0.2,-0.2,0.6,-0.34906585039886584,-0.34906585039886584,-0.34906585039886584,1.3265907,1.5046759,0.23095125,0.08153074,0.27025557,1.0343436,0.4966541,-0.34506342,1.3886715,-0.26348716,-0.5459407,0.20619565,1.2888511,0.056483705
-0.2,-0.2,0.6,-0.34906585039886584,-0.34906585039886584,-0.34906585039886584,1.3155903,1.5074586,0.2279998,0.08552099,0.2581659,1.0346637,0.50052583,-0.3499183,1.3765113,-0.2564419,-0.549597,0.20332353,1.2820851,0.13608487
-0.2,-0.2,0.6,-0.34906585039886584,-0.34906585039886584,-0.34906585039886584,1.338455,1.5114506,0.22488883,0.08571306,0.2769236,1.0329975,0.49998322,-0.34617642,1.4059795,-0.2545391,-0.54581255,0.1958129,1.2877432,0.09659433
-0.2,-0.2,0.6,-0.34906585039886584,-0.34906585039886584,-0.34906585039886584,1.3394628,1.5156507,0.22753277,0.08314421,0.26677215,1.037309,0.50271326,-0.3483718,1.3778546,-0.2625551,-0.55057883,0.20488814,1.2866062,0.08659062
-0.2,-0.2,0.6,-0.34906585039886584,-0.34906585039886584,-0.34906585039886584,1.3429716,1.5069526,0.22566085,0.082445785,0.27453682,1.0339792,0.49300843,-0.34938714,1.3821743,-0.26473936,-0.544856,0.21360227,1.2860359,0.11627039
-0.2,-0.2,0.6,-0.34906585039886584,-0.34906585039886584,-0.34906585039886584,1.3256694,1.5053594,0.2247412,0.08284196,0.27154642,1.0384263,0.49763042,-0.34909874,1.3863384,-0.25635248,-0.5433799,0.20612855,1.2847717,0.105277106
-0.2,-0.2,0.6,-0.34906585039886584,-0.34906585039886584,-0.34906585039886584,1.3164536,1.5098313,0.22865042,0.08498517,0.26045612,1.0380706,0.4855623,-0.3456215,1.3916824,-0.2536948,-0.54452175,0.21647091,1.2873352,0.11734371
-0.2,-0.2,0.6,-0.34906585039886584,-0.34906585039886584,-0.34906585039886584,1.3327608,1.5133302,0.22238228,0.08470952,0.2656887,1.0368063,0.5030665,-0.34727475,1.3932565,-0.2504371,-0.54462266,0.20193456,1.2856675,0.100616366
-0.2,-0.2,0.6,-0.34906585039886584,-0.34906585039886584,-0.34906585039886584,1.3267184,1.498287,0.22484879,0.08344652,0.26807803,1.036802,0.4995524,-0.35243005,1.3810031,-0.25440785,-0.54513294,0.19859982,1.2845653,0.13095638
-0.2,-0.2,0.6,-0.34906585039886584,-0.34906585039886584,-0.34906585039886584,1.3475353,1.5038472,0.22338128,0.086402595,0.26449904,1.0404671,0.4932794,-0.3509746,1.385461,-0.2562278,-0.544587,0.20670861,1.2903633,0.118233666
-0.2,-0.2,0.6,-0.34906585039886584,-0.34906585039886584,-0.34906585039886584,1.3192376,1.5081481,0.22422619,0.085308954,0.26731244,1.0382099,0.49880803,-0.34402978,1.406689,-0.25912535,-0.55049986,0.19359063,1.286368,0.11449963
-0.2,-0.2,0.6,-0.34906585039886584,-0.34906585039886584,-0.34906585039886584,1.3129256,1.5060383,0.22960712,0.08412278,0.26759735,1.0388442,0.49049237,-0.3484558,1.3920623,-0.2585157,-0.54939437,0.20507398,1.2867966,0.12563944
-0.2,-0.2,0.6,-0.34906585039886584,-0.34906585039886584,-0.34906585039886584,1.3288352,1.5036737,0.2276279,0.08552433,0.26229167,1.0375032,0.48817408,-0.34854633,1.3833828,-0.2564759,-0.545246,0.20031872,1.2865385,0.10471547
-0.2,-0.2,0.6,-0.34906585039886584,-0.34906585039886584,-0.34906585039886584,1.348924,1.5085509,0.22342663,0.08166567,0.2679176,1.032193,0.5014992,-0.35092115,1.3803911,-0.26185215,-0.5464216,0.20673244,1.2818639,0.116477646
-0.2,-0.2,0.6,-0.34906585039886584,-0.34906585039886584,-0.34906585039886584,1.338008,1.5092387,0.22566208,0.08365566,0.26293275,1.0409024,0.49256372,-0.34899655,1.3890688,-0.2601332,-0.5455709,0.21019354,1.2870244,0.09919478
-0.2,-0.2,0.6,-0.34906585039886584,-0.34906585039886584,-0.34906585039886584,1.3210057,1.5093234,0.22726592,0.083464466,0.2788526,1.0368605,0.47670126,-0.34925026,1.389317,-0.26610425,-0.54901266,0.20975867,1.2840054,0.06561291
-0.2,-0.2,0.6,-0.34906585039886584,-0.34906585039886584,-0.34906585039886584,1.3338914,1.507837,0.22723937,0.0826233,0.2579147,1.0389514,0.50868934,-0.34946978,1.3952717,-0.26156014,-0.5480455,0.20574692,1.2891179,0.06992925
-0.2,-0.2,0.6,-0.34906585039886584,-0.34906585039886584,-0.34906585039886584,1.3251851,1.5028507,0.2193181,0.08619255,0.27201003,1.0341296,0.49298427,-0.3477706,1.3963575,-0.25550637,-0.54772353,0.2125434,1.2866266,0.10483121
-0.2,-0.2,0.6,-0.34906585039886584,-0.34906585039886584,-0.34906585039886584,1.3355631,1.4989609,0.22590788,0.08316454,0.2610668,1.0386022,0.4872172,-0.35023373,1.4029572,-0.25176737,-0.54285234,0.19639954,1.2846553,0.07865518
-0.2,-0.2,0.6,-0.34906585039886584,-0.34906585039886584,-0.34906585039886584,1.3294011,1.5060575,0.22405833,0.08164643,0.26238632,1.0408233,0.5035271,-0.35005313,1.3848306,-0.2554968,-0.54661673,0.1967539,1.2864817,0.113581896
-0.2,-0.2,0.6,-0.34906585039886584,-0.34906585039886584,-0.34906585039886584,1.3242159,1.5097756,0.22210538,0.086591616,0.2655494,1.0425762,0.48474386,-0.35289142,1.3947991,-0.25307178,-0.54778016,0.21058592,1.2881103,0.13428609
-0.2,-0.2,0.6,-0.34906585039886584,-0.34906585039886584,-0.34906585039886584,1.3383083,1.5033118,0.22263728,0.08074701,0.26242676,1.0387367,0.4878293,-0.34772742,1.3859601,-0.25387502,-0.543145,0.21248153,1.2890757,0.09597156
-0.2,-0.2,0.6,-0.34906585039886584,-0.34906585039886584,-0.34906585039886584,1.3363171,1.5093285,0.21490443,0.0849915,0.27258396,1.0359492,0.5001514,-0.34835684,1.3882067,-0.25335234,-0.54425526,0.21408343,1.2861845,0.0707318
-0.2,-0.2,0.6,-0.34906585039886584,-0.34906585039886584,-0.34906585039886584,1.3237296,1.5036321,0.22615308,0.08599079,0.25968006,1.0336473,0.48875347,-0.34383288,1.3783654,-0.26636878,-0.5477196,0.21807621,1.2860941,0.09545405
-0.2,-0.2,0.6,-0.34906585039886584,-0.34906585039886584,-0.34906585039886584,1.3111647,1.5025979,0.2224448,0.08379855,0.2593773,1.0391775,0.49618983,-0.348557,1.4053181,-0.25952253,-0.5430769,0.21363305,1.284007,0.06303812
-0.2,-0.2,0.6,-0.34906585039886584,-0.34906585039886584,-0.34906585039886584,1.328142,1.5020672,0.22581209,0.07958522,0.27273896,1.0368708,0.50702924,-0.34935024,1.3798084,-0.2655531,-0.547102,0.21477275,1.289293,0.15956615
-0.2,-0.2,0.6,-0.34906585039886584,-0.34906585039886584,-0.34906585039886584,1.3312404,1.5039698,0.22445752,0.08533513,0.25783563,1.0375148,0.4925317,-0.3508004,1.381758,-0.26211414,-0.54609716,0.22121847,1.2850724,0.09975671
-0.2,-0.2,0.6,-0.34906585039886584,-0.34906585039886584,-0.34906585039886584,1.320617,1.5092628,0.22938854,0.08493328,0.2651311,1.0326223,0.49381444,-0.3491089,1.3891878,-0.2627732,-0.549505,0.21363382,1.2873565,0.06295962
-0.2,-0.2,0.6,-0.34906585039886584,-0.34906585039886584,-0.34906585039886584,1.3310294,1.5084821,0.22282688,0.08254528,0.2703241,1.0345073,0.48438248,-0.3467329,1.3926203,-0.25596607,-0.54751575,0.21319568,1.28662,0.07654447
-0.2,-0.2,0.6,-0.34906585039886584,-0.34906585039886584,-0.34906585039886584,1.3372673,1.5076529,0.22338782,0.083304375,0.2615978,1.040121,0.49836305,-0.3504125,1.4007595,-0.26134706,-0.55110127,0.20182909,1.2866074,0.11706068
-0.2,-0.2,0.6,-0.34906585039886584,-0.34906585039886584,-0.34906585039886584,1.3369969,1.4999107,0.22713344,0.08202166,0.26307315,1.0387133,0.49976066,-0.35201195,1.3893274,-0.25415072,-0.54280734,0.19420117,1.2859194,0.10296587
-0.2,-0.2,0.6,-0.34906585039886584,-0.34906585039886584,-0.34906585039886584,1.3367174,1.5018784,0.22110455,0.08262858,0.2597175,1.0364112,0.50090635,-0.3487785,1.3699583,-0.24987157,-0.54685014,0.2048811,1.2877822,0.12419883
-0.2,-0.2,0.6,-0.34906585039886584,-0.34906585039886584,-0.34906585039886584,1.3262382,1.5097545,0.22894984,0.08317286,0.26808888,1.0364548,0.4935376,-0.34844184,1.3873605,-0.25452054,-0.54674286,0.20442122,1.2890408,0.11864996
-0.2,-0.2,0.6,-0.34906585039886584,-0.34906585039886584,-0.34906585039886584,1.3235164,1.5132829,0.22735055,0.08816099,0.2740372,1.0357231,0.48244172,-0.34802198,1.3882511,-0.25344858,-0.542624,0.20795684,1.2860926,0.09703794
-0.2,-0.2,0.6,-0.34906585039886584,-0.34906585039886584,-0.34906585039886584,1.3314414,1.5067847,0.22633599,0.083321676,0.26956293,1.0337602,0.50249034,-0.3425816,1.3923639,-0.25915605,-0.54445297,0.20566739,1.2888765,0.08275019
-0.2,-0.2,0.6,-0.34906585039886584,-0.34906585039886584,-0.34906585039886584,1.3228661,1.5091758,0.22837059,0.085764416,0.26170176,1.0315614,0.5069606,-0.34473038,1.3783818,-0.2619217,-0.5514701,0.21001607,1.2906597,0.10177593
-0.2,-0.2,0.6,-0.34906585039886584,-0.34906585039886584,-0.34906585039886584,1.3158435,1.5112475,0.22940643,0.08227105,0.26422295,1.0363868,0.49235943,-0.34961239,1.392099,-0.25769013,-0.5484873,0.20833649,1.2843536,0.09970704
-0.2,-0.2,0.6,-0.34906585039886584,-0.34906585039886584,-0.34906585039886584,1.3363686,1.5039454,0.23025426,0.08460323,0.2664672,1.0354526,0.48988375,-0.34825158,1.3875879,-0.25294197,-0.54016906,0.19962054,1.2863632,0.06692245
-0.2,-0.2,0.6,-0.34906585039886584,-0.34906585039886584,-0.34906585039886584,1.329389,1.5055737,0.22705118,0.08516376,0.2590715,1.0362936,0.4935999,-0.34806785,1.3810581,-0.25699618,-0.54330194,0.20302002,1.2810363,0.11646519
-0.2,-0.2,0.6,-0.34906585039886584,-0.34906585039886584,-0.34906585039886584,1.3414336,1.5058126,0.22670086,0.085079275,0.26997286,1.0330116,0.50408214,-0.351412,1.3820815,-0.25600713,-0.54426086,0.20448409,1.2858988,0.08459082
-0.2,-0.2,0.6,-0.34906585039886584,-0.34906585039886584,-0.34906585039886584,1.3309295,1.5069591,0.2237844,0.08388406,0.2760275,1.0354714,0.49681973,-0.34949997,1.3893784,-0.2584444,-0.54552335,0.20198624,1.2852328,0.11420471
-0.2,-0.2,0.6,-0.34906585039886584,-0.34906585039886584,-0.34906585039886584,1.3302835,1.5019914,0.22698289,0.087503225,0.26936424,1.0327425,0.4969673,-0.34860915,1.3837901,-0.26279956,-0.5403287,0.20788795,1.2862288,0.09780364
-0.2,-0.2,0.6,-0.34906585039886584,-0.34906585039886584,-0.34906585039886584,1.3212887,1.5085635,0.22441322,0.087473,0.26899606,1.0398893,0.49087083,-0.35004872,1.3808547,-0.25761482,-0.5446564,0.20388708,1.2850515,0.09006032
-0.2,-0.2,0.6,-0.34906585039886584,-0.34906585039886584,-0.34906585039886584,1.3176013,1.501596,0.23011509,0.08288357,0.2701457,1.0363091,0.49754715,-0.3543702,1.3875653,-0.25932878,-0.5453842,0.213545,1.2884866,0.081234224
-0.2,-0.2,0.6,-0.34906585039886584,-0.34906585039886584,-0.34906585039886584,1.3315055,1.5093212,0.2279238,0.08546611,0.26293138,1.0360785,0.49476203,-0.34739676,1.3869979,-0.25838283,-0.5460198,0.207568,1.2874874,0.099121995
-0.2,-0.2,0.6,-0.34906585039886584,-0.34906585039886584,-0.34906585039886584,1.3328066,1.5067389,0.22641286,0.08335473,0.26458138,1.0379202,0.47529536,-0.35202616,1.401908,-0.25117835,-0.5443833,0.20346637,1.2843761,0.10415957
-0.2,-0.2,0.6,-0.34906585039886584,-0.34906585039886584,-0.34906585039886584,1.33162,1.5091925,0.22094959,0.08069665,0.26955366,1.0392904,0.49289277,-0.35309905,1.384406,-0.25615326,-0.54960537,0.20492776,1.2828887,0.09799652
-0.2,-0.2,0.6,-0.34906585039886584,-0.34906585039886584,-0.34906585039886584,1.3246939,1.5060253,0.22688802,0.08582741,0.2728537,1.034537,0.49874038,-0.3484814,1.4036554,-0.26353455,-0.5427732,0.22132167,1.2879092,0.0931427
-0.2,-0.2,0.6,-0.34906585039886584,-0.34906585039886584,-0.34906585039886584,1.3220583,1.5088552,0.22450858,0.08259558,0.26700026,1.0373863,0.50527436,-0.34632182,1.3895313,-0.25806373,-0.54319555,0.21843182,1.2895339,0.09859279
-0.2,-0.2,0.6,-0.34906585039886584,-0.34906585039886584,-0.34906585039886584,1.3176425,1.5064584,0.22551374,0.084965065,0.26840356,1.0382265,0.49694502,-0.35012814,1.4002068,-0.25921217,-0.54866654,0.20999092,1.2885633,0.09337616
-0.2,-0.2,0.6,-0.34906585039886584,-0.34906585039886584,-0.34906585039886584,1.3294334,1.5078502,0.22494665,0.08338163,0.26039338,1.0346286,0.4923628,-0.3469146,1.3842133,-0.25768965,-0.54440826,0.21863814,1.2864976,0.109676726
-0.2,-0.2,0.6,-0.34906585039886584,-0.34906585039886584,-0.34906585039886584,1.3294879,1.5050378,0.2248291,0.0821068,0.264749,1.0324453,0.48941463,-0.34573078,1.3849796,-0.2640717,-0.5462805,0.22216739,1.2859195,0.11743361
-0.2,-0.2,0.6,-0.34906585039886584,-0.34906585039886584,-0.34906585039886584,1.3380536,1.506972,0.2257491,0.08259295,0.27054775,1.0345621,0.49387097,-0.34881964,1.387475,-0.2586743,-0.54497635,0.20204529,1.2803704,0.06664151
-0.2,-0.2,0.6,-0.34906585039886584,-0.34906585039886584,-0.34906585039886584,1.3280792,1.5141189,0.22712718,0.08691749,0.264148,1.0333378,0.4925522,-0.34946927,1.3893015,-0.26383543,-0.550268,0.20907943,1.2844404,0.07834094
-0.2,-0.2,0.6,-0.34906585039886584,-0.34906585039886584,-0.34906585039886584,1.3333842,1.5069418,0.22315463,0.08530657,0.26978573,1.030685,0.48701337,-0.3472703,1.3931687,-0.2503865,-0.54827416,0.19656594,1.2855933,0.080762915
-0.2,-0.2,0.6,-0.34906585039886584,-0.34906585039886584,-0.34906585039886584,1.322266,1.5046391,0.22751595,0.08242449,0.26408958,1.0372945,0.48512912,-0.34733453,1.4102334,-0.26472193,-0.54507077,0.20957741,1.2874857,0.07808557
-0.2,-0.2,0.6,-0.34906585039886584,-0.34906585039886584,-0.34906585039886584,1.3145225,1.5060515,0.22419147,0.08441262,0.2748448,1.0372269,0.48972386,-0.34820977,1.3829408,-0.2609437,-0.5491085,0.20263195,1.2837416,0.11351592
-0.2,-0.2,0.6,-0.34906585039886584,-0.34906585039886584,-0.34906585039886584,1.3347722,1.5063353,0.22557394,0.08312879,0.26904476,1.0370036,0.49454978,-0.34726238,1.3967068,-0.24792172,-0.5447746,0.19561478,1.2921528,0.07741524
-0.2,-0.2,0.6,-0.34906585039886584,-0.34906585039886584,-0.34906585039886584,1.3132786,1.5034308,0.22391954,0.08112913,0.26571906,1.0366201,0.49855003,-0.3495331,1.3956728,-0.26055878,-0.552005,0.20264088,1.2850586,0.06184039
-0.2,-0.2,0.6,-0.34906585039886584,-0.34906585039886584,-0.34906585039886584,1.3195428,1.5063447,0.2263926,0.08068881,0.26629192,1.0365789,0.52391833,-0.35039952,1.3887693,-0.26238295,-0.5481422,0.21710272,1.2886466,0.10346328
-0.2,-0.2,0.6,-0.34906585039886584,-0.34906585039886584,-0.34906585039886584,1.3134555,1.5024844,0.22631256,0.08218892,0.27414843,1.0371517,0.48104146,-0.3514694,1.3828354,-0.26013795,-0.5493536,0.21724832,1.2881361,0.11127626
-0.2,-0.2,0.6,-0.34906585039886584,-0.34906585039886584,-0.34906585039886584,1.3205819,1.5110903,0.22576857,0.08065085,0.26494655,1.0385816,0.49221712,-0.3500317,1.3888184,-0.25295186,-0.5445652,0.21415916,1.2843643,0.10069674
-0.2,-0.2,0.6,-0.34906585039886584,-0.34906585039886584,-0.34906585039886584,1.318516,1.5046753,0.22220908,0.08435525,0.2758501,1.0382088,0.5045123,-0.35164714,1.3918545,-0.26421311,-0.5455511,0.20239188,1.2831899,0.09078658
-0.2,-0.2,0.6,-0.34906585039886584,-0.34906585039886584,-0.34906585039886584,1.3198943,1.5065011,0.22133213,0.08379979,0.26628852,1.0368812,0.5029784,-0.34584355,1.4025366,-0.2578733,-0.5454478,0.21679594,1.290179,0.09829181
-0.2,-0.2,0.6,-0.34906585039886584,-0.34906585039886584,-0.34906585039886584,1.3367115,1.5069124,0.22226907,0.083916865,0.2710566,1.0365523,0.50148517,-0.34915498,1.3817734,-0.25710493,-0.5474756,0.20239349,1.2906064,0.095094986
-0.2,-0.2,0.6,-0.34906585039886584,-0.34906585039886584,-0.34906585039886584,1.3299775,1.5076118,0.22473177,0.084913,0.26589373,1.0389086,0.4874608,-0.34405577,1.385324,-0.2575746,-0.54235303,0.20969298,1.2895644,0.1285184
-0.2,-0.2,0.6,-0.34906585039886584,-0.34906585039886584,-0.34906585039886584,1.3324101,1.506557,0.22177413,0.08250071,0.26136062,1.0386417,0.49788806,-0.34959555,1.391291,-0.2575146,-0.5458293,0.21882056,1.2856658,0.14039434
-0.2,-0.2,0.6,-0.34906585039886584,-0.34906585039886584,-0.34906585039886584,1.3217653,1.5044309,0.22264777,0.08459774,0.26169053,1.0383667,0.4913089,-0.34528562,1.3840088,-0.25616834,-0.5502052,0.20397966,1.2892522,0.09620708
-0.2,-0.2,0.6,-0.34906585039886584,-0.34906585039886584,-0.34906585039886584,1.3292892,1.4996817,0.22047567,0.08193727,0.27047977,1.0352376,0.48138607,-0.34753427,1.403189,-0.2641089,-0.5507835,0.21327297,1.2871261,0.10370199
-0.2,-0.2,0.6,-0.34906585039886584,-0.34906585039886584,-0.34906585039886584,1.333844,1.5058643,0.22798099,0.08120656,0.2728064,1.034709,0.49159738,-0.35121503,1.4003086,-0.2567069,-0.5508309,0.20278378,1.2898484,0.0761252
