sanky1234/BimanualDexCatch/isaacgymenvs/cem_results/football_pose_0.0_0.1_0.6_0.0_-0.5235987755982988_0_2025-05-26.csv
x,y,z,roll,pitch,yaw,robot1/joint1,robot1/joint2,robot1/joint3,robot1/joint4,robot1/joint5,robot1/joint6,robot1/joint7,robot2/joint1,robot2/joint2,robot2/joint3,robot2/joint4,robot2/joint5,robot2/joint6,robot2/joint7
0.0,0.1,0.6,0.0,-0.5235987755982988,0,0.026507964,1.6054999,-0.08310263,-0.20969671,0.15513,1.3752732,-0.03970045,-0.6496995,1.4148567,0.15167595,0.17818737,0.07143131,1.053943,1.6050385
0.0,0.1,0.6,0.0,-0.5235987755982988,0,0.025568677,1.6123586,-0.09639057,-0.2134515,0.14427584,1.3717002,-0.0071709524,-0.63637906,1.4099035,0.18123454,0.16725647,0.07342085,0.9829127,2.03696
0.0,0.1,0.6,0.0,-0.5235987755982988,0,0.037594415,1.6149279,-0.07694374,-0.22010547,0.16180617,1.3764528,0.08322856,-0.6931976,1.4217045,0.17700881,0.19030657,0.07806689,0.94993323,1.7872208
0.0,0.1,0.6,0.0,-0.5235987755982988,0,0.026232298,1.611228,-0.07764532,-0.21296336,0.11117395,1.3677975,0.037223723,-0.727912,1.4040705,0.17742069,0.19141577,0.072741956,1.0164592,2.0537155
0.0,0.1,0.6,0.0,-0.5235987755982988,0,0.03597643,1.6109927,-0.095750846,-0.21417563,0.17062636,1.3724957,-0.016438683,-0.65207726,1.4122381,0.16850057,0.161474,0.0413636,1.0111773,1.8298266
0.0,0.1,0.6,0.0,-0.5235987755982988,0,0.021807756,1.6147656,-0.07780205,-0.21554755,0.15105295,1.3674706,0.025090646,-0.59281075,1.4075005,0.17126597,0.22203384,0.08970546,1.0118539,1.9141331
0.0,0.1,0.6,0.0,-0.5235987755982988,0,0.03173797,1.6108407,-0.07650956,-0.21418487,0.15330836,1.3661156,-0.008806872,-0.6970205,1.4135852,0.18997823,0.16554132,0.07964497,1.0195454,1.8327241
0.0,0.1,0.6,0.0,-0.5235987755982988,0,0.02005669,1.6186634,-0.07811811,-0.22438407,0.1508339,1.374027,0.01913951,-0.5979418,1.409513,0.15933064,0.13003582,0.05942241,1.019672,1.8540953
0.0,0.1,0.6,0.0,-0.5235987755982988,0,0.03609278,1.608193,-0.07671559,-0.21241528,0.17325035,1.3708715,0.0011764312,-0.58522075,1.4101907,0.1754813,0.17676805,0.10197493,0.9654109,1.9972851
0.0,0.1,0.6,0.0,-0.5235987755982988,0,0.033748224,1.6109087,-0.082396545,-0.21436858,0.15682657,1.3714272,0.054631166,-0.60900885,1.4122529,0.17904621,0.17240532,0.10259795,1.0228997,2.0264688
0.0,0.1,0.6,0.0,-0.5235987755982988,0,0.046839543,1.6091192,-0.095156975,-0.21039763,0.13998628,1.362087,-0.030862879,-0.73485553,1.4175942,0.15744075,0.1435026,0.08273056,1.0256059,1.752219
0.0,0.1,0.6,0.0,-0.5235987755982988,0,0.03240591,1.612176,-0.072352804,-0.21804032,0.15163049,1.3778322,0.060641352,-0.46562093,1.4235793,0.1861165,0.19324817,0.09300361,1.0394596,1.7785224
0.0,0.1,0.6,0.0,-0.5235987755982988,0,0.038730998,1.612962,-0.08807946,-0.21942152,0.16745877,1.3850303,-0.05538456,-0.6184348,1.4212486,0.19590922,0.14279214,0.09235552,0.9873532,2.2301748
0.0,0.1,0.6,0.0,-0.5235987755982988,0,0.02908008,1.6143923,-0.08955671,-0.21371475,0.1553338,1.3666129,-0.056625087,-0.6081928,1.4176272,0.18628708,0.15950355,0.08930071,1.0167738,2.0453582
0.0,0.1,0.6,0.0,-0.5235987755982988,0,0.030976105,1.615728,-0.08289058,-0.21285601,0.14835863,1.3587228,-0.056683525,-0.64729744,1.4207733,0.19208626,0.17367367,0.057241514,0.9769122,1.543739
0.0,0.1,0.6,0.0,-0.5235987755982988,0,0.028986393,1.6157547,-0.084578246,-0.21730943,0.15215434,1.3660648,-0.0041818116,-0.6036335,1.407864,0.18380862,0.16856955,0.08153004,1.0143322,1.7572856
0.0,0.1,0.6,0.0,-0.5235987755982988,0,0.03019904,1.6115196,-0.08138587,-0.21541584,0.17532793,1.3719515,0.073006794,-0.6539057,1.4021295,0.1788083,0.1629287,0.0957487,1.0084922,2.0436776
0.0,0.1,0.6,0.0,-0.5235987755982988,0,0.02908081,1.6121887,-0.092934415,-0.2129496,0.15460965,1.3712419,-0.06345182,-0.5433198,1.401408,0.18244459,0.1776646,0.06540585,0.9928123,2.2542095
0.0,0.1,0.6,0.0,-0.5235987755982988,0,0.03803007,1.6115053,-0.083969116,-0.21715054,0.16451831,1.3807538,-0.01715776,-0.6664032,1.4085522,0.1947536,0.1618675,0.051718894,1.0003997,1.6697189
0.0,0.1,0.6,0.0,-0.5235987755982988,0,0.04194143,1.6102093,-0.0734467,-0.21599141,0.15267156,1.361113,-0.07997977,-0.5555318,1.4162921,0.18402122,0.17374569,0.07633438,0.9897513,1.9703403
0.0,0.1,0.6,0.0,-0.5235987755982988,0,0.044181507,1.6163901,-0.09061413,-0.21646383,0.1441576,1.3739439,-0.04884965,-0.6077683,1.4070011,0.17178375,0.1845351,0.036187068,0.9360905,1.6827191
0.0,0.1,0.6,0.0,-0.5235987755982988,0,0.03657801,1.609094,-0.07979153,-0.21526712,0.14740454,1.3786254,0.032444652,-0.6422397,1.4252622,0.18560416,0.17155416,0.055860575,0.99697345,2.3395827
0.0,0.1,0.6,0.0,-0.5235987755982988,0,0.03847591,1.6116431,-0.08375316,-0.21799043,0.16691035,1.3804361,0.025861492,-0.67049795,1.4084423,0.17360099,0.18285269,0.058700886,0.99805194,1.8956863
0.0,0.1,0.6,0.0,-0.5235987755982988,0,0.017774332,1.6156819,-0.071595125,-0.21649793,0.1675989,1.3590369,-0.13335304,-0.5958215,1.4238771,0.17316626,0.179853,0.08935876,0.997593,1.925322
0.0,0.1,0.6,0.0,-0.5235987755982988,0,0.039185993,1.618487,-0.095066875,-0.22019859,0.14973809,1.3706262,0.02531329,-0.49408564,1.4184607,0.18848641,0.16241431,0.084786326,1.0189481,1.7485458
0.0,0.1,0.6,0.0,-0.5235987755982988,0,0.017523715,1.616815,-0.0886529,-0.21407728,0.15196815,1.3744806,-0.10226283,-0.5212618,1.4233093,0.18996811,0.17306462,0.06798809,0.9652826,1.3913372
0.0,0.1,0.6,0.0,-0.5235987755982988,0,0.009180946,1.6133919,-0.089504495,-0.21317805,0.14569482,1.3770627,-0.016705852,-0.55371064,1.4273562,0.20015198,0.16836125,0.070410475,0.9549448,1.9831088
0.0,0.1,0.6,0.0,-0.5235987755982988,0,0.022482814,1.6179323,-0.08771315,-0.21598136,0.1634117,1.3763512,-0.028241165,-0.5330673,1.421199,0.18971449,0.17297877,0.10571655,1.0143375,1.7670687
0.0,0.1,0.6,0.0,-0.5235987755982988,0,0.029776962,1.614758,-0.086217545,-0.21089865,0.14825845,1.3602445,-0.044779506,-0.55171114,1.4137282,0.19028948,0.15129808,0.08395328,1.0371246,2.0788462
0.0,0.1,0.6,0.0,-0.5235987755982988,0,0.039365,1.6116073,-0.076688014,-0.21558444,0.14247106,1.3735528,0.0036900567,-0.5607539,1.4212476,0.1966356,0.16152447,0.1359145,0.99642235,1.8592113
0.0,0.1,0.6,0.0,-0.5235987755982988,0,0.032475684,1.6133904,-0.089379795,-0.21269695,0.15021063,1.3696405,-0.035848085,-0.50447315,1.428576,0.18158463,0.16571224,0.106718875,1.0250596,2.144663
0.0,0.1,0.6,0.0,-0.5235987755982988,0,0.027880378,1.6169786,-0.09391882,-0.21710448,0.14852,1.3707613,0.021152247,-0.5315357,1.4159384,0.17191471,0.18742396,0.072367,1.002721,1.7761948
0.0,0.1,0.6,0.0,-0.5235987755982988,0,0.03611847,1.6161864,-0.082783826,-0.21637358,0.14842041,1.3679214,-0.027615985,-0.61352974,1.4188317,0.19132124,0.18733674,0.11613659,0.9843633,2.1520848
0.0,0.1,0.6,0.0,-0.5235987755982988,0,0.04022636,1.6143466,-0.0883796,-0.21403484,0.13790138,1.3691097,-0.02905762,-0.5994168,1.4158384,0.19614922,0.16163075,0.09880472,0.9113801,2.3371217
0.0,0.1,0.6,0.0,-0.5235987755982988,0,0.03387866,1.6119983,-0.08285299,-0.21426728,0.15769437,1.3697587,-0.048790216,-0.52348816,1.4029534,0.16359699,0.18292284,0.10566458,0.99280405,2.067061
0.0,0.1,0.6,0.0,-0.5235987755982988,0,0.04628806,1.6127003,-0.078521475,-0.21696155,0.13781784,1.3752724,-3.6658057e-05,-0.6649145,1.4230149,0.1973027,0.21482332,0.10043814,1.0084964,1.7831341
0.0,0.1,0.6,0.0,-0.5235987755982988,0,0.034677565,1.6083738,-0.07882675,-0.21197398,0.17934681,1.3671113,0.019281453,-0.67224574,1.405401,0.17730367,0.15842883,0.0946781,0.9815623,1.5963007
0.0,0.1,0.6,0.0,-0.5235987755982988,0,0.040326476,1.6142948,-0.09221013,-0.2171099,0.1809386,1.3736442,-0.021495692,-0.5304229,1.4156475,0.18068154,0.15629703,0.098896116,0.9988856,1.6665411
0.0,0.1,0.6,0.0,-0.5235987755982988,0,0.032684777,1.6172434,-0.1048585,-0.21668382,0.137823,1.3738741,0.044164658,-0.5688782,1.4127768,0.18268344,0.17305861,0.11501384,1.0006056,1.9647083
0.0,0.1,0.6,0.0,-0.5235987755982988,0,0.041233964,1.6137434,-0.06478866,-0.21584484,0.14065848,1.3660338,-0.0047480245,-0.5677426,1.4292874,0.17069447,0.18240044,0.06530795,0.96795654,2.2243648
0.0,0.1,0.6,0.0,-0.5235987755982988,0,0.04274718,1.6234033,-0.10150505,-0.21604969,0.16205326,1.3599612,-0.018699357,-0.60964745,1.4257617,0.1922296,0.17173114,0.06829725,1.0448035,1.7251259
0.0,0.1,0.6,0.0,-0.5235987755982988,0,0.043065846,1.6160452,-0.06458574,-0.21770069,0.15599783,1.3671159,-0.041339613,-0.57957834,1.4216452,0.15521613,0.17043386,0.09197202,1.027262,2.0935051
0.0,0.1,0.6,0.0,-0.5235987755982988,0,0.031154376,1.6082983,-0.09197604,-0.20973977,0.13811469,1.3705047,0.027198028,-0.59618115,1.4381013,0.20527306,0.16556138,0.04386267,1.0118786,2.1301935
0.0,0.1,0.6,0.0,-0.5235987755982988,0,0.025846008,1.6100134,-0.08765002,-0.20665623,0.15849853,1.3783603,-0.10404958,-0.46479648,1.4235355,0.1729272,0.17056085,0.09538146,0.99583006,2.317442
0.0,0.1,0.6,0.0,-0.5235987755982988,0,0.015340248,1.617473,-0.08499422,-0.21420118,0.17817084,1.3739092,-0.10386943,-0.62328064,1.4102306,0.1943218,0.19317354,0.08038345,0.9755241,1.5841488
0.0,0.1,0.6,0.0,-0.5235987755982988,0,0.039288342,1.6112993,-0.08333155,-0.21609421,0.14057238,1.3753729,0.05330721,-0.5622444,1.4205736,0.15032865,0.1521003,0.097467795,0.9967736,1.6932973
0.0,0.1,0.6,0.0,-0.5235987755982988,0,0.048296846,1.6133269,-0.09291147,-0.21237423,0.17663108,1.364337,-0.046657626,-0.56661785,1.4145653,0.18199651,0.173237,0.060381237,0.9903899,2.1327934
0.0,0.1,0.6,0.0,-0.5235987755982988,0,0.033369664,1.615538,-0.08854085,-0.21281388,0.1464244,1.3608673,-0.010003923,-0.6552749,1.4156648,0.17368837,0.19620527,0.03709179,1.0294217,1.7962885
0.0,0.1,0.6,0.0,-0.5235987755982988,0,0.02765476,1.6124369,-0.09080098,-0.21660192,0.15721355,1.3843626,0.032362238,-0.64806557,1.4127109,0.18406023,0.1585215,0.10622388,1.0124921,1.8986986
0.0,0.1,0.6,0.0,-0.5235987755982988,0,0.056655172,1.6086656,-0.07298102,-0.21718407,0.14314376,1.3701111,-0.08350807,-0.6244575,1.4090631,0.15777397,0.17533429,0.094142996,0.9861379,1.9031395
0.0,0.1,0.6,0.0,-0.5235987755982988,0,0.029074924,1.6076733,-0.07579701,-0.2101842,0.15886214,1.3627199,0.018990764,-0.70886725,1.403817,0.15990525,0.13760428,0.11164163,1.0180151,2.0652766
0.0,0.1,0.6,0.0,-0.5235987755982988,0,0.023362806,1.6114796,-0.075644866,-0.2140175,0.14032504,1.3692791,-0.0047628777,-0.5909915,1.4119527,0.16640264,0.13713342,0.08765707,0.98032874,2.289103
0.0,0.1,0.6,0.0,-0.5235987755982988,0,0.010523488,1.6178786,-0.07706395,-0.21674946,0.14804387,1.3705425,-0.020989994,-0.5822097,1.4003944,0.17590001,0.18854468,0.10621399,0.95184875,1.8366305
0.0,0.1,0.6,0.0,-0.5235987755982988,0,0.04234129,1.6180229,-0.09069742,-0.21960214,0.14004748,1.3802227,-0.011240994,-0.5515212,1.4073906,0.16711336,0.16301757,0.077279896,0.96446437,2.0031044
0.0,0.1,0.6,0.0,-0.5235987755982988,0,0.03355646,1.607394,-0.07013205,-0.21027365,0.16438958,1.3643109,-0.051623926,-0.48245853,1.4270993,0.20205854,0.15737247,0.06119197,1.0116452,1.9549414
0.0,0.1,0.6,0.0,-0.5235987755982988,0,0.025712842,1.6158034,-0.06759402,-0.21736398,0.1655992,1.3733176,-0.015702913,-0.49066898,1.4175936,0.16599151,0.19200364,0.09424903,0.96942025,2.2503853
0.0,0.1,0.6,0.0,-0.5235987755982988,0,0.033681612,1.614353,-0.0775649,-0.21830994,0.16120529,1.3771112,-0.023792475,-0.62989485,1.412026,0.16527066,0.16456576,0.09438474,0.95794487,2.0131087
0.0,0.1,0.6,0.0,-0.5235987755982988,0,0.04065738,1.6193705,-0.097252585,-0.2197008,0.1546122,1.3683001,0.033663966,-0.6410427,1.4133366,0.17751893,0.169356,0.042225547,0.96548486,1.9960345
0.0,0.1,0.6,0.0,-0.5235987755982988,0,0.033100374,1.6121821,-0.071613945,-0.21529782,0.14176892,1.3695908,-0.03955131,-0.695577,1.421732,0.19108889,0.17406173,0.10046077,0.9881204,2.3115432
0.0,0.1,0.6,0.0,-0.5235987755982988,0,0.03370076,1.6185125,-0.089234896,-0.21778785,0.13887624,1.3776573,-0.09451312,-0.6580795,1.4117934,0.1777222,0.1578343,0.1054027,0.97833663,1.6847185
0.0,0.1,0.6,0.0,-0.5235987755982988,0,0.041411974,1.6142505,-0.075788535,-0.216779,0.15320937,1.3711811,0.005797508,-0.58626246,1.4083085,0.1828998,0.16337286,0.07186018,0.97632736,2.4030793
0.0,0.1,0.6,0.0,-0.5235987755982988,0,0.028648613,1.6113439,-0.07240211,-0.2171104,0.14907147,1.379686,-0.04506537,-0.44779655,1.4041216,0.18954179,0.15587813,0.065407306,0.93972355,1.8194453
0.0,0.1,0.6,0.0,-0.5235987755982988,0,0.032798696,1.6151462,-0.08507762,-0.21519554,0.14681028,1.3731312,-0.07554581,-0.6556509,1.4172132,0.18367386,0.16003591,0.039664056,1.0110239,1.7182955
0.0,0.1,0.6,0.0,-0.5235987755982988,0,0.042194955,1.6099242,-0.09328637,-0.21258882,0.15569237,1.3748068,-0.0038036087,-0.61019665,1.4128689,0.18256243,0.15819257,0.0713279,0.9896008,2.1454391
0.0,0.1,0.6,0.0,-0.5235987755982988,0,0.029136494,1.614221,-0.09031724,-0.21564014,0.1460977,1.3787708,-0.026291499,-0.6891176,1.4149116,0.22009294,0.177803,0.0815015,1.0487648,1.7198058
0.0,0.1,0.6,0.0,-0.5235987755982988,0,0.0259845,1.6136584,-0.08065901,-0.21622236,0.14674683,1.3769344,0.05801475,-0.55330956,1.4145672,0.1566997,0.16077965,0.08561807,0.992973,2.2963014
0.0,0.1,0.6,0.0,-0.5235987755982988,0,0.014276242,1.613532,-0.086462915,-0.21521035,0.1665909,1.3808223,-0.009342426,-0.6393707,1.4206698,0.17973849,0.17449549,0.05327073,1.0000294,1.7782826
0.0,0.1,0.6,0.0,-0.5235987755982988,0,0.031110672,1.6179761,-0.08828718,-0.21976186,0.15986037,1.3815119,-0.0014244247,-0.60901815,1.3974533,0.18206728,0.18180205,0.06886553,1.0381756,1.8489982
0.0,0.1,0.6,0.0,-0.5235987755982988,0,0.018343022,1.6140932,-0.07345216,-0.21530296,0.14313827,1.3720096,0.07864791,-0.5875137,1.410116,0.19302797,0.17341734,0.07946449,0.9646909,1.8090997
0.0,0.1,0.6,0.0,-0.5235987755982988,0,0.033597298,1.6146508,-0.09413891,-0.21438295,0.14519446,1.3753427,-0.052261572,-0.5929574,1.4130353,0.18151985,0.1555713,0.06317838,0.97817725,2.07484
0.0,0.1,0.6,0.0,-0.5235987755982988,0,0.049494885,1.6099724,-0.08369343,-0.21607058,0.16848117,1.3738998,-0.034171335,-0.51693803,1.3933895,0.18424854,0.1699053,0.08661101,1.0014968,2.0785635
0.0,0.1,0.6,0.0,-0.5235987755982988,0,0.036311843,1.6128597,-0.08701797,-0.21567726,0.12777188,1.3762842,0.055050876,-0.54488105,1.3931308,0.15038955,0.18169734,0.103224166,1.009,1.5100611
0.0,0.1,0.6,0.0,-0.5235987755982988,0,0.04262746,1.6202717,-0.08163963,-0.22178464,0.15158787,1.3800045,-0.07646192,-0.5177494,1.4155512,0.20315528,0.19148484,0.07226444,0.9672142,1.6930243
0.0,0.1,0.6,0.0,-0.5235987755982988,0,0.036136407,1.6120627,-0.08514577,-0.21519777,0.15857215,1.378407,-0.012240324,-0.67540914,1.4082383,0.1897719,0.15891998,0.07030907,0.99527013,1.8724163
0.0,0.1,0.6,0.0,-0.5235987755982988,0,0.041550543,1.6051786,-0.0801958,-0.20823474,0.15469258,1.3660967,-0.03150851,-0.59236306,1.4154041,0.17001481,0.1664364,0.1142776,0.9795849,2.2166975
0.0,0.1,0.6,0.0,-0.5235987755982988,0,0.030828701,1.6132272,-0.09790509,-0.21617712,0.17989634,1.3695787,-0.032266784,-0.56725276,1.4455863,0.21409947,0.16595784,0.09458802,0.9895626,1.7934064
0.0,0.1,0.6,0.0,-0.5235987755982988,0,0.011353447,1.616907,-0.0798989,-0.21522264,0.12516336,1.36712,0.004510213,-0.6672983,1.4176949,0.18824089,0.1355299,0.10207295,0.9946669,1.5735251
0.0,0.1,0.6,0.0,-0.5235987755982988,0,0.033242676,1.6183736,-0.09093536,-0.21741354,0.15428911,1.3731349,-0.009704953,-0.5625542,1.4060442,0.17177041,0.18197118,0.097011246,0.96970737,1.7857534
0.0,0.1,0.6,0.0,-0.5235987755982988,0,0.048523415,1.6108074,-0.08553235,-0.2142392,0.15651256,1.3685492,0.008036998,-0.6520006,1.415732,0.1625156,0.13700914,0.10645987,0.9909451,2.1299622
0.0,0.1,0.6,0.0,-0.5235987755982988,0,0.049517978,1.6173003,-0.07627241,-0.22007321,0.1446098,1.3744748,-0.02138846,-0.6988141,1.4216664,0.18205857,0.14582755,0.09109726,0.9700177,1.8307564
0.0,0.1,0.6,0.0,-0.5235987755982988,0,0.028566895,1.6140602,-0.081815846,-0.21737412,0.14444898,1.3775423,-0.026031585,-0.68220913,1.4189667,0.18656321,0.16079088,0.038774706,1.0390934,1.9330629
0.0,0.1,0.6,0.0,-0.5235987755982988,0,0.038797125,1.6214069,-0.08120904,-0.22143304,0.16165155,1.3694891,0.011620788,-0.6206363,1.4040077,0.19043338,0.13493538,0.075066134,0.9709757,1.944416
0.0,0.1,0.6,0.0,-0.5235987755982988,0,0.02433756,1.6239566,-0.08958288,-0.2264806,0.15530515,1.3858105,0.016477479,-0.5834396,1.403604,0.20799653,0.16255571,0.07760169,0.9514403,1.8178906
0.0,0.1,0.6,0.0,-0.5235987755982988,0,0.033954915,1.6214433,-0.078865595,-0.22393543,0.1531565,1.3695388,0.0030076513,-0.59290504,1.3974875,0.20521137,0.16365282,0.04522284,0.9987663,2.1503599
0.0,0.1,0.6,0.0,-0.5235987755982988,0,0.04323198,1.6121752,-0.08543872,-0.21161926,0.14690585,1.3593407,-0.0004957429,-0.6564532,1.4212786,0.19206454,0.17844428,0.11686972,1.0172164,1.8016179
0.0,0.1,0.6,0.0,-0.5235987755982988,0,0.020730278,1.6203961,-0.09070389,-0.21776916,0.16054337,1.3695016,-0.0720536,-0.6513117,1.4223152,0.17503737,0.17540883,0.10981978,1.0180751,1.9372953
0.0,0.1,0.6,0.0,-0.5235987755982988,0,0.061245166,1.610237,-0.08841774,-0.21413673,0.15408218,1.3683891,-0.107821114,-0.71631473,1.4182819,0.16996348,0.18154852,0.09514882,1.0245657,1.842524
0.0,0.1,0.6,0.0,-0.5235987755982988,0,0.017429655,1.612246,-0.07357109,-0.2122932,0.17636378,1.3712016,-0.021663176,-0.54189867,1.4222065,0.18124388,0.1810586,0.095895685,1.0145639,1.9848746
0.0,0.1,0.6,0.0,-0.5235987755982988,0,0.032513443,1.6098541,-0.08051882,-0.21212162,0.15360446,1.3722748,-0.06757132,-0.67082405,1.4098462,0.17328432,0.18061455,0.101502,0.98028785,2.2940352
0.0,0.1,0.6,0.0,-0.5235987755982988,0,0.034029137,1.6144269,-0.0698043,-0.21919198,0.15795471,1.3768988,-0.064022645,-0.6813326,1.4089332,0.20934708,0.1644737,0.05866205,0.9388008,2.4072688
0.0,0.1,0.6,0.0,-0.5235987755982988,0,0.023580058,1.6152112,-0.08326844,-0.21498945,0.14783567,1.3716655,0.035903227,-0.7183825,1.4329506,0.20908406,0.16268978,0.086326085,1.0035105,1.9380673
0.0,0.1,0.6,0.0,-0.5235987755982988,0,0.043453813,1.6128803,-0.08595505,-0.21407758,0.16913465,1.3685488,0.031374756,-0.6388623,1.4324279,0.1830349,0.17044735,0.07818227,0.97773254,2.0233371
0.0,0.1,0.6,0.0,-0.5235987755982988,0,0.036107328,1.615255,-0.07328928,-0.21731584,0.18256432,1.3692253,0.023447242,-0.57651466,1.417854,0.1793466,0.18104516,0.08319981,0.9872115,2.1523352
0.0,0.1,0.6,0.0,-0.5235987755982988,0,0.031943545,1.6158326,-0.08205111,-0.2161844,0.17140517,1.3704116,-0.0033086,-0.59563893,1.4159412,0.1972954,0.18047185,0.10027879,0.9936417,1.8491623
0.0,0.1,0.6,0.0,-0.5235987755982988,0,0.045176797,1.6192489,-0.08521119,-0.22005463,0.1646938,1.3647177,-0.0406787,-0.7055588,1.4344708,0.16596986,0.19528033,0.08057452,0.9772872,1.819704
0.0,0.1,0.6,0.0,-0.5235987755982988,0,0.034374997,1.6135765,-0.080689676,-0.2167335,0.14791144,1.374613,-0.048652004,-0.6792594,1.4155622,0.18077426,0.1616714,0.11051135,1.0338765,1.7578871
0.0,0.1,0.6,0.0,-0.5235987755982988,0,0.03359652,1.615185,-0.079272784,-0.21558864,0.1403016,1.3667753,0.0061052334,-0.60828674,1.4096978,0.18144095,0.19076301,0.06727707,1.0238488,1.758414
0.0,0.1,0.6,0.0,-0.5235987755982988,0,0.030619305,1.6163466,-0.08162902,-0.21780312,0.15353227,1.3771226,0.030782731,-0.62881756,1.419886,0.1878195,0.19695407,0.07715131,0.99002194,1.8472077
0.0,0.1,0.6,0.0,-0.5235987755982988,0,0.028818203,1.6146218,-0.09178376,-0.21370976,0.16311097,1.3728703,0.05009525,-0.581049,1.4211012,0.1730965,0.16061516,0.0848044,1.0000284,1.9614576
0.0,0.1,0.6,0.0,-0.5235987755982988,0,0.03238957,1.616414,-0.082769856,-0.21776228,0.16608529,1.3729863,0.055090252,-0.6089126,1.4067532,0.19732001,0.16152208,0.11411072,1.002968,2.234785
0.0,0.1,0.6,0.0,-0.5235987755982988,0,0.026661545,1.6172707,-0.09168344,-0.21396832,0.15316302,1.3601706,-0.05678337,-0.6290132,1.4053942,0.16495858,0.18130524,0.111962244,0.95294756,1.636996
0.0,0.1,0.6,0.0,-0.5235987755982988,0,0.029694412,1.6147629,-0.09642236,-0.21213107,0.17592032,1.370499,0.047597356,-0.53813255,1.4065174,0.17593372,0.1703317,0.10669916,1.0324589,1.8810868
0.0,0.1,0.6,0.0,-0.5235987755982988,0,0.025607726,1.6127329,-0.06380935,-0.21329747,0.1890053,1.3575472,0.066321105,-0.5471287,1.4163134,0.17312635,0.1574915,0.108860396,1.0217317,2.1392572
0.0,0.1,0.6,0.0,-0.5235987755982988,0,0.019783879,1.6141349,-0.08649025,-0.21089986,0.15640649,1.3695052,-0.06462877,-0.62587225,1.4067518,0.1968398,0.15392455,0.05453652,1.0284979,1.9499464
0.0,0.1,0.6,0.0,-0.5235987755982988,0,0.03041749,1.6137398,-0.09975256,-0.21221708,0.11106651,1.3736724,-0.018606186,-0.56383336,1.4297072,0.19687222,0.17516336,0.040080577,1.0067123,1.4483396
0.0,0.1,0.6,0.0,-0.5235987755982988,0,0.033298742,1.6127,-0.08555221,-0.2139356,0.12205136,1.3724289,-0.025514906,-0.5209824,1.4090899,0.17934,0.15306227,0.03237219,1.0249153,2.2795124
0.0,0.1,0.6,0.0,-0.5235987755982988,0,0.021654345,1.6292901,-0.097855166,-0.21952233,0.15348619,1.3770972,-0.022359239,-0.6153576,1.4026172,0.18182482,0.18106802,0.084580444,1.0400114,1.9343158
0.0,0.1,0.6,0.0,-0.5235987755982988,0,0.034038167,1.6157062,-0.085491836,-0.21401045,0.15337592,1.3691492,-0.11438875,-0.5776832,1.4018075,0.1764603,0.159347,0.08508373,1.0012059,1.6687782
0.0,0.1,0.6,0.0,-0.5235987755982988,0,0.037945952,1.6163523,-0.0806569,-0.21360147,0.15375064,1.3636315,-0.04157774,-0.6169091,1.4159739,0.15192929,0.18944441,0.04935793,0.95716846,1.6331979
0.0,0.1,0.6,0.0,-0.5235987755982988,0,0.0478017,1.6159036,-0.09073419,-0.21511476,0.16319166,1.3717171,-0.017543456,-0.5651587,1.4167604,0.1911268,0.17329001,0.075341485,0.9775527,1.9909644
0.0,0.1,0.6,0.0,-0.5235987755982988,0,0.0403613,1.6137888,-0.07214237,-0.21308453,0.13439153,1.3638023,-0.09498351,-0.6149657,1.41151,0.17797668,0.1695454,0.0529915,1.0078356,1.3351223
0.0,0.1,0.6,0.0,-0.5235987755982988,0,0.03317311,1.6165907,-0.07778907,-0.21623963,0.1061209,1.3637996,-0.015727492,-0.5940118,1.4200025,0.20018215,0.17378895,0.05592012,0.9751937,2.2009811
0.0,0.1,0.6,0.0,-0.5235987755982988,0,0.019495767,1.6196688,-0.0791741,-0.2168163,0.1844621,1.3581709,-0.0012203478,-0.5891887,1.4244239,0.18601805,0.14570548,0.076170646,1.0249912,1.7332323
0.0,0.1,0.6,0.0,-0.5235987755982988,0,0.038250156,1.6210343,-0.08904497,-0.22077541,0.14131546,1.3677652,0.010783605,-0.6775515,1.409957,0.16447857,0.18214309,0.12613688,1.0283984,2.340903
0.0,0.1,0.6,0.0,-0.5235987755982988,0,0.021632064,1.6145579,-0.08269184,-0.21242304,0.16623399,1.36803,0.011056102,-0.5673737,1.4013107,0.17234884,0.17786591,0.08564369,0.9481011,2.0966594
0.0,0.1,0.6,0.0,-0.5235987755982988,0,0.026331307,1.6170994,-0.08776854,-0.21560481,0.11631924,1.372359,0.022143217,-0.53300536,1.4161029,0.18360312,0.14024474,0.11287616,0.93550634,1.9031515
0.0,0.1,0.6,0.0,-0.5235987755982988,0,0.015073126,1.6172973,-0.068479545,-0.21722439,0.1457872,1.3752265,-0.07846877,-0.56933147,1.4087067,0.2003418,0.19343157,0.103267916,0.98700947,1.9703132
0.0,0.1,0.6,0.0,-0.5235987755982988,0,0.046509586,1.6177082,-0.08818702,-0.21512792,0.16089253,1.3697743,-0.064271614,-0.7086968,1.4169512,0.1807868,0.13862047,0.07786146,0.99318457,1.8321252
0.0,0.1,0.6,0.0,-0.5235987755982988,0,0.025093365,1.6148798,-0.07045768,-0.21704242,0.14983699,1.3721308,-0.07593625,-0.6910683,1.3974267,0.16746473,0.1525983,0.0955765,0.97749543,1.9191386
0.0,0.1,0.6,0.0,-0.5235987755982988,0,0.031980444,1.6155894,-0.089572914,-0.21328205,0.15924832,1.3625957,-0.016173152,-0.7291647,1.4081208,0.16398518,0.1616841,0.11191553,1.0159587,1.6690786
0.0,0.1,0.6,0.0,-0.5235987755982988,0,0.03756117,1.6178036,-0.08032405,-0.21816383,0.117334366,1.3675046,0.02973155,-0.6266288,1.4157802,0.15600146,0.15191467,0.10006009,1.0009503,1.8949486
0.0,0.1,0.6,0.0,-0.5235987755982988,0,0.013614697,1.6164446,-0.07850587,-0.21528937,0.12410114,1.3737649,0.009421907,-0.6023548,1.4199603,0.18754761,0.1489715,0.07123861,1.0243098,1.8923644
0.0,0.1,0.6,0.0,-0.5235987755982988,0,0.020552712,1.618874,-0.07912079,-0.21834607,0.14455001,1.3779659,-0.064493634,-0.6730803,1.4055074,0.18442214,0.14959769,0.03182786,1.0180905,2.1125758
0.0,0.1,0.6,0.0,-0.5235987755982988,0,0.029668037,1.6203488,-0.08046406,-0.22027569,0.16997357,1.3660388,-0.006289539,-0.7047355,1.4137356,0.19384274,0.14927982,0.04429274,1.0137253,1.8494725
0.0,0.1,0.6,0.0,-0.5235987755982988,0,0.027340079,1.607236,-0.08105915,-0.22211625,0.16266732,1.371702,0.071313456,-0.60394096,1.4321477,0.17509645,0.16720755,0.0845627,0.95192856,2.0381029
0.0,0.1,0.6,0.0,-0.5235987755982988,0,0.033879466,1.6155418,-0.08397741,-0.21915884,0.15440466,1.3731817,0.08757155,-0.652106,1.4178213,0.20814677,0.16296183,0.1148707,1.0532068,2.4314256
0.0,0.1,0.6,0.0,-0.5235987755982988,0,0.03258234,1.6078744,-0.09880984,-0.2107008,0.13618568,1.3727214,-0.032041978,-0.67919415,1.4147835,0.17333739,0.14699134,0.08319765,0.96260065,1.8881677
0.0,0.1,0.6,0.0,-0.5235987755982988,0,0.019059783,1.6098199,-0.08369777,-0.21177419,0.1251904,1.3709306,0.08096079,-0.5253313,1.4349002,0.17664686,0.17771614,0.06791831,0.9852815,1.7763536
0.0,0.1,0.6,0.0,-0.5235987755982988,0,0.017457701,1.6099871,-0.07672775,-0.21324582,0.12927797,1.3758123,0.05673841,-0.71533006,1.4128826,0.1897765,0.16002733,0.09318669,1.0263855,1.731611
0.0,0.1,0.6,0.0,-0.5235987755982988,0,0.030552931,1.6115031,-0.09284207,-0.2112248,0.13968736,1.3643454,-0.048952915,-0.715652,1.4129914,0.18537909,0.20479599,0.07335285,0.97973406,1.5536101
0.0,0.1,0.6,0.0,-0.5235987755982988,0,0.028645232,1.6175351,-0.08923439,-0.2168238,0.17373042,1.3620105,0.014940656,-0.63400185,1.4200249,0.18350948,0.18511699,0.13528712,0.9731936,1.7371151
0.0,0.1,0.6,0.0,-0.5235987755982988,0,0.029383093,1.6018654,-0.08037115,-0.21355146,0.15724424,1.3811877,-0.027896075,-0.6537697,1.4166716,0.15467146,0.17235744,0.033280786,0.96531767,1.6957492
0.0,0.1,0.6,0.0,-0.5235987755982988,0,0.02190051,1.6250508,-0.086855926,-0.2195084,0.15703128,1.3649732,0.03036914,-0.5758768,1.402416,0.19210249,0.21145277,0.11153006,0.9818421,1.6950856
0.0,0.1,0.6,0.0,-0.5235987755982988,0,0.030596895,1.6159061,-0.09186739,-0.21430327,0.1631228,1.3654801,-0.04824638,-0.725056,1.4151841,0.1586802,0.18182191,0.12020453,0.965094,1.8774593
0.0,0.1,0.6,0.0,-0.5235987755982988,0,0.03999173,1.6177044,-0.089047834,-0.21734363,0.14292565,1.3727996,-0.09945622,-0.6071123,1.4131095,0.19621703,0.17122844,0.09800855,0.9594269,1.6341748
0.0,0.1,0.6,0.0,-0.5235987755982988,0,0.062007252,1.6139188,-0.0889612,-0.21111813,0.15777159,1.3718636,-0.035636473,-0.5335333,1.4058957,0.17501949,0.17954172,0.09657508,0.9889071,2.2408943
0.0,0.1,0.6,0.0,-0.5235987755982988,0,0.027824868,1.6054813,-0.08036014,-0.218317,0.1488993,1.3760983,0.0667833,-0.7007239,1.427706,0.20071323,0.14623417,0.06276314,1.0245606,2.0382617
0.0,0.1,0.6,0.0,-0.5235987755982988,0,0.037012383,1.6216182,-0.09359937,-0.21355705,0.13070555,1.3601394,-0.027494518,-0.5315473,1.4201078,0.1620322,0.19290419,0.053265344,1.0528897,1.9231874
0.0,0.1,0.6,0.0,-0.5235987755982988,0,0.03675034,1.6187716,-0.111608274,-0.21551254,0.18537575,1.3617201,0.031461775,-0.5441667,1.419983,0.19160445,0.16071658,0.10302873,0.9955654,1.5109278
0.0,0.1,0.6,0.0,-0.5235987755982988,0,0.030007165,1.6145959,-0.08854788,-0.21432495,0.1454609,1.3763676,-0.01645283,-0.54757607,1.4191617,0.17393303,0.17742527,0.09821948,0.9946497,1.2983892
0.0,0.1,0.6,0.0,-0.5235987755982988,0,0.024657708,1.6131176,-0.09181654,-0.2134539,0.14215052,1.3786917,-0.056328367,-0.6647384,1.4127451,0.19253309,0.17744692,0.068501346,1.0255135,1.8357923
0.0,0.1,0.6,0.0,-0.5235987755982988,0,0.045338966,1.607268,-0.07965668,-0.22067504,0.15001303,1.3690113,0.04593763,-0.6026026,1.4223082,0.17922284,0.15678453,0.09951227,1.0195348,2.0934381
0.0,0.1,0.6,0.0,-0.5235987755982988,0,0.02399209,1.6022499,-0.085165165,-0.21125056,0.113733485,1.3761811,0.013090483,-0.7615197,1.4084218,0.18485548,0.21271585,0.07627926,0.9784717,2.0815346
0.0,0.1,0.6,0.0,-0.5235987755982988,0,0.017098188,1.6178985,-0.076706104,-0.21718174,0.1361131,1.3764328,0.00255387,-0.5687202,1.4070014,0.18560961,0.19593328,0.12124871,1.0063012,1.6434356
0.0,0.1,0.6,0.0,-0.5235987755982988,0,0.029115548,1.6171094,-0.074723795,-0.21501364,0.1685337,1.3763666,-0.025662478,-0.5784156,1.4171208,0.16531931,0.18263021,0.117568314,0.9604132,1.9779046
0.0,0.1,0.6,0.0,-0.5235987755982988,0,0.025370525,1.6159207,-0.083672084,-0.21635282,0.14776552,1.3820398,-0.043483105,-0.543972,1.4039972,0.19702868,0.18274608,0.09990574,1.0067319,1.9951124
0.0,0.1,0.6,0.0,-0.5235987755982988,0,0.048359074,1.6167067,-0.088114545,-0.21194072,0.15460628,1.3660433,0.019898733,-0.57970625,1.4282173,0.18361342,0.15912554,0.075942196,1.0479252,1.8804072
0.0,0.1,0.6,0.0,-0.5235987755982988,0,0.022713605,1.6149863,-0.08801305,-0.21259151,0.14393732,1.3719319,-0.061164524,-0.6480953,1.4104111,0.17121638,0.14700179,0.099588454,1.0433877,1.7503278
0.0,0.1,0.6,0.0,-0.5235987755982988,0,0.038391594,1.6175274,-0.08285963,-0.212793,0.16169445,1.3643175,-0.03430276,-0.61694884,1.4099219,0.15658821,0.16093597,0.09774949,0.98178387,2.007525
0.0,0.1,0.6,0.0,-0.5235987755982988,0,0.041850917,1.618926,-0.07776622,-0.21598731,0.16901788,1.3731264,-0.054910693,-0.71547824,1.4206393,0.17719829,0.1757493,0.031345606,1.0135167,1.7517948
0.0,0.1,0.6,0.0,-0.5235987755982988,0,0.017760329,1.613969,-0.07309039,-0.21157221,0.16579865,1.3693062,-0.056789685,-0.5972065,1.3977474,0.19395038,0.1582239,0.097987905,0.9651365,2.071487
0.0,0.1,0.6,0.0,-0.5235987755982988,0,0.030353514,1.6129041,-0.08932155,-0.21010405,0.14737998,1.3690125,-0.023054834,-0.54010576,1.4080483,0.17353547,0.14175823,0.08367477,0.94889146,1.7738369
0.0,0.1,0.6,0.0,-0.5235987755982988,0,0.0070432047,1.6127464,-0.07098088,-0.2153339,0.14659335,1.3832083,0.018590314,-0.6716351,1.3914666,0.17711218,0.17095938,0.083884045,0.9448794,2.0936465
0.0,0.1,0.6,0.0,-0.5235987755982988,0,0.04384362,1.6093442,-0.08271254,-0.22243646,0.174361,1.3770522,-0.014785824,-0.6433302,1.4049658,0.19202437,0.16440174,0.07777958,0.9659566,1.8188704
0.0,0.1,0.6,0.0,-0.5235987755982988,0,0.024951158,1.6190574,-0.08386806,-0.21821024,0.16904226,1.3821675,-0.019240208,-0.6326316,1.40413,0.18814048,0.15089633,0.088207416,1.0078027,1.4971766
0.0,0.1,0.6,0.0,-0.5235987755982988,0,0.02620179,1.6141993,-0.0822735,-0.21043451,0.12860954,1.3691915,-0.009645279,-0.68517476,1.4139841,0.18270299,0.16707268,0.10237529,0.9513005,1.8973838
0.0,0.1,0.6,0.0,-0.5235987755982988,0,0.026098104,1.6132733,-0.07877655,-0.21023433,0.13668975,1.3715777,-0.06489633,-0.5612521,1.4175783,0.19392726,0.19172384,0.061327208,0.99308246,2.019797
0.0,0.1,0.6,0.0,-0.5235987755982988,0,0.018807601,1.6202234,-0.07239421,-0.21540393,0.14336683,1.3638389,-0.07929198,-0.6011911,1.4087496,0.17678519,0.15369865,0.07656449,0.99187773,1.9838169
0.0,0.1,0.6,0.0,-0.5235987755982988,0,0.010765838,1.6164588,-0.08733049,-0.2124417,0.14995924,1.3744788,0.029080318,-0.6015282,1.4184309,0.17779422,0.18014832,0.09274275,0.9524284,2.1014395
0.0,0.1,0.6,0.0,-0.5235987755982988,0,0.028769111,1.6085137,-0.084878944,-0.20823598,0.17110892,1.3720863,0.045574136,-0.5072143,1.4132565,0.19218953,0.1883139,0.061880607,1.0006722,2.019165
0.0,0.1,0.6,0.0,-0.5235987755982988,0,0.034162655,1.6177715,-0.08734551,-0.20979777,0.15267837,1.3607273,0.047730632,-0.52774715,1.4200314,0.17754126,0.17735894,0.08882712,1.0181602,2.2905407
0.0,0.1,0.6,0.0,-0.5235987755982988,0,0.021430433,1.6172373,-0.07172612,-0.2120532,0.17511697,1.3729753,-0.018266,-0.52868986,1.4105405,0.16417113,0.18293615,0.08505934,0.9795725,2.0808206
0.0,0.1,0.6,0.0,-0.5235987755982988,0,0.0338114,1.613866,-0.09602576,-0.22490814,0.15543036,1.3641242,-0.05595038,-0.52510804,1.4098008,0.16494846,0.12917604,0.072302416,1.0000815,2.1282604
0.0,0.1,0.6,0.0,-0.5235987755982988,0,0.02630345,1.6081325,-0.07057215,-0.21649313,0.16243006,1.3731912,0.028910443,-0.54118586,1.4156388,0.18828186,0.17947869,0.09406993,0.9730405,1.9936837
0.0,0.1,0.6,0.0,-0.5235987755982988,0,0.03898368,1.6138498,-0.086997874,-0.21245857,0.16521214,1.3849868,-0.015691543,-0.7398726,1.4193963,0.16287975,0.16283241,0.079961486,0.98390156,1.8069462
0.0,0.1,0.6,0.0,-0.5235987755982988,0,0.037506696,1.6189417,-0.073550865,-0.20877211,0.12486135,1.359092,-0.08343116,-0.6815212,1.420359,0.20010948,0.15792046,0.10550191,0.9945038,1.9373672
0.0,0.1,0.6,0.0,-0.5235987755982988,0,0.046359915,1.6061225,-0.062688224,-0.21719587,0.15039988,1.3629446,0.033676717,-0.6608622,1.4110376,0.18891543,0.16635834,0.07835598,1.0034747,1.6896876
0.0,0.1,0.6,0.0,-0.5235987755982988,0,0.019629125,1.6113037,-0.07561073,-0.21829753,0.18615021,1.3731915,-0.041978437,-0.6589713,1.4200611,0.18788072,0.20263524,0.09395447,1.0020435,2.312677
0.0,0.1,0.6,0.0,-0.5235987755982988,0,0.024062516,1.6071494,-0.05973146,-0.2195959,0.13158107,1.3673145,-0.03137092,-0.5638687,1.4081002,0.153736,0.1696758,0.08458521,0.9891662,1.879558
0.0,0.1,0.6,0.0,-0.5235987755982988,0,0.044706143,1.6150048,-0.07212569,-0.20719586,0.16160752,1.3785836,-0.030183282,-0.6107348,1.4246174,0.14939715,0.18651193,0.10603915,1.0381204,1.7438177
0.0,0.1,0.6,0.0,-0.5235987755982988,0,0.036069553,1.6072924,-0.08187264,-0.21366945,0.13317357,1.354512,0.08210513,-0.6166004,1.4251384,0.16294268,0.18488328,0.06854999,1.0079732,1.709319
0.0,0.1,0.6,0.0,-0.5235987755982988,0,0.036372125,1.6077845,-0.0801715,-0.21403633,0.14913286,1.3693497,-0.007349028,-0.6919646,1.4210551,0.19345112,0.17256315,0.09457304,1.0293592,1.658698
0.0,0.1,0.6,0.0,-0.5235987755982988,0,0.051179085,1.6144357,-0.08861498,-0.22549084,0.12056985,1.3666857,-0.011738338,-0.583103,1.4386413,0.19642296,0.19701253,0.069011964,0.9677064,1.8421385
0.0,0.1,0.6,0.0,-0.5235987755982988,0,0.012692494,1.6038351,-0.07917885,-0.21042994,0.15744896,1.3755095,-0.07359662,-0.63667333,1.4002048,0.16521998,0.19240667,0.0986402,0.9709777,1.9803833
0.0,0.1,0.6,0.0,-0.5235987755982988,0,0.025994534,1.6020613,-0.08118509,-0.20901784,0.14111269,1.3742232,-0.07614045,-0.5491434,1.4215691,0.16880365,0.13055138,0.09956398,0.91532564,1.8896147
0.0,0.1,0.6,0.0,-0.5235987755982988,0,0.034023937,1.6133207,-0.090622045,-0.2175957,0.14953652,1.3783177,-0.039811928,-0.58920896,1.409194,0.1871184,0.17080368,0.04801572,0.9989165,1.59732
0.0,0.1,0.6,0.0,-0.5235987755982988,0,0.036600307,1.6105434,-0.08992047,-0.21810655,0.14249036,1.3725394,-0.062454037,-0.4341071,1.4330785,0.1893055,0.17370838,0.07294182,1.0193315,1.8746233
0.0,0.1,0.6,0.0,-0.5235987755982988,0,0.039994992,1.6027751,-0.09420691,-0.20785382,0.15349695,1.3611795,-0.008076406,-0.6105854,1.4087863,0.17342621,0.14746441,0.041842856,1.0483681,1.7136691
0.0,0.1,0.6,0.0,-0.5235987755982988,0,0.029894657,1.6051877,-0.07447117,-0.20977978,0.16919304,1.365075,-0.06895084,-0.61154276,1.4197397,0.18083467,0.18152946,0.060772616,1.0008655,2.065481
0.0,0.1,0.6,0.0,-0.5235987755982988,0,0.038074374,1.6262394,-0.078852974,-0.21510768,0.1615826,1.3735275,-0.029899303,-0.5095141,1.4096376,0.18107729,0.15049057,0.09570539,1.0257492,2.4257605
0.0,0.1,0.6,0.0,-0.5235987755982988,0,0.025453173,1.6116519,-0.086584225,-0.2125139,0.16559844,1.37265,0.007269892,-0.63477045,1.413598,0.19970909,0.20352143,0.047321454,0.97765714,1.7377068
0.0,0.1,0.6,0.0,-0.5235987755982988,0,0.03160498,1.616981,-0.099760935,-0.22003323,0.13970932,1.3785866,0.01668296,-0.5149896,1.417783,0.17671439,0.16301633,0.04945272,0.9694362,1.4437892
0.0,0.1,0.6,0.0,-0.5235987755982988,0,0.04534894,1.6076293,-0.08757798,-0.21304248,0.17463146,1.3822396,0.045787144,-0.6646268,1.4246386,0.2014028,0.18630786,0.07751615,1.0197344,1.8502901
0.0,0.1,0.6,0.0,-0.5235987755982988,0,0.017465152,1.6079586,-0.07821421,-0.20726827,0.164253,1.3664633,-0.013971981,-0.7873775,1.4245417,0.1620384,0.13428642,0.104692966,1.0071052,2.0838497
0.0,0.1,0.6,0.0,-0.5235987755982988,0,0.020063765,1.6149666,-0.068845496,-0.21423657,0.1351414,1.3743452,-0.120868,-0.61147946,1.4059514,0.18800393,0.17144848,0.06954088,0.96479034,1.9791476
0.0,0.1,0.6,0.0,-0.5235987755982988,0,0.030996248,1.600662,-0.07989828,-0.21672824,0.15749247,1.3767385,-0.10850362,-0.5140469,1.4137875,0.16687904,0.15686756,0.088199854,1.0106778,1.9861306
0.0,0.1,0.6,0.0,-0.5235987755982988,0,0.028321914,1.6036081,-0.07539183,-0.21891122,0.15961319,1.3680626,-0.036338508,-0.5286682,1.4014599,0.19519936,0.16421665,0.06981169,0.97886413,1.9716653
0.0,0.1,0.6,0.0,-0.5235987755982988,0,0.0072614844,1.6061229,-0.08127655,-0.21827173,0.1352213,1.3639659,-0.14104001,-0.6224188,1.4162794,0.20484796,0.20429325,0.050028004,0.97665256,2.3000631
0.0,0.1,0.6,0.0,-0.5235987755982988,0,0.017262893,1.5983725,-0.08734677,-0.21240285,0.16191515,1.367835,-0.041374024,-0.575487,1.4160659,0.19288369,0.16784264,0.07641561,1.0006944,1.5924203
0.0,0.1,0.6,0.0,-0.5235987755982988,0,0.029051328,1.6011815,-0.09440734,-0.21034677,0.13914767,1.3695089,-0.061265506,-0.5836242,1.4083872,0.19209777,0.173958,0.10259711,1.0072691,1.8514992
0.0,0.1,0.6,0.0,-0.5235987755982988,0,0.033912506,1.6015185,-0.09823682,-0.21665193,0.14085206,1.367998,-0.010498689,-0.5957066,1.4041281,0.16587803,0.20321885,0.1308688,0.9698305,1.6942827
0.0,0.1,0.6,0.0,-0.5235987755982988,0,0.016121741,1.6000314,-0.07434864,-0.21339226,0.123573706,1.3655733,-0.017943604,-0.63345504,1.4230345,0.18717776,0.19904931,0.07515806,1.0412133,2.2587714
0.0,0.1,0.6,0.0,-0.5235987755982988,0,0.03453575,1.5971869,-0.08676048,-0.21010706,0.14483117,1.3714017,0.0144311385,-0.5835495,1.4341791,0.17495713,0.1727275,0.06009268,1.0203502,1.9237167
0.0,0.1,0.6,0.0,-0.5235987755982988,0,0.02681887,1.6023034,-0.082874656,-0.21793053,0.15807518,1.3701464,-0.010258691,-0.5428317,1.4075816,0.1578498,0.17081176,0.085363135,0.9948577,1.8857825
0.0,0.1,0.6,0.0,-0.5235987755982988,0,0.031452738,1.6097246,-0.08127843,-0.22511612,0.1570047,1.3687246,-0.037905112,-0.6993018,1.4130721,0.19627856,0.18119219,0.084201306,0.9467756,1.8782487
0.0,0.1,0.6,0.0,-0.5235987755982988,0,0.02443502,1.6002196,-0.07699999,-0.21657258,0.12697597,1.3654568,-0.02871574,-0.62306315,1.4013753,0.18847324,0.16051085,0.084550366,1.0183483,2.3599944
0.0,0.1,0.6,0.0,-0.5235987755982988,0,0.02557466,1.6001554,-0.08484737,-0.21400698,0.15341403,1.3713739,-0.0018274515,-0.64393413,1.4155422,0.18384373,0.15375988,0.07438546,0.98085713,1.9083643
0.0,0.1,0.6,0.0,-0.5235987755982988,0,0.04741415,1.5986359,-0.08159029,-0.21316756,0.15825938,1.3720926,-0.0096842665,-0.62602437,1.4217781,0.17522582,0.20935026,0.06073739,1.0188422,1.6561974
0.0,0.1,0.6,0.0,-0.5235987755982988,0,0.04813249,1.5996661,-0.08461745,-0.21398208,0.14608344,1.3690056,0.037006058,-0.5968858,1.4322087,0.16769667,0.17481147,0.07914021,1.0027444,2.1341846
0.0,0.1,0.6,0.0,-0.5235987755982988,0,0.052019484,1.5957835,-0.074984275,-0.20930584,0.16702157,1.3692647,-0.0644174,-0.55853957,1.4182643,0.19998221,0.17248069,0.07101747,0.9374921,1.4174248
0.0,0.1,0.6,0.0,-0.5235987755982988,0,0.029429154,1.6056384,-0.08103252,-0.21781154,0.18567765,1.3731064,0.019663641,-0.659907,1.4117019,0.14701635,0.16461149,0.05577495,1.0569712,1.85893
0.0,0.1,0.6,0.0,-0.5235987755982988,0,0.031582262,1.5995232,-0.08735808,-0.21330975,0.14642231,1.386023,-0.037954886,-0.4964099,1.4055946,0.21990263,0.17258367,0.09633964,0.9721755,1.8906882
0.0,0.1,0.6,0.0,-0.5235987755982988,0,0.03547934,1.5988886,-0.06520693,-0.21456562,0.14560392,1.3685006,0.009132208,-0.6216934,1.4263228,0.17007054,0.13462348,0.093484454,1.0101104,1.9089541
0.0,0.1,0.6,0.0,-0.5235987755982988,0,0.03871148,1.6059712,-0.076218344,-0.21804486,0.15948045,1.3747911,0.008117982,-0.58377695,1.4212387,0.16712362,0.1621004,0.07240825,1.0529445,1.7117192
0.0,0.1,0.6,0.0,-0.5235987755982988,0,0.023900235,1.6039536,-0.07555282,-0.21934187,0.14334929,1.3752146,-0.12047434,-0.5584563,1.4227705,0.17417575,0.16831315,0.05209693,1.0443184,1.5924412
0.0,0.1,0.6,0.0,-0.5235987755982988,0,0.027185263,1.6067959,-0.08382007,-0.22054759,0.13023648,1.3715682,-0.008545295,-0.69386035,1.4033685,0.19284722,0.15578859,0.10715569,0.9858619,1.9758266
0.0,0.1,0.6,0.0,-0.5235987755982988,0,0.017930964,1.6074244,-0.08013456,-0.21625108,0.1359023,1.3612403,-0.10046528,-0.67393184,1.4130847,0.16396548,0.17785583,0.112796254,0.97965336,1.4526474
0.0,0.1,0.6,0.0,-0.5235987755982988,0,0.04588074,1.599608,-0.065898046,-0.21210197,0.17133376,1.3712816,0.023875328,-0.5503149,1.4021664,0.19882642,0.16013119,0.06776379,1.0261658,1.5390463
0.0,0.1,0.6,0.0,-0.5235987755982988,0,0.038967907,1.593048,-0.0763713,-0.20841926,0.16338935,1.3752774,0.010385045,-0.56097746,1.4206247,0.19089584,0.17288691,0.057064183,1.0038697,2.3629293
0.0,0.1,0.6,0.0,-0.5235987755982988,0,0.03261465,1.6015868,-0.07672403,-0.21596348,0.14242592,1.374403,-0.04011085,-0.61795473,1.421107,0.16656367,0.18203849,0.06412149,0.97436833,2.1547933
0.0,0.1,0.6,0.0,-0.5235987755982988,0,0.03525839,1.6082885,-0.078370444,-0.22063383,0.16434757,1.3731008,0.015460951,-0.6698389,1.4164462,0.19601014,0.17060792,0.07673939,1.016071,1.8586926
0.0,0.1,0.6,0.0,-0.5235987755982988,0,0.008823232,1.6170833,-0.09018509,-0.22010718,0.17682481,1.364823,0.04108629,-0.5488953,1.4011978,0.1789453,0.1577972,0.059949193,1.0003067,2.0919561
0.0,0.1,0.6,0.0,-0.5235987755982988,0,0.02591969,1.6073608,-0.071389735,-0.21720204,0.16703697,1.3605705,-0.089238435,-0.6454986,1.4048127,0.17287593,0.19415055,0.064590015,0.9940637,1.6612728
0.0,0.1,0.6,0.0,-0.5235987755982988,0,0.038117748,1.6194777,-0.0843413,-0.22650404,0.1553523,1.3691176,-0.051506516,-0.78791374,1.4150993,0.18607941,0.17611504,0.10549938,1.0065047,1.5663759
0.0,0.1,0.6,0.0,-0.5235987755982988,0,0.023933558,1.6076381,-0.08462974,-0.21797636,0.14523293,1.3665344,0.033955798,-0.6841979,1.4086299,0.16599639,0.17597646,0.057592973,1.0233686,1.7052165
0.0,0.1,0.6,0.0,-0.5235987755982988,0,0.020597737,1.6065832,-0.077130325,-0.2151359,0.16832605,1.3620025,0.009625718,-0.7109511,1.4138464,0.1719982,0.17331086,0.11616935,0.995606,1.8950106
0.0,0.1,0.6,0.0,-0.5235987755982988,0,0.05768574,1.607848,-0.073428445,-0.22100784,0.16167341,1.3642365,0.019087896,-0.6308486,1.4055245,0.18213022,0.17320362,0.06648867,0.9612323,1.636078
0.0,0.1,0.6,0.0,-0.5235987755982988,0,0.033682503,1.602122,-0.06765401,-0.21115933,0.13456707,1.366938,0.009714391,-0.49488732,1.414092,0.17338912,0.20791887,0.12282459,0.9477788,2.059327
0.0,0.1,0.6,0.0,-0.5235987755982988,0,0.04221124,1.6277745,-0.08135238,-0.23736367,0.16879733,1.3705853,-0.04464068,-0.608102,1.415559,0.15472062,0.18653432,0.03783016,0.9656784,1.8326892
0.0,0.1,0.6,0.0,-0.5235987755982988,0,0.015069236,1.6059418,-0.076281026,-0.21229611,0.19707768,1.3784183,-0.0238778,-0.73312306,1.4325558,0.17763224,0.17199823,0.07938658,1.0233337,2.1495554
0.0,0.1,0.6,0.0,-0.5235987755982988,0,0.017105129,1.6030988,-0.077606134,-0.20962541,0.16936307,1.3706595,-0.016614655,-0.7161358,1.4228176,0.19669092,0.18775882,0.1062216,0.987137,1.4435971
0.0,0.1,0.6,0.0,-0.5235987755982988,0,0.02863897,1.6086463,-0.08168393,-0.21682262,0.1738928,1.3771377,0.013302583,-0.5978205,1.4006724,0.16512552,0.20494652,0.071206436,0.94796985,2.182183
0.0,0.1,0.6,0.0,-0.5235987755982988,0,0.024537802,1.617118,-0.07200161,-0.22538151,0.15466025,1.3679276,-0.042487208,-0.6469547,1.4173661,0.18170694,0.19723047,0.07762694,0.9829583,1.8259141
0.0,0.1,0.6,0.0,-0.5235987755982988,0,0.029946046,1.6117953,-0.08067013,-0.2211913,0.1624259,1.378846,0.030059716,-0.5665173,1.4125465,0.17547661,0.19094568,0.07419381,0.9494711,1.8992596
0.0,0.1,0.6,0.0,-0.5235987755982988,0,0.030630028,1.607878,-0.08150313,-0.21359944,0.16665763,1.3623772,-0.02315123,-0.6162792,1.4154483,0.19493423,0.18657906,0.07014916,0.9993338,2.2519903
0.0,0.1,0.6,0.0,-0.5235987755982988,0,0.02702893,1.6046411,-0.083277896,-0.2098747,0.16991863,1.3668973,-0.0063624294,-0.5959398,1.4060773,0.19382513,0.19581996,0.057345442,1.0014011,1.3883876
0.0,0.1,0.6,0.0,-0.5235987755982988,0,0.019748887,1.6128776,-0.077550545,-0.22102705,0.15676484,1.3796313,0.010707294,-0.46865085,1.4194857,0.19217853,0.165283,0.058589734,0.98497367,1.5351567
0.0,0.1,0.6,0.0,-0.5235987755982988,0,0.029901344,1.6201465,-0.08198623,-0.22452754,0.16146171,1.372735,-0.015575138,-0.64786077,1.4149097,0.15291001,0.19657049,0.035098527,1.0149578,2.0156934
0.0,0.1,0.6,0.0,-0.5235987755982988,0,0.042657573,1.611977,-0.09008494,-0.21920276,0.18117043,1.376861,0.042985838,-0.6741498,1.4158423,0.18218742,0.18250951,0.070000924,0.9452537,2.028281
0.0,0.1,0.6,0.0,-0.5235987755982988,0,0.01538319,1.6185763,-0.08728614,-0.22016773,0.18317062,1.3683913,-0.041564662,-0.66747904,1.421327,0.15883817,0.162723,0.074570596,0.9667831,1.9383918
0.0,0.1,0.6,0.0,-0.5235987755982988,0,0.026786692,1.612205,-0.07060119,-0.21846394,0.13055663,1.370099,0.008470709,-0.72658956,1.4195526,0.1660939,0.191085,0.06190283,1.0119879,1.9556583
0.0,0.1,0.6,0.0,-0.5235987755982988,0,0.040953893,1.6065114,-0.08042749,-0.21169789,0.12745535,1.3676578,0.010448742,-0.5750643,1.4132668,0.17999586,0.18304995,0.08173485,1.0107832,2.2208374
0.0,0.1,0.6,0.0,-0.5235987755982988,0,0.026352348,1.6145821,-0.07238665,-0.22107558,0.15877536,1.3754051,0.08151162,-0.6060373,1.4134446,0.17929818,0.18710414,0.070574544,0.9660989,2.317412
0.0,0.1,0.6,0.0,-0.5235987755982988,0,0.041223392,1.610879,-0.08803417,-0.2158474,0.14768498,1.3719068,-0.04757578,-0.6585292,1.4131999,0.15490001,0.2087062,0.062729284,0.93837726,2.3039002
0.0,0.1,0.6,0.0,-0.5235987755982988,0,0.042746928,1.6138008,-0.08483014,-0.21690348,0.14923501,1.3601363,-0.029400066,-0.5492336,1.4229872,0.1887265,0.1559877,0.07697888,1.0312594,1.9426209
0.0,0.1,0.6,0.0,-0.5235987755982988,0,0.020876357,1.6212718,-0.08529078,-0.22389853,0.16853644,1.3835949,-0.06674105,-0.56617653,1.4121436,0.18260549,0.19657603,0.09588118,0.98073554,2.1042995
0.0,0.1,0.6,0.0,-0.5235987755982988,0,0.026812118,1.6181672,-0.07665326,-0.21989085,0.15679301,1.3663435,-0.046458907,-0.6031442,1.414252,0.19459644,0.17027773,0.09760995,0.9759942,2.3398468
0.0,0.1,0.6,0.0,-0.5235987755982988,0,0.037443753,1.6170274,-0.08296654,-0.22293223,0.16061532,1.3715932,-0.0014472812,-0.54576033,1.4108971,0.17247888,0.15883076,0.087544724,0.9922718,1.7012262
0.0,0.1,0.6,0.0,-0.5235987755982988,0,0.044801977,1.6144587,-0.090837084,-0.21695931,0.15861517,1.3655273,0.0047313347,-0.62810993,1.4061093,0.19297488,0.20573144,0.07594924,0.99237335,1.6794641
0.0,0.1,0.6,0.0,-0.5235987755982988,0,0.03992096,1.6164485,-0.0944031,-0.21422736,0.18603095,1.3679299,-0.080940194,-0.56048584,1.4215955,0.19027436,0.17257854,0.097841926,0.99470437,1.7465634
0.0,0.1,0.6,0.0,-0.5235987755982988,0,0.043381188,1.6064091,-0.08429614,-0.21309908,0.16539434,1.3716854,-0.03515452,-0.62461126,1.4169183,0.16419064,0.16144201,0.07306613,1.0143679,2.1959186
0.0,0.1,0.6,0.0,-0.5235987755982988,0,0.024975466,1.6112964,-0.083327025,-0.21388394,0.14638945,1.3727745,-0.0025893576,-0.70818377,1.415126,0.18876173,0.14364408,0.05715085,0.9800561,1.9586145
0.0,0.1,0.6,0.0,-0.5235987755982988,0,0.016645115,1.6111467,-0.09457883,-0.21088453,0.16189283,1.3793164,-0.013187872,-0.65735424,1.4201725,0.15246806,0.1653314,0.065394565,1.0087851,2.3973207
0.0,0.1,0.6,0.0,-0.5235987755982988,0,0.038599934,1.6102897,-0.07794688,-0.21488282,0.14868894,1.3731589,0.0025651364,-0.63937855,1.4240721,0.19207932,0.19394554,0.113597706,1.0280185,2.2416131
0.0,0.1,0.6,0.0,-0.5235987755982988,0,0.036636826,1.6126372,-0.07085531,-0.2184495,0.15312283,1.375222,0.05412195,-0.6381386,1.4147598,0.18008436,0.15457454,0.09008695,1.0063373,2.0134742
0.0,0.1,0.6,0.0,-0.5235987755982988,0,0.03488054,1.6186706,-0.082295336,-0.21838313,0.15990995,1.3748975,-0.048652697,-0.68193895,1.4292021,0.19154169,0.13146368,0.08338561,0.95914143,2.499901
0.0,0.1,0.6,0.0,-0.5235987755982988,0,0.03222049,1.6138499,-0.09172609,-0.21559268,0.14994577,1.3751737,0.011380975,-0.56110704,1.4218438,0.19024062,0.15367284,0.089432985,1.0223229,2.1242194
0.0,0.1,0.6,0.0,-0.5235987755982988,0,0.01565791,1.6150938,-0.08360055,-0.21547347,0.18092816,1.3786347,0.10447985,-0.61188644,1.4115627,0.1778406,0.16912693,0.09405304,1.0058517,2.2211993
0.0,0.1,0.6,0.0,-0.5235987755982988,0,0.023555012,1.5970002,-0.096970774,-0.20979819,0.17077026,1.374287,-0.012742878,-0.7166648,1.415243,0.17218076,0.15553404,0.09419853,0.95355445,2.317448
0.0,0.1,0.6,0.0,-0.5235987755982988,0,0.024608975,1.6006358,-0.08279385,-0.21477802,0.1700261,1.3744103,-0.018290639,-0.5989053,1.4179982,0.19317074,0.19104196,0.06516164,1.0123276,2.1148922
0.0,0.1,0.6,0.0,-0.5235987755982988,0,0.030829525,1.6070378,-0.088095136,-0.2176924,0.13843197,1.3723495,-0.027600143,-0.5520464,1.4159608,0.16181354,0.16535547,0.059992768,0.94216615,1.9915596
0.0,0.1,0.6,0.0,-0.5235987755982988,0,0.05088772,1.6118786,-0.08103909,-0.21817897,0.12165358,1.3682892,0.024087025,-0.67709863,1.4146478,0.17539701,0.17653431,0.04831283,1.0116426,2.2920654
0.0,0.1,0.6,0.0,-0.5235987755982988,0,0.05430524,1.6110799,-0.07336171,-0.21708569,0.12093981,1.3663771,0.007921888,-0.6169008,1.4130529,0.18627466,0.18156993,0.04964467,0.9777998,1.9309582
0.0,0.1,0.6,0.0,-0.5235987755982988,0,0.03340735,1.6139089,-0.068218425,-0.21662323,0.13152501,1.3674617,0.016377665,-0.6262742,1.4173298,0.18573534,0.17486838,0.09464614,0.96794486,2.0131972
0.0,0.1,0.6,0.0,-0.5235987755982988,0,0.011212744,1.6139331,-0.08364898,-0.20816112,0.16357215,1.3617129,0.0026736245,-0.6647636,1.4021453,0.1736545,0.1979895,0.08439897,1.0112873,1.9753563
0.0,0.1,0.6,0.0,-0.5235987755982988,0,0.019696174,1.6157606,-0.08986632,-0.22462514,0.14940442,1.379941,0.013898611,-0.5940166,1.4188249,0.19255473,0.20297801,0.07941913,0.97909665,2.1706982
