sanky1234/BimanualDexCatch/isaacgymenvs/cem_results/football_pose_-0.1_0.1_1.4_-0.5235987755982988_0.0_0_2025-05-26.csv
x,y,z,roll,pitch,yaw,robot1/joint1,robot1/joint2,robot1/joint3,robot1/joint4,robot1/joint5,robot1/joint6,robot1/joint7,robot2/joint1,robot2/joint2,robot2/joint3,robot2/joint4,robot2/joint5,robot2/joint6,robot2/joint7
-0.1,0.1,1.4,-0.5235987755982988,0.0,0,0.0801223,-0.81813616,1.0255411,0.8699584,-0.005101125,-0.90244776,1.4618195,0.5002997,1.353093,0.32958457,0.0008116745,-0.029127931,1.0280076,-1.2031846
-0.1,0.1,1.4,-0.5235987755982988,0.0,0,0.08064218,-0.8181052,1.0245203,0.8687167,-0.010339048,-0.8995589,1.4707079,0.27391735,1.3976969,-0.05714612,-0.052771144,0.5985364,0.967097,-1.3254702
-0.1,0.1,1.4,-0.5235987755982988,0.0,0,0.08140089,-0.8178484,1.0250143,0.869762,-0.0084286835,-0.89731854,1.4769323,0.54849863,1.408462,-0.07677289,-0.12675788,0.026484575,1.0689373,0.13385691
-0.1,0.1,1.4,-0.5235987755982988,0.0,0,0.08076095,-0.81825316,1.0249635,0.8686643,-0.007249275,-0.89773256,1.4793007,0.61152107,1.3395191,-0.34998673,-0.027862824,-0.50339645,1.0731895,-0.511839
-0.1,0.1,1.4,-0.5235987755982988,0.0,0,0.08043524,-0.81818324,1.02562,0.8683113,-0.011577886,-0.8994105,1.467633,0.28948003,1.2505459,0.3437274,-0.031526662,0.21901658,1.1857573,-0.27346748
-0.1,0.1,1.4,-0.5235987755982988,0.0,0,0.08052467,-0.81823987,1.025661,0.8693865,-0.0030556668,-0.8987561,1.4352072,1.005699,1.3042922,-0.2937479,-0.13496102,-0.16530919,1.0679026,0.48692316
-0.1,0.1,1.4,-0.5235987755982988,0.0,0,0.080701955,-0.8178013,1.0254018,0.868785,-0.00518054,-0.9021186,1.4884707,0.21512355,1.3481464,-0.6393572,0.0250389,-0.06765293,1.1019932,-0.17208156
-0.1,0.1,1.4,-0.5235987755982988,0.0,0,0.080176175,-0.8183549,1.0260787,0.86867326,-0.0019132581,-0.90177304,1.4924449,1.0458053,1.3824979,-0.27464843,-0.17549047,-0.08355237,1.0712599,-0.020593785
-0.1,0.1,1.4,-0.5235987755982988,0.0,0,0.080211915,-0.8183146,1.0254452,0.86986285,-0.001556646,-0.8991199,1.4561075,-0.17476256,1.2735156,0.055963166,-0.11933676,0.26418722,1.082191,-0.44903493
-0.1,0.1,1.4,-0.5235987755982988,0.0,0,0.0807237,-0.81813246,1.0249579,0.8691185,-0.008898781,-0.901789,1.4623013,0.5036621,1.4052577,0.25091043,-0.19671789,0.296159,1.1407888,-0.51619667
-0.1,0.1,1.4,-0.5235987755982988,0.0,0,0.08122336,-0.8181641,1.024697,0.86999995,-0.0062339474,-0.8994257,1.4852705,-0.11512043,1.314655,0.06947224,-0.13040149,0.09760085,1.0999163,0.40381938
-0.1,0.1,1.4,-0.5235987755982988,0.0,0,0.08045198,-0.8180458,1.0254283,0.87019813,-0.0028742452,-0.902926,1.4531946,-0.28358755,1.2932426,0.37261853,-0.09111858,0.31295127,0.9884618,-0.64629
-0.1,0.1,1.4,-0.5235987755982988,0.0,0,0.08058572,-0.8182274,1.0263569,0.870538,-0.013182823,-0.90490973,1.4413543,0.21282957,1.487189,-0.34539935,-0.0504336,-0.55806357,1.0612803,-0.7463945
-0.1,0.1,1.4,-0.5235987755982988,0.0,0,0.08000802,-0.8183472,1.0258679,0.8682586,-0.00931835,-0.9018771,1.4916548,0.3653386,1.3530911,0.101882204,0.030635316,-0.21404052,1.031883,-0.7766362
-0.1,0.1,1.4,-0.5235987755982988,0.0,0,0.08007038,-0.81814146,1.0259591,0.8689474,-0.011739268,-0.8996487,1.4658864,1.2203445,1.4666257,-0.021814844,-0.07473189,-0.50061965,1.019018,-0.34492162
-0.1,0.1,1.4,-0.5235987755982988,0.0,0,0.08015375,-0.81814325,1.0250841,0.8684316,-0.009585233,-0.9020425,1.4828893,0.3527863,1.2314767,-0.11729873,-0.14573513,0.40943238,1.1334677,0.28499585
-0.1,0.1,1.4,-0.5235987755982988,0.0,0,0.08033566,-0.81803,1.0262161,0.8701246,-0.0017094929,-0.9014101,1.4688141,0.9294459,1.4523668,0.28826186,0.044044778,0.021789474,1.1910775,-0.47672635
-0.1,0.1,1.4,-0.5235987755982988,0.0,0,0.08007465,-0.8178079,1.0256102,0.8700375,0.00031407576,-0.9001202,1.4696124,0.0514544,1.4658341,-0.09014547,-0.047492936,-0.07135507,1.1979614,0.116068654
-0.1,0.1,1.4,-0.5235987755982988,0.0,0,0.08064617,-0.81808954,1.0261117,0.86864924,-0.0037779657,-0.9001882,1.472118,-0.22767961,1.3754699,0.24762233,0.062742606,-0.09646293,1.2520584,-0.076778665
-0.1,0.1,1.4,-0.5235987755982988,0.0,0,0.08141425,-0.81832683,1.0249335,0.8700271,-0.0062933783,-0.9014864,1.5118968,0.20481208,1.494699,-0.010243917,-0.05622538,0.36211973,1.1043446,-0.17447968
-0.1,0.1,1.4,-0.5235987755982988,0.0,0,0.07991122,-0.8180189,1.0249828,0.86865497,-0.0082664685,-0.90080655,1.4631332,1.3506228,1.4310857,-0.24137184,-0.1647286,0.24189092,1.1065158,-0.22486968
-0.1,0.1,1.4,-0.5235987755982988,0.0,0,0.07973655,-0.8181209,1.025943,0.86957896,-0.0020147583,-0.9024252,1.4292597,-0.15122814,1.4247206,-0.22845289,-0.13046071,-0.40869558,1.0792482,-0.31097907
-0.1,0.1,1.4,-0.5235987755982988,0.0,0,0.080224276,-0.81823117,1.0250753,0.8688845,-0.005101759,-0.9028583,1.4696552,1.7430807,1.2198596,-0.14891417,-0.008728988,0.34854773,1.1302018,-0.27032384
-0.1,0.1,1.4,-0.5235987755982988,0.0,0,0.08016621,-0.8181834,1.025594,0.8693266,-0.0053476356,-0.89961237,1.4684756,0.46315005,1.3068383,0.10172016,-0.11831406,-0.41846544,1.1580455,-0.4060097
-0.1,0.1,1.4,-0.5235987755982988,0.0,0,0.08033768,-0.8180184,1.025798,0.86873806,-0.002832446,-0.89827573,1.483216,0.17594005,1.3314413,0.0201755,0.08486643,-0.074918464,1.0142134,0.19071767
-0.1,0.1,1.4,-0.5235987755982988,0.0,0,0.08004965,-0.8181507,1.0259968,0.8687911,-0.010781742,-0.898839,1.4519727,-0.81921494,1.2406782,-0.27366138,-0.15017082,0.2220361,1.0828774,-1.3688614
-0.1,0.1,1.4,-0.5235987755982988,0.0,0,0.08064485,-0.8182517,1.0246947,0.8691952,-0.0045873728,-0.90168077,1.5151709,0.8519997,1.5456868,-0.18662073,-0.027770787,-0.23373848,1.1000388,-0.25643975
-0.1,0.1,1.4,-0.5235987755982988,0.0,0,0.08140337,-0.81824476,1.0251112,0.8692472,-0.005954867,-0.9002828,1.4600669,1.2552003,1.3218645,-0.21267761,-0.14502734,-0.21223986,1.0451243,-0.10609581
-0.1,0.1,1.4,-0.5235987755982988,0.0,0,0.07956413,-0.81848824,1.0256575,0.8691835,-0.005403427,-0.90037197,1.4763138,1.8204653,1.3963301,-0.22068012,-0.08915179,0.040204994,0.99214965,0.539672
-0.1,0.1,1.4,-0.5235987755982988,0.0,0,0.08036093,-0.81800056,1.0259564,0.8688958,-0.009123241,-0.9042246,1.463801,1.829062,1.3178515,-0.5766296,0.060485095,0.09300155,1.1478254,-0.09157814
-0.1,0.1,1.4,-0.5235987755982988,0.0,0,0.08127643,-0.81796193,1.025689,0.87040496,-0.0015674885,-0.90009946,1.4476659,-0.30727345,1.3723185,-0.15544477,-0.1762314,-0.1621031,1.0940087,-0.46269268
-0.1,0.1,1.4,-0.5235987755982988,0.0,0,0.08002939,-0.8182187,1.0258176,0.8693271,0.0030177245,-0.9024526,1.505291,0.10069473,1.4086221,-0.2455052,0.081947714,0.4030408,0.9845251,-0.23160736
-0.1,0.1,1.4,-0.5235987755982988,0.0,0,0.08151416,-0.8180546,1.0250279,0.8697649,-0.008095349,-0.9014899,1.4508573,0.60027206,1.3802545,-0.3157072,0.1280341,0.28742832,1.2324482,-0.68820906
-0.1,0.1,1.4,-0.5235987755982988,0.0,0,0.08137393,-0.8180631,1.0246841,0.86997646,-0.006264853,-0.90081006,1.4617814,1.7734339,1.3351616,-0.9162898,-0.09577208,0.30981937,1.1096257,0.2725642
-0.1,0.1,1.4,-0.5235987755982988,0.0,0,0.08054948,-0.8177197,1.0258607,0.8693998,-0.0018174052,-0.9012164,1.5034658,0.7799467,1.3462265,-0.46746573,0.02229294,0.17010655,1.1146691,-0.14131504
-0.1,0.1,1.4,-0.5235987755982988,0.0,0,0.08081766,-0.8178949,1.0249474,0.8697066,-0.007755941,-0.90287673,1.5045489,-0.23217176,1.2153481,-0.3967394,0.029880846,0.106124505,1.2068955,0.42340168
-0.1,0.1,1.4,-0.5235987755982988,0.0,0,0.07975877,-0.8181001,1.0255253,0.8693039,-0.002486813,-0.9040157,1.4435924,1.0091136,1.3924745,-0.091041975,0.046803705,0.370665,1.0822821,-0.20410906
-0.1,0.1,1.4,-0.5235987755982988,0.0,0,0.08063167,-0.8181637,1.0257254,0.86932516,0.0005885941,-0.8991454,1.4579449,0.87046295,1.3787768,0.06771797,-0.06110231,-0.118663244,1.1284012,-0.3640318
-0.1,0.1,1.4,-0.5235987755982988,0.0,0,0.08079692,-0.81821615,1.0253185,0.8685469,-0.0063331104,-0.89833325,1.4747722,0.75236785,1.3569872,-0.5252299,-0.06529093,-0.30627555,1.1887399,0.22937803
-0.1,0.1,1.4,-0.5235987755982988,0.0,0,0.0803915,-0.8180477,1.0249171,0.8698648,-0.0023038443,-0.89888203,1.4490502,0.7312227,1.2621529,-0.035368826,-0.087057225,0.40318802,1.1109124,-0.45728734
-0.1,0.1,1.4,-0.5235987755982988,0.0,0,0.08128947,-0.8183263,1.0257261,0.8693787,-0.0050508445,-0.9004268,1.4780062,-0.39709586,1.3293029,-0.17771557,-0.058355834,0.30363673,1.1311767,0.43982
-0.1,0.1,1.4,-0.5235987755982988,0.0,0,0.07955447,-0.8180382,1.0259527,0.8684903,-0.0053193914,-0.9006937,1.5065609,0.5494715,1.3642253,0.034469515,-0.0484586,0.40005183,1.0371784,-0.28080148
-0.1,0.1,1.4,-0.5235987755982988,0.0,0,0.08086433,-0.8180279,1.02503,0.8690337,-0.007962756,-0.90239775,1.5100101,0.5274982,1.2997484,0.21795624,-0.042619113,-0.10412782,1.0902666,-0.7177313
-0.1,0.1,1.4,-0.5235987755982988,0.0,0,0.08115392,-0.818575,1.0261747,0.87014794,-0.008240564,-0.901682,1.478629,0.5401298,1.357628,0.17772494,-0.00704576,0.31796122,1.0859765,0.15680653
-0.1,0.1,1.4,-0.5235987755982988,0.0,0,0.08085234,-0.8180635,1.025401,0.86814266,-0.007801339,-0.8983547,1.4973106,0.8129298,1.4264318,0.3201432,-0.17273961,0.16594128,1.1515099,-0.6300497
-0.1,0.1,1.4,-0.5235987755982988,0.0,0,0.080742,-0.81788784,1.0256901,0.86903393,-0.004571914,-0.9012979,1.5015588,-0.22779523,1.3094571,-0.40137598,-0.010846077,0.46760035,1.0678644,0.106665336
-0.1,0.1,1.4,-0.5235987755982988,0.0,0,0.08068333,-0.81819093,1.0252522,0.869941,-0.008392915,-0.9028069,1.4724591,0.63584775,1.3010267,-0.04188014,-0.078230135,0.020588662,1.13827,-0.65120155
-0.1,0.1,1.4,-0.5235987755982988,0.0,0,0.080227666,-0.8182426,1.025249,0.8697266,-0.008926178,-0.9022979,1.5159646,1.2458384,1.4342757,0.6161667,-0.087337,0.5149435,1.1080002,-0.43012345
-0.1,0.1,1.4,-0.5235987755982988,0.0,0,0.080528684,-0.81790906,1.0250558,0.8682354,-0.00076420757,-0.8996261,1.4795849,-0.41174364,1.3117396,0.19077416,0.06827934,0.009149689,1.0756575,-0.7570652
-0.1,0.1,1.4,-0.5235987755982988,0.0,0,0.08062755,-0.8180556,1.0255615,0.8699628,-0.0024710596,-0.89922374,1.4630326,0.9596399,1.3786756,-0.0021222003,-0.08707593,0.33732167,1.1469127,-0.14082012
-0.1,0.1,1.4,-0.5235987755982988,0.0,0,0.0802949,-0.81813556,1.0248933,0.8699318,-0.0024037173,-0.8994315,1.4636824,0.13371068,1.3034472,-0.1591881,-0.14686494,0.0011649297,1.2144974,-0.79565835
-0.1,0.1,1.4,-0.5235987755982988,0.0,0,0.08116901,-0.8181549,1.0248203,0.8688042,-0.0066799694,-0.8985541,1.448849,0.60418063,1.3848826,0.001037525,-0.22270036,-0.027394323,1.196983,-0.12977822
-0.1,0.1,1.4,-0.5235987755982988,0.0,0,0.0801248,-0.8181488,1.0252682,0.8695811,-0.0027897006,-0.90004045,1.413214,0.2725238,1.4065974,-0.5358582,-0.019762833,-0.0016872768,1.1417347,-0.493387
-0.1,0.1,1.4,-0.5235987755982988,0.0,0,0.08129493,-0.81803364,1.0254008,0.8698409,-0.004299628,-0.8994183,1.5169879,0.31533113,1.389619,0.45247516,-0.14640252,0.21339661,1.0806726,-0.060547873
-0.1,0.1,1.4,-0.5235987755982988,0.0,0,0.08092104,-0.8179597,1.025335,0.86959064,-0.0068580606,-0.89925975,1.4629012,0.5829592,1.3023216,-0.04879905,-0.08414002,-0.112163775,1.0959904,-1.0863756
-0.1,0.1,1.4,-0.5235987755982988,0.0,0,0.08022018,-0.8183864,1.0251213,0.8688286,-0.0019005637,-0.90338826,1.4541624,0.1528395,1.3607277,-0.09514275,0.02820213,-0.33249977,1.1474482,-0.8353101
-0.1,0.1,1.4,-0.5235987755982988,0.0,0,0.08073555,-0.8183262,1.0246842,0.86727196,-0.00053829054,-0.90141517,1.4267504,0.35685873,1.2367225,0.014445882,0.008245661,-0.47468752,0.9963948,-1.2700175
-0.1,0.1,1.4,-0.5235987755982988,0.0,0,0.080236144,-0.8184054,1.0253912,0.8683581,-0.005467829,-0.9005325,1.5060962,0.39825973,1.531906,-0.0070692385,-0.12642409,0.1148307,1.1361535,-1.1521641
-0.1,0.1,1.4,-0.5235987755982988,0.0,0,0.080552675,-0.818015,1.0256882,0.86774975,-0.011144623,-0.9002794,1.5107023,0.1721441,1.416478,-0.34905764,0.064677946,-0.13172656,1.0812461,-0.11243414
-0.1,0.1,1.4,-0.5235987755982988,0.0,0,0.079369426,-0.81837255,1.0251172,0.8700204,-0.010895484,-0.90036154,1.4510611,1.0856297,1.4019966,-0.050751586,-0.0648478,0.0008416358,1.1677525,-0.31022638
-0.1,0.1,1.4,-0.5235987755982988,0.0,0,0.08126486,-0.81856835,1.0255406,0.8687654,-0.0073782858,-0.90397394,1.505716,0.37596965,1.3359231,-0.013677634,0.093819976,-0.1867969,1.131805,-0.64023936
-0.1,0.1,1.4,-0.5235987755982988,0.0,0,0.08017585,-0.8182389,1.0259976,0.8683999,-0.004761586,-0.9005546,1.4244841,0.7262127,1.3266007,0.32172337,-0.012479029,0.10188591,1.201426,0.019840682
-0.1,0.1,1.4,-0.5235987755982988,0.0,0,0.080757685,-0.8181631,1.0253955,0.8679835,-0.013470502,-0.90097076,1.4546471,1.6014427,1.2820199,0.06514362,-0.13791566,-0.14223513,1.0317419,-0.06664322
-0.1,0.1,1.4,-0.5235987755982988,0.0,0,0.08042466,-0.8185344,1.025723,0.86845344,-0.0063245445,-0.90209484,1.4786428,-0.67390895,1.4737478,0.40879947,-0.091671884,-0.019594405,1.184768,-0.5477411
-0.1,0.1,1.4,-0.5235987755982988,0.0,0,0.08050597,-0.8183197,1.024381,0.8680267,-0.0013881404,-0.9031969,1.4723545,0.646157,1.405127,0.10416895,-0.14320135,0.41981795,1.1446607,-0.37308076
-0.1,0.1,1.4,-0.5235987755982988,0.0,0,0.08105185,-0.818123,1.0250227,0.8684689,-0.009351769,-0.9038013,1.4496623,-0.09575791,1.413654,-0.31360087,0.051061925,0.29101408,0.9888053,-0.57214934
-0.1,0.1,1.4,-0.5235987755982988,0.0,0,0.0811061,-0.8180868,1.025864,0.8699562,-0.002207662,-0.9003646,1.4916072,0.95386547,1.2902389,-0.100448474,-0.082444735,-0.24515967,1.1544987,0.4940677
-0.1,0.1,1.4,-0.5235987755982988,0.0,0,0.08058001,-0.8186505,1.0256879,0.86820275,-0.0064911996,-0.9036281,1.4774468,-0.77039486,1.1852924,0.022856157,-0.15454294,0.5213696,1.2359341,0.052691806
-0.1,0.1,1.4,-0.5235987755982988,0.0,0,0.08069825,-0.8182835,1.0248506,0.8683942,-0.008618034,-0.8987324,1.4829938,0.47893265,1.3733847,-0.3793035,-0.13945855,0.20076588,1.0719526,-0.86282057
-0.1,0.1,1.4,-0.5235987755982988,0.0,0,0.07993669,-0.8180629,1.0258812,0.86872864,-0.0076585296,-0.9013741,1.4549111,0.14026468,1.4617418,-0.27824056,-0.16169196,0.5180339,0.97385883,0.08155385
-0.1,0.1,1.4,-0.5235987755982988,0.0,0,0.08007784,-0.81837285,1.0249045,0.8690142,-0.005386051,-0.89716434,1.4750102,0.9351262,1.3581882,-0.26969752,-0.009784032,0.0053489106,1.1457002,-0.74717593
-0.1,0.1,1.4,-0.5235987755982988,0.0,0,0.08081071,-0.8188623,1.0256667,0.86907774,0.00039640983,-0.9015172,1.494989,0.11081066,1.494766,0.06962661,0.041552152,-0.63057363,1.1256561,-1.0781608
-0.1,0.1,1.4,-0.5235987755982988,0.0,0,0.0806279,-0.8179807,1.0255996,0.8678312,-0.0038288825,-0.9011142,1.4851313,-1.0317532,1.3438785,0.123301074,0.09453219,-0.17066987,1.0031284,0.08088798
-0.1,0.1,1.4,-0.5235987755982988,0.0,0,0.080290735,-0.8182912,1.0245724,0.87017584,-0.0018870276,-0.9005729,1.4449261,1.254438,1.3648194,0.15429905,-0.08632079,-0.3420963,1.2140158,0.21254782
-0.1,0.1,1.4,-0.5235987755982988,0.0,0,0.080335125,-0.8180697,1.0254514,0.8698534,-0.0031328842,-0.90135735,1.4708109,1.3180155,1.2481343,-0.44277853,-0.06268388,-0.13675533,1.2000815,-0.6611032
-0.1,0.1,1.4,-0.5235987755982988,0.0,0,0.080930114,-0.81824493,1.0245674,0.8688347,-0.010131373,-0.90036535,1.4879494,1.2691288,1.2490773,-0.56497097,0.023907317,0.18281126,1.0262427,-0.4699223
-0.1,0.1,1.4,-0.5235987755982988,0.0,0,0.08015586,-0.8180329,1.026116,0.86848164,-0.0002548421,-0.90041596,1.4754021,-0.67392194,1.4528103,0.08643657,-0.1844179,0.32711944,1.0921282,-1.0922545
-0.1,0.1,1.4,-0.5235987755982988,0.0,0,0.0815422,-0.81823456,1.025044,0.86937374,-0.0060710395,-0.9020046,1.4758683,-0.9924995,1.3749541,0.15001716,0.09020211,0.19663605,1.1622574,0.41767547
-0.1,0.1,1.4,-0.5235987755982988,0.0,0,0.08088429,-0.81822014,1.0242026,0.8680282,-0.004960011,-0.9016631,1.4880625,1.0881637,1.3934451,-0.17849253,-0.057748746,0.463816,1.1705474,-0.14403178
-0.1,0.1,1.4,-0.5235987755982988,0.0,0,0.08123799,-0.81795645,1.02523,0.8690913,-0.0025619806,-0.9023494,1.4976846,1.2395365,1.3576728,0.08468851,0.124822,-0.40104118,1.1096339,-0.3849454
-0.1,0.1,1.4,-0.5235987755982988,0.0,0,0.081188254,-0.8179974,1.0259509,0.86844844,-0.012052332,-0.9025958,1.4728953,0.14102958,1.3641593,-0.24618296,-0.066602215,0.3259518,1.1568806,0.22054656
-0.1,0.1,1.4,-0.5235987755982988,0.0,0,0.07988836,-0.81795263,1.0251884,0.8675866,-0.007879953,-0.9019804,1.467251,0.26388645,1.2607602,-0.5098785,-0.06349069,0.07385014,1.1154469,-0.7806626
-0.1,0.1,1.4,-0.5235987755982988,0.0,0,0.08047995,-0.8179179,1.0255558,0.8703646,-0.0049177054,-0.9008686,1.4759343,0.99329513,1.300782,-0.04243051,-0.056372568,-0.36827302,1.2129828,-0.21662082
-0.1,0.1,1.4,-0.5235987755982988,0.0,0,0.080663964,-0.818162,1.0258241,0.8681749,-0.0069159647,-0.90243334,1.4799975,0.55715674,1.22717,-0.34226277,-0.13781686,0.67009044,1.0259985,-0.6140319
-0.1,0.1,1.4,-0.5235987755982988,0.0,0,0.08076108,-0.8178777,1.0251968,0.86976147,-0.006875794,-0.9003316,1.4604952,0.7748436,1.4051816,0.1978683,-0.14507945,-0.506852,1.1916728,-0.15106316
-0.1,0.1,1.4,-0.5235987755982988,0.0,0,0.08132144,-0.8182915,1.02548,0.8692982,-0.0014601387,-0.9028068,1.4795179,0.2380878,1.4596279,-0.94203717,0.06724352,-0.22605929,1.1286404,-0.10821744
-0.1,0.1,1.4,-0.5235987755982988,0.0,0,0.08078953,-0.81794906,1.0254797,0.8684154,-0.0035688088,-0.9019681,1.4842043,0.3664703,1.3907714,0.30315968,-0.21134505,-0.06725701,1.0671504,-0.18199201
-0.1,0.1,1.4,-0.5235987755982988,0.0,0,0.08085504,-0.8182743,1.0253065,0.869759,-0.0006129688,-0.9018015,1.484748,0.092207775,1.2477444,-0.6278165,-0.09291464,0.095535554,1.1753885,-0.7103292
-0.1,0.1,1.4,-0.5235987755982988,0.0,0,0.08146893,-0.8180656,1.025552,0.86895746,-0.0042613596,-0.9021234,1.4671593,0.24197581,1.3141798,0.1723016,0.012453741,0.23476814,1.1127667,0.28692713
-0.1,0.1,1.4,-0.5235987755982988,0.0,0,0.08062008,-0.81852263,1.0255991,0.8688324,-0.0066632717,-0.9035683,1.4858426,0.45079866,1.3429253,-0.121933356,0.05558568,0.26331714,1.133806,-0.3563669
-0.1,0.1,1.4,-0.5235987755982988,0.0,0,0.08054658,-0.8180406,1.0252398,0.8694794,-0.004020328,-0.899921,1.4623855,-0.16826868,1.2612934,-0.23392183,-0.11282202,0.1743944,1.1202967,-0.43125844
-0.1,0.1,1.4,-0.5235987755982988,0.0,0,0.0807427,-0.81802195,1.0250049,0.8694503,-0.00520763,-0.8990785,1.4629626,0.66380596,1.4066745,0.4989762,-0.17146431,0.14987636,1.1702828,-0.21026777
-0.1,0.1,1.4,-0.5235987755982988,0.0,0,0.08104336,-0.8180775,1.0258671,0.86924213,0.0004732355,-0.9012419,1.4107219,0.60402435,1.3487197,-0.41411668,-0.03729149,-0.25873184,1.2049522,-0.45102745
-0.1,0.1,1.4,-0.5235987755982988,0.0,0,0.08098938,-0.81806475,1.0250351,0.867847,-0.009862556,-0.900444,1.4785312,1.6072257,1.12438,0.22737844,-0.043370727,-0.33140248,1.1197393,-0.3420758
-0.1,0.1,1.4,-0.5235987755982988,0.0,0,0.08137798,-0.818225,1.026263,0.86951345,-0.0030009954,-0.9036273,1.4723536,0.6881312,1.3453765,0.1429047,-0.13891405,-0.15322416,1.0400143,-0.38152266
-0.1,0.1,1.4,-0.5235987755982988,0.0,0,0.07968895,-0.81811494,1.0258913,0.87044775,-0.005247438,-0.9044382,1.4620316,0.722482,1.2801149,-0.011560093,-0.03116515,-0.46909308,1.2220728,-0.5515347
-0.1,0.1,1.4,-0.5235987755982988,0.0,0,0.08141882,-0.8183239,1.0255927,0.8692682,-0.0019806344,-0.9000377,1.433833,0.07921305,1.4621326,0.074417844,-0.058179706,-0.5053742,1.2251235,-0.7007981
-0.1,0.1,1.4,-0.5235987755982988,0.0,0,0.08031337,-0.8181546,1.0253335,0.8692886,0.0006999423,-0.9018341,1.48398,0.71164066,1.46777,-0.36814967,-0.14367314,0.0147399455,1.0917475,-0.13301715
-0.1,0.1,1.4,-0.5235987755982988,0.0,0,0.08071671,-0.8180805,1.0249116,0.8685165,-0.010374427,-0.90054786,1.4588377,0.7172608,1.2975316,-0.1169863,-0.027184006,0.25900137,1.2306849,-0.26422504
-0.1,0.1,1.4,-0.5235987755982988,0.0,0,0.08054211,-0.81829923,1.0242534,0.8683531,-0.003521841,-0.9005014,1.4775112,1.1569989,1.4760582,-0.82612884,-0.2019268,0.10421347,1.1949878,-0.9026869
-0.1,0.1,1.4,-0.5235987755982988,0.0,0,0.08101877,-0.81800205,1.0254859,0.86881983,-0.0022260277,-0.8986116,1.4749285,-0.67359155,1.377238,0.0046793018,0.0044559143,-0.04723346,1.0137641,-0.42031682
-0.1,0.1,1.4,-0.5235987755982988,0.0,0,0.08111122,-0.8180949,1.0252025,0.86868924,-0.0054905424,-0.89794207,1.4278418,0.009010199,1.3955934,-0.07003612,-0.018388564,-0.09251289,1.0570073,-0.45743957
-0.1,0.1,1.4,-0.5235987755982988,0.0,0,0.08063007,-0.818022,1.0255392,0.8679364,-0.0076408945,-0.90032494,1.4829586,0.36531448,1.3023595,-0.28593293,-0.057309557,-0.26359472,1.0963467,-0.28671405
-0.1,0.1,1.4,-0.5235987755982988,0.0,0,0.08077069,-0.8184807,1.0258895,0.86790043,-0.007589394,-0.9007374,1.5189894,0.6757669,1.4145756,-0.10558161,-0.12706944,-0.36860958,1.0886376,-0.84634197
-0.1,0.1,1.4,-0.5235987755982988,0.0,0,0.079540595,-0.81799585,1.0247169,0.86794496,-0.012494452,-0.89835566,1.4205558,0.07767302,1.3486041,-0.5514318,-0.05002729,-0.1466108,1.1551524,0.63114065
-0.1,0.1,1.4,-0.5235987755982988,0.0,0,0.07968795,-0.81811416,1.0257086,0.86855906,-0.0015077067,-0.90109587,1.4580468,-0.21696086,1.2809542,0.24744084,-0.14669918,-0.14665195,1.1356522,0.1071078
-0.1,0.1,1.4,-0.5235987755982988,0.0,0,0.08072444,-0.81769437,1.0255033,0.86868125,-0.007577862,-0.90015036,1.4618592,0.24799141,1.4257139,-0.07550241,0.09460597,-0.23418781,1.1482686,-0.17977211
-0.1,0.1,1.4,-0.5235987755982988,0.0,0,0.07942217,-0.81768185,1.0253106,0.87007576,-0.013879952,-0.9040559,1.4838014,0.84692407,1.3595859,-0.052501425,-0.1792046,0.15135871,1.0179636,-0.72102034
-0.1,0.1,1.4,-0.5235987755982988,0.0,0,0.08152524,-0.81789637,1.0250318,0.8679669,-0.0056712166,-0.89943427,1.5061021,0.79327786,1.2260126,-0.07745542,-0.04023392,-0.055835914,1.0790774,-0.22060071
-0.1,0.1,1.4,-0.5235987755982988,0.0,0,0.08008985,-0.818122,1.0252362,0.8698442,-0.0040440997,-0.90270174,1.4641371,0.16133669,1.22465,-0.71399206,0.006993807,0.17434907,1.0430396,-0.14754936
-0.1,0.1,1.4,-0.5235987755982988,0.0,0,0.08114675,-0.81839645,1.0251104,0.8686085,-0.004164544,-0.90131867,1.4302236,-0.73871887,1.1757797,0.29282457,0.086323686,-0.26322612,1.1785855,-0.16708446
-0.1,0.1,1.4,-0.5235987755982988,0.0,0,0.07997002,-0.81802744,1.0256231,0.8686084,-0.0055209063,-0.8973546,1.4824857,0.45971826,1.3287278,-0.021863677,-0.0401323,0.086358406,1.2381567,0.29678312
-0.1,0.1,1.4,-0.5235987755982988,0.0,0,0.08077163,-0.8179309,1.0251819,0.869491,-0.0020912273,-0.90289295,1.4911462,0.29108158,1.2140535,-0.03023155,-0.06859902,-0.09370203,1.2130336,-0.49053022
-0.1,0.1,1.4,-0.5235987755982988,0.0,0,0.080666214,-0.81777525,1.0248619,0.8694207,-0.0072543537,-0.8992783,1.4465305,0.6542695,1.3876778,0.13321403,-0.06332462,0.034694858,1.1183865,0.5831078
-0.1,0.1,1.4,-0.5235987755982988,0.0,0,0.08121575,-0.81810004,1.0262196,0.86874014,-0.0044494006,-0.90258795,1.4514892,0.3838148,1.468101,-0.08158055,-0.05298817,0.17870733,1.0444822,0.087840065
-0.1,0.1,1.4,-0.5235987755982988,0.0,0,0.08133141,-0.8182049,1.0251278,0.8689173,0.0015831933,-0.8989436,1.4793749,1.2558494,1.2780086,-0.17094423,0.0002484258,-0.04515605,1.0375428,-0.9502832
-0.1,0.1,1.4,-0.5235987755982988,0.0,0,0.07987142,-0.81827,1.0262047,0.8690249,-0.0039265486,-0.90397066,1.4592946,0.005774732,1.3983412,-0.030513715,-0.11882816,0.43978548,1.1106045,-0.70773256
-0.1,0.1,1.4,-0.5235987755982988,0.0,0,0.0808936,-0.81831455,1.0254047,0.86859435,-0.0034304112,-0.9002232,1.4470546,0.6308795,1.3393354,-0.076988965,-0.04535709,-0.1926532,1.1817958,0.05028716
-0.1,0.1,1.4,-0.5235987755982988,0.0,0,0.07986795,-0.818333,1.0253133,0.8692945,-0.010142463,-0.90061057,1.4659103,-0.5653304,1.368181,-0.03370627,0.029405987,0.35602117,1.105538,-0.47940046
-0.1,0.1,1.4,-0.5235987755982988,0.0,0,0.081303366,-0.8181347,1.0256331,0.86910254,-0.0016388523,-0.90055716,1.505059,-0.35698372,1.3298553,-0.40305755,-0.053400476,0.086923175,1.0148886,-0.4512429
-0.1,0.1,1.4,-0.5235987755982988,0.0,0,0.08049297,-0.81825024,1.024754,0.8675995,9.4309886e-05,-0.901649,1.4626178,0.6525916,1.3962225,0.021300925,0.0063763554,0.11662444,1.0792533,-0.10390206
-0.1,0.1,1.4,-0.5235987755982988,0.0,0,0.07981236,-0.8181901,1.0256554,0.8697782,-0.00984909,-0.90491784,1.4847226,-0.6439366,1.29004,-0.2729119,-0.100244634,0.088791884,1.0270839,-0.6411819
-0.1,0.1,1.4,-0.5235987755982988,0.0,0,0.07923929,-0.8183841,1.0253141,0.8694618,-0.008657149,-0.9037105,1.4883578,0.5345318,1.3906723,0.04620783,-0.06641918,-0.010908506,1.0626901,-0.55065054
-0.1,0.1,1.4,-0.5235987755982988,0.0,0,0.08122872,-0.8182742,1.0258173,0.867821,0.0006321338,-0.90366644,1.45297,0.43997994,1.4311795,0.14195973,-0.059237003,0.28089863,1.2694951,-0.9266726
-0.1,0.1,1.4,-0.5235987755982988,0.0,0,0.08093275,-0.8185749,1.0262198,0.87050676,-0.003539619,-0.8992125,1.4632772,0.29946008,1.2813336,-0.5539173,0.061317608,0.38908076,1.0711449,-0.0984913
-0.1,0.1,1.4,-0.5235987755982988,0.0,0,0.080682814,-0.81817245,1.0259595,0.8697374,-0.008056562,-0.8979028,1.4994932,0.5021831,1.1580257,-0.10949346,-0.030123927,-0.25299087,1.1472645,-0.9563777
-0.1,0.1,1.4,-0.5235987755982988,0.0,0,0.08076294,-0.81865686,1.025344,0.8702136,-0.0063385367,-0.8982029,1.4803834,0.6745664,1.2634282,-0.094621725,0.00063471356,0.13106984,1.1872747,-0.02069211
-0.1,0.1,1.4,-0.5235987755982988,0.0,0,0.08038916,-0.8184245,1.0258939,0.8703164,-0.0047846516,-0.8997386,1.4804658,0.15298922,1.209641,-0.5124626,-0.18463193,0.55075383,1.0584285,-0.50007725
-0.1,0.1,1.4,-0.5235987755982988,0.0,0,0.0809245,-0.81870323,1.0253644,0.869819,-0.0029624193,-0.8997533,1.4765847,0.8744883,1.1813734,0.27983204,-0.14099687,0.3225008,1.0482566,-0.5374463
-0.1,0.1,1.4,-0.5235987755982988,0.0,0,0.080658056,-0.8181234,1.0261158,0.86970925,-0.009094988,-0.89849114,1.4378021,0.7857388,1.2830168,-0.3014127,0.020215284,0.32552284,1.1749256,-0.78213096
-0.1,0.1,1.4,-0.5235987755982988,0.0,0,0.080569714,-0.81817585,1.0255659,0.8692875,-0.00485567,-0.89819777,1.493609,0.2771432,1.3008496,-0.24868904,0.00240133,-0.24607426,1.1410583,-0.038440492
-0.1,0.1,1.4,-0.5235987755982988,0.0,0,0.07995058,-0.81845003,1.0265882,0.8693926,-0.009156596,-0.89961857,1.4931282,0.7215527,1.3062327,0.14405799,-0.2650324,-0.1453419,1.0511872,0.76806015
-0.1,0.1,1.4,-0.5235987755982988,0.0,0,0.08049096,-0.81853706,1.0256559,0.86939114,-0.004034375,-0.8976705,1.4894844,0.53687704,1.2790565,-0.58817506,-0.104936704,-0.21314768,1.1150872,0.30999604
-0.1,0.1,1.4,-0.5235987755982988,0.0,0,0.08125535,-0.818238,1.0253224,0.8695527,-0.0076117273,-0.8984647,1.4553777,0.57916194,1.5099283,-0.46004024,-0.004263166,0.12183382,1.0403225,-1.0148126
-0.1,0.1,1.4,-0.5235987755982988,0.0,0,0.080740504,-0.8183429,1.0254061,0.86980516,-0.0027534526,-0.9004527,1.480874,0.51594514,1.4020185,-0.52469945,-0.098617695,0.09235575,1.1007642,-0.04079681
-0.1,0.1,1.4,-0.5235987755982988,0.0,0,0.08088798,-0.8181214,1.0257206,0.8694968,-0.008328834,-0.90061635,1.5110117,0.58599824,1.2307489,-0.9745821,-0.0056516565,0.5330455,1.0607841,-0.70147437
-0.1,0.1,1.4,-0.5235987755982988,0.0,0,0.08036111,-0.817835,1.0246756,0.8700686,-0.00822498,-0.901298,1.4798962,0.36306474,1.4774685,0.14864278,-0.03761801,0.74721736,0.96657914,-0.47840962
-0.1,0.1,1.4,-0.5235987755982988,0.0,0,0.080494374,-0.8183215,1.0250846,0.86912596,-0.009056424,-0.89522916,1.4897797,0.31400633,1.3468025,0.32736444,-0.080514744,-0.38762078,1.1134175,0.055613704
-0.1,0.1,1.4,-0.5235987755982988,0.0,0,0.08082455,-0.818245,1.0257424,0.8692565,-0.012308298,-0.8991749,1.5202967,1.1962147,1.3086431,-0.20131534,-0.03134135,-0.2870423,1.0835375,-0.65170926
-0.1,0.1,1.4,-0.5235987755982988,0.0,0,0.08137717,-0.81826824,1.025099,0.8698692,-0.010661576,-0.89951056,1.4978217,1.2460479,1.4159127,0.076077044,-0.07749545,-0.2734908,1.1259867,-1.1589065
-0.1,0.1,1.4,-0.5235987755982988,0.0,0,0.08066455,-0.8184349,1.0251658,0.8697688,-0.008791359,-0.8950658,1.4582751,0.27418795,1.3308041,-0.096122816,0.01853741,0.38818607,1.0366883,-0.95533824
-0.1,0.1,1.4,-0.5235987755982988,0.0,0,0.08083118,-0.8182892,1.025267,0.87018394,-0.007696244,-0.9006012,1.4633927,0.027002817,1.4277446,-0.16486189,-0.12304709,0.071914196,1.1966631,-0.09616288
-0.1,0.1,1.4,-0.5235987755982988,0.0,0,0.080288224,-0.8183601,1.0251514,0.87082535,-0.005687659,-0.8994459,1.4805537,0.4019222,1.3657981,-0.16974993,-0.004862863,-0.19596128,1.0768497,-0.36745963
-0.1,0.1,1.4,-0.5235987755982988,0.0,0,0.08069723,-0.8180801,1.0259588,0.8703829,-0.0021745474,-0.902864,1.5049396,-0.33950412,1.2069386,0.3693386,-0.13427457,0.30168658,1.1319898,0.118200384
-0.1,0.1,1.4,-0.5235987755982988,0.0,0,0.08053693,-0.8184524,1.0249716,0.8701592,-0.0038522386,-0.8992221,1.4392838,-0.3736906,1.3337748,-0.06895207,0.0065546236,-0.46837348,1.036266,-0.48660085
-0.1,0.1,1.4,-0.5235987755982988,0.0,0,0.08118859,-0.8184349,1.0257595,0.86939836,-0.010089234,-0.9011865,1.4719704,0.29225662,1.2129298,-0.20214984,-0.044981778,-0.056484926,1.2461079,-0.5004524
-0.1,0.1,1.4,-0.5235987755982988,0.0,0,0.080573194,-0.81821966,1.0256965,0.8698103,-0.0031924488,-0.8985013,1.4702331,-0.17276205,1.4361482,-0.6148792,-0.06213697,-0.26982424,1.0986073,-0.07131207
-0.1,0.1,1.4,-0.5235987755982988,0.0,0,0.08077135,-0.8181215,1.0253316,0.86960894,-0.008980347,-0.8975518,1.4642007,-0.7482299,1.4007115,-0.23957603,-0.12927467,-0.28524378,1.0732514,-0.27622896
-0.1,0.1,1.4,-0.5235987755982988,0.0,0,0.080797315,-0.8185074,1.0248764,0.8696539,-0.005767971,-0.90152395,1.5275583,0.32118613,1.0427139,0.16271563,0.09281046,-0.06567455,1.1181275,-0.364041
-0.1,0.1,1.4,-0.5235987755982988,0.0,0,0.08147368,-0.8183461,1.0249652,0.8709512,-0.0056687086,-0.9014011,1.4898057,0.03611451,1.2871991,0.17240365,0.029274357,0.4335233,1.096717,-0.28867424
-0.1,0.1,1.4,-0.5235987755982988,0.0,0,0.08013046,-0.8183275,1.0257427,0.87128925,-0.0011935033,-0.90258527,1.4986264,0.70357716,1.3949989,0.15357596,0.019577172,-0.32356936,1.0626152,-0.47480533
-0.1,0.1,1.4,-0.5235987755982988,0.0,0,0.08081342,-0.81819904,1.0261598,0.8691027,-0.006604112,-0.90115315,1.4620088,-0.7302236,1.2554826,-0.020103771,-0.047969434,-0.032949556,1.1071109,-0.95189476
-0.1,0.1,1.4,-0.5235987755982988,0.0,0,0.080299765,-0.8186409,1.0260439,0.8696555,-0.0025255356,-0.89922994,1.4426116,-0.47552302,1.3160359,-0.38928145,-0.099179015,0.110642426,1.1315585,0.1732684
-0.1,0.1,1.4,-0.5235987755982988,0.0,0,0.07958798,-0.8180577,1.0258601,0.8695024,-0.0031388616,-0.8999477,1.4821906,-0.11535032,1.3129793,0.024392556,-0.17722213,0.09835332,1.2386029,-1.1003011
-0.1,0.1,1.4,-0.5235987755982988,0.0,0,0.08038831,-0.81826794,1.0258466,0.86969256,-0.0034726432,-0.8999583,1.4742194,0.13917238,1.1574465,-0.2962965,-0.12519763,0.4535443,1.0468574,0.14807746
-0.1,0.1,1.4,-0.5235987755982988,0.0,0,0.08163079,-0.81805617,1.0250611,0.8684512,-0.0005872779,-0.8996233,1.452057,-0.15758125,1.302057,-0.2587348,0.05724553,-0.22212276,1.2218875,0.4390571
-0.1,0.1,1.4,-0.5235987755982988,0.0,0,0.08050594,-0.8182195,1.0247872,0.8703695,-0.0018363392,-0.90071917,1.4662925,1.6224695,1.3326018,-0.12823278,-0.051136363,-0.04273468,1.1338223,0.3243113
-0.1,0.1,1.4,-0.5235987755982988,0.0,0,0.08051043,-0.8182436,1.0251485,0.86924,-0.006063854,-0.8988513,1.5168362,0.6429771,1.3015289,0.32968628,-0.057153795,0.4502106,1.1341428,-0.6083583
-0.1,0.1,1.4,-0.5235987755982988,0.0,0,0.0811959,-0.8183747,1.0252316,0.86916167,-0.010777181,-0.89839464,1.465249,0.32415625,1.2960331,-0.41278255,0.030531047,-0.1905859,1.2182888,-0.35954183
-0.1,0.1,1.4,-0.5235987755982988,0.0,0,0.07967815,-0.81830883,1.0247847,0.8704557,-0.0048725796,-0.9010177,1.5082028,0.06031644,1.419639,0.21077952,0.03921462,0.2770692,1.1794968,-0.079438865
-0.1,0.1,1.4,-0.5235987755982988,0.0,0,0.08087142,-0.81794804,1.0261204,0.8689335,-0.0139576765,-0.9001197,1.4724652,0.45075065,1.2232325,-0.4644777,0.027912235,-0.12308178,1.1396042,-0.1585623
-0.1,0.1,1.4,-0.5235987755982988,0.0,0,0.07981645,-0.81830007,1.0249244,0.8688014,-0.007923468,-0.8972479,1.465009,0.23416254,1.4144931,0.147241,-0.04275101,0.03013709,1.1678858,-0.0067933598
-0.1,0.1,1.4,-0.5235987755982988,0.0,0,0.0804878,-0.8180688,1.0255146,0.8693853,-0.010398144,-0.9002248,1.4505366,1.089343,1.4134665,-0.20981534,0.16688336,0.7255425,1.0880407,-0.20442034
-0.1,0.1,1.4,-0.5235987755982988,0.0,0,0.08043362,-0.8181306,1.0260264,0.8697728,-0.0012947037,-0.8991958,1.472668,1.1746947,1.5763971,-0.17117965,-0.08180754,-0.002695072,1.1483984,-0.600058
-0.1,0.1,1.4,-0.5235987755982988,0.0,0,0.0806047,-0.81809205,1.0258212,0.86983484,-0.009007693,-0.89969724,1.4916302,0.6818016,1.3328774,0.6625954,-0.07769557,-0.027985658,1.119212,0.47484282
-0.1,0.1,1.4,-0.5235987755982988,0.0,0,0.080971576,-0.81824523,1.0253811,0.8688667,-0.010968033,-0.89980215,1.4492497,1.1559554,1.3632166,-0.33445996,-0.23259427,-0.16902752,1.1469159,-0.34307912
-0.1,0.1,1.4,-0.5235987755982988,0.0,0,0.08092018,-0.8181815,1.0247743,0.8698855,-0.009032569,-0.89798546,1.4555241,0.32512802,1.1869665,-0.49030876,-0.10425605,0.2906309,1.2944908,-0.6422677
-0.1,0.1,1.4,-0.5235987755982988,0.0,0,0.0805525,-0.8182703,1.0249772,0.8692889,-0.009053905,-0.89761394,1.450505,0.09865379,1.3200332,-0.06660821,-0.058946453,-0.14510235,1.0895556,0.2761696
-0.1,0.1,1.4,-0.5235987755982988,0.0,0,0.08057606,-0.81836694,1.0256138,0.86919135,-0.0057657985,-0.8991643,1.4570752,0.3135275,1.302965,-0.18319957,0.04877794,-0.11762113,1.1746601,-0.7658359
-0.1,0.1,1.4,-0.5235987755982988,0.0,0,0.07965877,-0.8177977,1.0249263,0.8701056,-0.008898262,-0.90097505,1.4609177,-0.32044533,1.3771698,0.47861928,0.02526324,0.5674777,1.1839466,-0.36077395
-0.1,0.1,1.4,-0.5235987755982988,0.0,0,0.08134792,-0.81824833,1.0253711,0.8690328,-0.007975804,-0.89739275,1.4666731,0.2970525,1.4456261,0.03405903,-0.1374872,0.018791124,1.0024571,-0.13688473
-0.1,0.1,1.4,-0.5235987755982988,0.0,0,0.080589615,-0.8182987,1.0259311,0.8699851,-0.010171794,-0.90163636,1.4573375,-1.1103064,1.4083217,0.015414752,-0.075426556,-0.03610818,1.0973506,0.028003493
-0.1,0.1,1.4,-0.5235987755982988,0.0,0,0.08119969,-0.8183244,1.025994,0.8691075,-0.0066716825,-0.9005255,1.4974449,-0.10094495,1.4294045,0.02666777,-0.09498177,0.20385885,1.2060344,-0.3659474
-0.1,0.1,1.4,-0.5235987755982988,0.0,0,0.08071475,-0.81820804,1.0252697,0.8705145,-0.006158715,-0.90359926,1.4379029,1.3219762,1.3858085,-0.59746724,-0.042818815,-0.037772972,1.2225953,-0.3140893
-0.1,0.1,1.4,-0.5235987755982988,0.0,0,0.08053462,-0.8183778,1.0264057,0.86907476,-0.0017977656,-0.9010292,1.4647422,1.1455116,1.3876193,-0.08568528,-0.09640237,0.20599224,1.0763223,-0.4226553
-0.1,0.1,1.4,-0.5235987755982988,0.0,0,0.0803995,-0.818354,1.0248965,0.8701914,-0.0109744575,-0.8988282,1.487965,1.2041808,1.5389464,0.09718096,-0.015732255,-0.45995352,1.1238852,-0.4258574
-0.1,0.1,1.4,-0.5235987755982988,0.0,0,0.07870314,-0.81810147,1.0254465,0.8692259,-0.015625302,-0.89894205,1.4644033,0.1310012,1.5341501,-0.29098815,-0.10948507,0.07461979,1.2432144,-0.6181691
-0.1,0.1,1.4,-0.5235987755982988,0.0,0,0.081389666,-0.8179383,1.0252844,0.8705086,-0.0063684755,-0.9001424,1.4894131,1.5898283,1.3029842,-0.17745638,-0.08439192,-0.2501883,1.0284493,-0.24943519
-0.1,0.1,1.4,-0.5235987755982988,0.0,0,0.080864616,-0.81860477,1.0242852,0.87006456,-0.003917244,-0.89820534,1.4944172,0.200965,1.308963,0.3665394,-0.15154907,0.13309845,1.1107446,-0.757622
-0.1,0.1,1.4,-0.5235987755982988,0.0,0,0.08031975,-0.81813294,1.0254227,0.87008804,-0.004042418,-0.899343,1.5052564,0.9066736,1.4150617,0.2191493,0.058467306,-0.43778846,1.0400628,-0.46755648
-0.1,0.1,1.4,-0.5235987755982988,0.0,0,0.08082535,-0.8183969,1.0252393,0.8692621,-0.0046697715,-0.8992976,1.4240165,1.5714047,1.4159684,-0.5345407,-0.018052613,-0.052158922,1.0574886,0.20681259
-0.1,0.1,1.4,-0.5235987755982988,0.0,0,0.08021392,-0.8181029,1.0257373,0.8691638,-0.0041130153,-0.89878607,1.4695612,-0.6599579,1.5078198,0.14931111,-0.053947646,0.004276774,1.0592042,0.5074977
-0.1,0.1,1.4,-0.5235987755982988,0.0,0,0.08076494,-0.8181311,1.0257757,0.86951536,-0.006396149,-0.89697194,1.4778376,0.74194044,1.4641912,-0.18370645,-0.007845195,0.050104078,1.1400496,-0.08610071
-0.1,0.1,1.4,-0.5235987755982988,0.0,0,0.080343485,-0.8181152,1.0248424,0.86959034,-0.013317573,-0.8980989,1.4605594,0.37260005,1.1639527,0.22225116,-0.22605206,0.0058293766,1.134134,-0.45505074
-0.1,0.1,1.4,-0.5235987755982988,0.0,0,0.08014411,-0.818222,1.0248339,0.86936235,-0.0038922695,-0.90173316,1.4645458,0.38884705,1.3002474,-0.124292046,-0.018601518,0.31561187,1.181243,-0.65629387
-0.1,0.1,1.4,-0.5235987755982988,0.0,0,0.0805246,-0.8180854,1.0266297,0.8689149,-0.0047256914,-0.90158904,1.4456432,-0.068688825,1.3695756,0.3007689,0.030682897,0.072161995,1.2712847,-1.1386589
-0.1,0.1,1.4,-0.5235987755982988,0.0,0,0.08066374,-0.8178884,1.0254637,0.86964583,-0.0058059203,-0.8999044,1.4746689,0.006242162,1.3814082,-0.11209445,-0.026697868,0.419712,1.0418209,-0.1564423
-0.1,0.1,1.4,-0.5235987755982988,0.0,0,0.079993956,-0.8181672,1.025899,0.8694626,-0.0021638344,-0.89839375,1.4802496,0.47624967,1.1749487,-0.17772284,0.004694401,0.19966802,1.0348893,-0.8533428
-0.1,0.1,1.4,-0.5235987755982988,0.0,0,0.0805457,-0.8184296,1.0254179,0.8689262,-0.010127778,-0.90162855,1.4403442,0.85515124,1.2501302,-0.22169065,-0.007301379,0.094732046,1.2196532,-0.9231757
-0.1,0.1,1.4,-0.5235987755982988,0.0,0,0.08027207,-0.8184686,1.0248525,0.8688384,-0.006758337,-0.896673,1.4516046,1.1407781,1.404153,-0.17155021,-0.097911544,-0.608255,0.9782553,-0.52881527
-0.1,0.1,1.4,-0.5235987755982988,0.0,0,0.08077535,-0.8183293,1.0264564,0.8699693,0.0019274137,-0.89546907,1.4724793,0.16242865,1.3386242,-0.17711517,-0.07182433,-0.32517844,1.1567647,-0.44776142
-0.1,0.1,1.4,-0.5235987755982988,0.0,0,0.0807651,-0.81864065,1.0254393,0.8690725,-0.0019347303,-0.8998248,1.4245684,1.3000351,1.2615663,-0.030553345,0.0024793246,-0.22702844,1.0676814,-1.0772966
-0.1,0.1,1.4,-0.5235987755982988,0.0,0,0.08031382,-0.8185914,1.0240797,0.86976135,-0.005089842,-0.90270233,1.4685086,-0.920962,1.4051014,-0.33427984,-0.03509519,0.040998448,1.0616441,-0.10715587
-0.1,0.1,1.4,-0.5235987755982988,0.0,0,0.08023367,-0.8178046,1.0252048,0.86815274,-0.007676133,-0.89669657,1.4688249,-0.7333414,1.2998385,0.08543845,-0.024406308,0.24839929,1.1562078,-0.40766653
-0.1,0.1,1.4,-0.5235987755982988,0.0,0,0.080637805,-0.81815666,1.0250301,0.869609,-0.008791543,-0.90019375,1.4613962,-0.23274687,1.267206,-0.39631456,-0.065554954,-0.6288277,1.03745,-0.38343439
-0.1,0.1,1.4,-0.5235987755982988,0.0,0,0.08120755,-0.8179545,1.0247971,0.87005126,-0.00761634,-0.9007943,1.4926882,-0.11748646,1.295215,-0.19862288,-0.118875116,-0.2806177,1.132481,-0.8270723
-0.1,0.1,1.4,-0.5235987755982988,0.0,0,0.080621354,-0.8179993,1.0258123,0.868286,8.018258e-05,-0.900263,1.4851981,0.99037457,1.1554608,0.23241849,-0.0392226,0.50468266,1.101777,-0.53259146
-0.1,0.1,1.4,-0.5235987755982988,0.0,0,0.08058174,-0.81836146,1.0247803,0.8690497,-0.007720511,-0.89903224,1.485696,0.4096329,1.3388498,-0.23974378,-0.077350795,-0.018268323,1.2053571,-0.40175158
-0.1,0.1,1.4,-0.5235987755982988,0.0,0,0.08037923,-0.81813896,1.0251821,0.86970943,-0.012996467,-0.90009844,1.4399832,0.45970246,1.4779035,0.5412396,-0.07547765,-0.42443916,1.1145377,-0.24212758
-0.1,0.1,1.4,-0.5235987755982988,0.0,0,0.081138425,-0.8183298,1.0251986,0.86969686,-0.0063606496,-0.90103096,1.4152279,1.747544,1.4009649,-0.08616728,0.078566864,-0.4589194,1.0574942,-0.25580812
-0.1,0.1,1.4,-0.5235987755982988,0.0,0,0.08137537,-0.81799674,1.0256629,0.8702835,-0.0024363566,-0.8996011,1.4536289,0.5834263,1.4942434,-0.0014371375,-0.10466305,0.36495197,1.0734774,-0.3505335
-0.1,0.1,1.4,-0.5235987755982988,0.0,0,0.08023166,-0.818173,1.0246072,0.87002003,-0.0051567797,-0.8985705,1.5230488,-0.7483605,1.3709633,0.19367927,0.05814048,0.14507306,1.0414934,0.057822295
-0.1,0.1,1.4,-0.5235987755982988,0.0,0,0.08138933,-0.81806743,1.0255364,0.86945903,-0.011207954,-0.900878,1.459892,0.9751901,1.4088836,-0.31768852,-0.102272905,-0.5783624,1.183357,-0.615224
-0.1,0.1,1.4,-0.5235987755982988,0.0,0,0.08023907,-0.8183743,1.0244908,0.86953956,-0.011166608,-0.899081,1.4806143,1.2022458,1.1965988,-0.54404294,-0.026197419,0.3268487,1.2359531,-0.74686885
-0.1,0.1,1.4,-0.5235987755982988,0.0,0,0.08056732,-0.818294,1.0253804,0.86967516,-0.0008717485,-0.89938647,1.4826235,1.8150723,1.2699747,-0.19822402,0.012387834,0.12152526,1.1056699,-0.2496473
-0.1,0.1,1.4,-0.5235987755982988,0.0,0,0.080036275,-0.8180306,1.0256624,0.8700993,-0.008658234,-0.8992385,1.508586,1.2893943,1.3040771,-0.25373444,-0.037578166,-0.18318641,1.08073,-0.26104468
-0.1,0.1,1.4,-0.5235987755982988,0.0,0,0.08035847,-0.8181698,1.0256413,0.869818,-0.010790547,-0.90001506,1.4980142,0.7665418,1.3631243,-0.28004944,-0.1296119,0.13865158,1.1694704,-0.047594402
-0.1,0.1,1.4,-0.5235987755982988,0.0,0,0.08033459,-0.8182197,1.0251588,0.8690591,-0.012941843,-0.8978036,1.4834685,0.45314637,1.3957714,0.07632492,-0.08925413,0.63262784,1.0979265,-0.19655925
-0.1,0.1,1.4,-0.5235987755982988,0.0,0,0.07962776,-0.8182257,1.0254794,0.86969405,-0.0077403826,-0.9013508,1.4799411,0.96748495,1.1529824,-0.53277045,0.044257127,0.118425354,1.1472298,-0.6805884
-0.1,0.1,1.4,-0.5235987755982988,0.0,0,0.08062671,-0.8182844,1.0255928,0.86898416,-0.0028225638,-0.8971039,1.4534795,0.39129767,1.2558414,-0.1500571,-0.07629333,-0.27546725,1.1053761,0.61190456
-0.1,0.1,1.4,-0.5235987755982988,0.0,0,0.080403216,-0.81800026,1.0250726,0.87024736,-0.007340631,-0.90303457,1.4728401,-0.18016823,1.3604451,-0.22959915,-0.068642594,0.4352848,1.0373453,-0.0775166
-0.1,0.1,1.4,-0.5235987755982988,0.0,0,0.08050747,-0.81829596,1.025626,0.868629,-0.0044472185,-0.8981277,1.4818901,0.6636214,1.2073562,-0.013806098,-0.12358446,-0.47079906,1.0729268,-0.5411501
-0.1,0.1,1.4,-0.5235987755982988,0.0,0,0.07995578,-0.8185817,1.0254391,0.86919856,-0.0066764466,-0.9006416,1.4880116,0.7499065,1.2785852,0.0021004982,-0.13023277,0.12295547,1.0728724,-0.23081127
-0.1,0.1,1.4,-0.5235987755982988,0.0,0,0.08131876,-0.8179197,1.0261583,0.86942786,-0.008208215,-0.90036446,1.5112797,-0.688909,1.371171,-0.8229342,-0.12406737,-0.16203731,1.145645,-1.0671939
-0.1,0.1,1.4,-0.5235987755982988,0.0,0,0.08116663,-0.8180055,1.0256109,0.8691702,-0.009973586,-0.90203846,1.4455087,-0.0123455655,1.3568002,-0.19962159,-0.07878552,-0.6584705,1.1610185,-0.02966338
-0.1,0.1,1.4,-0.5235987755982988,0.0,0,0.08030633,-0.81813586,1.0255477,0.86931205,-0.0044345935,-0.90462184,1.4808931,0.54765683,1.4196519,-0.13489719,-0.02137182,-0.22285223,1.0914153,0.80870783
-0.1,0.1,1.4,-0.5235987755982988,0.0,0,0.07975033,-0.8180764,1.0252404,0.8687617,-0.0038836536,-0.90047735,1.5187458,0.9629706,1.2579026,-0.10864199,-0.21921396,-0.019620638,1.0539613,-0.120221905
-0.1,0.1,1.4,-0.5235987755982988,0.0,0,0.0798186,-0.8182904,1.0250828,0.869613,-0.010543863,-0.8986639,1.4666297,0.8602095,1.3482087,-0.22201248,-0.034915462,0.20358415,1.0529469,-0.37305486
-0.1,0.1,1.4,-0.5235987755982988,0.0,0,0.08050402,-0.8181118,1.0253165,0.8691506,-0.011104654,-0.9026942,1.4409504,0.43813848,1.3833741,0.01108866,-0.031560402,-0.05649373,1.1293075,-0.41529483
-0.1,0.1,1.4,-0.5235987755982988,0.0,0,0.08056276,-0.81803185,1.0249857,0.87068015,-0.011332805,-0.90221226,1.5096185,0.08532249,1.2302856,-0.26768786,0.0028179558,0.10229953,1.1501219,-0.6351366
-0.1,0.1,1.4,-0.5235987755982988,0.0,0,0.08114229,-0.81803006,1.0247521,0.86958784,-0.006611141,-0.90127206,1.5143058,0.61509305,1.230977,-0.05481297,-0.0784504,0.1922462,1.1795064,-0.55881387
-0.1,0.1,1.4,-0.5235987755982988,0.0,0,0.08090029,-0.8181979,1.0251982,0.86919034,-0.0048185834,-0.9019488,1.4520857,1.1202554,1.1767614,-0.10172248,-0.0065295473,-0.20050712,1.1241592,-0.9270401
-0.1,0.1,1.4,-0.5235987755982988,0.0,0,0.080587864,-0.81818575,1.0243773,0.8705266,-0.012233127,-0.89988804,1.4699445,0.2047467,1.2375461,-0.4250626,-0.05302162,-0.13372281,1.193886,-0.7473358
-0.1,0.1,1.4,-0.5235987755982988,0.0,0,0.08060904,-0.81817704,1.0253007,0.8687249,-0.009146016,-0.90149266,1.4549701,0.9966212,1.417561,0.19802819,-0.090541,-0.26128453,1.0380979,0.25161076
-0.1,0.1,1.4,-0.5235987755982988,0.0,0,0.08041543,-0.81820536,1.0246191,0.8684483,-0.007058335,-0.90230066,1.4324989,-0.25913566,1.4414335,0.03363927,-0.15718769,0.12658392,1.2253062,0.05444846
-0.1,0.1,1.4,-0.5235987755982988,0.0,0,0.08058199,-0.8182335,1.02505,0.8695238,-0.0022607099,-0.9038507,1.4781438,-0.11996794,1.3011017,-0.030572128,0.07807381,-0.28064972,1.0261388,0.4591097
-0.1,0.1,1.4,-0.5235987755982988,0.0,0,0.08129328,-0.81836677,1.0243173,0.86924565,-0.0025649504,-0.89890385,1.4676002,-0.043819096,1.4999653,0.37948585,-0.029990956,-0.34184855,1.1615161,-0.7300583
-0.1,0.1,1.4,-0.5235987755982988,0.0,0,0.08009903,-0.81829584,1.0257223,0.8695638,-0.0022481568,-0.9006862,1.4716932,1.0902085,1.1224103,-0.054949023,-0.09920154,0.13747905,1.0804379,-0.86236334
-0.1,0.1,1.4,-0.5235987755982988,0.0,0,0.08046883,-0.8182013,1.0250111,0.8700707,0.0002602725,-0.90144855,1.420138,0.8133706,1.3650626,-0.27410442,-0.0469876,-0.20861837,1.24978,-0.5192684
-0.1,0.1,1.4,-0.5235987755982988,0.0,0,0.079805225,-0.81812155,1.0255587,0.866991,-0.0061038164,-0.8999591,1.4787918,1.4142672,1.5842471,-0.20134929,-0.046334945,0.26526764,1.0166699,-0.041054368
-0.1,0.1,1.4,-0.5235987755982988,0.0,0,0.081057236,-0.8180522,1.0254719,0.86939085,-0.004415438,-0.898427,1.4626393,0.17829457,1.2527488,0.21696259,-0.18239135,0.0917789,1.0660361,-1.034622
-0.1,0.1,1.4,-0.5235987755982988,0.0,0,0.080388635,-0.81823486,1.0259778,0.8684208,-0.010410173,-0.9033534,1.4548903,0.19209749,1.4804348,-0.6113064,0.06869912,-0.10563216,1.0928234,-0.2664727
-0.1,0.1,1.4,-0.5235987755982988,0.0,0,0.081085816,-0.81830037,1.0241549,0.8690255,-0.008485326,-0.90037906,1.4740595,-0.6013918,1.2602925,-0.24610876,-0.081869766,-0.30007294,1.0306758,-0.7579377
-0.1,0.1,1.4,-0.5235987755982988,0.0,0,0.081001446,-0.8182814,1.0253195,0.86847514,-0.007488186,-0.89933306,1.5087193,0.13648549,1.4239407,0.0513295,-0.066143066,0.3768917,1.1118126,-0.7103896
-0.1,0.1,1.4,-0.5235987755982988,0.0,0,0.08124337,-0.8182214,1.026071,0.86860967,-0.005982667,-0.90039873,1.4692774,1.0267526,1.2511299,0.39460617,-0.102083914,0.14720035,1.0724356,-0.6255758
-0.1,0.1,1.4,-0.5235987755982988,0.0,0,0.07996099,-0.8186236,1.0245081,0.86829853,-0.007865663,-0.90297836,1.4428943,0.84456104,1.3378747,-0.3244737,-0.083952636,0.38707206,1.1279485,-0.19236659
-0.1,0.1,1.4,-0.5235987755982988,0.0,0,0.08149782,-0.8182241,1.0256872,0.86856985,-0.0072363093,-0.9008306,1.4612699,0.41696396,1.3371983,-0.9009577,-0.029656142,-0.031917207,1.1307728,0.05574747
-0.1,0.1,1.4,-0.5235987755982988,0.0,0,0.08096583,-0.8179339,1.0261915,0.86844087,-0.004439664,-0.90307844,1.5154073,1.486381,1.3042743,-0.25197437,-0.029999005,0.35458428,1.0114552,-0.23777099
-0.1,0.1,1.4,-0.5235987755982988,0.0,0,0.08117842,-0.81805474,1.0260342,0.86825514,-0.00455289,-0.90016943,1.465779,0.12674019,1.2342336,0.37337947,-0.07989464,0.26605785,1.086018,-0.6213741
-0.1,0.1,1.4,-0.5235987755982988,0.0,0,0.08023454,-0.818216,1.0257254,0.8695154,-0.012141376,-0.9016291,1.5153987,-0.44441321,1.3213226,-0.48939016,0.049651846,0.3263168,1.196985,-0.53274053
-0.1,0.1,1.4,-0.5235987755982988,0.0,0,0.08129153,-0.81807816,1.0250219,0.8697804,0.00054044125,-0.9005999,1.4616488,1.2632079,1.4811727,0.16267902,-0.11507385,-0.16323052,1.0897995,-0.65655977
-0.1,0.1,1.4,-0.5235987755982988,0.0,0,0.08113322,-0.81851816,1.025742,0.8689201,-0.0036921024,-0.90338767,1.492516,1.4738387,1.214049,-0.015221765,-0.09994427,0.74979377,1.0637965,-0.3528632
-0.1,0.1,1.4,-0.5235987755982988,0.0,0,0.08053555,-0.8181758,1.0254875,0.8697112,-0.0045717484,-0.9000456,1.4871198,1.287396,1.3628764,-0.41855797,-0.10329992,-0.27175325,1.0523044,-0.07392902
-0.1,0.1,1.4,-0.5235987755982988,0.0,0,0.08074389,-0.8180168,1.0255628,0.86974746,-0.004135255,-0.89825165,1.4778755,0.498408,1.4210252,-0.32155615,-0.12892282,-0.25829706,1.1660745,0.15806223
-0.1,0.1,1.4,-0.5235987755982988,0.0,0,0.08065693,-0.8183656,1.025328,0.8698202,-0.0054895803,-0.9031176,1.496818,-0.41407076,1.4092612,0.48314366,0.04540315,0.052365858,1.0954901,-0.7801681
-0.1,0.1,1.4,-0.5235987755982988,0.0,0,0.08039429,-0.8181753,1.0256529,0.8703105,-0.0068474286,-0.90016115,1.4736207,-0.09860536,1.2398529,-0.13804324,-0.11758116,-0.13506207,1.1007149,-0.86084664
-0.1,0.1,1.4,-0.5235987755982988,0.0,0,0.08029183,-0.81844,1.0253527,0.87009406,-0.004157947,-0.8988414,1.4740211,1.1060776,1.3411132,-0.3000614,-0.0012763833,0.05129224,1.0932319,-0.9340165
-0.1,0.1,1.4,-0.5235987755982988,0.0,0,0.08115671,-0.81818444,1.0250467,0.8700707,-0.0059714825,-0.89873266,1.445544,0.1524532,1.3850976,0.28557846,-0.048349295,-0.06110358,1.1657329,-0.8231262
-0.1,0.1,1.4,-0.5235987755982988,0.0,0,0.081129655,-0.81787026,1.0253298,0.8696928,-0.009146952,-0.9014252,1.4522767,0.43788078,1.384117,-0.34163207,-0.029584877,-0.46802607,1.0259904,-0.3205638
-0.1,0.1,1.4,-0.5235987755982988,0.0,0,0.08064951,-0.81814235,1.0250282,0.86931115,-0.007460044,-0.899099,1.4457549,-0.30522797,1.3782965,-0.26844215,-0.01635917,0.061479483,1.0602893,-0.36177465
-0.1,0.1,1.4,-0.5235987755982988,0.0,0,0.07963272,-0.8178064,1.0261817,0.86977637,-0.0074179065,-0.90185887,1.485367,0.31930095,1.304042,0.13139215,0.03484882,0.19495268,1.2064202,0.22194627
-0.1,0.1,1.4,-0.5235987755982988,0.0,0,0.08112346,-0.81829685,1.0260733,0.8694435,-0.0032957552,-0.8994848,1.4838363,0.8023507,1.2663656,-0.0014759164,0.008934969,-0.039627533,1.1701194,0.24043052
-0.1,0.1,1.4,-0.5235987755982988,0.0,0,0.080899216,-0.8181069,1.0265317,0.86960435,-0.0060772067,-0.9052682,1.4771022,0.82113737,1.3219349,-0.09481694,0.005870571,-0.13555577,1.1327868,-0.9757357
-0.1,0.1,1.4,-0.5235987755982988,0.0,0,0.08073559,-0.8183301,1.0252571,0.8696717,-0.007257797,-0.9008662,1.498843,-0.09822934,1.3092687,0.722306,-0.08385522,-0.17548968,1.1760979,-0.4334353
-0.1,0.1,1.4,-0.5235987755982988,0.0,0,0.08045062,-0.81815535,1.025145,0.86963004,-0.005298026,-0.8992523,1.4622276,-0.5172379,1.5152967,0.6679336,-0.10360162,0.17737113,1.0291837,-1.1442057
-0.1,0.1,1.4,-0.5235987755982988,0.0,0,0.080737084,-0.81841284,1.0243871,0.8686264,-0.006470059,-0.90426564,1.4600823,0.28966308,1.2822187,-0.5760916,-0.18315464,0.19748515,1.0318489,-0.87452596
