sanky1234/BimanualDexCatch/isaacgymenvs/cem_results/football_pose_0.0_0.1_1.1999999999999997_0.5235987755982988_0.0_0_2025-05-26.csv
x,y,z,roll,pitch,yaw,robot1/joint1,robot1/joint2,robot1/joint3,robot1/joint4,robot1/joint5,robot1/joint6,robot1/joint7,robot2/joint1,robot2/joint2,robot2/joint3,robot2/joint4,robot2/joint5,robot2/joint6,robot2/joint7
0.0,0.1,1.1999999999999997,0.5235987755982988,0.0,0,0.47918245,-0.43995446,-0.8519173,0.11491681,-0.20511992,1.2135041,-0.65188783,1.4156252,-1.8885704,-1.0034465,0.05668378,-0.041558724,1.1607234,1.5913614
0.0,0.1,1.1999999999999997,0.5235987755982988,0.0,0,0.48049507,-0.43938774,-0.8517913,0.15083532,0.010613475,1.0222698,-0.2039584,1.3878745,-1.7531745,0.18523142,-0.1109118,0.112059616,1.075407,-0.48958674
0.0,0.1,1.1999999999999997,0.5235987755982988,0.0,0,0.4750644,-0.43929932,-0.853641,0.11064552,-0.03880095,1.009449,-1.1179607,1.406098,-1.8033807,-0.09106431,-0.062041916,-0.22069013,1.2392483,0.7105455
0.0,0.1,1.1999999999999997,0.5235987755982988,0.0,0,0.47692558,-0.43881,-0.8514196,0.121283635,-0.01189,1.1082637,0.028215276,1.4200302,-1.8484155,-0.39430484,-0.06356872,0.011846162,1.1104202,0.45809817
0.0,0.1,1.1999999999999997,0.5235987755982988,0.0,0,0.47839457,-0.4402106,-0.8525882,0.15329842,-0.039675802,1.0530362,-0.111665964,1.4251926,-1.7606324,-0.69177073,-0.09651053,0.047151897,1.2142873,1.3341873
0.0,0.1,1.1999999999999997,0.5235987755982988,0.0,0,0.4788405,-0.4390601,-0.8521354,0.11830488,-0.19021143,1.0078201,-0.316581,1.3804795,-1.7406547,-0.398537,-0.050059628,-0.18468395,1.1206281,-0.06441077
0.0,0.1,1.1999999999999997,0.5235987755982988,0.0,0,0.47793597,-0.4395443,-0.85083085,0.12044717,-0.24085651,1.1218301,-0.5659515,1.3552278,-1.806337,-0.2682725,0.03697821,0.08058651,1.0541818,0.189651
0.0,0.1,1.1999999999999997,0.5235987755982988,0.0,0,0.47789612,-0.43948114,-0.8513707,0.069208704,-0.14837983,1.1224476,0.37796476,1.3788377,-1.7569933,-0.03209994,-0.091629,0.1798624,1.0534358,-0.32421637
0.0,0.1,1.1999999999999997,0.5235987755982988,0.0,0,0.47706687,-0.43954685,-0.85275996,0.09469393,-0.1724167,0.90246254,-0.57655174,1.388807,-1.892744,-0.3297068,0.058614038,-0.3062891,1.0021123,0.08559913
0.0,0.1,1.1999999999999997,0.5235987755982988,0.0,0,0.4790471,-0.4391625,-0.8526608,0.11827536,0.16232042,1.1267875,0.17724639,1.4052577,-1.8340063,-0.13819991,-0.073928855,0.07213644,1.1275225,0.7817054
0.0,0.1,1.1999999999999997,0.5235987755982988,0.0,0,0.47616988,-0.4393395,-0.84992486,0.1289525,-0.23046096,0.981716,-1.1367711,1.374999,-1.8080187,-0.19660272,0.018814929,0.24121486,1.1820455,0.24570727
0.0,0.1,1.1999999999999997,0.5235987755982988,0.0,0,0.47703776,-0.4397267,-0.8540155,0.12360542,-0.19958095,0.94658315,-0.9036969,1.3800634,-1.77847,-0.34189022,0.047002614,-0.00745169,1.1968788,1.5879171
0.0,0.1,1.1999999999999997,0.5235987755982988,0.0,0,0.4778214,-0.43917876,-0.8533405,0.11207665,-0.42094046,1.0133135,-1.5410993,1.4020579,-1.7963252,-0.22553447,-0.121845916,0.07293751,1.1979516,0.13658534
0.0,0.1,1.1999999999999997,0.5235987755982988,0.0,0,0.47670862,-0.4395812,-0.8559191,0.19396494,0.091651484,1.0657068,-0.11567389,1.3995298,-1.8596301,-0.3843108,-0.08326596,-0.119554386,1.1231619,1.1859031
0.0,0.1,1.1999999999999997,0.5235987755982988,0.0,0,0.4794789,-0.4391452,-0.85457414,0.015660277,-0.24326159,0.957813,-0.78244185,1.3951495,-1.833722,-0.030596329,-0.13712177,-0.2385182,1.1355301,0.78013444
0.0,0.1,1.1999999999999997,0.5235987755982988,0.0,0,0.47650936,-0.43937534,-0.8479232,0.11943397,-0.30171782,1.2773894,0.10928597,1.4108249,-1.7770594,-0.285026,-0.136255,-0.23906924,1.052514,0.6646476
0.0,0.1,1.1999999999999997,0.5235987755982988,0.0,0,0.4778939,-0.4391363,-0.8511499,0.09695207,-0.15603812,1.0626931,-0.37145528,1.4455209,-1.8522924,-0.10197982,-0.046574652,0.06657315,1.1214796,0.9241551
0.0,0.1,1.1999999999999997,0.5235987755982988,0.0,0,0.4769701,-0.4395918,-0.84956384,0.12037311,-0.19292745,0.6763054,-0.37485513,1.3859806,-1.8060199,-0.23523536,-0.023825668,0.2559181,1.121236,1.5584042
0.0,0.1,1.1999999999999997,0.5235987755982988,0.0,0,0.47679526,-0.43905142,-0.84831494,0.11459947,-0.0037954831,1.1147097,-0.58358043,1.3966916,-1.8383467,-0.72979534,0.027438179,-0.14589547,1.1391326,0.13485418
0.0,0.1,1.1999999999999997,0.5235987755982988,0.0,0,0.47814822,-0.44003454,-0.8524392,0.08131411,-0.111434594,1.0996848,-0.14008285,1.3888265,-1.809313,0.09560024,-0.057048254,-0.077783234,1.1339754,0.38075548
0.0,0.1,1.1999999999999997,0.5235987755982988,0.0,0,0.4770558,-0.43891585,-0.8556363,0.06942187,-0.04202363,1.0319033,-0.28478914,1.3803636,-1.8176855,-0.10120946,-0.036112506,0.15485978,1.1190206,1.4577718
0.0,0.1,1.1999999999999997,0.5235987755982988,0.0,0,0.48074484,-0.4394645,-0.8525836,0.12693037,-0.6911827,0.94005394,-0.26893333,1.4102865,-1.8307761,-0.44210488,-0.046668105,0.26080522,1.2366377,0.718899
0.0,0.1,1.1999999999999997,0.5235987755982988,0.0,0,0.47978076,-0.43936837,-0.854794,0.0804679,-0.11913059,1.077765,-0.006705036,1.3851641,-1.7768725,0.10604467,-0.05173975,0.15395898,1.0753634,-0.9396059
0.0,0.1,1.1999999999999997,0.5235987755982988,0.0,0,0.47844613,-0.43929633,-0.8525457,0.13646886,-0.12909356,1.1464512,0.1253915,1.379278,-1.841434,-0.14924158,-0.014540168,0.028738324,1.3012214,1.8363999
0.0,0.1,1.1999999999999997,0.5235987755982988,0.0,0,0.47713917,-0.4395301,-0.8540261,0.08023375,-0.1266412,0.95476127,-0.3000886,1.3768975,-1.9106025,-0.1946086,-0.11654173,0.123107985,1.0998875,0.17592591
0.0,0.1,1.1999999999999997,0.5235987755982988,0.0,0,0.4762072,-0.43916798,-0.85314786,0.12166951,-0.14518234,1.0401789,-0.069104016,1.3927532,-1.8659885,-0.40186405,0.014041875,-0.050157696,1.049709,1.171523
0.0,0.1,1.1999999999999997,0.5235987755982988,0.0,0,0.47768041,-0.43950555,-0.8494022,0.14086193,-0.31320405,1.050289,0.4018709,1.417716,-1.8148409,-0.6591414,-0.04329344,-0.13776943,1.1103998,0.8502828
0.0,0.1,1.1999999999999997,0.5235987755982988,0.0,0,0.477245,-0.43945298,-0.84938484,0.13336852,-0.52999955,1.0831519,-0.14594908,1.4015359,-1.8166306,-0.54218745,-0.09124118,-0.20393676,1.118672,0.3789314
0.0,0.1,1.1999999999999997,0.5235987755982988,0.0,0,0.47809762,-0.439468,-0.8528944,0.07444901,-0.11690039,1.0105578,0.32618356,1.4014132,-1.7699163,-0.46243984,-0.14974466,0.038275216,1.069975,0.124076724
0.0,0.1,1.1999999999999997,0.5235987755982988,0.0,0,0.4783285,-0.43971327,-0.85266757,0.07954933,-0.14768246,1.1227669,-0.5395385,1.3842593,-1.8492323,-0.43314856,0.13608204,-0.014315648,1.2216718,-0.32834038
0.0,0.1,1.1999999999999997,0.5235987755982988,0.0,0,0.47800422,-0.43924305,-0.8527195,0.09915495,0.2521378,1.066601,-0.77569306,1.396884,-1.7792987,-0.31651053,-0.037860453,-0.10000868,1.038538,1.1967037
0.0,0.1,1.1999999999999997,0.5235987755982988,0.0,0,0.47565666,-0.43961346,-0.85150295,0.15611605,0.01025839,1.0115135,-0.9186267,1.379829,-1.7983866,-0.31589222,-0.10263857,0.12492776,1.1482548,-1.3410852
0.0,0.1,1.1999999999999997,0.5235987755982988,0.0,0,0.47803503,-0.4391671,-0.85149497,0.07549567,0.018551087,1.1002281,0.0558272,1.4143871,-1.8026621,0.060781136,-0.1210197,0.09889177,1.1310079,-0.29136547
0.0,0.1,1.1999999999999997,0.5235987755982988,0.0,0,0.47668323,-0.43986923,-0.85184354,0.1614686,-0.23274486,1.1150776,0.37030253,1.3785518,-1.7919576,0.060578052,0.034416586,-0.002901534,1.1242756,0.74026
0.0,0.1,1.1999999999999997,0.5235987755982988,0.0,0,0.47961804,-0.4391142,-0.8515151,0.1383637,-0.049414493,1.1231407,-0.19383524,1.4054627,-1.7377259,-0.4595163,-0.091620184,-0.15605366,1.0463091,0.15019867
0.0,0.1,1.1999999999999997,0.5235987755982988,0.0,0,0.47738272,-0.4392823,-0.8503367,0.11208324,-0.26877895,0.9809321,0.20962614,1.3852134,-1.8695254,-0.10747124,0.056027565,0.24262163,1.1370126,0.6034682
0.0,0.1,1.1999999999999997,0.5235987755982988,0.0,0,0.4793261,-0.43903387,-0.8527221,-0.0026331814,-0.20978048,1.0835307,-0.15799415,1.3930689,-1.7881346,-0.2903554,0.01570595,-0.16263895,1.1204041,-0.51984197
0.0,0.1,1.1999999999999997,0.5235987755982988,0.0,0,0.47785646,-0.43973866,-0.8526521,0.060446966,-0.14522168,1.3714004,-0.21443701,1.3875751,-1.829659,0.02446907,-0.1339728,-0.29189572,1.095279,0.4358037
0.0,0.1,1.1999999999999997,0.5235987755982988,0.0,0,0.47779956,-0.4389481,-0.8500619,0.08136427,0.030347886,0.8782204,0.053165503,1.3921574,-1.8133646,-0.49032304,0.004678099,0.21088633,1.1677357,0.6307279
0.0,0.1,1.1999999999999997,0.5235987755982988,0.0,0,0.47565067,-0.43870714,-0.8529446,0.1474745,-0.14389907,0.8781839,0.42690584,1.4132007,-1.8982518,-0.06285315,-0.12529427,-0.12474618,1.1507549,1.1433774
0.0,0.1,1.1999999999999997,0.5235987755982988,0.0,0,0.47710544,-0.43891123,-0.85271513,0.1278556,-0.27796626,1.0631001,-0.7038179,1.368226,-1.8670917,-0.220923,-0.019412989,-0.11455615,1.1746567,0.61584544
0.0,0.1,1.1999999999999997,0.5235987755982988,0.0,0,0.47733074,-0.4394949,-0.8517314,0.034506563,-0.2692651,1.0480824,-0.012687627,1.3750715,-1.8583868,-0.63137203,-0.07026576,0.013777341,1.0577468,-0.10596619
0.0,0.1,1.1999999999999997,0.5235987755982988,0.0,0,0.47942528,-0.4393947,-0.8511908,0.06743406,-0.021470737,1.1144685,0.013228576,1.3749838,-1.8264809,-0.5690594,0.033485338,0.26143435,0.9775546,-0.06645107
0.0,0.1,1.1999999999999997,0.5235987755982988,0.0,0,0.47811317,-0.4392454,-0.85071427,0.06793236,-0.22745396,1.2041807,0.46787512,1.3538859,-1.8529774,-0.26134732,-0.06472234,0.071825676,1.1090707,1.3458136
0.0,0.1,1.1999999999999997,0.5235987755982988,0.0,0,0.47944778,-0.43921915,-0.8492775,0.1367727,-0.42738122,1.0905601,0.3174361,1.3701394,-1.7666392,-0.28083745,-0.117613405,0.02677358,1.195667,0.29609317
0.0,0.1,1.1999999999999997,0.5235987755982988,0.0,0,0.47801262,-0.4393639,-0.85126996,0.078323655,-0.4044278,1.0988843,-0.013633099,1.3951918,-1.7778972,-0.48588324,0.01398818,0.08574703,1.2174879,-0.19791815
0.0,0.1,1.1999999999999997,0.5235987755982988,0.0,0,0.47754958,-0.43958515,-0.85410905,0.036913346,-0.24481669,1.1081706,-0.2031732,1.4040538,-1.8799276,-0.23855646,0.021301437,0.119152926,1.1132209,-0.17989044
0.0,0.1,1.1999999999999997,0.5235987755982988,0.0,0,0.47761554,-0.43970644,-0.8515743,0.087244354,-0.4014935,1.0834907,-0.25551197,1.398535,-1.7959094,0.25490707,-0.12447839,-0.20102094,1.0214785,0.44599003
0.0,0.1,1.1999999999999997,0.5235987755982988,0.0,0,0.4773468,-0.43833944,-0.8504136,0.093124665,0.026620649,1.0783559,-0.40923014,1.4047233,-1.8257068,-0.40946293,-0.09890328,0.2524124,1.1220325,0.97059554
0.0,0.1,1.1999999999999997,0.5235987755982988,0.0,0,0.47698665,-0.439406,-0.84872776,0.035584353,-0.110483,0.8398729,-0.74889314,1.3879799,-1.8943461,0.2715014,-0.052164707,0.063746616,1.2032267,1.8144181
0.0,0.1,1.1999999999999997,0.5235987755982988,0.0,0,0.47983903,-0.44002667,-0.8519745,0.10726375,-0.2663269,0.9328032,0.055060953,1.3701761,-1.7360779,-0.48895347,-0.062726125,0.027518095,1.1736451,0.5617277
0.0,0.1,1.1999999999999997,0.5235987755982988,0.0,0,0.4756333,-0.43976897,-0.8518091,0.11351142,-0.38715,1.0229398,0.3390897,1.3784103,-1.766759,-0.032122046,-0.16623664,0.1309923,1.1035162,-0.32634783
0.0,0.1,1.1999999999999997,0.5235987755982988,0.0,0,0.4779698,-0.43896884,-0.8485766,0.094738826,0.15555514,1.1831534,-0.22664064,1.4031416,-1.7139068,-0.5229718,-0.061711397,-0.26213217,1.1173619,0.558531
0.0,0.1,1.1999999999999997,0.5235987755982988,0.0,0,0.47891203,-0.43972272,-0.85557425,0.17317759,-0.29428896,1.0272536,0.64378405,1.4019735,-1.8657621,-0.12795655,-0.068860434,0.1861386,1.1384363,0.8674069
0.0,0.1,1.1999999999999997,0.5235987755982988,0.0,0,0.47828588,-0.44008303,-0.85345316,0.06916799,-0.6536885,1.1484382,0.1963567,1.382955,-1.9126272,-0.51150024,-0.07230722,0.06848541,1.144782,0.21238616
0.0,0.1,1.1999999999999997,0.5235987755982988,0.0,0,0.4789602,-0.43928206,-0.84962887,0.04683345,0.0053002406,1.044463,0.19121139,1.3982577,-1.8039184,-0.04653451,0.051989984,-0.03281883,1.1159081,-0.09909302
0.0,0.1,1.1999999999999997,0.5235987755982988,0.0,0,0.477453,-0.43943116,-0.8513023,0.15196525,0.099937,1.2724447,-0.41537985,1.4184039,-1.736937,-0.6684933,-0.012231793,0.32484913,1.1373247,1.866632
0.0,0.1,1.1999999999999997,0.5235987755982988,0.0,0,0.47884917,-0.43992928,-0.8544264,0.063987024,0.099320196,1.1812295,0.023652999,1.4004956,-1.8423417,0.0479556,-0.018354598,0.18479827,1.1828142,0.79621494
0.0,0.1,1.1999999999999997,0.5235987755982988,0.0,0,0.47887093,-0.4392056,-0.85146815,0.054459333,-0.162065,1.2413487,-0.05469601,1.4033318,-1.7543375,-0.42626792,0.020988125,0.11510719,1.2134385,-0.19298436
0.0,0.1,1.1999999999999997,0.5235987755982988,0.0,0,0.47826734,-0.43953845,-0.8484717,0.09155597,-0.14906363,1.0959979,0.70465213,1.4103628,-1.814471,-0.51398724,0.055229314,0.24753773,1.1161209,0.65586877
0.0,0.1,1.1999999999999997,0.5235987755982988,0.0,0,0.4786176,-0.43959427,-0.85263205,0.1136093,0.47534326,1.0532624,-0.4056686,1.4098142,-1.838869,-0.29374918,-0.11880288,-0.06334259,1.0479087,0.57226247
0.0,0.1,1.1999999999999997,0.5235987755982988,0.0,0,0.47749704,-0.43944445,-0.8534452,0.10912274,-0.0036725295,0.90561575,0.54363376,1.3747818,-1.8486652,-0.19110638,-0.03636693,-0.3858571,1.2766935,0.594374
0.0,0.1,1.1999999999999997,0.5235987755982988,0.0,0,0.47717652,-0.43880528,-0.8497305,0.10037422,-0.094892405,1.1999321,0.0013679154,1.3767889,-1.8200527,-0.3723559,0.06294969,0.22470862,0.97863066,0.30891737
0.0,0.1,1.1999999999999997,0.5235987755982988,0.0,0,0.47768876,-0.4387921,-0.8521848,0.066044,-0.13884221,0.7912326,-0.6090212,1.4064248,-1.8533716,-1.1247796,-0.14527737,-0.24549614,1.2203076,-0.18494463
0.0,0.1,1.1999999999999997,0.5235987755982988,0.0,0,0.48073757,-0.43946108,-0.8505794,-0.0014560552,0.022042,1.1408873,-0.33009064,1.4353327,-1.8091892,-0.47989437,-0.0715578,0.124779016,1.1808947,0.63869333
0.0,0.1,1.1999999999999997,0.5235987755982988,0.0,0,0.4777256,-0.43950126,-0.852671,0.08953087,0.11796241,0.94298786,0.6361766,1.3805958,-1.7857043,-0.33539966,-0.089985386,0.11025982,1.06752,0.47314018
0.0,0.1,1.1999999999999997,0.5235987755982988,0.0,0,0.4774921,-0.43943304,-0.8505701,0.13679402,-0.16166854,1.1839191,-0.28041905,1.3897126,-1.8351604,-0.48124376,-0.08871896,0.37790754,1.1045222,2.069249
0.0,0.1,1.1999999999999997,0.5235987755982988,0.0,0,0.47941044,-0.43902013,-0.8518802,0.08655525,0.019225877,1.1109332,0.5260717,1.4085675,-1.8047111,-0.41507787,-0.04279418,0.043444145,0.9883102,-1.0587205
0.0,0.1,1.1999999999999997,0.5235987755982988,0.0,0,0.4763884,-0.43886143,-0.854929,0.16828974,-0.55670416,1.1634831,-0.7578924,1.3766054,-1.8299762,-0.6148778,-0.065985814,0.075664975,1.1830671,1.0648533
0.0,0.1,1.1999999999999997,0.5235987755982988,0.0,0,0.48092303,-0.4392008,-0.85176903,0.118941255,-0.49928525,1.079764,-0.5282007,1.3944212,-1.7685257,-0.57737947,0.025451625,-0.17100422,0.9830813,0.6448207
0.0,0.1,1.1999999999999997,0.5235987755982988,0.0,0,0.4773456,-0.43911317,-0.85401106,0.10782804,-0.15626281,1.0191886,0.17023359,1.4141219,-1.7901543,-0.6165277,-0.16367793,0.045376144,1.1628056,-0.80536264
0.0,0.1,1.1999999999999997,0.5235987755982988,0.0,0,0.48054364,-0.43972754,-0.85199213,0.051270187,-0.10789129,1.1046169,0.25810203,1.3770459,-1.7765526,-0.171161,-0.08157745,0.044123825,1.0937357,1.2844226
0.0,0.1,1.1999999999999997,0.5235987755982988,0.0,0,0.47751704,-0.4393251,-0.8532547,0.15737228,-0.3035773,1.0051229,-0.9237875,1.3872137,-1.7244745,-0.23063898,-0.09742735,-0.13577604,1.2368617,1.1725252
0.0,0.1,1.1999999999999997,0.5235987755982988,0.0,0,0.473917,-0.44001123,-0.85384226,0.10340201,-0.14322197,1.3230387,-0.35124123,1.4057689,-1.7764193,-0.22346087,0.03067432,-0.06494657,1.2356386,1.4085486
0.0,0.1,1.1999999999999997,0.5235987755982988,0.0,0,0.47546265,-0.43892297,-0.8558385,0.14120883,0.21910577,1.0395119,0.105944395,1.3856745,-1.8016485,-0.41244602,-0.05893063,-0.07259174,1.1135329,0.5656143
0.0,0.1,1.1999999999999997,0.5235987755982988,0.0,0,0.4785226,-0.43944103,-0.85057235,0.11350779,-0.30463213,0.86152303,0.32134756,1.4116712,-1.6719344,-0.051884294,-0.09936311,0.07249532,1.0511461,-0.38392213
0.0,0.1,1.1999999999999997,0.5235987755982988,0.0,0,0.47762385,-0.43990946,-0.853849,0.2062052,-0.4746348,0.83563244,-0.07760341,1.4212676,-1.7525303,-0.3100155,-0.07469426,0.08759506,1.173089,0.4451663
0.0,0.1,1.1999999999999997,0.5235987755982988,0.0,0,0.48094636,-0.43934426,-0.8522067,0.06518304,-0.36719143,1.0029813,0.010009732,1.3759986,-1.8143915,-0.19187017,0.040932573,0.054220792,1.0954562,-0.07782324
0.0,0.1,1.1999999999999997,0.5235987755982988,0.0,0,0.47672412,-0.43945926,-0.85277367,0.10884703,0.10460769,1.1235696,-0.6770977,1.4179093,-1.8404757,-0.15061088,-0.07515642,0.09193954,1.0829326,2.3957763
0.0,0.1,1.1999999999999997,0.5235987755982988,0.0,0,0.47706246,-0.43958825,-0.8552249,0.14619099,0.08575183,1.0269803,0.06722273,1.3840967,-1.7853473,-0.047648553,-0.0975384,-0.051773757,1.2007202,0.24851167
0.0,0.1,1.1999999999999997,0.5235987755982988,0.0,0,0.47843984,-0.43917584,-0.8540778,0.01851944,-0.17222163,1.1805542,-0.040036295,1.3776351,-1.842539,-0.5589939,-0.07611594,-0.15608591,1.0309883,-0.3726978
0.0,0.1,1.1999999999999997,0.5235987755982988,0.0,0,0.47928262,-0.4393306,-0.85199803,0.14719756,-0.2708986,1.214887,-0.25728554,1.3896395,-1.7801256,-0.09037139,-0.02397762,0.029637612,1.2147515,-0.026290752
0.0,0.1,1.1999999999999997,0.5235987755982988,0.0,0,0.47772947,-0.43966097,-0.8513209,0.05602308,-0.22875053,1.0930116,0.017194273,1.39687,-1.9436827,-0.31704482,-0.07222346,-0.30298623,1.2342752,0.8112743
0.0,0.1,1.1999999999999997,0.5235987755982988,0.0,0,0.4752335,-0.438956,-0.8534607,0.03769687,-0.36918896,1.1137521,-1.5503976,1.4050193,-1.7117361,-0.59468466,-0.0525582,0.14702432,1.1173837,0.427653
0.0,0.1,1.1999999999999997,0.5235987755982988,0.0,0,0.47781074,-0.4394924,-0.85396516,0.12076388,-0.24929659,0.85266674,-0.98859215,1.3830655,-1.7798753,-0.2723514,-0.14904732,-0.025834406,1.0261941,1.3076483
0.0,0.1,1.1999999999999997,0.5235987755982988,0.0,0,0.47822574,-0.4395428,-0.85214967,0.13809498,-0.17628089,1.1544245,1.2005138,1.412916,-1.8287485,-0.06587648,-0.050229486,0.37216207,1.0461793,0.84527504
0.0,0.1,1.1999999999999997,0.5235987755982988,0.0,0,0.47815,-0.43947747,-0.84928256,0.08417516,0.36514056,0.9775076,-0.4629144,1.4153507,-1.8877923,-0.13587765,-0.020353742,0.022707,1.2755346,0.06556378
0.0,0.1,1.1999999999999997,0.5235987755982988,0.0,0,0.47929803,-0.4392404,-0.8510377,0.12665184,0.033123378,1.096406,0.9700363,1.3770397,-1.8323051,-0.46110153,-0.1032596,-0.029681083,1.131678,0.6779306
0.0,0.1,1.1999999999999997,0.5235987755982988,0.0,0,0.4797863,-0.43968013,-0.85202503,0.09525091,-0.14382015,1.1589289,-0.8043511,1.3970938,-1.7132934,-0.30767646,-0.11545666,-0.03659507,1.1348048,0.81495947
0.0,0.1,1.1999999999999997,0.5235987755982988,0.0,0,0.4761542,-0.43991873,-0.85649455,0.07853363,0.014497607,0.93506664,-0.60235786,1.3914093,-1.8360015,-0.30531114,-0.028632881,0.06464926,1.2781162,-0.06579821
0.0,0.1,1.1999999999999997,0.5235987755982988,0.0,0,0.47740772,-0.4395512,-0.8526376,0.080300026,0.098176315,0.9483821,-0.84057367,1.4177033,-1.704933,-0.39194527,-0.08290928,0.08403787,1.2387578,0.34565476
0.0,0.1,1.1999999999999997,0.5235987755982988,0.0,0,0.47552916,-0.4389215,-0.85140747,0.13449886,3.8253265e-06,0.8791613,-0.28931406,1.3986226,-1.7323893,0.025177203,-0.08195179,0.011590875,1.0004036,0.64033073
0.0,0.1,1.1999999999999997,0.5235987755982988,0.0,0,0.47855195,-0.4398289,-0.85217583,0.12057318,-0.20400015,1.024798,0.105159305,1.4061203,-1.7649956,-0.8905318,0.0013342679,0.2813006,0.96848917,0.79951835
0.0,0.1,1.1999999999999997,0.5235987755982988,0.0,0,0.48094824,-0.4398717,-0.8520464,0.06015007,0.024166936,1.2978426,0.08362581,1.4192544,-1.9303145,-0.35638434,-0.031678177,-0.24911226,1.0660592,0.002497788
0.0,0.1,1.1999999999999997,0.5235987755982988,0.0,0,0.4769655,-0.43929535,-0.8536793,0.16305809,0.06254748,1.1632063,1.2133996,1.391909,-1.7984581,-0.49327865,-0.03893685,0.205954,1.1574745,0.6294048
0.0,0.1,1.1999999999999997,0.5235987755982988,0.0,0,0.47770584,-0.43925852,-0.8549078,0.07624997,0.0671249,1.1531247,-0.653413,1.4261218,-1.8106523,-0.48672795,-0.044254735,-0.05539676,1.1074014,-0.006227859
0.0,0.1,1.1999999999999997,0.5235987755982988,0.0,0,0.47650057,-0.43904257,-0.8547433,0.14881794,-0.027408168,1.0070595,-0.083235666,1.410942,-1.8835928,-0.48448485,-0.08711964,0.29225492,1.0707697,-1.1923933
0.0,0.1,1.1999999999999997,0.5235987755982988,0.0,0,0.47937557,-0.43919724,-0.85321885,0.0117148,-0.25926408,1.1487215,-0.31780332,1.4216595,-1.8110155,0.14155585,-0.077478446,0.20811096,1.1561599,0.1601379
0.0,0.1,1.1999999999999997,0.5235987755982988,0.0,0,0.47880065,-0.43942192,-0.85059845,0.08525109,-0.067282215,0.8503916,-0.014359173,1.3873353,-1.720829,0.060795806,-0.035634607,0.30266967,1.1871403,0.85531795
0.0,0.1,1.1999999999999997,0.5235987755982988,0.0,0,0.4766621,-0.43895712,-0.85384446,0.0809477,-0.007347444,0.9013193,-0.34802157,1.4030809,-1.7668239,-0.087171905,-0.12985761,0.096694924,1.1262411,1.0852665
0.0,0.1,1.1999999999999997,0.5235987755982988,0.0,0,0.4769522,-0.43914044,-0.85590744,0.07305813,0.4578583,0.97561616,-0.4286022,1.4363439,-1.8270149,-0.41805968,-0.11287751,0.045975517,1.1497061,0.38022536
0.0,0.1,1.1999999999999997,0.5235987755982988,0.0,0,0.47853994,-0.43967623,-0.85187244,0.18635605,-0.476912,0.918416,-0.46648705,1.413404,-1.8003734,-0.2310507,-0.057749633,-0.27448913,0.97447264,-0.2491382
0.0,0.1,1.1999999999999997,0.5235987755982988,0.0,0,0.47830948,-0.43969098,-0.8514579,0.047807228,0.24105139,1.1655115,0.45392892,1.4218225,-1.8340076,-0.16661003,-0.02894568,-0.08075806,1.0699615,1.0437448
0.0,0.1,1.1999999999999997,0.5235987755982988,0.0,0,0.47874984,-0.43912894,-0.8519217,0.10856511,0.17794652,1.2106302,-0.26203698,1.4262612,-1.8212469,-0.3145362,-0.048755154,-0.15316191,1.1267166,0.25417623
0.0,0.1,1.1999999999999997,0.5235987755982988,0.0,0,0.4759938,-0.43972635,-0.8511773,0.10436846,-0.20393993,0.99978524,-0.027216313,1.3996876,-1.8059742,-0.43223965,-0.032286752,-0.05111967,1.0857673,0.4708299
0.0,0.1,1.1999999999999997,0.5235987755982988,0.0,0,0.47850615,-0.43970275,-0.85512084,0.092681915,-0.20702738,1.3158392,-0.42854905,1.362091,-1.7625632,-0.4622896,-0.041291084,0.09139018,1.0658649,0.29703468
0.0,0.1,1.1999999999999997,0.5235987755982988,0.0,0,0.4770563,-0.43931916,-0.85203147,0.07450067,0.018461594,1.0405531,-0.5213858,1.421635,-1.7242904,-0.29069856,-0.0103258705,-0.14575465,1.1645052,-0.059828974
0.0,0.1,1.1999999999999997,0.5235987755982988,0.0,0,0.47868538,-0.43925357,-0.85335594,0.039600562,0.13216577,0.77679354,0.19366695,1.4198298,-1.7674954,-0.64086735,-0.03829797,-0.0013075308,1.1565971,-0.7878871
0.0,0.1,1.1999999999999997,0.5235987755982988,0.0,0,0.4783894,-0.43907094,-0.85484356,0.09001126,0.021355651,1.1324549,-0.3665819,1.3885325,-1.7208456,-0.46860838,-0.11619601,0.3007019,1.2142775,0.29507148
0.0,0.1,1.1999999999999997,0.5235987755982988,0.0,0,0.4797779,-0.43966803,-0.85120636,0.09983136,-0.2714514,1.0755407,-0.31672114,1.4154648,-1.8236746,-0.42251098,-0.034920856,0.039375357,1.037022,0.72117877
0.0,0.1,1.1999999999999997,0.5235987755982988,0.0,0,0.4776103,-0.43921006,-0.8497785,0.07110338,-0.43303362,1.2018628,0.37276423,1.3974131,-1.8717937,-0.46135262,-0.08863463,0.21677141,1.1816934,-0.30083963
0.0,0.1,1.1999999999999997,0.5235987755982988,0.0,0,0.48169294,-0.43976438,-0.8548325,0.026673846,0.087022625,1.215013,-0.6193474,1.3502164,-1.8787844,-0.11765477,-0.034086112,0.25931215,1.1979452,0.09808798
0.0,0.1,1.1999999999999997,0.5235987755982988,0.0,0,0.47739303,-0.43921855,-0.8506929,0.11040047,-0.1577329,0.91076595,-0.3892113,1.3738194,-1.7748677,-0.2949216,-0.13142473,0.14346015,1.2561748,0.86530596
0.0,0.1,1.1999999999999997,0.5235987755982988,0.0,0,0.48110372,-0.43930128,-0.8526169,0.13088442,-0.30627424,0.9947018,-0.3031499,1.4086659,-1.8904939,-0.55294377,-0.012512521,-0.19242097,1.1527151,0.37346098
0.0,0.1,1.1999999999999997,0.5235987755982988,0.0,0,0.47915438,-0.4389498,-0.8487728,0.10795681,0.07941973,1.155825,-0.54992634,1.40194,-1.8191751,-0.63494,-0.15303534,0.35200536,1.1003133,0.51818967
0.0,0.1,1.1999999999999997,0.5235987755982988,0.0,0,0.47767618,-0.43879765,-0.85355806,0.057950962,0.35486937,0.92809546,-0.30330598,1.3836861,-1.7238353,-0.6626129,-0.04445991,0.21292427,1.1643431,0.11036656
0.0,0.1,1.1999999999999997,0.5235987755982988,0.0,0,0.47849798,-0.43887123,-0.84770906,0.09778361,0.22544368,0.8956393,-0.042585365,1.3719586,-1.6962128,-0.2024149,0.039195254,0.062676206,1.0933292,0.28166583
0.0,0.1,1.1999999999999997,0.5235987755982988,0.0,0,0.47608837,-0.43918797,-0.8533187,0.1342405,0.20744903,1.0843481,0.3680476,1.3957449,-1.7330724,-0.4989079,-0.07519189,-0.29914638,0.98221546,1.5420957
0.0,0.1,1.1999999999999997,0.5235987755982988,0.0,0,0.47806805,-0.43897185,-0.8517393,0.11881208,0.11024006,1.0318211,0.17774841,1.3970397,-1.9050289,-0.5085661,0.04275554,0.112135366,0.97850174,0.64648664
0.0,0.1,1.1999999999999997,0.5235987755982988,0.0,0,0.47770151,-0.43868625,-0.8523916,0.1310262,-0.13984324,0.7624659,-0.48774073,1.3985101,-1.8680347,-0.65421844,-0.055617914,0.043108914,1.1812549,-0.57273227
0.0,0.1,1.1999999999999997,0.5235987755982988,0.0,0,0.47651777,-0.43943977,-0.8526706,0.17837384,-0.14920533,0.96539867,-0.1978787,1.4154798,-1.7087474,-0.15821047,-0.050235096,-0.21131422,1.1148758,1.6557474
0.0,0.1,1.1999999999999997,0.5235987755982988,0.0,0,0.47688955,-0.4393015,-0.85456336,0.08882463,0.1924594,1.1460806,-0.53357303,1.4083253,-1.8847377,-0.11095439,0.03617499,-0.021360442,1.1979066,0.9450173
0.0,0.1,1.1999999999999997,0.5235987755982988,0.0,0,0.47864205,-0.43966272,-0.854212,0.069521256,0.11667098,1.1600106,0.1440048,1.4097376,-1.7856928,-0.34314936,0.0003941141,-0.048864845,1.0575457,1.4647926
0.0,0.1,1.1999999999999997,0.5235987755982988,0.0,0,0.47817326,-0.4397386,-0.85186315,0.101555295,0.19116147,1.1260335,0.13388719,1.3669027,-1.8348868,-0.22310106,-0.04284455,-0.06922253,0.97619534,1.7664664
0.0,0.1,1.1999999999999997,0.5235987755982988,0.0,0,0.47874755,-0.43946582,-0.85034335,0.08211002,-0.13344115,0.9299665,0.3099259,1.3710418,-1.8646022,0.028446896,-0.06743277,-0.058088753,1.1744131,0.014754348
0.0,0.1,1.1999999999999997,0.5235987755982988,0.0,0,0.4787513,-0.43886873,-0.85179347,0.07984709,-0.19374436,0.8879264,-0.12908857,1.3862239,-1.7948576,-0.10369698,0.008536044,0.13965765,1.1721017,0.6120589
0.0,0.1,1.1999999999999997,0.5235987755982988,0.0,0,0.47714737,-0.43930694,-0.85556895,0.11105019,-0.19384825,0.9234922,0.18079765,1.4241873,-1.8786311,-0.678329,-0.059170824,0.28454572,1.2614571,0.2657733
0.0,0.1,1.1999999999999997,0.5235987755982988,0.0,0,0.4805787,-0.43975517,-0.8503591,0.09457725,-0.15344983,1.0585119,0.11795584,1.4045477,-1.7818819,-0.6296097,0.04640549,0.066929676,1.1485913,0.53084254
0.0,0.1,1.1999999999999997,0.5235987755982988,0.0,0,0.47972792,-0.43917298,-0.84919107,0.16975039,-0.23019263,1.0347602,-0.8624198,1.4052902,-1.8218842,-0.707445,-0.062345527,0.20927364,1.1410847,-0.039520048
0.0,0.1,1.1999999999999997,0.5235987755982988,0.0,0,0.47784346,-0.4396524,-0.8523188,0.1030764,0.021311076,1.1423495,0.019572359,1.4047742,-1.7051939,-0.39867234,-0.103499725,0.21053988,1.2506433,-0.0628545
0.0,0.1,1.1999999999999997,0.5235987755982988,0.0,0,0.4796881,-0.4396422,-0.8498343,0.024833169,-0.5422825,1.0159714,0.3206615,1.4209173,-1.8023307,-0.0080152955,0.025386173,-0.07210506,1.1099211,0.56018037
0.0,0.1,1.1999999999999997,0.5235987755982988,0.0,0,0.47842464,-0.4398123,-0.8511358,0.10461932,-0.089420035,0.9918357,0.5377886,1.4106839,-1.8449113,-0.5587468,-0.019120783,-0.29139826,1.0275745,-0.5568332
0.0,0.1,1.1999999999999997,0.5235987755982988,0.0,0,0.47974408,-0.43967617,-0.85291636,0.05194809,-0.026252473,1.0266731,-0.1371094,1.3895338,-1.8417634,-0.4469373,-0.04015718,-0.32878852,1.0986742,-0.7828608
0.0,0.1,1.1999999999999997,0.5235987755982988,0.0,0,0.47912315,-0.43979442,-0.8492979,0.047279052,0.3450346,1.034645,-0.37772426,1.4027952,-1.8487592,-0.6024798,-0.05992298,-0.21618645,1.1657314,-0.03167535
0.0,0.1,1.1999999999999997,0.5235987755982988,0.0,0,0.47878882,-0.43909478,-0.85413253,0.07143653,0.38717428,1.1391687,0.40805212,1.4352235,-1.8205097,-0.612494,-0.038225975,0.033144176,1.0262992,1.5618702
0.0,0.1,1.1999999999999997,0.5235987755982988,0.0,0,0.4772886,-0.440083,-0.84962356,0.1387505,-0.14265549,1.1738614,0.10759016,1.3946785,-1.829371,-0.3987548,-0.07823259,-0.2596445,1.0287851,0.5169431
0.0,0.1,1.1999999999999997,0.5235987755982988,0.0,0,0.47850087,-0.4391868,-0.8541797,0.07460586,-0.3127854,0.7709012,-0.029123155,1.4227543,-1.7622061,-0.18579003,-0.07457287,-0.061902024,1.181726,0.86816573
0.0,0.1,1.1999999999999997,0.5235987755982988,0.0,0,0.47533193,-0.43962023,-0.85283774,0.1132569,-0.010181488,0.9289798,-0.3919587,1.3830798,-1.8013266,-0.45172206,-0.110929035,0.07614515,1.0795629,0.4526401
0.0,0.1,1.1999999999999997,0.5235987755982988,0.0,0,0.47780037,-0.4398847,-0.8519372,0.13090661,-0.26381645,1.168236,-0.09659652,1.4185542,-1.897854,0.12494704,-0.05415015,0.07182402,1.253344,0.68832684
0.0,0.1,1.1999999999999997,0.5235987755982988,0.0,0,0.4763331,-0.43915275,-0.85341924,0.16771038,-0.13611518,0.9157546,-0.34520814,1.3813946,-1.7503476,-0.53799766,0.013679926,-0.1361125,1.0406913,1.5684663
0.0,0.1,1.1999999999999997,0.5235987755982988,0.0,0,0.47742242,-0.43956608,-0.8522098,0.13346277,-0.1233256,0.9169611,0.57199985,1.3842248,-1.8608223,-0.65434045,-0.1316293,-0.250257,1.1632506,-0.014482886
0.0,0.1,1.1999999999999997,0.5235987755982988,0.0,0,0.47967687,-0.43887356,-0.8524091,0.040229924,-0.10088605,0.9240651,-1.1381007,1.4047672,-1.7982914,-0.055237357,-0.0057239225,0.342113,1.0803878,0.6035189
0.0,0.1,1.1999999999999997,0.5235987755982988,0.0,0,0.48054734,-0.43935034,-0.8527256,0.0803128,-0.21220465,0.9653242,-0.83715636,1.4024222,-1.804412,-0.28948116,-0.04274696,-0.011288017,1.0991443,1.2043134
0.0,0.1,1.1999999999999997,0.5235987755982988,0.0,0,0.47816628,-0.43887693,-0.8517002,0.09897543,-0.033175543,1.0150926,-0.8302973,1.3671905,-1.772592,-0.50111914,0.003169617,0.055681955,1.2237692,-0.53081745
0.0,0.1,1.1999999999999997,0.5235987755982988,0.0,0,0.47752225,-0.43904367,-0.8508332,0.071638025,0.075621255,1.061906,-0.35766742,1.3791082,-1.8829178,-0.6462179,-0.09587633,-0.027438134,1.1811558,-0.40091112
0.0,0.1,1.1999999999999997,0.5235987755982988,0.0,0,0.47831774,-0.43933433,-0.8505037,0.113267206,0.1131145,1.2100427,-1.14069,1.4082907,-1.756546,-0.18779097,0.043304157,-0.05036516,1.1813065,0.3541644
0.0,0.1,1.1999999999999997,0.5235987755982988,0.0,0,0.4787079,-0.43978414,-0.8522502,0.12384265,-0.18265893,1.08301,-0.4859253,1.3961211,-1.8301737,-0.05502028,-0.02759913,-0.13578479,1.3204228,-0.08966365
0.0,0.1,1.1999999999999997,0.5235987755982988,0.0,0,0.47921762,-0.43910998,-0.8526764,0.027645614,-0.27987072,1.1259296,-0.4987088,1.3874595,-1.8788875,-0.2937898,-0.065602265,-0.20807989,1.1478041,-0.56548095
0.0,0.1,1.1999999999999997,0.5235987755982988,0.0,0,0.4779427,-0.43895426,-0.851673,0.17486925,0.14529413,0.8476824,-0.05857446,1.4040382,-1.9114324,-0.104230195,-0.07032986,-0.023072839,1.0798537,0.1969789
0.0,0.1,1.1999999999999997,0.5235987755982988,0.0,0,0.48105374,-0.43964034,-0.8535075,0.120949335,-0.19090305,0.9593135,-0.70998675,1.3694513,-1.7196075,-0.27738914,-0.064458154,-0.012214314,1.1725525,-0.55264336
0.0,0.1,1.1999999999999997,0.5235987755982988,0.0,0,0.47851968,-0.43960598,-0.8527926,0.06748409,0.53498054,1.0415376,0.49221572,1.3599441,-1.7631149,-0.8577066,-0.0991437,0.30257294,1.0778757,1.8242373
0.0,0.1,1.1999999999999997,0.5235987755982988,0.0,0,0.47883883,-0.44014344,-0.8529004,0.09437196,0.031276207,1.2092599,-0.18416226,1.382158,-1.8147249,-0.59325737,-0.023463238,0.16131753,1.0303226,1.1635188
0.0,0.1,1.1999999999999997,0.5235987755982988,0.0,0,0.47811458,-0.4394153,-0.85310465,0.1642516,0.020681312,0.9239458,1.0408711,1.4073355,-1.8456161,-0.36160704,-0.018451253,0.13188368,1.020237,1.7359315
0.0,0.1,1.1999999999999997,0.5235987755982988,0.0,0,0.47869384,-0.43983185,-0.8503312,0.06810545,-0.18200098,1.128821,-0.07434526,1.3953167,-1.8254935,-0.4716015,-0.089490436,0.07679,1.1241479,1.0366317
0.0,0.1,1.1999999999999997,0.5235987755982988,0.0,0,0.4766511,-0.4391683,-0.8529907,0.15615223,0.04693422,0.89804333,0.12331894,1.3918667,-1.8699831,-0.24570294,-0.06559895,0.49445495,1.246699,-0.18813942
0.0,0.1,1.1999999999999997,0.5235987755982988,0.0,0,0.48008484,-0.43928772,-0.8512787,0.16157071,-0.29522926,0.94473714,-0.3434353,1.3981377,-1.881883,-0.81772083,-0.082764514,-0.15013109,1.0207928,0.18482198
0.0,0.1,1.1999999999999997,0.5235987755982988,0.0,0,0.47855014,-0.43971458,-0.8519816,0.0745288,0.05861524,1.0896169,-0.534353,1.3865088,-1.7460843,-0.14567646,0.024221385,-0.17493986,0.95323294,-0.3558817
0.0,0.1,1.1999999999999997,0.5235987755982988,0.0,0,0.47729957,-0.43931213,-0.8546292,0.059687544,0.35481682,1.0689509,0.88661075,1.3842833,-1.785267,-0.29598302,-0.113932416,-0.032591242,1.1089538,0.5866298
0.0,0.1,1.1999999999999997,0.5235987755982988,0.0,0,0.48019215,-0.44007796,-0.8510644,0.11513192,-0.36066908,1.208466,-0.23050524,1.3957213,-1.9370793,-0.24283446,-0.099859916,-0.25437185,1.2638309,-0.66432303
0.0,0.1,1.1999999999999997,0.5235987755982988,0.0,0,0.48045304,-0.43987447,-0.8504517,0.06739763,-0.12386681,1.0374963,-0.38085073,1.3686484,-1.8793207,0.14242187,-0.10886676,-0.04658511,1.2744588,0.8755416
0.0,0.1,1.1999999999999997,0.5235987755982988,0.0,0,0.47733352,-0.4396426,-0.85212314,0.085364096,0.06308354,1.0544752,0.088578366,1.4025645,-1.752917,-0.25780085,-0.0042114416,-0.24156514,1.1494982,1.2387192
0.0,0.1,1.1999999999999997,0.5235987755982988,0.0,0,0.47624096,-0.43956223,-0.85019624,0.12395518,0.3994408,1.113185,-0.45715612,1.3985264,-1.9066852,-0.54693073,0.06948145,0.31144798,1.2375679,1.171728
0.0,0.1,1.1999999999999997,0.5235987755982988,0.0,0,0.4804861,-0.439551,-0.8519532,0.20117494,-0.27773052,1.1598943,-0.11562186,1.4021728,-1.8189471,0.16531695,-0.049500473,-0.23013496,1.1168898,0.11508405
0.0,0.1,1.1999999999999997,0.5235987755982988,0.0,0,0.4784126,-0.43943623,-0.852132,0.15001406,-0.06939195,1.1383585,-0.1468995,1.40453,-1.8340808,-0.615761,-0.1543625,-0.08814932,1.1387672,0.7821117
0.0,0.1,1.1999999999999997,0.5235987755982988,0.0,0,0.47869232,-0.43916538,-0.85129756,0.12813786,0.087021716,1.1617802,-0.33705705,1.3659738,-1.8194432,-0.35685554,-0.018610356,-0.022531984,1.0884476,-0.130753
0.0,0.1,1.1999999999999997,0.5235987755982988,0.0,0,0.47939688,-0.43878764,-0.8523591,0.11626232,0.06734217,0.82863164,0.3421925,1.3870994,-1.7763666,-0.33168954,-0.118801095,0.23844779,1.0700116,0.9328157
0.0,0.1,1.1999999999999997,0.5235987755982988,0.0,0,0.48022473,-0.4393911,-0.85142654,0.14399251,0.3940324,1.2501369,-0.35612795,1.408514,-1.8740262,-0.31173095,-0.0520127,0.35773116,1.0972109,1.1317999
0.0,0.1,1.1999999999999997,0.5235987755982988,0.0,0,0.4765125,-0.4388966,-0.84980935,0.14768942,0.2332904,1.0464795,-1.033984,1.4050647,-1.8854729,-0.36389697,0.0026025537,-0.19419159,1.1292324,1.7543828
0.0,0.1,1.1999999999999997,0.5235987755982988,0.0,0,0.47802553,-0.43933728,-0.85305226,0.11542259,-0.021486191,0.8246929,-0.6882886,1.395424,-1.7950594,0.046577416,0.048891086,0.038028557,1.1571543,1.1329052
0.0,0.1,1.1999999999999997,0.5235987755982988,0.0,0,0.4806539,-0.43905514,-0.85099405,0.08416651,0.15756503,1.1363626,0.2379012,1.3928452,-1.8874145,-0.20732969,-0.10659014,-0.25133803,1.0901401,1.8002206
0.0,0.1,1.1999999999999997,0.5235987755982988,0.0,0,0.47818783,-0.4389637,-0.8511041,0.15194471,0.06351424,0.96812946,-0.008845791,1.3884771,-1.8438016,-0.48538423,-0.11388159,-0.05204303,1.1281338,1.4053285
0.0,0.1,1.1999999999999997,0.5235987755982988,0.0,0,0.47895002,-0.43966708,-0.85275704,0.09386481,-0.08070735,0.9433518,0.19739895,1.409729,-1.8069626,-0.30714473,-0.12610073,-0.11245906,1.1337005,0.26214215
0.0,0.1,1.1999999999999997,0.5235987755982988,0.0,0,0.4794941,-0.43950996,-0.85250294,0.09226469,0.106391914,1.1410388,0.035611775,1.3664718,-1.8354044,-0.48787868,-0.121354625,-0.021553742,1.3543688,-0.17478079
0.0,0.1,1.1999999999999997,0.5235987755982988,0.0,0,0.47846445,-0.43931606,-0.84903246,0.08132001,-0.09517583,0.90734756,0.09361362,1.3783934,-1.8365902,-0.8113525,-0.0862325,-0.15767455,1.282394,0.43880913
0.0,0.1,1.1999999999999997,0.5235987755982988,0.0,0,0.47769725,-0.43891197,-0.853197,0.06678006,0.2721982,0.9793055,-0.5559938,1.4294118,-1.9127975,0.022911148,-0.058769476,0.10279934,1.1759548,-0.19619498
0.0,0.1,1.1999999999999997,0.5235987755982988,0.0,0,0.4782882,-0.43909267,-0.8522214,0.17191929,0.48242703,1.0468208,-0.32034943,1.3993844,-1.8065478,-0.18129383,-0.13944387,0.0042026993,1.182337,1.6178696
0.0,0.1,1.1999999999999997,0.5235987755982988,0.0,0,0.4795991,-0.4400282,-0.852218,0.11184347,-0.024014074,1.0454305,0.2433924,1.4121813,-1.796706,-0.053443924,-0.15969792,0.033796664,1.1984704,-0.84497416
0.0,0.1,1.1999999999999997,0.5235987755982988,0.0,0,0.47861695,-0.43943474,-0.85610163,0.14952789,0.098968685,0.97408736,0.40686676,1.3895123,-1.8259335,-0.2822766,-0.0020229279,-0.24309844,1.1038953,0.93609977
0.0,0.1,1.1999999999999997,0.5235987755982988,0.0,0,0.4772762,-0.43947163,-0.85297865,0.10991681,0.31261662,1.0717586,-0.15894315,1.411995,-1.8821855,-0.057118926,-0.11044994,0.056178547,1.1104169,0.5938578
0.0,0.1,1.1999999999999997,0.5235987755982988,0.0,0,0.47844407,-0.43894586,-0.8529789,0.11812735,0.22158216,0.98500586,-0.7472835,1.4120988,-1.8710502,-0.12013585,-0.013586076,0.06068358,1.1019484,-1.0034463
0.0,0.1,1.1999999999999997,0.5235987755982988,0.0,0,0.4794833,-0.4395654,-0.8565733,0.13408907,-0.2314639,0.8461361,-0.3546476,1.3811331,-1.7954687,-0.2503794,-0.06862738,0.2263586,1.0252244,0.5536097
0.0,0.1,1.1999999999999997,0.5235987755982988,0.0,0,0.47828346,-0.4394061,-0.85548186,0.10340629,0.29674646,1.0431643,-0.332948,1.3812135,-1.757931,-0.3084498,-0.16896749,-0.1624559,1.1529449,1.1700075
0.0,0.1,1.1999999999999997,0.5235987755982988,0.0,0,0.47715268,-0.43954298,-0.85340893,0.15794617,0.019337583,0.93826514,0.3739716,1.3867562,-1.8447626,-0.2921461,-5.9437378e-05,0.07078646,1.2686884,-0.22872575
0.0,0.1,1.1999999999999997,0.5235987755982988,0.0,0,0.47642735,-0.4397769,-0.85089463,0.09718255,0.049689237,0.9410175,0.33263215,1.4110245,-1.7298096,-0.4581025,-0.0023930909,0.056737863,1.1164721,0.07465946
0.0,0.1,1.1999999999999997,0.5235987755982988,0.0,0,0.47784477,-0.43920773,-0.85757273,0.06292108,0.26890647,1.1242647,0.53011906,1.4195461,-1.870854,-0.5705955,-0.11328257,0.08833065,1.124695,-0.8956882
0.0,0.1,1.1999999999999997,0.5235987755982988,0.0,0,0.47735992,-0.4390703,-0.8498804,0.09310841,0.054132324,0.91027856,-0.6015542,1.3941832,-1.8050705,-0.19253941,-0.054225005,-0.12033917,1.0955763,1.0136424
0.0,0.1,1.1999999999999997,0.5235987755982988,0.0,0,0.47827786,-0.43952885,-0.8504014,0.114903316,-0.10294524,0.8924169,0.22776532,1.3705856,-1.793371,-0.29447296,-0.023091828,0.2045602,1.087742,1.2239975
0.0,0.1,1.1999999999999997,0.5235987755982988,0.0,0,0.47851416,-0.43940678,-0.8532983,0.07264059,-0.093257785,0.8961459,-0.5532233,1.4096874,-1.7938082,-0.6095962,-0.096567556,-0.24751402,1.1657761,0.81805724
0.0,0.1,1.1999999999999997,0.5235987755982988,0.0,0,0.47873825,-0.43984655,-0.8509674,0.12251712,-0.0057644574,1.0837013,-0.16273335,1.3984227,-1.8041984,-0.46080136,0.035520434,0.048484508,1.1539552,0.4642661
0.0,0.1,1.1999999999999997,0.5235987755982988,0.0,0,0.47805238,-0.43893087,-0.85151255,0.13111551,-0.15792577,0.9880543,0.051759854,1.38156,-1.9024622,-0.5942427,-0.027478563,0.19210309,1.1351539,0.5860687
0.0,0.1,1.1999999999999997,0.5235987755982988,0.0,0,0.4777966,-0.43948382,-0.85003823,0.1384782,0.0771518,0.9882577,0.25181022,1.3441571,-1.8920686,-0.575886,0.019929346,-0.020218782,1.0589457,1.0686353
0.0,0.1,1.1999999999999997,0.5235987755982988,0.0,0,0.47838125,-0.43966663,-0.8501961,0.080608584,0.10731358,0.9341797,-0.61528134,1.4107684,-1.784924,-0.16229115,-0.081251904,0.25410512,1.088826,1.0518848
0.0,0.1,1.1999999999999997,0.5235987755982988,0.0,0,0.47786134,-0.43955252,-0.8533307,0.09763712,-0.09690317,0.9028444,-1.0118395,1.3886333,-1.6987141,-0.20350772,-0.003610283,-0.040841546,1.196286,1.078232
0.0,0.1,1.1999999999999997,0.5235987755982988,0.0,0,0.47870144,-0.4397686,-0.8533871,0.10322226,0.061615642,1.0920719,-0.09825186,1.3901298,-1.803032,-0.49562475,-0.05221787,0.30934635,1.132422,1.343225
0.0,0.1,1.1999999999999997,0.5235987755982988,0.0,0,0.47942662,-0.4398654,-0.8526624,0.1469277,-0.08243908,1.0921308,-0.45624495,1.4180562,-1.8412305,-0.41265273,-0.03916038,0.01948165,1.0793784,0.7950841
0.0,0.1,1.1999999999999997,0.5235987755982988,0.0,0,0.47665662,-0.43907267,-0.8525183,0.14429125,-0.07852176,1.0547491,-0.49331847,1.3992156,-1.8123407,-0.2706743,-0.16398463,0.110920034,1.178642,0.36517608
0.0,0.1,1.1999999999999997,0.5235987755982988,0.0,0,0.48009393,-0.43983912,-0.85654503,0.078715935,0.4326411,1.0546445,0.25078598,1.3775238,-1.896444,-0.4206043,-0.122339115,-0.121072,1.1278775,0.82594717
0.0,0.1,1.1999999999999997,0.5235987755982988,0.0,0,0.47864902,-0.43944076,-0.8529759,0.14947093,0.045500413,1.1773349,-0.7553829,1.3944402,-1.7783701,-0.3430012,-0.03168823,0.09112824,1.2636589,-0.045853794
0.0,0.1,1.1999999999999997,0.5235987755982988,0.0,0,0.4795788,-0.439378,-0.85359246,0.14997636,-0.012542476,1.037248,-0.10607432,1.3531092,-1.853716,-0.20054556,-0.029497638,-0.09906368,1.1768657,-0.1236612
0.0,0.1,1.1999999999999997,0.5235987755982988,0.0,0,0.47797632,-0.43995807,-0.8524515,0.15359752,0.23112877,1.2084806,-1.1086179,1.4264892,-1.7987924,-0.2321627,-0.1106446,-0.03495071,1.3156197,0.32881722
0.0,0.1,1.1999999999999997,0.5235987755982988,0.0,0,0.48090574,-0.44025835,-0.8528879,0.102878615,-0.021540467,1.2145083,-0.20149766,1.3943752,-1.7802513,-0.2579313,-0.10367506,-0.098805994,1.1333563,1.847647
0.0,0.1,1.1999999999999997,0.5235987755982988,0.0,0,0.48064005,-0.43960956,-0.84949225,0.06795532,0.19895057,1.0269347,0.14440551,1.4172512,-1.8943747,-0.36643335,0.0247415,0.137411,1.3248986,0.7075079
0.0,0.1,1.1999999999999997,0.5235987755982988,0.0,0,0.47977135,-0.43905324,-0.8527943,0.13072635,-0.00025782868,0.9907819,-0.26801288,1.4008826,-1.8788948,-0.40553346,-0.048012607,0.07381978,1.1276599,1.1226752
0.0,0.1,1.1999999999999997,0.5235987755982988,0.0,0,0.4808595,-0.43898836,-0.8573596,0.10779734,0.07992311,0.9125098,-0.8788621,1.400467,-1.8033907,-0.1372938,-0.042919658,0.033010866,1.219718,0.39016533
0.0,0.1,1.1999999999999997,0.5235987755982988,0.0,0,0.47907993,-0.43918073,-0.8534097,0.16600594,-0.15121904,1.0599931,0.6134216,1.4174111,-1.8077143,-0.4316525,-0.09448701,0.27373466,1.0857942,-0.29966417
0.0,0.1,1.1999999999999997,0.5235987755982988,0.0,0,0.4789428,-0.43865934,-0.8529002,0.1268224,-0.055774372,1.1508462,-0.5798292,1.3763609,-1.8607523,-0.22174177,-0.037893295,-0.1611989,1.0077862,0.60192376
0.0,0.1,1.1999999999999997,0.5235987755982988,0.0,0,0.477887,-0.43901986,-0.85395634,0.03643698,-0.28758913,0.8382279,-1.4635532,1.4009799,-1.8007171,-0.7351339,0.051637292,-0.027806493,1.0306486,-0.4287074
0.0,0.1,1.1999999999999997,0.5235987755982988,0.0,0,0.47632632,-0.4396781,-0.8538806,0.041478146,-0.077176884,0.84306914,-0.67094624,1.4101052,-1.7594163,-0.6638774,-0.048617,0.43720385,1.118243,1.5276098
0.0,0.1,1.1999999999999997,0.5235987755982988,0.0,0,0.47872105,-0.4390776,-0.8550141,0.089523226,0.20030633,1.1192698,-0.92037547,1.3922889,-1.8942279,-0.09036441,-0.060936972,-0.18649778,1.0508082,0.882572
0.0,0.1,1.1999999999999997,0.5235987755982988,0.0,0,0.47757506,-0.4394944,-0.8525679,0.12384725,0.11269301,0.837606,-0.8430812,1.3695732,-1.8176631,-0.26719448,-0.13963786,-0.077204615,1.2030246,0.34693235
0.0,0.1,1.1999999999999997,0.5235987755982988,0.0,0,0.47649297,-0.4386132,-0.8524491,0.05532771,-0.19638953,1.0130086,0.30101603,1.4240913,-1.800999,-0.2670514,-0.052905638,0.27664444,1.2929378,-0.48560697
0.0,0.1,1.1999999999999997,0.5235987755982988,0.0,0,0.47693986,-0.4400963,-0.85239786,0.17475167,-0.118474506,1.0756348,1.0277234,1.3846238,-1.8403105,-0.46871698,-0.0893098,-0.093862206,1.1125644,-0.61719036
0.0,0.1,1.1999999999999997,0.5235987755982988,0.0,0,0.47788215,-0.43986624,-0.85114,0.0031555574,-0.21240135,0.9807779,0.031542044,1.4021354,-1.8429867,-0.3451871,-0.07433662,-0.110499494,1.0721194,0.80387914
0.0,0.1,1.1999999999999997,0.5235987755982988,0.0,0,0.47602174,-0.4402431,-0.8527686,0.024912959,0.05575236,0.8533974,0.47879037,1.4105929,-1.7978114,-0.48680598,-0.0998695,0.040051192,1.1817167,0.20281564
0.0,0.1,1.1999999999999997,0.5235987755982988,0.0,0,0.47712454,-0.4398646,-0.85346615,0.08519199,-0.13618912,0.9945143,0.5300037,1.4161879,-1.8577226,-0.03950741,-0.12356145,-0.16107322,1.1768258,0.49928066
0.0,0.1,1.1999999999999997,0.5235987755982988,0.0,0,0.47716975,-0.43950948,-0.85081685,0.20170346,0.119994305,0.8620043,0.58652097,1.4055289,-1.7711072,-0.030815091,-0.08157252,0.13235845,1.1949075,0.95586866
0.0,0.1,1.1999999999999997,0.5235987755982988,0.0,0,0.47602212,-0.43969128,-0.8483548,0.12484251,-0.043764163,1.0858101,-0.7108838,1.420171,-1.7881337,-0.2871747,-0.10892672,0.45257053,1.2688924,0.9229731
0.0,0.1,1.1999999999999997,0.5235987755982988,0.0,0,0.47907394,-0.43958706,-0.85272175,0.08879464,0.23554909,1.130706,-0.3234529,1.3630881,-1.8337123,-0.74661845,-0.053873923,-0.23168863,1.2991307,-0.272656
0.0,0.1,1.1999999999999997,0.5235987755982988,0.0,0,0.4785207,-0.43942723,-0.85336787,0.103952296,0.24025375,1.0038855,-0.063133895,1.4128734,-1.7841359,-0.19312619,0.035807382,-0.019150784,1.0563204,-0.23926257
0.0,0.1,1.1999999999999997,0.5235987755982988,0.0,0,0.47511205,-0.4388934,-0.85093534,0.100472055,-0.09955229,1.0606391,0.19549868,1.4010705,-1.8252493,-0.38458562,-0.09422542,-0.42393795,1.1018138,0.54789144
0.0,0.1,1.1999999999999997,0.5235987755982988,0.0,0,0.4795166,-0.43932316,-0.8533247,0.079320885,-0.17387448,1.1677961,-0.21769111,1.3827899,-1.8036811,0.02119058,0.0038025163,0.13331333,1.1443393,0.8357286
0.0,0.1,1.1999999999999997,0.5235987755982988,0.0,0,0.47949818,-0.4392658,-0.84963864,0.12148944,-0.43520445,1.1344911,-0.6859397,1.3945649,-1.8718883,-0.695555,-0.052346505,-0.15712544,1.1131068,0.11283687
0.0,0.1,1.1999999999999997,0.5235987755982988,0.0,0,0.47718352,-0.43976462,-0.85432446,0.016187083,0.119174555,1.0103152,0.16213965,1.3741575,-1.828848,-0.111600205,-0.12569994,-0.014157226,1.2037269,-0.41799292
0.0,0.1,1.1999999999999997,0.5235987755982988,0.0,0,0.4780478,-0.43913352,-0.85281837,0.10642952,0.04675751,0.8348039,0.36032373,1.3832333,-1.8453203,-0.4586125,-0.07376289,0.15924244,1.1925775,0.26083675
0.0,0.1,1.1999999999999997,0.5235987755982988,0.0,0,0.47734016,-0.44059375,-0.85497314,0.09186244,-0.0666955,1.1138254,-0.5778724,1.419216,-1.83597,-0.53608096,-0.025289848,0.17179261,1.0287105,-1.7676717
0.0,0.1,1.1999999999999997,0.5235987755982988,0.0,0,0.47399607,-0.439376,-0.85015506,0.099513344,-0.25451902,1.091078,-0.6251529,1.3858231,-1.8347422,-0.38638988,-0.10807211,0.31948006,1.1411169,1.3487875
0.0,0.1,1.1999999999999997,0.5235987755982988,0.0,0,0.47854534,-0.43930662,-0.85059017,0.09631703,-0.44903395,1.0162991,0.012937156,1.4073893,-1.8209028,0.18681128,-0.002654939,-0.09304612,1.2279005,0.9996393
0.0,0.1,1.1999999999999997,0.5235987755982988,0.0,0,0.4776911,-0.43993342,-0.8503124,0.1954308,-0.07289186,1.2026441,-0.8379223,1.4249138,-1.7671427,-0.37556443,-0.092630364,-0.15022613,0.9940138,1.1706895
0.0,0.1,1.1999999999999997,0.5235987755982988,0.0,0,0.47647175,-0.43959403,-0.85158,0.040355824,-0.009804537,1.0256296,-1.1859839,1.3924103,-1.8632497,-0.39976668,-0.08172989,0.057616115,1.1503153,0.4002827
0.0,0.1,1.1999999999999997,0.5235987755982988,0.0,0,0.47671586,-0.43976483,-0.8508356,0.11334747,0.21968238,1.0024695,0.089646235,1.3944134,-1.7999908,-0.40996534,-0.005114969,-0.17203334,1.007623,0.15041058
0.0,0.1,1.1999999999999997,0.5235987755982988,0.0,0,0.47708312,-0.43973356,-0.8519036,0.15643075,0.21407932,1.1480738,0.27840602,1.4131385,-1.853592,-0.19029623,-0.05021343,-0.14296867,1.1944264,1.0098723
0.0,0.1,1.1999999999999997,0.5235987755982988,0.0,0,0.47498763,-0.43896443,-0.8506033,0.08444193,0.24666616,0.9887816,0.47172976,1.3793235,-1.7992202,-0.1908794,-0.20360786,0.21288906,1.2019602,-0.20449166
0.0,0.1,1.1999999999999997,0.5235987755982988,0.0,0,0.478554,-0.44017094,-0.85159457,0.03835212,0.31131312,0.854828,0.103808045,1.4123139,-1.8763328,-0.16115455,-0.01721879,0.017077075,1.0501425,0.43320128
0.0,0.1,1.1999999999999997,0.5235987755982988,0.0,0,0.48001087,-0.43942752,-0.8537891,0.15102158,-0.5268952,1.0271597,-0.98654723,1.3813565,-1.9598178,-0.09040302,-0.028646337,-0.28968424,1.2171808,2.0386794
0.0,0.1,1.1999999999999997,0.5235987755982988,0.0,0,0.47950378,-0.43903202,-0.8539575,0.050261244,-0.1919908,0.98861355,-0.26597667,1.3839922,-1.7679701,-0.68934923,-0.027492028,0.14593267,1.1701325,0.116861604
0.0,0.1,1.1999999999999997,0.5235987755982988,0.0,0,0.4784339,-0.44044358,-0.8532193,0.10627248,-0.258534,1.056988,-0.7410936,1.409314,-1.7942258,-0.35640723,0.02012813,0.22923101,1.0793957,0.29197145
0.0,0.1,1.1999999999999997,0.5235987755982988,0.0,0,0.47904512,-0.43935984,-0.8526597,0.057788067,-0.2326961,1.1673442,0.634438,1.3749278,-1.8975393,-0.45184785,-0.04503452,-0.17906411,1.1412622,0.68186265
0.0,0.1,1.1999999999999997,0.5235987755982988,0.0,0,0.48082334,-0.43926334,-0.8550431,0.115934454,0.16231349,0.7768651,-0.4724499,1.4183306,-1.7186737,-0.5729581,-0.12572013,0.07896379,1.0221548,1.6685075
0.0,0.1,1.1999999999999997,0.5235987755982988,0.0,0,0.47591856,-0.43993625,-0.8560783,0.117940344,-0.040852174,0.9151387,-0.5127113,1.3985704,-1.7692423,-0.4197587,-0.014858221,-0.21668325,0.9182513,0.30013457
0.0,0.1,1.1999999999999997,0.5235987755982988,0.0,0,0.47648293,-0.4390782,-0.85371155,0.17045413,0.06545861,1.1071024,0.34670058,1.4212123,-1.7673304,-0.55508655,-0.090858065,1.0394472e-06,1.0603566,0.8367676
0.0,0.1,1.1999999999999997,0.5235987755982988,0.0,0,0.4782875,-0.4398312,-0.8503441,0.118410386,-0.3378281,1.1007483,0.1935862,1.3775972,-1.7401732,-0.13849112,-0.03331762,-0.072295874,1.1243069,1.2702699
0.0,0.1,1.1999999999999997,0.5235987755982988,0.0,0,0.47803527,-0.439644,-0.8533814,0.13282607,-0.1961144,0.89352113,0.28616557,1.3680359,-1.8558823,-0.4321334,-0.009787075,-0.023775984,1.228544,-0.16568932
0.0,0.1,1.1999999999999997,0.5235987755982988,0.0,0,0.47890595,-0.4396569,-0.84870857,0.11294556,-0.11335459,1.1817312,-0.43108553,1.3980986,-1.7499868,-0.08298294,-0.06512863,-0.39971253,1.2325746,-0.6663741
0.0,0.1,1.1999999999999997,0.5235987755982988,0.0,0,0.47879785,-0.4394155,-0.8509876,0.11944898,0.07950597,1.198638,-0.09258496,1.4077337,-1.7602713,-0.28592005,-0.059131462,0.1770235,1.1006228,1.3758243
0.0,0.1,1.1999999999999997,0.5235987755982988,0.0,0,0.47847763,-0.43941972,-0.85138416,0.03668157,0.12627529,0.81563324,-0.39389625,1.4065326,-1.7180676,-0.14115562,-0.096014075,0.17818834,0.99749094,0.54538125
0.0,0.1,1.1999999999999997,0.5235987755982988,0.0,0,0.47761893,-0.43941888,-0.8525875,0.09646932,-0.1472135,0.77505386,-0.5185355,1.401506,-1.7119511,-0.3278087,0.030332727,0.032191545,1.1969553,0.6492635
0.0,0.1,1.1999999999999997,0.5235987755982988,0.0,0,0.47911105,-0.4396604,-0.8516788,0.10298949,0.0811343,1.1402127,-0.80265063,1.412464,-1.8031169,-0.27070338,-0.089651056,-0.02705672,1.1151897,1.1691489
0.0,0.1,1.1999999999999997,0.5235987755982988,0.0,0,0.47741362,-0.43986082,-0.8538301,0.0923964,0.12862428,0.9958956,-0.20215885,1.4007562,-1.7437656,0.0066902163,0.03275929,0.18421224,1.0998325,0.5594163
0.0,0.1,1.1999999999999997,0.5235987755982988,0.0,0,0.47829813,-0.43997666,-0.8492752,0.0793139,-0.025178514,0.929801,-0.21729581,1.4036132,-1.8730663,-0.39409578,-0.17663339,-0.08001572,1.052306,0.7028148
0.0,0.1,1.1999999999999997,0.5235987755982988,0.0,0,0.47750983,-0.43920434,-0.8546532,0.07495333,-0.62407196,0.9310966,-0.34885392,1.3978629,-1.8730801,-0.074372426,-0.017018171,-0.22360072,1.1423382,0.12911157
0.0,0.1,1.1999999999999997,0.5235987755982988,0.0,0,0.47805804,-0.43926653,-0.85437703,0.05079303,-0.113935664,0.9227312,-0.3977258,1.4188135,-1.7938449,-0.6740395,-0.14473656,0.06195119,1.1879427,-1.465363
0.0,0.1,1.1999999999999997,0.5235987755982988,0.0,0,0.47522628,-0.43938884,-0.85011727,0.13921484,-0.26906654,0.96175724,-0.5165548,1.4107902,-1.7136377,-0.36423331,0.040523414,0.09872153,1.0786068,-0.009106814
0.0,0.1,1.1999999999999997,0.5235987755982988,0.0,0,0.47719443,-0.43908298,-0.850612,0.16655695,-0.14017919,0.9602067,-0.14145532,1.3750587,-1.804191,-0.5207508,-0.09524074,0.15001659,1.2107499,-0.51333046
0.0,0.1,1.1999999999999997,0.5235987755982988,0.0,0,0.47720057,-0.43936625,-0.85172564,0.088095084,-0.0954131,1.1088933,0.24008247,1.401739,-1.7413552,0.006426861,-0.16042507,0.11298908,0.95387954,0.72756714
0.0,0.1,1.1999999999999997,0.5235987755982988,0.0,0,0.47620037,-0.43994334,-0.8510808,0.057971057,0.22152005,1.1544534,0.11422312,1.4160986,-1.9100417,-0.6734703,-0.021405034,-0.3003213,1.18716,0.7131361
0.0,0.1,1.1999999999999997,0.5235987755982988,0.0,0,0.47739062,-0.4396719,-0.85165364,0.15147471,-0.11114929,1.2055168,0.6304109,1.3825561,-1.867995,-0.1263492,-0.056858502,-0.02190624,1.1777451,0.45851326
