sanky1234/BimanualDexCatch/isaacgymenvs/cem_results/football_pose_-0.2_-0.1_0.9999999999999999_0.0_0.0_0_2025-05-24.csv
x,y,z,roll,pitch,yaw,robot1/joint1,robot1/joint2,robot1/joint3,robot1/joint4,robot1/joint5,robot1/joint6,robot1/joint7,robot2/joint1,robot2/joint2,robot2/joint3,robot2/joint4,robot2/joint5,robot2/joint6,robot2/joint7
-0.2,-0.1,0.9999999999999999,0.0,0.0,0,-0.29758748,0.33597556,1.0041414,0.5416367,0.091414526,0.4035889,-0.37675408,0.6737623,1.2868767,-0.0057756454,-0.05157437,0.19323443,-1.4961114,-0.5211318
-0.2,-0.1,0.9999999999999999,0.0,0.0,0,-0.2983561,0.33850145,1.0046713,0.54096556,0.09228248,0.40408498,-0.39860225,1.1209018,1.2197733,0.25701034,-0.0864768,1.7749444,-1.4678565,-0.13373843
-0.2,-0.1,0.9999999999999999,0.0,0.0,0,-0.29764447,0.33669657,1.0035355,0.5413841,0.09251306,0.4041864,-0.38738874,0.76563823,1.1616833,-0.15815517,-0.007080985,1.5224586,-1.4941298,-0.56614214
-0.2,-0.1,0.9999999999999999,0.0,0.0,0,-0.29704672,0.3392125,1.0026982,0.54166466,0.09395155,0.40391427,-0.39639452,0.98552334,1.1996765,-0.12054539,-0.13596371,-0.0004788098,-1.48821,0.8519884
-0.2,-0.1,0.9999999999999999,0.0,0.0,0,-0.29741338,0.3372661,1.0046582,0.5415265,0.08938794,0.40312633,-0.39730084,0.9327553,1.1419363,-0.08616478,-0.08645592,1.6578318,-1.4999275,0.4969904
-0.2,-0.1,0.9999999999999999,0.0,0.0,0,-0.29802218,0.33635157,1.0052608,0.54162407,0.09569958,0.40291,-0.38405493,0.8221675,1.1811801,0.07192512,-0.10400983,0.6872059,-1.5083818,-0.1516739
-0.2,-0.1,0.9999999999999999,0.0,0.0,0,-0.29850116,0.33703193,1.004286,0.54216146,0.09063998,0.40303886,-0.39784986,0.61573964,1.223326,0.06342531,-0.06194625,1.3948067,-1.5428073,0.9474889
-0.2,-0.1,0.9999999999999999,0.0,0.0,0,-0.29773343,0.33634955,1.0027463,0.5404957,0.09740346,0.40332127,-0.40734026,0.969827,1.2665069,-0.06208434,-0.09207475,1.2412087,-1.5258771,-0.43882963
-0.2,-0.1,0.9999999999999999,0.0,0.0,0,-0.2978711,0.33569935,1.0012189,0.5408039,0.08708293,0.40239665,-0.37917873,1.4136992,1.234917,-0.12222425,-0.0810194,0.50000685,-1.5328743,-0.27172184
-0.2,-0.1,0.9999999999999999,0.0,0.0,0,-0.29752564,0.33676797,1.0039378,0.5418706,0.0823746,0.40290162,-0.4077731,1.0063366,1.0733601,-0.09995005,-0.08322479,1.0214996,-1.5286803,-0.21162969
-0.2,-0.1,0.9999999999999999,0.0,0.0,0,-0.29801852,0.33781376,1.0037566,0.54100513,0.091911204,0.40483364,-0.39704254,1.0719541,1.2486978,-0.1292481,-0.018237075,2.1278284,-1.5000232,0.22950214
-0.2,-0.1,0.9999999999999999,0.0,0.0,0,-0.29737493,0.33863053,1.0050865,0.5412222,0.0904374,0.40328243,-0.40046948,0.34456977,1.1489694,-0.114938594,-0.048798915,-0.46033174,-1.5062233,-0.16400313
-0.2,-0.1,0.9999999999999999,0.0,0.0,0,-0.29775047,0.3384132,1.0045904,0.5418897,0.096343875,0.40171638,-0.3919374,0.87555707,1.1867981,-0.12760831,-0.08633967,0.7291723,-1.5126182,-0.78934413
-0.2,-0.1,0.9999999999999999,0.0,0.0,0,-0.29763386,0.33835685,1.0052937,0.54090863,0.0910656,0.4040764,-0.40788332,0.6787526,1.1780468,0.036363553,-0.06960268,1.6366675,-1.4712312,0.0185697
-0.2,-0.1,0.9999999999999999,0.0,0.0,0,-0.29764843,0.33699656,1.0033952,0.54146534,0.08861432,0.40155762,-0.4086777,0.2257003,1.2794297,-0.14775066,-0.02967685,2.3515272,-1.4774987,-0.5162282
-0.2,-0.1,0.9999999999999999,0.0,0.0,0,-0.29761094,0.337296,1.0032349,0.54144394,0.094730236,0.40181297,-0.39595237,1.0586591,1.2200334,-0.22207701,0.0013783682,-0.48681048,-1.465687,-1.3252841
-0.2,-0.1,0.9999999999999999,0.0,0.0,0,-0.29769126,0.33571517,1.0027405,0.5406119,0.09015056,0.40182686,-0.39033595,0.5890407,1.162154,-0.20183405,-0.1327603,-0.83647597,-1.4581852,0.08250749
-0.2,-0.1,0.9999999999999999,0.0,0.0,0,-0.29818204,0.335489,1.003481,0.54086494,0.09052279,0.4010796,-0.40220398,0.95814663,1.0984333,-0.088021,-0.07258512,0.2628006,-1.4568635,-0.4161842
-0.2,-0.1,0.9999999999999999,0.0,0.0,0,-0.29781416,0.33573827,1.0037007,0.54122925,0.0850346,0.4002964,-0.39277673,0.72100705,1.0850508,-0.34338892,-0.06810319,0.12100466,-1.4487313,-0.31514645
-0.2,-0.1,0.9999999999999999,0.0,0.0,0,-0.29745567,0.33626115,1.0043731,0.5408667,0.08887453,0.4027292,-0.4005319,1.295519,1.0720961,0.05046517,-0.028584968,1.3262751,-1.4702632,0.6132866
-0.2,-0.1,0.9999999999999999,0.0,0.0,0,-0.29764038,0.33644238,1.0041002,0.5412834,0.09363873,0.4014504,-0.41294926,0.66486925,1.004839,0.047955286,-0.076952346,1.2061299,-1.5063244,-0.21647516
-0.2,-0.1,0.9999999999999999,0.0,0.0,0,-0.2975272,0.33725902,1.0045133,0.540483,0.09069239,0.4041816,-0.40258613,0.72354114,1.075653,-0.12818296,-0.08334936,-0.1298071,-1.4381878,-0.3556114
-0.2,-0.1,0.9999999999999999,0.0,0.0,0,-0.2973851,0.33566356,1.0031385,0.5407525,0.0928294,0.40437874,-0.39750442,0.71087074,1.1491373,0.047067937,-0.08147268,0.5551077,-1.5098989,0.21168356
-0.2,-0.1,0.9999999999999999,0.0,0.0,0,-0.29856798,0.33743435,1.0041211,0.5405183,0.08637449,0.4018603,-0.3845842,0.40465122,1.166317,-0.15291984,-0.06383835,-0.96089727,-1.4469855,-0.38785678
-0.2,-0.1,0.9999999999999999,0.0,0.0,0,-0.29767329,0.33463025,1.0038573,0.54023975,0.09425856,0.4026899,-0.39691487,1.1038613,1.1530298,0.1419974,-0.059273034,1.729779,-1.50427,0.29338965
-0.2,-0.1,0.9999999999999999,0.0,0.0,0,-0.29779226,0.33629712,1.0023682,0.5412879,0.087584265,0.40222907,-0.37609968,0.63452315,1.1284182,-0.32869348,-0.018766917,0.67918277,-1.4726542,0.6182237
-0.2,-0.1,0.9999999999999999,0.0,0.0,0,-0.2980086,0.33639556,1.0044451,0.5410718,0.09339898,0.4035311,-0.3948093,1.0649338,1.182943,0.1549055,-0.106643364,0.9488839,-1.5023664,-0.522309
-0.2,-0.1,0.9999999999999999,0.0,0.0,0,-0.297006,0.3373078,1.003113,0.5408919,0.0876113,0.40134093,-0.40795904,1.1374563,1.0853016,-0.3341935,-0.04499948,1.1505551,-1.5184835,0.31116372
-0.2,-0.1,0.9999999999999999,0.0,0.0,0,-0.2979611,0.33769903,1.0048631,0.54104996,0.08539816,0.4054419,-0.42825752,1.2715256,1.2256176,-0.07701892,-0.08197165,0.78843904,-1.4756174,0.4962131
-0.2,-0.1,0.9999999999999999,0.0,0.0,0,-0.29812318,0.33628523,1.0034257,0.54093915,0.093642466,0.40046403,-0.39097822,0.9635299,1.3766767,-0.06916672,-0.055636667,1.287405,-1.4869424,0.14616692
-0.2,-0.1,0.9999999999999999,0.0,0.0,0,-0.29805323,0.33791038,1.0037211,0.5405845,0.09458372,0.40306205,-0.40779245,0.69502836,1.1353066,-0.2192223,-0.04361916,0.9178472,-1.5056129,0.023691574
-0.2,-0.1,0.9999999999999999,0.0,0.0,0,-0.29806343,0.33517906,1.0029079,0.54087764,0.090865135,0.40303075,-0.39809063,0.4641548,1.229307,-0.3277228,-0.04212128,2.6931646,-1.4750179,0.3448507
-0.2,-0.1,0.9999999999999999,0.0,0.0,0,-0.29773164,0.3349733,1.0018046,0.5406775,0.09670274,0.4042683,-0.40983734,1.1157492,1.1358474,-0.26555133,-0.067412354,0.5814973,-1.5061446,-0.9237633
-0.2,-0.1,0.9999999999999999,0.0,0.0,0,-0.29826766,0.3368651,1.0053662,0.5411286,0.089038655,0.4024319,-0.404537,1.287501,1.2014524,-0.26046062,-0.046881627,0.5303326,-1.4324158,1.9151059
-0.2,-0.1,0.9999999999999999,0.0,0.0,0,-0.2979712,0.33695185,1.0032022,0.54171,0.0920299,0.40516567,-0.38238314,0.86795783,1.3643298,-0.040991124,-0.055985842,-0.2278811,-1.4475518,0.37803423
-0.2,-0.1,0.9999999999999999,0.0,0.0,0,-0.29754198,0.3376333,1.002826,0.5406487,0.09196775,0.403685,-0.39851654,0.71448404,1.0591168,-0.25432593,-0.040071573,-0.51136726,-1.4910357,0.22765774
-0.2,-0.1,0.9999999999999999,0.0,0.0,0,-0.29844165,0.33640194,1.005036,0.54128796,0.09310689,0.4027747,-0.4175455,0.91353333,1.2226045,0.07350496,-0.026156705,1.523712,-1.5108756,-0.23737781
-0.2,-0.1,0.9999999999999999,0.0,0.0,0,-0.29810137,0.33641392,1.0057076,0.5408923,0.09144614,0.40209988,-0.4031828,1.1471673,1.1814858,0.20781043,-0.07618067,-0.27527463,-1.4951708,-0.7593308
-0.2,-0.1,0.9999999999999999,0.0,0.0,0,-0.29873335,0.33626753,1.0036236,0.5401106,0.0931679,0.40152255,-0.40593034,1.0510017,1.2138678,-0.175982,-0.008740903,0.39993286,-1.4784971,0.77750045
-0.2,-0.1,0.9999999999999999,0.0,0.0,0,-0.2978768,0.3354455,1.0027053,0.5404133,0.08744696,0.40302253,-0.395206,1.1391063,1.1369172,-0.32214996,-0.06244889,-0.35883105,-1.549461,1.0520052
-0.2,-0.1,0.9999999999999999,0.0,0.0,0,-0.29831323,0.3356863,1.0030427,0.5413785,0.09658398,0.40192997,-0.39810184,0.80760413,1.1753807,-0.14513928,-0.09061899,0.22471341,-1.5160317,-0.6284781
-0.2,-0.1,0.9999999999999999,0.0,0.0,0,-0.2983776,0.33651403,1.0022526,0.5408239,0.09292294,0.40188938,-0.39534703,1.0694207,1.1227967,-0.12032144,-0.10010163,2.169238,-1.4682064,-0.754451
-0.2,-0.1,0.9999999999999999,0.0,0.0,0,-0.29767185,0.3385707,1.0037488,0.54054177,0.089340515,0.40377662,-0.39626837,1.0040343,1.1186504,-0.048618305,-0.0682561,-0.7475796,-1.5010974,-0.2954133
-0.2,-0.1,0.9999999999999999,0.0,0.0,0,-0.29810697,0.33652306,1.0051417,0.5413425,0.09431272,0.40113798,-0.4037202,0.5910303,1.1075513,-0.037729863,-0.07004054,0.813778,-1.5381517,0.5063574
-0.2,-0.1,0.9999999999999999,0.0,0.0,0,-0.29818973,0.337981,1.0042199,0.54079545,0.094568,0.40198213,-0.3998857,0.122255675,1.2157665,-0.1291855,-0.09248444,2.4300263,-1.4804956,0.6336569
-0.2,-0.1,0.9999999999999999,0.0,0.0,0,-0.29764983,0.33626193,1.0032964,0.5414221,0.09024632,0.40326443,-0.40045968,0.5703759,1.1035606,-0.08809784,-0.03613204,0.95444006,-1.4901233,1.1305698
-0.2,-0.1,0.9999999999999999,0.0,0.0,0,-0.2970689,0.3383139,1.0032527,0.5415591,0.09194575,0.40290344,-0.39350316,1.2594178,1.2036893,-0.061957646,-0.071788214,1.0889219,-1.5073994,0.4910714
-0.2,-0.1,0.9999999999999999,0.0,0.0,0,-0.2980829,0.33505273,1.0028011,0.53997695,0.087886594,0.40294138,-0.3983794,0.24985021,1.0772018,-0.028011445,-0.0668744,0.09916566,-1.5047812,-0.48701409
-0.2,-0.1,0.9999999999999999,0.0,0.0,0,-0.29796976,0.33692747,1.0040188,0.54094505,0.09175869,0.40041876,-0.39356494,1.4713174,1.1903294,-0.3894167,-0.099381454,0.19126235,-1.4427011,-0.8867543
-0.2,-0.1,0.9999999999999999,0.0,0.0,0,-0.2973308,0.33701023,1.0021092,0.5408386,0.078365505,0.4025016,-0.38642764,-0.06009722,1.181982,-0.12350919,-0.0824909,-0.081110984,-1.4540495,0.83006656
-0.2,-0.1,0.9999999999999999,0.0,0.0,0,-0.2974402,0.33775133,1.0045089,0.54081225,0.0876571,0.3999123,-0.39242697,1.3616822,1.2510611,0.0013781785,-0.15788203,0.5233534,-1.425302,-0.88417023
-0.2,-0.1,0.9999999999999999,0.0,0.0,0,-0.2975763,0.33560455,1.0014725,0.5410137,0.08662138,0.40198627,-0.3990661,1.2252983,1.0801275,-0.3471945,-0.047080915,-0.09551966,-1.5055368,-0.59286433
-0.2,-0.1,0.9999999999999999,0.0,0.0,0,-0.29842532,0.33581358,1.0019473,0.5407152,0.09155423,0.40266305,-0.40752098,0.9461268,1.0997179,-0.009912068,-0.096835636,-0.63971776,-1.4998076,0.531721
-0.2,-0.1,0.9999999999999999,0.0,0.0,0,-0.29785797,0.33577153,1.0039684,0.54102623,0.096579805,0.40062222,-0.39470866,0.93108577,1.0380257,0.11013318,-0.11433868,0.5926277,-1.4615073,-1.1801056
-0.2,-0.1,0.9999999999999999,0.0,0.0,0,-0.29719344,0.33606544,1.0010252,0.541082,0.08900311,0.40111434,-0.3961436,1.2207593,1.155563,-0.064607084,-0.065354705,-0.8466598,-1.5292511,1.5256671
-0.2,-0.1,0.9999999999999999,0.0,0.0,0,-0.29796702,0.33594263,1.0023266,0.5408604,0.09386913,0.4018528,-0.3827774,0.31261295,1.1718576,-0.056153104,-0.06685724,1.192189,-1.4715737,-0.76159483
-0.2,-0.1,0.9999999999999999,0.0,0.0,0,-0.29774916,0.33689052,1.002261,0.5406008,0.092560776,0.4018871,-0.4043978,1.1989077,1.1162919,-0.3678655,-0.030305944,1.2267001,-1.509996,0.7119976
-0.2,-0.1,0.9999999999999999,0.0,0.0,0,-0.29804814,0.33550572,1.0044158,0.5406621,0.08565075,0.40175033,-0.39765054,1.1432835,1.0701367,-0.23631412,-0.053939506,0.25371584,-1.4803145,-0.17876236
-0.2,-0.1,0.9999999999999999,0.0,0.0,0,-0.29716367,0.33675635,1.0028579,0.5406343,0.09017367,0.4022069,-0.39357185,0.76128364,1.1977664,-0.09993715,-0.029936736,0.8987509,-1.4675817,-0.05261458
-0.2,-0.1,0.9999999999999999,0.0,0.0,0,-0.29839915,0.33748177,1.0023495,0.54108036,0.08158973,0.40184087,-0.40837952,0.60527647,1.168831,-0.12115043,-0.049883153,-0.90110046,-1.4710943,-2.3926017
-0.2,-0.1,0.9999999999999999,0.0,0.0,0,-0.29757476,0.33749446,1.0029169,0.54039216,0.09493254,0.4007955,-0.3899619,1.2653066,1.1992908,0.121945776,-0.11727409,-0.027546093,-1.5439044,0.016385408
-0.2,-0.1,0.9999999999999999,0.0,0.0,0,-0.29750407,0.33477655,1.0045973,0.54110223,0.08810972,0.40116972,-0.3961001,0.81669945,1.3038064,-0.13982773,-0.090437196,0.50521123,-1.4497709,0.27381498
-0.2,-0.1,0.9999999999999999,0.0,0.0,0,-0.2974434,0.3358921,1.0027766,0.5405705,0.08984382,0.4016665,-0.40089187,0.36168903,1.1549052,-0.2473103,-0.061868686,0.50115675,-1.477001,0.98563176
-0.2,-0.1,0.9999999999999999,0.0,0.0,0,-0.29762363,0.33674932,1.0026888,0.54098296,0.09193051,0.40252808,-0.39902502,1.3057197,1.1806428,-0.28276393,-0.023842582,-0.27937117,-1.4136281,-0.65514815
-0.2,-0.1,0.9999999999999999,0.0,0.0,0,-0.2973772,0.33611885,1.0031348,0.54083246,0.08984812,0.40063697,-0.3898713,1.3031708,1.0387964,0.05260713,-0.018328015,0.85066175,-1.472449,1.0010686
-0.2,-0.1,0.9999999999999999,0.0,0.0,0,-0.29785404,0.33725557,1.0027692,0.5405025,0.08651583,0.40202922,-0.40460098,0.6824061,1.0258696,-0.099529415,-0.07102797,1.7302033,-1.5114882,-0.5827423
-0.2,-0.1,0.9999999999999999,0.0,0.0,0,-0.2984146,0.33623916,1.0021147,0.5410304,0.09849052,0.40316722,-0.3922231,1.3907517,1.206276,-0.08325936,-0.019594846,0.60224277,-1.4820632,0.9268012
-0.2,-0.1,0.9999999999999999,0.0,0.0,0,-0.29827097,0.33454502,1.0042212,0.5409539,0.08558628,0.40161517,-0.40583447,1.1086359,1.1519789,-0.14187871,-0.059139613,0.07312249,-1.491603,0.13459384
-0.2,-0.1,0.9999999999999999,0.0,0.0,0,-0.29747114,0.3348166,1.0033374,0.54065984,0.09249453,0.40209985,-0.393883,0.9745962,1.2108357,-0.026659094,-0.08034909,-0.574879,-1.5241663,0.52488625
-0.2,-0.1,0.9999999999999999,0.0,0.0,0,-0.2977769,0.33808503,1.0042744,0.54064095,0.0812055,0.40107965,-0.39534265,1.1270376,1.182902,-0.24861102,-0.06230155,0.7923091,-1.4984274,-0.20315607
-0.2,-0.1,0.9999999999999999,0.0,0.0,0,-0.2979707,0.33514124,1.0018886,0.5411172,0.0937618,0.4024889,-0.3995493,0.6625336,1.2502769,0.1812092,-0.08159381,0.26867554,-1.4884195,-1.0693096
-0.2,-0.1,0.9999999999999999,0.0,0.0,0,-0.2972724,0.33541176,1.0043266,0.5408783,0.088089034,0.40194842,-0.39149418,1.1881319,1.3309574,-0.22135118,-0.091596946,0.050888628,-1.4898169,-0.40665725
-0.2,-0.1,0.9999999999999999,0.0,0.0,0,-0.29798627,0.33534375,1.0036515,0.54100555,0.08816848,0.40278617,-0.39851406,1.219428,1.1748244,0.13852817,-0.02927872,-0.00174311,-1.4662517,-0.9766801
-0.2,-0.1,0.9999999999999999,0.0,0.0,0,-0.29839402,0.33520722,1.002797,0.54097563,0.09244005,0.4036283,-0.38759947,1.2619666,1.0982379,0.19743347,0.015960377,1.341347,-1.5143896,0.5119928
-0.2,-0.1,0.9999999999999999,0.0,0.0,0,-0.29806086,0.33568254,1.0022242,0.541204,0.09166733,0.403773,-0.39807013,1.4439753,1.0706072,-0.017389024,-0.09458506,0.22035958,-1.4749894,0.77853376
-0.2,-0.1,0.9999999999999999,0.0,0.0,0,-0.29745722,0.3388198,1.0030106,0.5408246,0.09236508,0.40153635,-0.3948877,1.224402,1.0591033,-0.08721566,-0.10128712,-0.081293315,-1.5090785,-0.7723951
-0.2,-0.1,0.9999999999999999,0.0,0.0,0,-0.29789218,0.3371625,1.0031146,0.54114974,0.092231385,0.40287057,-0.3928183,1.0116369,1.1734432,0.2078632,-0.054291848,-0.3090027,-1.4526796,-0.7162375
-0.2,-0.1,0.9999999999999999,0.0,0.0,0,-0.2983688,0.33555356,1.0033815,0.54083806,0.08296401,0.4021234,-0.40426797,1.1377279,1.1467234,-0.050120987,-0.123256534,1.822695,-1.4682758,1.6975956
-0.2,-0.1,0.9999999999999999,0.0,0.0,0,-0.29779613,0.33710867,1.0041826,0.54093313,0.086303756,0.40259284,-0.39582467,1.3744601,1.2562608,-0.14019038,-0.027441889,-0.15029874,-1.4609197,1.0068947
-0.2,-0.1,0.9999999999999999,0.0,0.0,0,-0.2974693,0.33536014,1.0043163,0.5408337,0.092979714,0.4012427,-0.39601693,0.39795828,1.2228196,-0.1903994,-0.06881309,0.6217081,-1.5406282,-0.3639583
-0.2,-0.1,0.9999999999999999,0.0,0.0,0,-0.29758593,0.33551404,1.0032235,0.5410671,0.08783752,0.40187344,-0.4001478,1.2852423,1.2050902,0.22430629,-0.10040982,0.38482273,-1.4365368,0.60500747
-0.2,-0.1,0.9999999999999999,0.0,0.0,0,-0.29721153,0.3384188,1.0029727,0.5409184,0.09783533,0.4010247,-0.40110493,0.75253457,1.1861497,-0.0601564,-0.10822759,-0.29396018,-1.5050936,-0.11146616
-0.2,-0.1,0.9999999999999999,0.0,0.0,0,-0.2983288,0.33774844,1.0025736,0.54092777,0.07791644,0.40328497,-0.4211751,0.6637003,1.1262261,-0.23168027,-0.08370284,0.6935869,-1.4947507,-0.3219009
-0.2,-0.1,0.9999999999999999,0.0,0.0,0,-0.29762107,0.33566517,1.003695,0.54072374,0.0957958,0.40230164,-0.4010716,1.0181798,1.089308,0.19598395,-0.0575894,1.1089708,-1.4698554,1.1207062
-0.2,-0.1,0.9999999999999999,0.0,0.0,0,-0.29791385,0.33731416,1.0034914,0.5410026,0.091087624,0.40270522,-0.3966505,1.074718,1.2368823,-0.4848321,-0.05255137,-0.27031517,-1.4641545,0.47288188
-0.2,-0.1,0.9999999999999999,0.0,0.0,0,-0.2975948,0.33632335,1.0026958,0.54066527,0.08934337,0.40280867,-0.40031916,1.4020092,1.1951157,-0.17274815,-0.079074375,0.5691878,-1.4376806,-0.109786145
-0.2,-0.1,0.9999999999999999,0.0,0.0,0,-0.2972171,0.33820584,1.0039289,0.54027086,0.08923046,0.40219474,-0.39177248,0.9207767,1.229605,-0.1260693,-0.10341239,1.2534658,-1.4613703,0.37311646
-0.2,-0.1,0.9999999999999999,0.0,0.0,0,-0.2980638,0.33743984,1.0051801,0.5412777,0.08295552,0.4014675,-0.39459768,0.675128,1.101475,0.025294933,0.012472275,0.7988091,-1.4598013,-0.04225442
-0.2,-0.1,0.9999999999999999,0.0,0.0,0,-0.29855612,0.3369145,1.0027938,0.54133016,0.08670671,0.40232897,-0.40232062,0.92121947,1.1689502,-0.08205041,-0.051223584,0.4957177,-1.474027,-2.151339
-0.2,-0.1,0.9999999999999999,0.0,0.0,0,-0.29780963,0.3365228,1.0027789,0.54088545,0.086855866,0.40259773,-0.39422083,1.1812329,1.2798307,-0.12787098,-0.061340794,-0.017128535,-1.4814427,-0.6766618
-0.2,-0.1,0.9999999999999999,0.0,0.0,0,-0.29839802,0.33720118,1.0039347,0.5414264,0.088818066,0.400456,-0.40372226,0.86552685,1.0643954,-0.18258132,-0.031998787,0.07779449,-1.4711944,0.530228
-0.2,-0.1,0.9999999999999999,0.0,0.0,0,-0.29792255,0.3367371,1.0026127,0.5404698,0.08780395,0.40253943,-0.39373475,0.7926062,1.1821216,-0.07131297,-0.052669052,0.85973036,-1.5482457,-0.8790611
-0.2,-0.1,0.9999999999999999,0.0,0.0,0,-0.2979277,0.33657965,1.0042992,0.5409176,0.08933059,0.40356085,-0.39203858,1.3414809,1.2315574,-0.059049413,-0.12834632,0.29616502,-1.4576701,0.52745754
-0.2,-0.1,0.9999999999999999,0.0,0.0,0,-0.2979385,0.33622065,1.0027233,0.54158044,0.082531534,0.40127385,-0.38914034,0.6406777,1.0781554,-0.051929053,-0.07317245,1.5809898,-1.4686648,-1.3083774
-0.2,-0.1,0.9999999999999999,0.0,0.0,0,-0.29772547,0.33618912,1.0028367,0.5411261,0.085741155,0.4011487,-0.4048225,0.5356418,1.1129472,0.18958613,-0.0839227,0.3239824,-1.5510322,-0.29195318
-0.2,-0.1,0.9999999999999999,0.0,0.0,0,-0.29822662,0.33763748,1.0035108,0.5408187,0.08754118,0.40203875,-0.3918589,0.9135794,1.1292325,0.010658288,-0.09904718,1.3572443,-1.5396553,0.107756965
-0.2,-0.1,0.9999999999999999,0.0,0.0,0,-0.29710642,0.33643866,1.003253,0.5404378,0.08634901,0.40186903,-0.39476988,0.7419709,1.2191777,0.04194717,-0.0881713,-0.7435635,-1.4770588,1.338625
-0.2,-0.1,0.9999999999999999,0.0,0.0,0,-0.29804105,0.33622524,1.0024637,0.5411121,0.100217454,0.40165648,-0.3993765,0.7883813,1.220244,-0.008461726,-0.069208845,1.1989725,-1.4842088,0.72718096
-0.2,-0.1,0.9999999999999999,0.0,0.0,0,-0.2980664,0.3370811,1.0014863,0.5412623,0.089735135,0.4032303,-0.4081728,1.3481163,1.165357,-0.28895894,-0.08871397,0.6740501,-1.4615232,0.18559894
-0.2,-0.1,0.9999999999999999,0.0,0.0,0,-0.29786214,0.33865917,1.0017622,0.541159,0.08649819,0.40247747,-0.39470455,1.1184156,1.1688403,0.08714641,-0.06223148,0.27984056,-1.4988087,-0.1527461
-0.2,-0.1,0.9999999999999999,0.0,0.0,0,-0.2978821,0.33895868,1.003047,0.5410263,0.08708564,0.4009561,-0.39996618,1.076662,1.1656442,0.17818646,-0.04487086,1.4104205,-1.4457369,-1.0086579
-0.2,-0.1,0.9999999999999999,0.0,0.0,0,-0.29848403,0.33716333,1.0039706,0.54107946,0.09479899,0.40257958,-0.39419997,0.97486943,1.2431815,-0.19855988,-0.07522462,1.2598101,-1.4884255,1.1723387
-0.2,-0.1,0.9999999999999999,0.0,0.0,0,-0.29846868,0.33742025,1.0028732,0.5412706,0.09372329,0.40246046,-0.39999613,0.8669663,1.0742615,0.11406667,-0.07162363,-1.3273294,-1.4591948,-1.1041802
-0.2,-0.1,0.9999999999999999,0.0,0.0,0,-0.29701367,0.3356924,1.0029297,0.54102725,0.088629715,0.40259308,-0.39204735,0.7724243,1.2654105,0.21988519,-0.06443062,0.6389497,-1.4726802,-0.35810983
-0.2,-0.1,0.9999999999999999,0.0,0.0,0,-0.29741323,0.33534965,1.0040826,0.5404682,0.09807455,0.40277177,-0.3967801,1.3115478,1.1482303,-0.23645945,-0.101659216,0.7648628,-1.4983587,0.030124865
-0.2,-0.1,0.9999999999999999,0.0,0.0,0,-0.298332,0.3369209,1.0036994,0.54099,0.0873335,0.40291914,-0.39872137,1.156289,1.1455398,0.2822502,-0.049933035,0.6277758,-1.506127,0.079558566
-0.2,-0.1,0.9999999999999999,0.0,0.0,0,-0.2979454,0.33576116,1.0040795,0.54099804,0.09499617,0.40155086,-0.39042717,1.5386746,1.1808465,-0.19213058,-0.09700577,1.2425805,-1.5145158,-0.94650394
-0.2,-0.1,0.9999999999999999,0.0,0.0,0,-0.2982485,0.3361578,1.0033492,0.54122865,0.08614361,0.40182957,-0.40129653,0.58182347,1.1952952,0.001490474,-0.023920717,-0.47502196,-1.5113138,0.29387543
-0.2,-0.1,0.9999999999999999,0.0,0.0,0,-0.29744935,0.3367449,1.0032328,0.5411192,0.09333266,0.40291917,-0.3990165,1.0399235,1.1478816,0.148271,-0.02829292,-0.34085634,-1.4666718,-0.069309115
-0.2,-0.1,0.9999999999999999,0.0,0.0,0,-0.29775515,0.3385888,1.0028416,0.5406688,0.08882375,0.40255037,-0.40466642,0.89680195,1.1331874,0.23177123,-0.0726517,-0.6923702,-1.428027,-0.75369626
-0.2,-0.1,0.9999999999999999,0.0,0.0,0,-0.29820994,0.33727694,1.0029782,0.54147065,0.08863409,0.4023414,-0.39639097,1.0402582,1.2515733,0.030215856,-0.0470122,-0.09695194,-1.4808867,-0.3425205
-0.2,-0.1,0.9999999999999999,0.0,0.0,0,-0.29763526,0.3368052,1.0031873,0.54124075,0.09821129,0.40291247,-0.40098387,0.77630514,1.2335562,0.09939345,-0.036767025,-0.68080366,-1.4100482,0.08240149
-0.2,-0.1,0.9999999999999999,0.0,0.0,0,-0.29752612,0.33570018,1.00416,0.54093647,0.085285984,0.40234,-0.39471838,0.09236165,1.2521272,0.13331148,-0.02487419,0.23259157,-1.4988463,-0.7903381
-0.2,-0.1,0.9999999999999999,0.0,0.0,0,-0.2987463,0.33738908,1.0032037,0.5408666,0.09678568,0.4032194,-0.41018617,0.9854006,1.302141,-0.16509822,-0.040012952,0.41710982,-1.4794077,0.65290034
-0.2,-0.1,0.9999999999999999,0.0,0.0,0,-0.29796612,0.3379704,1.0019249,0.5409282,0.09165999,0.4039351,-0.40364885,1.3724498,1.2472847,0.3132004,-0.10500709,0.69625485,-1.4624155,0.2123513
-0.2,-0.1,0.9999999999999999,0.0,0.0,0,-0.2985901,0.33680013,1.003656,0.5414143,0.08223131,0.40302366,-0.3914258,0.9288336,1.0728807,-0.38566893,-0.09697663,-0.38608447,-1.5129199,0.6305831
-0.2,-0.1,0.9999999999999999,0.0,0.0,0,-0.2983902,0.33667833,1.00431,0.54043907,0.08902566,0.40394026,-0.38535023,0.39134753,1.0705558,-0.0066649863,-0.09683,0.846241,-1.4952631,0.9785297
-0.2,-0.1,0.9999999999999999,0.0,0.0,0,-0.29831585,0.33752266,1.0025446,0.54080576,0.09573436,0.4041921,-0.39868736,0.72066694,1.1579783,0.123312324,-0.10716046,0.18456432,-1.4619778,-0.5328217
-0.2,-0.1,0.9999999999999999,0.0,0.0,0,-0.29767424,0.33665562,1.0038636,0.54114646,0.092589065,0.40163708,-0.39716312,1.1265644,1.1217976,-0.10521668,-0.07159167,-0.48092464,-1.5273257,-0.5604103
-0.2,-0.1,0.9999999999999999,0.0,0.0,0,-0.29804426,0.3373313,1.0018744,0.54142886,0.08938287,0.40222156,-0.40725872,0.91576964,1.1486381,-0.28881073,-0.093664534,1.1308814,-1.4922876,1.5275545
-0.2,-0.1,0.9999999999999999,0.0,0.0,0,-0.29753813,0.33841306,1.0030812,0.5412194,0.09214131,0.40127766,-0.39596745,1.025765,1.3260313,0.22241317,-0.101465225,1.8441547,-1.4895028,-0.10187556
-0.2,-0.1,0.9999999999999999,0.0,0.0,0,-0.29796115,0.33491424,1.0022027,0.5410994,0.091215305,0.40346912,-0.4108254,1.3021677,1.2645823,-0.038210854,-0.057746015,0.9460312,-1.4845188,0.12563376
-0.2,-0.1,0.9999999999999999,0.0,0.0,0,-0.29833335,0.3371461,1.0027461,0.5409388,0.089133054,0.40458614,-0.39225346,1.0752211,1.2055566,-0.061421216,-0.1211254,-0.63775164,-1.4655771,0.082799435
-0.2,-0.1,0.9999999999999999,0.0,0.0,0,-0.29775965,0.3377183,1.0027558,0.5409945,0.088628866,0.40179914,-0.39586893,0.54419357,1.1278231,-0.05404358,-0.09052038,-0.18041937,-1.5013545,0.15875669
-0.2,-0.1,0.9999999999999999,0.0,0.0,0,-0.29828778,0.3364768,1.0038981,0.54098666,0.08860817,0.4020662,-0.40745166,0.80195844,1.0639273,-0.112157635,-0.07388736,1.0094203,-1.4533782,0.4973144
-0.2,-0.1,0.9999999999999999,0.0,0.0,0,-0.29748616,0.3368233,1.002829,0.5407173,0.09130681,0.40304157,-0.39413732,1.0747879,1.1219183,-0.17923298,-0.10442096,0.7024688,-1.5096712,0.9929763
-0.2,-0.1,0.9999999999999999,0.0,0.0,0,-0.29816636,0.3357878,1.0032436,0.54096437,0.10382417,0.4024362,-0.40523857,0.915021,1.174706,-0.44777486,-0.1026644,2.3446496,-1.4611441,-0.061438117
-0.2,-0.1,0.9999999999999999,0.0,0.0,0,-0.2987142,0.33741277,1.0024934,0.54134315,0.08234609,0.4032267,-0.39402804,1.0310851,1.1535478,-0.25503683,-0.077161245,-1.174635,-1.4815954,-0.8835157
-0.2,-0.1,0.9999999999999999,0.0,0.0,0,-0.2979942,0.33687967,1.0023651,0.5406234,0.08917276,0.4042625,-0.39755306,0.97617877,1.1423925,-0.15187687,-0.043153588,0.10287245,-1.469066,-0.14657143
-0.2,-0.1,0.9999999999999999,0.0,0.0,0,-0.29831016,0.33496323,1.0033355,0.5412417,0.08583862,0.4025981,-0.39385033,1.3100545,1.1544455,0.080438025,-0.05514792,0.646727,-1.529067,0.13751365
-0.2,-0.1,0.9999999999999999,0.0,0.0,0,-0.29838195,0.33732516,1.0032077,0.5409384,0.08362529,0.40276355,-0.4063746,0.68990535,1.130308,-0.033286385,-0.07804702,0.67849725,-1.5036719,0.57122487
-0.2,-0.1,0.9999999999999999,0.0,0.0,0,-0.2978393,0.33822244,1.0027983,0.5407663,0.08665025,0.404465,-0.39262182,0.8972094,1.355137,0.0642847,-0.083755754,-1.1312722,-1.4294147,-1.5247175
-0.2,-0.1,0.9999999999999999,0.0,0.0,0,-0.29752162,0.33748186,1.0026184,0.5411192,0.09398419,0.40247643,-0.39769512,1.3162224,1.2214384,0.27287114,-0.044590827,-0.29253832,-1.5422207,0.49291387
-0.2,-0.1,0.9999999999999999,0.0,0.0,0,-0.29795507,0.33565703,1.0026946,0.5412072,0.09323675,0.40309086,-0.40339383,1.154939,1.3350301,0.06454257,-0.0905729,1.528483,-1.4590516,1.0175872
-0.2,-0.1,0.9999999999999999,0.0,0.0,0,-0.2979402,0.3356865,1.0041704,0.5403299,0.09283896,0.402416,-0.40655577,0.8394396,1.1983975,-0.00716344,-0.1128967,0.14778566,-1.4897369,0.060876977
-0.2,-0.1,0.9999999999999999,0.0,0.0,0,-0.29813284,0.3381293,1.0039688,0.5405184,0.09468896,0.40224987,-0.40742382,1.0487506,1.0451562,-0.19243412,-0.067084506,0.28833726,-1.5451607,-0.33416304
-0.2,-0.1,0.9999999999999999,0.0,0.0,0,-0.29817414,0.33828977,1.0045491,0.54073113,0.08505927,0.4015735,-0.39611337,1.0540819,1.2086014,0.1606991,-0.090148695,-2.2436059,-1.4942214,-0.12596077
-0.2,-0.1,0.9999999999999999,0.0,0.0,0,-0.29785815,0.33669952,1.0023348,0.5411,0.08881928,0.4032445,-0.40546536,0.6251276,1.2070209,-0.18324374,-0.08507134,-0.54951197,-1.4910073,-0.2916023
-0.2,-0.1,0.9999999999999999,0.0,0.0,0,-0.29824314,0.3380007,1.0028293,0.5415497,0.09273237,0.40207666,-0.39970717,1.0283548,1.208798,-0.37573552,-0.08046389,-0.42811808,-1.5084757,-0.48236293
-0.2,-0.1,0.9999999999999999,0.0,0.0,0,-0.29758093,0.33663145,1.0016173,0.54100126,0.09545846,0.40405405,-0.39972165,1.1150066,1.1248597,0.2799249,-0.10315918,1.5432662,-1.4570775,0.12764168
-0.2,-0.1,0.9999999999999999,0.0,0.0,0,-0.29822627,0.33552215,1.0015916,0.5415213,0.084816426,0.40427023,-0.39936525,0.835566,1.1367756,-0.05955279,-0.08340531,-0.4871563,-1.4768256,0.8603078
-0.2,-0.1,0.9999999999999999,0.0,0.0,0,-0.2975848,0.3366701,1.0033069,0.54061776,0.08785708,0.40225267,-0.39650694,0.80288845,1.1788422,-0.26671135,-0.089578785,1.8287666,-1.496416,0.17086859
-0.2,-0.1,0.9999999999999999,0.0,0.0,0,-0.2978081,0.3375491,1.0036409,0.5407884,0.086056404,0.4033902,-0.38505974,0.56077933,1.2083627,-0.044177912,-0.09507503,1.4194225,-1.477972,1.1172813
-0.2,-0.1,0.9999999999999999,0.0,0.0,0,-0.29792646,0.3367353,1.0033761,0.5415824,0.091311626,0.40309677,-0.39122054,0.85332507,1.2269552,0.0330051,-0.05681896,-0.5722608,-1.5034249,-0.12324925
-0.2,-0.1,0.9999999999999999,0.0,0.0,0,-0.2980357,0.336039,1.0044757,0.5401356,0.09716897,0.4030787,-0.41359374,1.1906459,1.1608622,0.10510843,-0.04276727,0.9720803,-1.4781748,0.23383626
-0.2,-0.1,0.9999999999999999,0.0,0.0,0,-0.29742935,0.33803874,1.0034373,0.5409409,0.09354313,0.4025163,-0.4033013,0.9522685,1.1794695,-0.26629123,-0.04010723,0.4993822,-1.4717563,-1.1159178
-0.2,-0.1,0.9999999999999999,0.0,0.0,0,-0.29788885,0.33613348,1.0023609,0.54132015,0.08815309,0.40425685,-0.4066659,1.0685811,1.0946872,0.14287128,-0.11301815,0.17239441,-1.5246121,-0.31731305
-0.2,-0.1,0.9999999999999999,0.0,0.0,0,-0.29733738,0.336383,1.0024929,0.54119503,0.08175536,0.40290844,-0.39626712,0.7385563,1.2787606,0.025271036,-0.038111467,-1.4014962,-1.4602844,1.5446804
-0.2,-0.1,0.9999999999999999,0.0,0.0,0,-0.2977657,0.33662027,1.0034317,0.5410723,0.0912796,0.40326062,-0.40856016,0.83323365,1.436139,-0.11372767,-0.11974192,1.0496185,-1.4959215,2.0850365
-0.2,-0.1,0.9999999999999999,0.0,0.0,0,-0.29716545,0.3349697,1.0023245,0.541002,0.08327862,0.40409815,-0.3937371,0.8925376,1.200432,0.12610519,-0.09285539,1.155457,-1.5010661,0.2526742
-0.2,-0.1,0.9999999999999999,0.0,0.0,0,-0.2971552,0.33513752,1.0028725,0.5404469,0.09059764,0.4035133,-0.4127203,0.8115934,1.1719971,-0.15575261,-0.10845499,1.1611745,-1.4889349,-0.054035343
-0.2,-0.1,0.9999999999999999,0.0,0.0,0,-0.29886678,0.33768302,1.0039979,0.5410543,0.091482386,0.4030537,-0.4064925,0.7091174,1.2162542,0.09952438,-0.13628338,0.887674,-1.510578,0.7504549
-0.2,-0.1,0.9999999999999999,0.0,0.0,0,-0.2976842,0.33907485,1.0038245,0.5411146,0.07899607,0.4023715,-0.3898664,0.91675717,1.0783904,-0.34204313,-0.16347972,1.1423779,-1.5242447,0.4617659
-0.2,-0.1,0.9999999999999999,0.0,0.0,0,-0.29801255,0.33676708,1.0009769,0.541423,0.09197877,0.4031705,-0.4059763,1.0417256,1.1925063,-0.06845935,-0.104517035,-1.54246,-1.5159298,-0.24005303
-0.2,-0.1,0.9999999999999999,0.0,0.0,0,-0.29736468,0.33690354,1.0029327,0.5406557,0.0905505,0.40321815,-0.40633562,0.88873416,1.1277052,0.03592912,-0.0817169,0.19609453,-1.466493,0.7234795
-0.2,-0.1,0.9999999999999999,0.0,0.0,0,-0.2978359,0.3380056,1.0030318,0.54122347,0.08625407,0.40199918,-0.40526462,1.0086074,1.2680132,0.18772773,-0.080541104,-1.07843,-1.4920765,-1.223605
-0.2,-0.1,0.9999999999999999,0.0,0.0,0,-0.29820368,0.33664212,1.0032964,0.54107034,0.092540696,0.402915,-0.4069322,1.1184828,1.1149781,-0.0858318,-0.08176357,2.0055718,-1.5096599,-0.7912844
-0.2,-0.1,0.9999999999999999,0.0,0.0,0,-0.29803675,0.33622417,1.0040101,0.5405523,0.089994624,0.4038313,-0.41262978,1.2976252,1.1285857,-0.008829851,-0.08869925,-1.0401235,-1.5420243,-1.0977727
-0.2,-0.1,0.9999999999999999,0.0,0.0,0,-0.2982168,0.33831412,1.0032891,0.5415368,0.083203636,0.40267,-0.40931448,0.99046814,1.2748449,0.006485182,-0.024404164,0.37591332,-1.4799072,-0.9673837
-0.2,-0.1,0.9999999999999999,0.0,0.0,0,-0.29781595,0.33751494,1.0027373,0.5414713,0.085142545,0.4023934,-0.4005691,0.78064495,1.1413339,-0.11012871,-0.10611436,1.2815673,-1.4811512,-0.055535004
-0.2,-0.1,0.9999999999999999,0.0,0.0,0,-0.29776856,0.33591512,1.0052799,0.5409627,0.09180649,0.40291208,-0.40011823,1.3182316,1.1843612,-0.29987404,-0.058762517,0.26277134,-1.4785947,0.78305155
-0.2,-0.1,0.9999999999999999,0.0,0.0,0,-0.29680088,0.3364136,1.0029153,0.54082036,0.09357172,0.4028422,-0.403499,0.60398006,1.2345622,0.021488937,-0.047170416,2.1751375,-1.5192913,-1.0871334
-0.2,-0.1,0.9999999999999999,0.0,0.0,0,-0.2975093,0.33830675,1.0031251,0.5412132,0.09639451,0.40231508,-0.40338156,1.1798481,1.2563663,-0.011585837,-0.04831247,-1.1283224,-1.5116711,1.4843836
-0.2,-0.1,0.9999999999999999,0.0,0.0,0,-0.2981397,0.33684477,1.0030625,0.54160523,0.09059842,0.40277818,-0.40535802,1.1172218,1.2817631,-0.11874343,-0.1067551,-1.3720247,-1.5180874,0.2976989
-0.2,-0.1,0.9999999999999999,0.0,0.0,0,-0.2981394,0.33915684,1.0042545,0.54125375,0.082667865,0.40157968,-0.38538525,0.1330465,1.1149048,0.025783535,-0.014011778,-0.8091058,-1.4953378,0.2812035
-0.2,-0.1,0.9999999999999999,0.0,0.0,0,-0.29746923,0.33534667,1.0036942,0.5405938,0.086392544,0.40366012,-0.40122592,0.7749292,1.1663297,-0.0690989,-0.05415485,1.6524742,-1.4966425,-0.12753448
-0.2,-0.1,0.9999999999999999,0.0,0.0,0,-0.29776663,0.33605176,1.0041308,0.5405858,0.09783303,0.40490016,-0.3976989,0.86076736,1.0616288,-0.10396118,-0.045189224,0.6463303,-1.4909279,-0.37865844
-0.2,-0.1,0.9999999999999999,0.0,0.0,0,-0.2977375,0.33687177,1.0039008,0.5405328,0.09455844,0.40469974,-0.39702076,1.1691667,1.2311066,-0.04010497,-0.08523809,0.7424725,-1.5055233,-0.6549171
-0.2,-0.1,0.9999999999999999,0.0,0.0,0,-0.29839027,0.33840904,1.004111,0.54120374,0.08455924,0.40348858,-0.4034523,0.7796859,1.0286268,0.18290822,-0.11682741,1.8030181,-1.5251681,0.035242293
-0.2,-0.1,0.9999999999999999,0.0,0.0,0,-0.29796913,0.33488548,1.0049597,0.5413717,0.09067452,0.4036257,-0.39304033,0.6934588,1.1900654,0.036608107,-0.08181769,-1.1536645,-1.4821588,0.8527739
-0.2,-0.1,0.9999999999999999,0.0,0.0,0,-0.29836634,0.3371842,1.0036474,0.5409507,0.08703685,0.40468094,-0.40255132,1.1504788,1.2320317,0.032888137,0.0058739064,1.8961695,-1.5112025,-0.4880521
-0.2,-0.1,0.9999999999999999,0.0,0.0,0,-0.29800677,0.33715007,1.0039452,0.5408506,0.09095659,0.4023661,-0.40718538,1.34527,1.1931647,0.030249728,-0.060113564,0.70516187,-1.5098077,0.60568917
-0.2,-0.1,0.9999999999999999,0.0,0.0,0,-0.29757935,0.3378233,1.0031401,0.54111254,0.10037006,0.40327054,-0.40443617,0.5973297,1.2028295,-0.09903501,-0.087850064,0.8130946,-1.4656407,-0.09085503
-0.2,-0.1,0.9999999999999999,0.0,0.0,0,-0.29773757,0.3365634,1.0032668,0.5405209,0.08757407,0.40434158,-0.41525328,1.1247267,1.2097569,-0.24578646,-0.13076478,1.4582033,-1.543626,1.4748665
-0.2,-0.1,0.9999999999999999,0.0,0.0,0,-0.29763776,0.33733523,1.003279,0.54091984,0.086627014,0.4040114,-0.4081931,1.142059,1.278693,-0.0401557,-0.059803635,0.14217031,-1.4750128,0.927906
-0.2,-0.1,0.9999999999999999,0.0,0.0,0,-0.29814893,0.33675808,1.004044,0.5409353,0.09085695,0.4037959,-0.4010327,1.056651,1.1043735,-0.29183432,-0.15850806,-2.2946718,-1.5101911,-0.9347427
-0.2,-0.1,0.9999999999999999,0.0,0.0,0,-0.29793167,0.33713025,1.0023925,0.5416276,0.08250994,0.40292603,-0.4007736,0.55625796,1.1995896,-0.021655003,-0.06359634,0.8190302,-1.550661,-0.83514225
-0.2,-0.1,0.9999999999999999,0.0,0.0,0,-0.29750225,0.33642843,1.0036656,0.540774,0.08520531,0.40246466,-0.40332228,0.8742916,1.1305509,-0.108278565,-0.030322136,2.4133282,-1.4736537,0.16772471
-0.2,-0.1,0.9999999999999999,0.0,0.0,0,-0.29755813,0.33635387,1.0028087,0.5415,0.09216553,0.4032123,-0.40133342,1.4247416,1.1455741,-0.10214263,-0.07127046,1.0632119,-1.5039308,-0.79661787
-0.2,-0.1,0.9999999999999999,0.0,0.0,0,-0.29786682,0.3372331,1.0040388,0.5409959,0.09006132,0.40423247,-0.39668244,1.5250902,1.0512494,-0.14001301,-0.013570385,0.38127178,-1.5167527,-0.6231704
-0.2,-0.1,0.9999999999999999,0.0,0.0,0,-0.2979806,0.33826977,1.0034214,0.54107535,0.08626081,0.40323797,-0.40719506,1.04824,1.188622,-0.063439675,-0.039786655,-0.67722315,-1.5154526,2.2381601
-0.2,-0.1,0.9999999999999999,0.0,0.0,0,-0.29814953,0.3383197,1.003364,0.5413675,0.08752146,0.40335914,-0.39241666,0.7842264,1.2116024,-0.15780713,-0.04244662,1.7000905,-1.5289652,0.12271666
-0.2,-0.1,0.9999999999999999,0.0,0.0,0,-0.29783514,0.33755204,1.0036494,0.54079515,0.091984786,0.402601,-0.40924212,1.14755,1.1366326,-0.07435746,-0.07023073,1.2297541,-1.4834269,1.0028197
-0.2,-0.1,0.9999999999999999,0.0,0.0,0,-0.29753864,0.33615083,1.0041243,0.5413911,0.0951319,0.40298194,-0.41025683,0.66509515,1.240072,-0.28868443,-0.09901411,0.84488094,-1.4996079,-1.3643513
-0.2,-0.1,0.9999999999999999,0.0,0.0,0,-0.29696742,0.33597708,1.0034857,0.54113144,0.08139175,0.40435347,-0.4032098,0.726009,1.1720346,-0.43986925,-0.046921365,-0.84017044,-1.4974781,0.05109434
-0.2,-0.1,0.9999999999999999,0.0,0.0,0,-0.29721886,0.33796236,1.0027503,0.5413394,0.08778432,0.4023207,-0.40916878,1.2734824,1.1260321,-0.047456194,-0.12550852,-1.0848209,-1.5263233,0.3821291
-0.2,-0.1,0.9999999999999999,0.0,0.0,0,-0.29734668,0.33630452,1.0045577,0.5413943,0.090193786,0.402694,-0.39554045,0.94930995,1.1372257,-0.099682674,-0.07061906,1.0493301,-1.5139607,-0.58376443
-0.2,-0.1,0.9999999999999999,0.0,0.0,0,-0.29794556,0.33541298,1.0038764,0.5413153,0.08999771,0.4047796,-0.40333986,0.8731593,1.1002166,-0.091766186,-0.05213492,1.0471358,-1.4593458,0.69225776
-0.2,-0.1,0.9999999999999999,0.0,0.0,0,-0.2975296,0.33608675,1.0048254,0.54153997,0.09029527,0.40256715,-0.4075163,1.1968291,1.14546,0.11487468,-0.102402486,0.60454625,-1.4905927,-2.6983175
-0.2,-0.1,0.9999999999999999,0.0,0.0,0,-0.29793116,0.33786294,1.0030321,0.54153043,0.09477144,0.40356472,-0.40361312,0.6737311,1.1023179,-0.023080427,-0.089163095,-1.3843095,-1.5373925,0.6315248
-0.2,-0.1,0.9999999999999999,0.0,0.0,0,-0.29766366,0.33745512,1.0039331,0.5404037,0.08389157,0.405417,-0.40909746,0.34253585,1.1665117,0.10078706,-0.049788337,-0.35802898,-1.4779832,0.58263814
-0.2,-0.1,0.9999999999999999,0.0,0.0,0,-0.29730096,0.3357201,1.0019584,0.5419662,0.08736209,0.4030579,-0.39933658,0.9783308,1.2042068,-0.098097704,-0.09720662,2.1708632,-1.5330272,-0.7979768
-0.2,-0.1,0.9999999999999999,0.0,0.0,0,-0.2971601,0.33886752,1.0039561,0.5412068,0.089407325,0.4032347,-0.40361297,0.7965952,1.030657,-0.1566035,-0.087970644,-1.449234,-1.448812,0.73517483
-0.2,-0.1,0.9999999999999999,0.0,0.0,0,-0.29767057,0.33719525,1.0049101,0.5411834,0.08898453,0.40340957,-0.401253,0.9892109,1.1129984,-0.15141292,-0.052198812,1.5170512,-1.4688479,-0.31002322
-0.2,-0.1,0.9999999999999999,0.0,0.0,0,-0.29735896,0.3361136,1.0034126,0.54118896,0.08730568,0.404274,-0.4074831,0.98927075,1.2787455,-0.038157456,-0.073421486,1.8129252,-1.5070785,0.6612923
-0.2,-0.1,0.9999999999999999,0.0,0.0,0,-0.2977266,0.3374335,1.0064673,0.5408657,0.09344658,0.4030976,-0.39806676,1.320436,1.1155761,0.06395036,-0.11885802,0.41009772,-1.4563608,0.39429
-0.2,-0.1,0.9999999999999999,0.0,0.0,0,-0.2974157,0.3381149,1.0049998,0.54115045,0.08808356,0.404285,-0.39526978,0.6744164,1.1701547,0.08716889,-0.02302657,-0.40404186,-1.5082766,0.9366512
-0.2,-0.1,0.9999999999999999,0.0,0.0,0,-0.2976926,0.33758718,1.0055343,0.54153985,0.09460834,0.4028916,-0.3989409,1.0439171,1.2277628,0.07356911,-0.031202184,0.29569963,-1.5001966,0.86684126
-0.2,-0.1,0.9999999999999999,0.0,0.0,0,-0.29826343,0.3369612,1.0022194,0.54067105,0.084962636,0.40257108,-0.39336362,0.8053787,1.147348,0.1835432,-0.013855956,-0.21241048,-1.4679211,-1.0488589
-0.2,-0.1,0.9999999999999999,0.0,0.0,0,-0.29700845,0.3362335,1.0013368,0.54033566,0.086693265,0.40235317,-0.40760538,0.964096,1.0622538,-0.0216292,-0.007891043,0.18778016,-1.4730139,-0.13411674
-0.2,-0.1,0.9999999999999999,0.0,0.0,0,-0.29825824,0.33603406,1.0033983,0.54044825,0.09107388,0.4028325,-0.38573584,0.6579464,1.095905,-0.14095314,-0.025193468,-0.47953978,-1.525248,0.8201837
-0.2,-0.1,0.9999999999999999,0.0,0.0,0,-0.2978468,0.33687449,1.001078,0.5406236,0.085513696,0.40315235,-0.4068379,1.1858853,1.0045596,-0.011394775,-0.07458555,-1.4341033,-1.5089699,1.079198
-0.2,-0.1,0.9999999999999999,0.0,0.0,0,-0.2981496,0.33655578,1.0012246,0.5414567,0.08972388,0.4018374,-0.39540502,1.7642137,1.1620079,-0.14630798,-0.097143225,-1.7180573,-1.482138,0.41906935
-0.2,-0.1,0.9999999999999999,0.0,0.0,0,-0.29822654,0.3354823,1.0040551,0.54112023,0.09012406,0.4019294,-0.39176893,0.745709,1.096816,-0.14102092,-0.09315735,0.049391378,-1.5324494,-0.36794674
-0.2,-0.1,0.9999999999999999,0.0,0.0,0,-0.29800278,0.33557934,1.0028524,0.54083616,0.08679968,0.40399393,-0.3943531,0.76660633,1.1892318,-0.09765134,-0.08458349,0.62738276,-1.4662328,0.22714286
-0.2,-0.1,0.9999999999999999,0.0,0.0,0,-0.29793468,0.33635458,1.0028104,0.5404354,0.086659454,0.403543,-0.39736336,0.51411533,1.1238135,0.2620591,-0.06798832,0.048228152,-1.4848344,-0.020040166
-0.2,-0.1,0.9999999999999999,0.0,0.0,0,-0.29723504,0.33741173,1.0019028,0.5412099,0.08999187,0.4021062,-0.38664418,1.071851,1.1787918,-0.14463317,-0.08627078,0.39271736,-1.4718904,-0.69858724
-0.2,-0.1,0.9999999999999999,0.0,0.0,0,-0.29786116,0.33591244,1.0031416,0.54082084,0.09353759,0.40286648,-0.39997903,0.6778455,1.127141,0.2885001,-0.060667705,-0.10833567,-1.470169,-0.7352728
-0.2,-0.1,0.9999999999999999,0.0,0.0,0,-0.29827476,0.33459836,1.0024867,0.5409656,0.089006975,0.40436164,-0.39433774,0.7346535,1.1736987,-0.07980782,-0.08845436,1.6597168,-1.4760704,0.15642092
-0.2,-0.1,0.9999999999999999,0.0,0.0,0,-0.29800653,0.3353186,1.0027493,0.5411143,0.090145506,0.40407753,-0.39679348,0.9401699,1.2844795,-0.3500827,-0.05117625,0.6713892,-1.4668382,0.24689327
-0.2,-0.1,0.9999999999999999,0.0,0.0,0,-0.2980382,0.3352027,1.0043254,0.54071003,0.091036916,0.40277612,-0.41051683,1.2247921,1.1633812,-0.11774986,-0.056889847,0.057394918,-1.4730072,1.1847918
-0.2,-0.1,0.9999999999999999,0.0,0.0,0,-0.29732686,0.33576784,1.0027484,0.54124105,0.089952424,0.40257484,-0.3880891,0.92743117,1.1697682,-0.3299949,-0.06170316,1.5554248,-1.4991449,-0.94878167
-0.2,-0.1,0.9999999999999999,0.0,0.0,0,-0.29781657,0.33531305,1.0031642,0.54092586,0.092188165,0.4041018,-0.4056573,1.0846579,1.1419692,0.04895757,-0.04937229,0.25111857,-1.417387,0.37428194
-0.2,-0.1,0.9999999999999999,0.0,0.0,0,-0.29766974,0.3364686,1.0040219,0.5407064,0.085594155,0.4016887,-0.41702226,0.87226284,1.1580763,-0.15691638,-0.034486853,-0.30989385,-1.4886765,1.2764193
-0.2,-0.1,0.9999999999999999,0.0,0.0,0,-0.29811335,0.33833742,1.0050247,0.54049075,0.08989145,0.40201968,-0.3946185,1.2331702,1.2549309,-0.07394937,-0.10173172,1.5757204,-1.5289614,0.17805651
-0.2,-0.1,0.9999999999999999,0.0,0.0,0,-0.2979222,0.33808717,1.0032865,0.5412814,0.0956806,0.40294033,-0.39366388,0.9585849,1.1068245,0.22946484,-0.023645936,0.6461109,-1.4730109,1.2369686
-0.2,-0.1,0.9999999999999999,0.0,0.0,0,-0.29788283,0.33523786,1.0033268,0.5411336,0.08894942,0.40305138,-0.38588697,0.82420564,1.1493767,-0.0071943477,-0.09049569,1.9766517,-1.54901,0.21730699
-0.2,-0.1,0.9999999999999999,0.0,0.0,0,-0.29758206,0.33782238,1.001622,0.54147524,0.08608369,0.40263334,-0.39911708,0.56867266,1.1906055,0.17883565,-0.049897343,-0.03472161,-1.4776113,-0.34788397
-0.2,-0.1,0.9999999999999999,0.0,0.0,0,-0.29825974,0.3358558,1.0038471,0.54156625,0.09227604,0.40168208,-0.41096774,1.107242,1.2721711,-0.042909015,-0.077819146,0.9537945,-1.4758135,-0.26631775
-0.2,-0.1,0.9999999999999999,0.0,0.0,0,-0.2977749,0.33626658,1.0023134,0.54049206,0.08774182,0.4049013,-0.39593104,1.4736291,1.0581676,-0.096201666,-0.018572766,0.66853863,-1.5241513,-0.44318157
-0.2,-0.1,0.9999999999999999,0.0,0.0,0,-0.29757333,0.33590814,1.0034333,0.5410453,0.09056571,0.40150598,-0.39503455,0.53912044,1.1095928,-0.18485104,-0.11710047,1.2379665,-1.489179,-0.65674007
-0.2,-0.1,0.9999999999999999,0.0,0.0,0,-0.29812944,0.33819917,1.0029354,0.5410195,0.0945476,0.40210366,-0.39553082,1.1670395,1.1434736,-0.016104989,-0.06249652,2.0263965,-1.4443115,-0.15868255
-0.2,-0.1,0.9999999999999999,0.0,0.0,0,-0.29820997,0.3375568,1.0031624,0.54120654,0.08786784,0.40296397,-0.38969013,0.88842,1.2073665,-0.33287877,-0.05079966,1.9683076,-1.501759,-0.18133457
-0.2,-0.1,0.9999999999999999,0.0,0.0,0,-0.298208,0.33815578,1.0033786,0.54130596,0.08927237,0.4029995,-0.40263245,0.7461545,1.1789166,-0.4098301,-0.07158798,-0.33514857,-1.4889812,0.09688926
-0.2,-0.1,0.9999999999999999,0.0,0.0,0,-0.297891,0.33570126,1.0035702,0.54153687,0.09430823,0.40274101,-0.39608744,0.5678789,1.1605451,-0.14386955,-0.07954394,-1.1037698,-1.5106232,-0.20864193
-0.2,-0.1,0.9999999999999999,0.0,0.0,0,-0.29818502,0.33637905,1.0038763,0.5410089,0.08730858,0.40346497,-0.39609072,0.91433495,1.1401538,-0.07621188,-0.100615755,0.2268463,-1.527772,-0.60286945
-0.2,-0.1,0.9999999999999999,0.0,0.0,0,-0.29770353,0.33887568,1.0029448,0.5411905,0.089289814,0.40211332,-0.38810977,0.6381867,1.2196854,0.035474744,-0.11224143,-0.40321955,-1.5337027,-0.8121226
-0.2,-0.1,0.9999999999999999,0.0,0.0,0,-0.29762802,0.33682823,1.0047334,0.5403261,0.09032552,0.40302226,-0.4013549,1.0954155,1.1904659,-0.22302857,-0.07920057,1.5296507,-1.4931003,-0.3978124
-0.2,-0.1,0.9999999999999999,0.0,0.0,0,-0.29823452,0.33839622,1.0051448,0.54115033,0.09092019,0.4026321,-0.38888144,0.8621389,1.2472278,-0.09121303,-0.029314669,-0.09026563,-1.4571725,0.28166068
-0.2,-0.1,0.9999999999999999,0.0,0.0,0,-0.2973599,0.33685008,1.0028812,0.541556,0.09144616,0.40251705,-0.3956306,1.4834849,1.2490252,-0.11738815,-0.084121004,-1.4405024,-1.50669,0.6242084
-0.2,-0.1,0.9999999999999999,0.0,0.0,0,-0.29858962,0.3354014,1.0043274,0.5413832,0.09338682,0.403616,-0.40173027,0.702624,1.1648548,0.025868654,-0.104859136,0.60721326,-1.4168407,-0.7556788
-0.2,-0.1,0.9999999999999999,0.0,0.0,0,-0.29839686,0.33582217,1.0031482,0.5410094,0.091239184,0.40376446,-0.40558666,1.0762116,1.0786351,0.07830042,-0.077716514,0.9952448,-1.5231612,0.50641996
-0.2,-0.1,0.9999999999999999,0.0,0.0,0,-0.29758483,0.33656868,1.0025059,0.54139394,0.09146074,0.40349457,-0.3968951,0.5617291,1.2175168,0.19635157,-0.06298697,-0.3487011,-1.4948988,-0.2582397
-0.2,-0.1,0.9999999999999999,0.0,0.0,0,-0.2981477,0.33593994,1.0037209,0.54125285,0.08244454,0.4029832,-0.408443,0.8217237,1.1898361,-0.050779764,-0.058292814,1.4212097,-1.4983995,-0.79881114
-0.2,-0.1,0.9999999999999999,0.0,0.0,0,-0.29805282,0.335086,1.0038304,0.5410077,0.08833189,0.40402684,-0.410842,0.9827287,1.1991817,-0.09478059,-0.055957194,1.0242715,-1.5280533,-0.63314575
-0.2,-0.1,0.9999999999999999,0.0,0.0,0,-0.2978158,0.33670855,1.00362,0.5411406,0.08830876,0.40485802,-0.40086576,1.1982802,1.0900502,0.4831038,-0.067643605,-0.32262844,-1.4698701,-0.33743584
-0.2,-0.1,0.9999999999999999,0.0,0.0,0,-0.29777774,0.33708483,1.0034673,0.5409779,0.08636305,0.40436357,-0.40462622,0.82348573,1.1356407,-0.13190679,-0.058848295,-0.34300196,-1.4763509,1.4749682
-0.2,-0.1,0.9999999999999999,0.0,0.0,0,-0.29844114,0.33579007,1.0050658,0.54111606,0.089900404,0.40407768,-0.39569122,1.5127109,1.2013932,-0.16344805,-0.051099867,-0.4655223,-1.4618092,0.3246961
-0.2,-0.1,0.9999999999999999,0.0,0.0,0,-0.2977066,0.33605674,1.003498,0.54118603,0.08833139,0.403904,-0.3985061,0.6776689,1.0892546,-0.056257367,-0.050504554,-0.4807453,-1.5121162,-0.091585286
-0.2,-0.1,0.9999999999999999,0.0,0.0,0,-0.29717687,0.3371073,1.0019382,0.5412175,0.09602137,0.4028792,-0.4125335,0.929043,1.1414797,0.020995084,-0.051925212,1.813806,-1.4965677,0.34202406
-0.2,-0.1,0.9999999999999999,0.0,0.0,0,-0.29777232,0.3357517,1.0040908,0.5421029,0.083207,0.4032169,-0.4164593,0.8076999,1.212342,-0.44072402,-0.067671716,0.44065687,-1.467545,0.013887102
-0.2,-0.1,0.9999999999999999,0.0,0.0,0,-0.29803568,0.33618933,1.0039002,0.54187477,0.09332544,0.40404648,-0.39758998,1.1904955,1.125444,-0.029063182,-0.07034764,1.2967974,-1.5083042,0.45025274
-0.2,-0.1,0.9999999999999999,0.0,0.0,0,-0.29725537,0.33669582,1.0060824,0.5413282,0.09004937,0.40367857,-0.4086966,0.98819757,1.2358866,-0.10405253,-0.066539586,0.05756525,-1.4759444,1.0664583
-0.2,-0.1,0.9999999999999999,0.0,0.0,0,-0.2977668,0.3369325,1.0029434,0.54050684,0.09212131,0.40081406,-0.3994989,0.39031348,1.087637,-0.06493979,-0.13611025,0.53806436,-1.4673014,0.8312445
-0.2,-0.1,0.9999999999999999,0.0,0.0,0,-0.29870155,0.33646286,1.0025651,0.5406867,0.09282102,0.40394947,-0.38417396,0.60635614,1.1151594,0.1242815,-0.046087444,-1.3303517,-1.4884645,-1.2140672
-0.2,-0.1,0.9999999999999999,0.0,0.0,0,-0.29838425,0.33697867,1.003244,0.5414709,0.08031507,0.40136635,-0.40438363,1.078857,1.2346259,-0.03147515,-0.15783581,0.75112635,-1.4657059,0.432849
-0.2,-0.1,0.9999999999999999,0.0,0.0,0,-0.2971942,0.33770922,1.0025401,0.54061323,0.087057695,0.40299088,-0.3949029,0.8745944,1.103379,-0.106891714,-0.050780736,0.62386197,-1.4581606,-0.20797212
-0.2,-0.1,0.9999999999999999,0.0,0.0,0,-0.2975679,0.33675775,1.0027571,0.5406298,0.09039606,0.40276167,-0.4132355,0.9865088,1.1839464,0.083657116,-0.098437786,0.41813958,-1.4582046,0.20839179
-0.2,-0.1,0.9999999999999999,0.0,0.0,0,-0.297166,0.3361963,1.0021031,0.54128987,0.09134829,0.4021781,-0.395889,0.87729204,1.1671908,0.13389048,-0.101609066,1.0715594,-1.4907984,0.4076237
-0.2,-0.1,0.9999999999999999,0.0,0.0,0,-0.2978811,0.33699137,1.0024419,0.5411657,0.08848989,0.40289682,-0.40078267,0.8090956,1.248769,-0.24695194,-0.114193425,1.6965007,-1.4559233,-0.5564655
-0.2,-0.1,0.9999999999999999,0.0,0.0,0,-0.29810023,0.33796257,1.0025905,0.5409629,0.0934879,0.4022045,-0.38758475,1.331615,1.1705202,0.103063814,-0.021772444,2.1681342,-1.5061677,0.8084789
-0.2,-0.1,0.9999999999999999,0.0,0.0,0,-0.29731834,0.33572826,1.0040141,0.54083616,0.088345684,0.40176156,-0.39707664,0.44865608,1.1953577,-0.034431975,-0.043171775,1.364103,-1.5359976,0.4404313
-0.2,-0.1,0.9999999999999999,0.0,0.0,0,-0.29771593,0.33809516,1.0024471,0.5415396,0.08557894,0.40351087,-0.40808108,0.7635013,1.2077835,-0.3133469,-0.09488185,-0.28061187,-1.4430907,-0.57595474
-0.2,-0.1,0.9999999999999999,0.0,0.0,0,-0.29745734,0.3345672,1.0048794,0.540367,0.08809563,0.40415975,-0.4016256,0.35107607,1.108607,-0.047639675,-0.11441702,1.2716982,-1.5421598,-0.43858835
-0.2,-0.1,0.9999999999999999,0.0,0.0,0,-0.29794812,0.33856606,1.0041795,0.54139876,0.09007812,0.40231135,-0.4012601,1.1856998,1.3005221,0.0937792,-0.04733441,2.0732145,-1.5120302,0.252603
-0.2,-0.1,0.9999999999999999,0.0,0.0,0,-0.2976791,0.3359386,1.002654,0.54101825,0.095347,0.40326777,-0.39846396,0.64334494,1.295376,-0.14500123,-0.061823055,-0.3101111,-1.4730884,1.0783751
