sanky1234/BimanualDexCatch/isaacgymenvs/cem_results/football_pose_-0.2_-0.2_0.6_-0.5235987755982988_0.34906585039886606_0.523598775598299.csv
x,y,z,roll,pitch,yaw,robot1/joint1,robot1/joint2,robot1/joint3,robot1/joint4,robot1/joint5,robot1/joint6,robot1/joint7,robot2/joint1,robot2/joint2,robot2/joint3,robot2/joint4,robot2/joint5,robot2/joint6,robot2/joint7
-0.2,-0.2,0.6,-0.5235987755982988,0.34906585039886606,0.523598775598299,1.8082963,1.5272052,0.18803662,0.044439048,-0.10412552,0.98352444,0.6511885,-0.3216904,1.6225525,-0.39127812,-0.8032739,-0.35442954,1.4588481,1.4662465
-0.2,-0.2,0.6,-0.5235987755982988,0.34906585039886606,0.523598775598299,1.7991649,1.5234839,0.2007379,0.06138131,-0.12135787,0.9638046,0.6631718,-0.30524623,1.6211768,-0.3561067,-0.8416337,-0.38968113,1.5011476,1.5802311
-0.2,-0.2,0.6,-0.5235987755982988,0.34906585039886606,0.523598775598299,1.7783532,1.5232565,0.17839085,0.053972863,-0.10811635,0.97212446,0.65681475,-0.3096466,1.6340399,-0.37548402,-0.8342904,-0.38307256,1.487189,1.4508637
-0.2,-0.2,0.6,-0.5235987755982988,0.34906585039886606,0.523598775598299,1.7862326,1.5227987,0.18466456,0.05845121,-0.10814152,0.9753042,0.6749174,-0.31442678,1.6269104,-0.39259887,-0.8267738,-0.30919433,1.4871842,1.485066
-0.2,-0.2,0.6,-0.5235987755982988,0.34906585039886606,0.523598775598299,1.7967405,1.5223775,0.21297435,0.064247526,-0.10177415,0.9616221,0.6249724,-0.3141324,1.631201,-0.378716,-0.8144577,-0.35809043,1.4832644,1.612734
-0.2,-0.2,0.6,-0.5235987755982988,0.34906585039886606,0.523598775598299,1.8131855,1.5238688,0.20331118,0.056677856,-0.120080404,0.9851643,0.6103012,-0.32374614,1.614799,-0.39833406,-0.82590777,-0.35819,1.5118127,1.6556395
-0.2,-0.2,0.6,-0.5235987755982988,0.34906585039886606,0.523598775598299,1.8067707,1.5222675,0.17638917,0.056548882,-0.10583203,0.96105397,0.6510929,-0.3118137,1.6226074,-0.384938,-0.84558874,-0.37333786,1.4651357,1.5100284
-0.2,-0.2,0.6,-0.5235987755982988,0.34906585039886606,0.523598775598299,1.821227,1.5251633,0.18834792,0.053024776,-0.110804684,0.97750777,0.6056047,-0.31707683,1.6169591,-0.35906193,-0.8195208,-0.29935852,1.4805895,1.6379325
-0.2,-0.2,0.6,-0.5235987755982988,0.34906585039886606,0.523598775598299,1.8039024,1.5223517,0.18203662,0.04895697,-0.106505156,0.96725035,0.65549254,-0.31558478,1.6235659,-0.37632424,-0.8686168,-0.29835263,1.4880209,1.6550128
-0.2,-0.2,0.6,-0.5235987755982988,0.34906585039886606,0.523598775598299,1.7985778,1.5258033,0.20291032,0.05921749,-0.10219867,0.97734326,0.56810486,-0.307494,1.6277812,-0.3846542,-0.8088059,-0.32023007,1.4654093,1.6020995
-0.2,-0.2,0.6,-0.5235987755982988,0.34906585039886606,0.523598775598299,1.7893041,1.509381,0.16512573,0.046151854,-0.13842344,0.99190557,0.5830761,-0.30980077,1.6479893,-0.3856669,-0.81646204,-0.41846493,1.4505,1.5886278
-0.2,-0.2,0.6,-0.5235987755982988,0.34906585039886606,0.523598775598299,1.8002682,1.5303938,0.20331797,0.066830866,-0.11750078,0.97413194,0.5966967,-0.32558516,1.618512,-0.3837701,-0.8023838,-0.331274,1.4689801,1.575471
-0.2,-0.2,0.6,-0.5235987755982988,0.34906585039886606,0.523598775598299,1.8075995,1.5262635,0.17978421,0.055564027,-0.12813935,0.98758334,0.61134285,-0.309975,1.6208969,-0.37091362,-0.8281928,-0.4326186,1.4882361,1.4998759
-0.2,-0.2,0.6,-0.5235987755982988,0.34906585039886606,0.523598775598299,1.7799629,1.5189929,0.18584578,0.04477137,-0.12572075,0.9911371,0.64743936,-0.3193613,1.6216781,-0.40402904,-0.82587826,-0.3493591,1.4820951,1.642397
-0.2,-0.2,0.6,-0.5235987755982988,0.34906585039886606,0.523598775598299,1.806141,1.5204233,0.19633785,0.059964888,-0.13627051,0.9724213,0.63839316,-0.3019613,1.6391879,-0.36899948,-0.7911836,-0.3880643,1.461104,1.6065722
-0.2,-0.2,0.6,-0.5235987755982988,0.34906585039886606,0.523598775598299,1.8206728,1.5181767,0.17681181,0.051484346,-0.10734357,0.9736095,0.6682436,-0.30642137,1.6328486,-0.36603093,-0.83079445,-0.38014752,1.4973693,1.63867
-0.2,-0.2,0.6,-0.5235987755982988,0.34906585039886606,0.523598775598299,1.7996585,1.5201379,0.18278307,0.05026057,-0.07703105,0.9697215,0.6242009,-0.30693576,1.6248642,-0.35050598,-0.8045761,-0.39860678,1.4938657,1.611611
-0.2,-0.2,0.6,-0.5235987755982988,0.34906585039886606,0.523598775598299,1.7820569,1.5269797,0.18960409,0.06063418,-0.11393858,0.9748661,0.6666225,-0.3043498,1.6320515,-0.35871473,-0.80275106,-0.39784074,1.4794993,1.6278588
-0.2,-0.2,0.6,-0.5235987755982988,0.34906585039886606,0.523598775598299,1.8015783,1.5232489,0.17137954,0.059690706,-0.10396745,0.9808696,0.651806,-0.32446164,1.6158755,-0.39334998,-0.84649634,-0.3297815,1.4812224,1.6700132
-0.2,-0.2,0.6,-0.5235987755982988,0.34906585039886606,0.523598775598299,1.8065532,1.5239975,0.20199737,0.04070805,-0.12973881,0.9682334,0.6265409,-0.3192071,1.6293466,-0.38427365,-0.8266085,-0.3417223,1.4689767,1.5408857
-0.2,-0.2,0.6,-0.5235987755982988,0.34906585039886606,0.523598775598299,1.7901514,1.5243974,0.17053743,0.058713652,-0.09335007,0.9747306,0.59847575,-0.30887136,1.6242819,-0.38240397,-0.8210242,-0.3348151,1.4886914,1.6554512
-0.2,-0.2,0.6,-0.5235987755982988,0.34906585039886606,0.523598775598299,1.8079873,1.5181714,0.18943426,0.066786855,-0.09378759,0.98412603,0.6074312,-0.31721032,1.6293899,-0.38484126,-0.8487171,-0.40950507,1.4688193,1.5615288
-0.2,-0.2,0.6,-0.5235987755982988,0.34906585039886606,0.523598775598299,1.8002357,1.5199529,0.1714957,0.060516592,-0.10088496,0.9670791,0.6361948,-0.31518596,1.634769,-0.40491867,-0.84443116,-0.36347196,1.4931061,1.6167469
-0.2,-0.2,0.6,-0.5235987755982988,0.34906585039886606,0.523598775598299,1.8018539,1.5147759,0.18254012,0.053546995,-0.11010638,0.97848195,0.6267202,-0.31007436,1.6354942,-0.40690058,-0.8497924,-0.3616198,1.4917676,1.6445531
-0.2,-0.2,0.6,-0.5235987755982988,0.34906585039886606,0.523598775598299,1.821704,1.5287501,0.17555681,0.057465933,-0.1252119,0.98340344,0.6506603,-0.320709,1.6327038,-0.38120311,-0.83507925,-0.35551843,1.5021204,1.6483902
-0.2,-0.2,0.6,-0.5235987755982988,0.34906585039886606,0.523598775598299,1.7835151,1.5275596,0.17300814,0.05216009,-0.11981992,0.96699905,0.6044405,-0.3136918,1.6350253,-0.34673592,-0.838055,-0.33984298,1.4711103,1.712909
-0.2,-0.2,0.6,-0.5235987755982988,0.34906585039886606,0.523598775598299,1.7921203,1.5279592,0.1819849,0.05754159,-0.11265281,0.9681875,0.65706635,-0.31996855,1.6299325,-0.42441064,-0.81578356,-0.36657992,1.4718978,1.6200912
-0.2,-0.2,0.6,-0.5235987755982988,0.34906585039886606,0.523598775598299,1.8072252,1.5245316,0.1714841,0.06771735,-0.11581718,0.9805278,0.5675726,-0.32706234,1.6358637,-0.3844568,-0.8136697,-0.3083102,1.4664497,1.7232318
-0.2,-0.2,0.6,-0.5235987755982988,0.34906585039886606,0.523598775598299,1.8004587,1.5279359,0.19629292,0.045639504,-0.11618626,0.9722954,0.6435746,-0.3224749,1.6243347,-0.38461727,-0.8116136,-0.29488546,1.466264,1.6175551
-0.2,-0.2,0.6,-0.5235987755982988,0.34906585039886606,0.523598775598299,1.7951729,1.5281003,0.1792286,0.05549065,-0.10690384,0.97720224,0.6302419,-0.31010318,1.6347901,-0.37347278,-0.81091624,-0.3137597,1.4891268,1.585563
-0.2,-0.2,0.6,-0.5235987755982988,0.34906585039886606,0.523598775598299,1.7966928,1.5264299,0.19570242,0.058881573,-0.12074982,0.9764463,0.58625394,-0.31582388,1.6348218,-0.38245443,-0.8435523,-0.33167154,1.5039725,1.5426311
-0.2,-0.2,0.6,-0.5235987755982988,0.34906585039886606,0.523598775598299,1.7993548,1.5230613,0.18072458,0.050528146,-0.11164859,0.95435524,0.69377315,-0.31563166,1.6299915,-0.38882104,-0.7848436,-0.32746166,1.4386193,1.6792179
-0.2,-0.2,0.6,-0.5235987755982988,0.34906585039886606,0.523598775598299,1.8122702,1.521287,0.16675667,0.083556496,-0.09619118,0.9714534,0.6243667,-0.31405827,1.6242863,-0.41422638,-0.8425377,-0.34722137,1.5078298,1.5382355
-0.2,-0.2,0.6,-0.5235987755982988,0.34906585039886606,0.523598775598299,1.8031404,1.5187337,0.20031382,0.047630496,-0.114863016,0.979844,0.6739511,-0.31485736,1.6298935,-0.36539483,-0.8288748,-0.3301115,1.5000641,1.6116759
-0.2,-0.2,0.6,-0.5235987755982988,0.34906585039886606,0.523598775598299,1.7997537,1.5181164,0.1830601,0.04377739,-0.09630957,0.9695128,0.63467336,-0.31432712,1.6146111,-0.35767594,-0.82525223,-0.36825442,1.4623042,1.6110924
-0.2,-0.2,0.6,-0.5235987755982988,0.34906585039886606,0.523598775598299,1.8025651,1.5174066,0.19112195,0.054962847,-0.09055339,0.98759407,0.6351753,-0.30563036,1.6320708,-0.4156381,-0.83767307,-0.36712322,1.5208966,1.566887
-0.2,-0.2,0.6,-0.5235987755982988,0.34906585039886606,0.523598775598299,1.8052554,1.5339772,0.1812961,0.030678624,-0.12532225,0.9803327,0.66146475,-0.3216743,1.625335,-0.38990054,-0.815314,-0.3658888,1.4432303,1.6888163
-0.2,-0.2,0.6,-0.5235987755982988,0.34906585039886606,0.523598775598299,1.8040718,1.5185094,0.18325028,0.06041707,-0.12893033,0.9784752,0.65159106,-0.3225795,1.6178284,-0.3933723,-0.8381648,-0.2870049,1.4941212,1.5878597
-0.2,-0.2,0.6,-0.5235987755982988,0.34906585039886606,0.523598775598299,1.8025786,1.5273215,0.20274566,0.050072405,-0.09317909,0.98174965,0.60901815,-0.3047023,1.6268951,-0.37291828,-0.83459157,-0.36436027,1.5057225,1.6024688
-0.2,-0.2,0.6,-0.5235987755982988,0.34906585039886606,0.523598775598299,1.792076,1.521278,0.18185839,0.04485042,-0.11576992,0.97643286,0.6580546,-0.31804898,1.6311672,-0.40657425,-0.83586067,-0.3314572,1.4679819,1.667371
-0.2,-0.2,0.6,-0.5235987755982988,0.34906585039886606,0.523598775598299,1.7786589,1.5232201,0.18833773,0.058555394,-0.12891482,0.9716272,0.66327745,-0.31483057,1.622099,-0.38080767,-0.83052975,-0.28829965,1.4933556,1.6664946
-0.2,-0.2,0.6,-0.5235987755982988,0.34906585039886606,0.523598775598299,1.7984875,1.5251834,0.20162193,0.056880813,-0.119932584,0.9657224,0.6334376,-0.32173878,1.6316496,-0.40869904,-0.8145405,-0.3672114,1.4827907,1.6918372
-0.2,-0.2,0.6,-0.5235987755982988,0.34906585039886606,0.523598775598299,1.7735593,1.5241557,0.18711418,0.055694696,-0.09715836,0.9738442,0.61107826,-0.31635374,1.6214788,-0.37629965,-0.8209958,-0.3622959,1.4536735,1.6730235
-0.2,-0.2,0.6,-0.5235987755982988,0.34906585039886606,0.523598775598299,1.7923567,1.5219623,0.16658852,0.067807935,-0.08477883,0.98138106,0.6017906,-0.32209492,1.6134524,-0.37672612,-0.84641784,-0.35731357,1.4884381,1.5961598
-0.2,-0.2,0.6,-0.5235987755982988,0.34906585039886606,0.523598775598299,1.785529,1.5254817,0.15824574,0.05095398,-0.111535884,0.97172683,0.6382557,-0.33531696,1.6097891,-0.37934977,-0.7941728,-0.4437983,1.4319263,1.5810416
-0.2,-0.2,0.6,-0.5235987755982988,0.34906585039886606,0.523598775598299,1.8061011,1.5292952,0.18973327,0.0558481,-0.11673112,0.96475774,0.6116826,-0.308939,1.6362976,-0.36535412,-0.8250863,-0.33030373,1.474776,1.6278276
-0.2,-0.2,0.6,-0.5235987755982988,0.34906585039886606,0.523598775598299,1.812416,1.5185581,0.18319252,0.049869884,-0.1254832,0.9741445,0.6543874,-0.31420076,1.633545,-0.36858347,-0.83583313,-0.38836363,1.4938755,1.6862465
-0.2,-0.2,0.6,-0.5235987755982988,0.34906585039886606,0.523598775598299,1.8109694,1.5215213,0.16500306,0.07031741,-0.10709676,0.97439295,0.6407201,-0.31619257,1.6222153,-0.3743053,-0.85809815,-0.37526724,1.4957058,1.6033475
-0.2,-0.2,0.6,-0.5235987755982988,0.34906585039886606,0.523598775598299,1.8128948,1.5277005,0.19074447,0.04687542,-0.12511994,0.9737129,0.65411806,-0.3115278,1.6319659,-0.39577025,-0.8299296,-0.3820494,1.5022064,1.6777115
-0.2,-0.2,0.6,-0.5235987755982988,0.34906585039886606,0.523598775598299,1.8057096,1.5287046,0.16900666,0.04731693,-0.10735882,0.9770633,0.6145159,-0.3062663,1.6424992,-0.36665872,-0.8373778,-0.3783564,1.4755429,1.6059713
-0.2,-0.2,0.6,-0.5235987755982988,0.34906585039886606,0.523598775598299,1.7926602,1.5213718,0.18299815,0.07395573,-0.09803721,0.98287004,0.5726684,-0.30753848,1.6253533,-0.38510373,-0.8593587,-0.33791435,1.5104842,1.5043555
-0.2,-0.2,0.6,-0.5235987755982988,0.34906585039886606,0.523598775598299,1.8090013,1.514896,0.17227632,0.074617095,-0.11629148,0.9817156,0.6226951,-0.3281631,1.6263727,-0.3781317,-0.8163295,-0.378482,1.4726107,1.6598707
-0.2,-0.2,0.6,-0.5235987755982988,0.34906585039886606,0.523598775598299,1.7950321,1.518994,0.19818598,0.034578558,-0.075502455,0.9813186,0.65631294,-0.3028748,1.6309102,-0.38308132,-0.8038416,-0.3363922,1.4708114,1.5535328
-0.2,-0.2,0.6,-0.5235987755982988,0.34906585039886606,0.523598775598299,1.806572,1.5218989,0.19079621,0.050418325,-0.10465105,0.9791823,0.6107839,-0.31310934,1.628316,-0.40216646,-0.80724794,-0.40012997,1.4483776,1.5482063
-0.2,-0.2,0.6,-0.5235987755982988,0.34906585039886606,0.523598775598299,1.817752,1.5232292,0.17720936,0.08006342,-0.115784526,0.9750255,0.61864614,-0.31164303,1.6162074,-0.3730689,-0.7938789,-0.3339808,1.4826486,1.6106231
-0.2,-0.2,0.6,-0.5235987755982988,0.34906585039886606,0.523598775598299,1.8111364,1.5285288,0.17512384,0.049501102,-0.107407115,0.9829804,0.6290507,-0.32314017,1.6249931,-0.4058331,-0.8648144,-0.4104133,1.4610946,1.5659109
-0.2,-0.2,0.6,-0.5235987755982988,0.34906585039886606,0.523598775598299,1.7997177,1.51378,0.19665538,0.060311835,-0.11369322,0.964091,0.6635804,-0.31409696,1.6239944,-0.38309348,-0.83495575,-0.34820274,1.5181446,1.5862476
-0.2,-0.2,0.6,-0.5235987755982988,0.34906585039886606,0.523598775598299,1.808846,1.5281668,0.19936028,0.054681454,-0.10582921,0.97204685,0.64000016,-0.31029502,1.6151327,-0.37837738,-0.815444,-0.35535872,1.5209701,1.5573486
-0.2,-0.2,0.6,-0.5235987755982988,0.34906585039886606,0.523598775598299,1.7991704,1.5223734,0.18291818,0.059170403,-0.10246708,0.987403,0.5976183,-0.31557566,1.631593,-0.3660301,-0.8519483,-0.3523464,1.5097187,1.6400888
-0.2,-0.2,0.6,-0.5235987755982988,0.34906585039886606,0.523598775598299,1.8039532,1.5293175,0.17743766,0.0528377,-0.10527823,0.9680269,0.58488953,-0.31134817,1.6174428,-0.39629203,-0.83979625,-0.36011067,1.4929711,1.5873444
-0.2,-0.2,0.6,-0.5235987755982988,0.34906585039886606,0.523598775598299,1.8257772,1.5196172,0.19419232,0.04675493,-0.12669426,0.9778968,0.6936927,-0.3004139,1.6202537,-0.3869483,-0.8416726,-0.3625033,1.4929703,1.6124492
-0.2,-0.2,0.6,-0.5235987755982988,0.34906585039886606,0.523598775598299,1.7930306,1.527553,0.18960084,0.050443273,-0.09602368,0.98631907,0.5846757,-0.31090638,1.6242974,-0.3923159,-0.8182983,-0.30795008,1.4901536,1.672614
-0.2,-0.2,0.6,-0.5235987755982988,0.34906585039886606,0.523598775598299,1.8095491,1.5252528,0.18084086,0.045701608,-0.11861693,0.97107023,0.6714575,-0.3063988,1.6186987,-0.36979562,-0.82159704,-0.41783714,1.4748205,1.5569819
-0.2,-0.2,0.6,-0.5235987755982988,0.34906585039886606,0.523598775598299,1.8062938,1.5223664,0.20267224,0.051796984,-0.11498132,0.96345663,0.6516141,-0.31178084,1.6252904,-0.37296036,-0.8286823,-0.3074697,1.5041468,1.6259395
-0.2,-0.2,0.6,-0.5235987755982988,0.34906585039886606,0.523598775598299,1.8018196,1.5239351,0.18993641,0.07487994,-0.128121,0.97416073,0.60076725,-0.30872914,1.6248511,-0.38390636,-0.8348922,-0.38487414,1.5032218,1.652552
-0.2,-0.2,0.6,-0.5235987755982988,0.34906585039886606,0.523598775598299,1.8106207,1.5220237,0.17772135,0.04691089,-0.092238694,0.9641971,0.60142636,-0.3053619,1.6296742,-0.37462628,-0.8526623,-0.33283296,1.5095512,1.6380655
-0.2,-0.2,0.6,-0.5235987755982988,0.34906585039886606,0.523598775598299,1.7814529,1.5265149,0.17275724,0.055302627,-0.089425944,0.96985686,0.60501677,-0.3133442,1.6237164,-0.3881759,-0.8198955,-0.36505425,1.4773812,1.6533126
-0.2,-0.2,0.6,-0.5235987755982988,0.34906585039886606,0.523598775598299,1.790727,1.5106236,0.18105617,0.06412497,-0.108771876,0.97982496,0.64319915,-0.31761935,1.6256839,-0.38596207,-0.8329846,-0.34585324,1.4949307,1.5530163
-0.2,-0.2,0.6,-0.5235987755982988,0.34906585039886606,0.523598775598299,1.788741,1.5209486,0.18238956,0.06970661,-0.11699976,0.9827088,0.62632173,-0.3238144,1.629905,-0.35179773,-0.8410974,-0.37009525,1.5200099,1.544923
-0.2,-0.2,0.6,-0.5235987755982988,0.34906585039886606,0.523598775598299,1.8266943,1.5202384,0.16095056,0.058918368,-0.12004945,0.98048633,0.6416173,-0.31169197,1.6217216,-0.38108677,-0.81702447,-0.34896886,1.4701781,1.654712
-0.2,-0.2,0.6,-0.5235987755982988,0.34906585039886606,0.523598775598299,1.798139,1.5333948,0.18258847,0.056616917,-0.10307046,0.9808671,0.59587616,-0.3095425,1.6342983,-0.3819784,-0.80678916,-0.32518834,1.4603207,1.6621346
-0.2,-0.2,0.6,-0.5235987755982988,0.34906585039886606,0.523598775598299,1.7945052,1.5136399,0.19542043,0.05828836,-0.12317385,0.9726329,0.65770704,-0.32456532,1.6244802,-0.39180902,-0.8240746,-0.33796445,1.4815912,1.5629035
-0.2,-0.2,0.6,-0.5235987755982988,0.34906585039886606,0.523598775598299,1.808828,1.5226026,0.20179941,0.062440947,-0.12380218,0.9676047,0.66478235,-0.3085329,1.6165066,-0.3924657,-0.8200493,-0.30569914,1.486516,1.501089
-0.2,-0.2,0.6,-0.5235987755982988,0.34906585039886606,0.523598775598299,1.8174052,1.52512,0.17714971,0.048405956,-0.13066317,0.97028404,0.6266209,-0.3068948,1.6257447,-0.4144426,-0.8508185,-0.3453396,1.4716331,1.6512686
-0.2,-0.2,0.6,-0.5235987755982988,0.34906585039886606,0.523598775598299,1.8004575,1.5214349,0.17897607,0.055069488,-0.10000965,0.9727084,0.62254333,-0.3181657,1.6276404,-0.37896532,-0.84877074,-0.35070822,1.4997472,1.4589698
-0.2,-0.2,0.6,-0.5235987755982988,0.34906585039886606,0.523598775598299,1.7973216,1.5270498,0.17062238,0.06265892,-0.10366747,0.9713338,0.62441295,-0.3204217,1.6284443,-0.39635697,-0.82236856,-0.33822787,1.464382,1.5686382
-0.2,-0.2,0.6,-0.5235987755982988,0.34906585039886606,0.523598775598299,1.7881199,1.5294646,0.17282762,0.0615999,-0.09636353,0.9679047,0.6884521,-0.32682058,1.6224946,-0.37430552,-0.8146358,-0.3633584,1.4974186,1.4502077
-0.2,-0.2,0.6,-0.5235987755982988,0.34906585039886606,0.523598775598299,1.7997286,1.5221846,0.19905764,0.053025015,-0.13091293,0.97833586,0.6556224,-0.29649398,1.6217203,-0.37614316,-0.8349899,-0.32342187,1.5159048,1.5902056
-0.2,-0.2,0.6,-0.5235987755982988,0.34906585039886606,0.523598775598299,1.8192142,1.525217,0.18208994,0.04921375,-0.11175957,0.96795374,0.6671115,-0.3184091,1.6207571,-0.35091895,-0.83233005,-0.38265112,1.494195,1.6182646
-0.2,-0.2,0.6,-0.5235987755982988,0.34906585039886606,0.523598775598299,1.8044901,1.5253676,0.17772697,0.06671703,-0.09616918,0.9774773,0.66879153,-0.30276373,1.6236224,-0.39123875,-0.83693135,-0.3606263,1.5095035,1.6412096
-0.2,-0.2,0.6,-0.5235987755982988,0.34906585039886606,0.523598775598299,1.8003937,1.5198765,0.18529768,0.07879266,-0.12881957,0.96995324,0.6228061,-0.3150302,1.6327639,-0.38909024,-0.8317947,-0.32733718,1.5145694,1.4508125
-0.2,-0.2,0.6,-0.5235987755982988,0.34906585039886606,0.523598775598299,1.7812618,1.5304013,0.17772822,0.053996243,-0.10185895,0.995875,0.5936218,-0.3137042,1.628138,-0.40550074,-0.827499,-0.3722958,1.4956061,1.6074033
-0.2,-0.2,0.6,-0.5235987755982988,0.34906585039886606,0.523598775598299,1.793031,1.5303855,0.17421268,0.04657763,-0.11532013,0.9917537,0.6577247,-0.32374656,1.6332955,-0.3896403,-0.8479736,-0.35464963,1.5103657,1.6477839
-0.2,-0.2,0.6,-0.5235987755982988,0.34906585039886606,0.523598775598299,1.8061763,1.5168915,0.17423116,0.058655556,-0.09918402,0.98330337,0.64263785,-0.31615832,1.624828,-0.4019729,-0.8338934,-0.3597525,1.5055683,1.5136117
-0.2,-0.2,0.6,-0.5235987755982988,0.34906585039886606,0.523598775598299,1.8058591,1.5150422,0.17744856,0.072432965,-0.092795044,0.97525007,0.61798084,-0.31557935,1.6374396,-0.39884675,-0.84371376,-0.3643727,1.520376,1.5487465
-0.2,-0.2,0.6,-0.5235987755982988,0.34906585039886606,0.523598775598299,1.7963474,1.5218834,0.2055752,0.04064646,-0.12145991,0.94891536,0.6457064,-0.30983892,1.6291797,-0.3839708,-0.8502607,-0.3529376,1.4368659,1.6136954
-0.2,-0.2,0.6,-0.5235987755982988,0.34906585039886606,0.523598775598299,1.8185098,1.5322031,0.20345248,0.03639987,-0.1137354,0.9833972,0.6235003,-0.31491628,1.6245508,-0.405668,-0.8307542,-0.36756584,1.5008553,1.638694
-0.2,-0.2,0.6,-0.5235987755982988,0.34906585039886606,0.523598775598299,1.8068756,1.5248574,0.16883177,0.057529088,-0.1059058,0.9715398,0.671407,-0.32409683,1.6270549,-0.40828004,-0.8434938,-0.36456707,1.4694341,1.58722
-0.2,-0.2,0.6,-0.5235987755982988,0.34906585039886606,0.523598775598299,1.7975674,1.5229825,0.184817,0.049462054,-0.12932402,0.9695764,0.6503262,-0.30972594,1.6183324,-0.40712276,-0.8749117,-0.38587788,1.4857997,1.5362623
-0.2,-0.2,0.6,-0.5235987755982988,0.34906585039886606,0.523598775598299,1.785161,1.5123,0.19372049,0.065319195,-0.11525063,0.9690233,0.5964757,-0.313296,1.626164,-0.3755174,-0.8343826,-0.38611376,1.4971743,1.6327126
-0.2,-0.2,0.6,-0.5235987755982988,0.34906585039886606,0.523598775598299,1.812148,1.5234361,0.19178425,0.039296906,-0.096596,0.9686206,0.6910454,-0.29175213,1.6437467,-0.35835844,-0.83747435,-0.38484812,1.5083115,1.4068241
-0.2,-0.2,0.6,-0.5235987755982988,0.34906585039886606,0.523598775598299,1.8211023,1.5249013,0.17357172,0.05865817,-0.12892863,0.97357917,0.6753275,-0.3170007,1.6278123,-0.3845298,-0.85667306,-0.3362134,1.5087589,1.5403872
-0.2,-0.2,0.6,-0.5235987755982988,0.34906585039886606,0.523598775598299,1.8130282,1.5272077,0.16844985,0.055614058,-0.11736798,0.97498953,0.60844755,-0.30880734,1.6159871,-0.36124918,-0.82269925,-0.38222575,1.4720606,1.4499232
-0.2,-0.2,0.6,-0.5235987755982988,0.34906585039886606,0.523598775598299,1.8110461,1.5199276,0.20781165,0.057635374,-0.08925481,0.9669096,0.5949396,-0.31732646,1.6199037,-0.38723263,-0.8301419,-0.35752383,1.4840648,1.6584796
-0.2,-0.2,0.6,-0.5235987755982988,0.34906585039886606,0.523598775598299,1.801993,1.5236218,0.18756464,0.058511503,-0.1235882,0.9592752,0.69227415,-0.30926716,1.6252327,-0.360954,-0.8479602,-0.35711682,1.5180181,1.6672968
-0.2,-0.2,0.6,-0.5235987755982988,0.34906585039886606,0.523598775598299,1.7885659,1.5192335,0.19593209,0.048341043,-0.088086866,0.98966444,0.6691038,-0.3138945,1.6101024,-0.37780133,-0.8322288,-0.3454892,1.5257151,1.6279352
-0.2,-0.2,0.6,-0.5235987755982988,0.34906585039886606,0.523598775598299,1.8040519,1.5219587,0.20166647,0.044602748,-0.10015397,0.969756,0.646345,-0.3170515,1.6265717,-0.37727487,-0.8367887,-0.3609991,1.4890985,1.5595441
-0.2,-0.2,0.6,-0.5235987755982988,0.34906585039886606,0.523598775598299,1.7823858,1.5274135,0.19044371,0.07746485,-0.09889834,0.9759532,0.61382836,-0.32119733,1.6245923,-0.38247892,-0.83138686,-0.36796886,1.4734037,1.6463485
-0.2,-0.2,0.6,-0.5235987755982988,0.34906585039886606,0.523598775598299,1.8039515,1.5206304,0.19165961,0.04805567,-0.14635937,0.98324084,0.6268549,-0.3203381,1.6206695,-0.38380066,-0.8131863,-0.30609566,1.4618964,1.5449806
-0.2,-0.2,0.6,-0.5235987755982988,0.34906585039886606,0.523598775598299,1.7976365,1.5150574,0.18378958,0.050866373,-0.12353064,0.9714547,0.6465299,-0.3142913,1.6285499,-0.37523535,-0.8290979,-0.32459468,1.4586362,1.5425106
-0.2,-0.2,0.6,-0.5235987755982988,0.34906585039886606,0.523598775598299,1.8120757,1.5310277,0.20606463,0.032416575,-0.080716185,0.9738749,0.64367795,-0.326803,1.6323605,-0.38745734,-0.8208736,-0.36977145,1.490132,1.6273724
-0.2,-0.2,0.6,-0.5235987755982988,0.34906585039886606,0.523598775598299,1.8039061,1.5170723,0.19964096,0.069154575,-0.12650728,0.98719,0.6920902,-0.3184388,1.6096181,-0.38070983,-0.8144525,-0.39581564,1.5191658,1.5502301
-0.2,-0.2,0.6,-0.5235987755982988,0.34906585039886606,0.523598775598299,1.8088676,1.5365341,0.18182148,0.066041395,-0.10778675,0.9628405,0.6394466,-0.32176766,1.6252884,-0.3807393,-0.824988,-0.3368137,1.4977888,1.6367772
-0.2,-0.2,0.6,-0.5235987755982988,0.34906585039886606,0.523598775598299,1.7975402,1.5251899,0.18495244,0.06787464,-0.08967742,0.9756744,0.67361367,-0.31765965,1.6153022,-0.39452273,-0.8491175,-0.3643988,1.5217437,1.5483574
-0.2,-0.2,0.6,-0.5235987755982988,0.34906585039886606,0.523598775598299,1.8201902,1.5194201,0.1642857,0.051553328,-0.1256199,0.9778719,0.6482009,-0.3287145,1.6275715,-0.38676715,-0.809032,-0.31446472,1.4625578,1.6584846
-0.2,-0.2,0.6,-0.5235987755982988,0.34906585039886606,0.523598775598299,1.8020211,1.5250316,0.18937849,0.054663457,-0.12473268,0.98306346,0.64694816,-0.3197412,1.6165078,-0.38385925,-0.83977777,-0.36379436,1.5001085,1.6176683
-0.2,-0.2,0.6,-0.5235987755982988,0.34906585039886606,0.523598775598299,1.7707937,1.520676,0.16619512,0.06521303,-0.10608111,0.9776861,0.65538734,-0.31143546,1.6281936,-0.3727874,-0.84007806,-0.35147476,1.4979123,1.7175717
-0.2,-0.2,0.6,-0.5235987755982988,0.34906585039886606,0.523598775598299,1.8206731,1.5216806,0.15381894,0.05581042,-0.10609219,0.9827541,0.6403946,-0.3231359,1.620177,-0.38523737,-0.83811307,-0.4126567,1.4947593,1.4430587
-0.2,-0.2,0.6,-0.5235987755982988,0.34906585039886606,0.523598775598299,1.7852988,1.5203058,0.17848417,0.07407462,-0.10523128,0.9750783,0.6469415,-0.30356073,1.6255357,-0.38582954,-0.8192419,-0.395544,1.4984089,1.4356443
-0.2,-0.2,0.6,-0.5235987755982988,0.34906585039886606,0.523598775598299,1.8082994,1.5279568,0.19598794,0.038372487,-0.11808181,0.9925709,0.64439934,-0.3108848,1.6211811,-0.38235533,-0.8258087,-0.40575597,1.4782501,1.5994219
-0.2,-0.2,0.6,-0.5235987755982988,0.34906585039886606,0.523598775598299,1.8087609,1.5220691,0.1872289,0.053698223,-0.10516635,0.9754726,0.66451436,-0.31667027,1.6207529,-0.3658704,-0.8452111,-0.3700213,1.5200585,1.6019903
-0.2,-0.2,0.6,-0.5235987755982988,0.34906585039886606,0.523598775598299,1.8081863,1.5222547,0.19689766,0.06770736,-0.109695576,0.9841421,0.60451555,-0.30111343,1.6375302,-0.35740897,-0.81025773,-0.2979245,1.5055152,1.5848141
-0.2,-0.2,0.6,-0.5235987755982988,0.34906585039886606,0.523598775598299,1.8008754,1.5316877,0.20464237,0.028324846,-0.10293661,0.985246,0.6609156,-0.31578124,1.6346763,-0.4064825,-0.8272714,-0.35171595,1.4936754,1.5510701
-0.2,-0.2,0.6,-0.5235987755982988,0.34906585039886606,0.523598775598299,1.7901583,1.5306829,0.19509622,0.05436889,-0.12211516,0.95840997,0.6616446,-0.30607417,1.6298218,-0.40987286,-0.82946783,-0.37064692,1.4725748,1.6688008
-0.2,-0.2,0.6,-0.5235987755982988,0.34906585039886606,0.523598775598299,1.8125887,1.5261614,0.18157254,0.039598294,-0.1276096,0.96871066,0.72421265,-0.30788305,1.6234914,-0.3701513,-0.8339148,-0.3437307,1.4643888,1.5885876
-0.2,-0.2,0.6,-0.5235987755982988,0.34906585039886606,0.523598775598299,1.8072312,1.5186703,0.17441103,0.06019575,-0.117485404,0.96358836,0.63911456,-0.31792971,1.6278594,-0.36629978,-0.8715636,-0.33794564,1.483635,1.5152298
-0.2,-0.2,0.6,-0.5235987755982988,0.34906585039886606,0.523598775598299,1.7858547,1.5257454,0.18049827,0.05504237,-0.11723046,0.9751278,0.6238135,-0.31566027,1.6153176,-0.37451133,-0.8252464,-0.35322294,1.4784949,1.691338
-0.2,-0.2,0.6,-0.5235987755982988,0.34906585039886606,0.523598775598299,1.8084928,1.5329703,0.1715873,0.035435215,-0.11556523,0.97825855,0.66832393,-0.3235756,1.62647,-0.3834493,-0.8498153,-0.3953398,1.4575837,1.5919787
-0.2,-0.2,0.6,-0.5235987755982988,0.34906585039886606,0.523598775598299,1.8159059,1.5153694,0.1822713,0.04549293,-0.113522075,0.9669051,0.67781496,-0.3211295,1.6253009,-0.37848064,-0.84023565,-0.2973996,1.5027995,1.7165917
-0.2,-0.2,0.6,-0.5235987755982988,0.34906585039886606,0.523598775598299,1.7870387,1.5202605,0.16824713,0.06250736,-0.11775913,0.9854889,0.68546295,-0.31497023,1.6238358,-0.41847754,-0.8500732,-0.3002718,1.4917654,1.5517645
-0.2,-0.2,0.6,-0.5235987755982988,0.34906585039886606,0.523598775598299,1.7928002,1.5322044,0.18738711,0.039470267,-0.10575342,0.97296923,0.6284792,-0.31962204,1.6224037,-0.36263204,-0.8372553,-0.32164514,1.4752266,1.6713605
-0.2,-0.2,0.6,-0.5235987755982988,0.34906585039886606,0.523598775598299,1.7875321,1.5298237,0.17484905,0.041680288,-0.092754975,0.9783101,0.6043979,-0.31488124,1.6349179,-0.38243335,-0.83779293,-0.34565404,1.4762514,1.6433434
-0.2,-0.2,0.6,-0.5235987755982988,0.34906585039886606,0.523598775598299,1.8036364,1.5209248,0.19320679,0.060433667,-0.12877914,0.982283,0.6176004,-0.31307024,1.6183572,-0.36984035,-0.81423444,-0.3746467,1.4919423,1.5748988
-0.2,-0.2,0.6,-0.5235987755982988,0.34906585039886606,0.523598775598299,1.813008,1.5204396,0.18729737,0.029291358,-0.08271543,0.96390176,0.6421036,-0.31091917,1.6397722,-0.41993016,-0.8469627,-0.30919814,1.4723427,1.4457605
-0.2,-0.2,0.6,-0.5235987755982988,0.34906585039886606,0.523598775598299,1.804958,1.5199053,0.18513255,0.043303788,-0.10522796,0.9735128,0.6620384,-0.31557432,1.6174076,-0.37697718,-0.8131411,-0.27779654,1.4755737,1.6241341
-0.2,-0.2,0.6,-0.5235987755982988,0.34906585039886606,0.523598775598299,1.7939829,1.5217503,0.16277581,0.073040016,-0.108676225,0.97616094,0.62122756,-0.30533317,1.6244575,-0.3902261,-0.82921076,-0.34179193,1.4887078,1.7038138
-0.2,-0.2,0.6,-0.5235987755982988,0.34906585039886606,0.523598775598299,1.8123052,1.5264982,0.18234281,0.05281052,-0.098548114,0.97966236,0.648261,-0.3171247,1.6300329,-0.3869819,-0.86226463,-0.3635756,1.524706,1.5866791
-0.2,-0.2,0.6,-0.5235987755982988,0.34906585039886606,0.523598775598299,1.8062941,1.5187799,0.18072999,0.09042917,-0.14476654,0.98328996,0.591489,-0.30754754,1.613287,-0.38144648,-0.81784844,-0.39451602,1.5128405,1.6391624
-0.2,-0.2,0.6,-0.5235987755982988,0.34906585039886606,0.523598775598299,1.8113496,1.5247968,0.18740876,0.06223617,-0.10436122,0.9638527,0.65474826,-0.31268272,1.6156406,-0.39130265,-0.8232384,-0.3860862,1.4814595,1.5669261
-0.2,-0.2,0.6,-0.5235987755982988,0.34906585039886606,0.523598775598299,1.8033202,1.524985,0.16176082,0.053800922,-0.124276064,0.9685924,0.6689288,-0.31812286,1.6203938,-0.344654,-0.8176101,-0.29552808,1.4511043,1.6334778
-0.2,-0.2,0.6,-0.5235987755982988,0.34906585039886606,0.523598775598299,1.8014874,1.5256695,0.19226393,0.05392899,-0.12797423,0.9635171,0.6235665,-0.31097928,1.6198945,-0.3747765,-0.8332837,-0.36262715,1.4871421,1.5987784
-0.2,-0.2,0.6,-0.5235987755982988,0.34906585039886606,0.523598775598299,1.8133132,1.5284873,0.19087654,0.035605695,-0.1017496,0.98221856,0.6416199,-0.30977687,1.6187495,-0.38990667,-0.83269024,-0.3304294,1.4903818,1.5737271
-0.2,-0.2,0.6,-0.5235987755982988,0.34906585039886606,0.523598775598299,1.7911124,1.516286,0.1797916,0.056730796,-0.13251308,0.9817624,0.6876522,-0.31726065,1.6102803,-0.38478518,-0.8330802,-0.3496478,1.4860607,1.6846626
-0.2,-0.2,0.6,-0.5235987755982988,0.34906585039886606,0.523598775598299,1.7986822,1.5235974,0.17751312,0.047319792,-0.11361305,0.98126614,0.64424855,-0.31034696,1.6279771,-0.37586427,-0.8618257,-0.39308313,1.4899957,1.6836636
-0.2,-0.2,0.6,-0.5235987755982988,0.34906585039886606,0.523598775598299,1.8161064,1.5265353,0.16136,0.051476307,-0.10074386,0.9764924,0.63088375,-0.30551898,1.6247619,-0.3844097,-0.81902385,-0.30448237,1.4642043,1.6036983
-0.2,-0.2,0.6,-0.5235987755982988,0.34906585039886606,0.523598775598299,1.8053623,1.5215724,0.17016245,0.05247342,-0.09462101,0.9781968,0.6345356,-0.30196226,1.648037,-0.4194279,-0.82372487,-0.36943635,1.4940853,1.5747877
-0.2,-0.2,0.6,-0.5235987755982988,0.34906585039886606,0.523598775598299,1.7833856,1.5268139,0.17204626,0.054698754,-0.10584338,0.9906257,0.6509275,-0.32881844,1.6269517,-0.3862466,-0.83199275,-0.40858355,1.5044918,1.4812921
-0.2,-0.2,0.6,-0.5235987755982988,0.34906585039886606,0.523598775598299,1.7998499,1.5236925,0.18117598,0.064017184,-0.105195105,0.976823,0.65151924,-0.31147256,1.6371433,-0.39875838,-0.8028337,-0.33396852,1.4925733,1.6229371
-0.2,-0.2,0.6,-0.5235987755982988,0.34906585039886606,0.523598775598299,1.7924235,1.5243095,0.17368516,0.050788444,-0.10864328,0.98656815,0.6750094,-0.30190656,1.6305631,-0.38337734,-0.8272047,-0.4041503,1.5015684,1.5503321
-0.2,-0.2,0.6,-0.5235987755982988,0.34906585039886606,0.523598775598299,1.782274,1.5321743,0.20144267,0.048728384,-0.11656344,0.9601725,0.6421676,-0.32154548,1.6308278,-0.36839712,-0.8514142,-0.40611342,1.4849907,1.6084188
-0.2,-0.2,0.6,-0.5235987755982988,0.34906585039886606,0.523598775598299,1.8061115,1.5279878,0.19655585,0.065446936,-0.13349342,0.9840452,0.5801484,-0.31345415,1.6264026,-0.41092044,-0.8323113,-0.41206402,1.5220242,1.5710005
-0.2,-0.2,0.6,-0.5235987755982988,0.34906585039886606,0.523598775598299,1.8067045,1.5262519,0.17149305,0.049432427,-0.12626578,0.9790238,0.6058244,-0.3296465,1.6328578,-0.3741298,-0.8933643,-0.3617209,1.5213605,1.5490606
-0.2,-0.2,0.6,-0.5235987755982988,0.34906585039886606,0.523598775598299,1.8133132,1.5231586,0.15464468,0.059697416,-0.10089968,0.9660739,0.651572,-0.3147727,1.6264366,-0.3839781,-0.81790733,-0.31893715,1.4630219,1.5401902
-0.2,-0.2,0.6,-0.5235987755982988,0.34906585039886606,0.523598775598299,1.7953758,1.5175374,0.18729402,0.0654353,-0.10031096,0.97441405,0.6505424,-0.31516165,1.6232573,-0.38092503,-0.8438893,-0.37398028,1.5179353,1.5280648
-0.2,-0.2,0.6,-0.5235987755982988,0.34906585039886606,0.523598775598299,1.7880191,1.531013,0.18888949,0.04964259,-0.111181624,0.98997986,0.6581305,-0.30640268,1.6241131,-0.40582648,-0.84499323,-0.33061796,1.5038611,1.601032
-0.2,-0.2,0.6,-0.5235987755982988,0.34906585039886606,0.523598775598299,1.8172572,1.5191367,0.17503084,0.06352988,-0.10421303,0.9686431,0.6478241,-0.31159735,1.6311269,-0.405889,-0.82455,-0.34935647,1.5071486,1.5730127
-0.2,-0.2,0.6,-0.5235987755982988,0.34906585039886606,0.523598775598299,1.7939976,1.5204872,0.18368192,0.061520312,-0.1340099,0.99130595,0.60168195,-0.3102868,1.6207627,-0.3700468,-0.8146661,-0.35089558,1.4981792,1.6745819
-0.2,-0.2,0.6,-0.5235987755982988,0.34906585039886606,0.523598775598299,1.8000144,1.534273,0.18571071,0.06364624,-0.117186,0.9876921,0.6675389,-0.31836852,1.6252085,-0.3807404,-0.8040254,-0.35824814,1.4864459,1.5229015
-0.2,-0.2,0.6,-0.5235987755982988,0.34906585039886606,0.523598775598299,1.7920473,1.5194347,0.19346783,0.04742052,-0.11121881,0.9771474,0.6618378,-0.30710956,1.6269236,-0.3849881,-0.7956973,-0.3549484,1.48775,1.5819118
-0.2,-0.2,0.6,-0.5235987755982988,0.34906585039886606,0.523598775598299,1.8091756,1.5289962,0.1999176,0.068537295,-0.13209736,0.97235894,0.6279975,-0.32229346,1.6216365,-0.39166912,-0.8447184,-0.38922468,1.5090687,1.62655
-0.2,-0.2,0.6,-0.5235987755982988,0.34906585039886606,0.523598775598299,1.7877113,1.5241328,0.19507241,0.05208532,-0.090157606,0.98177195,0.6463158,-0.31265578,1.6385133,-0.40016532,-0.8410898,-0.3714854,1.5244206,1.5677217
-0.2,-0.2,0.6,-0.5235987755982988,0.34906585039886606,0.523598775598299,1.7892193,1.5274076,0.19071382,0.06406119,-0.09393438,0.979467,0.719815,-0.32453176,1.620732,-0.36893636,-0.819011,-0.36546558,1.5226536,1.6347538
-0.2,-0.2,0.6,-0.5235987755982988,0.34906585039886606,0.523598775598299,1.7990681,1.5286319,0.17853232,0.069091916,-0.0868838,0.969467,0.6402266,-0.30461982,1.6243556,-0.38019133,-0.78922445,-0.3122261,1.4934821,1.5951718
-0.2,-0.2,0.6,-0.5235987755982988,0.34906585039886606,0.523598775598299,1.8092532,1.5198652,0.18878259,0.0659441,-0.13213252,0.96843886,0.651237,-0.30252713,1.6328361,-0.37624574,-0.8334162,-0.39432457,1.4912267,1.5656105
-0.2,-0.2,0.6,-0.5235987755982988,0.34906585039886606,0.523598775598299,1.7885705,1.5224309,0.17913257,0.045198046,-0.10669629,0.97597164,0.6906027,-0.32322675,1.6333692,-0.3746639,-0.80606127,-0.34090522,1.4690834,1.7125679
-0.2,-0.2,0.6,-0.5235987755982988,0.34906585039886606,0.523598775598299,1.8015013,1.5192933,0.18115191,0.046272855,-0.11506686,0.99427253,0.5958181,-0.31289023,1.6250676,-0.40084583,-0.8878363,-0.3508204,1.5166677,1.6770079
-0.2,-0.2,0.6,-0.5235987755982988,0.34906585039886606,0.523598775598299,1.798822,1.5293002,0.18575267,0.05501257,-0.13276577,0.96916443,0.660291,-0.3162056,1.6215614,-0.35662904,-0.8470415,-0.3413142,1.471757,1.6003001
-0.2,-0.2,0.6,-0.5235987755982988,0.34906585039886606,0.523598775598299,1.7935268,1.5220206,0.1800961,0.03755874,-0.10617085,0.97446686,0.6486654,-0.3153752,1.6222523,-0.40458325,-0.82184553,-0.40408617,1.432071,1.5388213
-0.2,-0.2,0.6,-0.5235987755982988,0.34906585039886606,0.523598775598299,1.8132912,1.5238829,0.16512105,0.06232582,-0.10447836,0.96743244,0.64944166,-0.31265,1.6191678,-0.39752403,-0.82939214,-0.35094196,1.4804345,1.7477708
-0.2,-0.2,0.6,-0.5235987755982988,0.34906585039886606,0.523598775598299,1.8063562,1.5220385,0.16992007,0.0490672,-0.09624033,0.9784659,0.6534743,-0.3104186,1.6223382,-0.39857852,-0.8416583,-0.32321075,1.4801964,1.7158835
-0.2,-0.2,0.6,-0.5235987755982988,0.34906585039886606,0.523598775598299,1.7813926,1.518369,0.16954634,0.06202249,-0.105301976,0.96910065,0.6599107,-0.31425273,1.6323124,-0.38666373,-0.81582016,-0.3863022,1.4796364,1.5228806
-0.2,-0.2,0.6,-0.5235987755982988,0.34906585039886606,0.523598775598299,1.8052748,1.5248053,0.18313216,0.056571614,-0.06676946,0.96607745,0.62922454,-0.31275588,1.6236268,-0.38851136,-0.84811616,-0.39573497,1.4965105,1.4367191
-0.2,-0.2,0.6,-0.5235987755982988,0.34906585039886606,0.523598775598299,1.8002378,1.522496,0.17946838,0.07109054,-0.09802884,0.9732692,0.6187524,-0.31292054,1.6201944,-0.34178078,-0.7864639,-0.37807602,1.5053782,1.5034674
-0.2,-0.2,0.6,-0.5235987755982988,0.34906585039886606,0.523598775598299,1.8153725,1.5223162,0.16320102,0.06809946,-0.13402334,0.9892507,0.6316079,-0.31949556,1.6223447,-0.39229015,-0.84755045,-0.35017323,1.5153584,1.7080724
-0.2,-0.2,0.6,-0.5235987755982988,0.34906585039886606,0.523598775598299,1.7914345,1.5275671,0.19179647,0.07122025,-0.10859982,0.9777806,0.6875941,-0.3206385,1.6259415,-0.38300255,-0.82017505,-0.3532565,1.4902507,1.4690704
-0.2,-0.2,0.6,-0.5235987755982988,0.34906585039886606,0.523598775598299,1.8080584,1.5163742,0.17989625,0.06002293,-0.10900317,0.97682184,0.6570383,-0.30162856,1.6148477,-0.37928626,-0.79674387,-0.33646852,1.4861563,1.5687927
-0.2,-0.2,0.6,-0.5235987755982988,0.34906585039886606,0.523598775598299,1.7902972,1.5269012,0.15234359,0.049698163,-0.11973507,0.9796987,0.59870374,-0.31141523,1.6361114,-0.36085463,-0.8283774,-0.34715933,1.4561195,1.6712787
-0.2,-0.2,0.6,-0.5235987755982988,0.34906585039886606,0.523598775598299,1.8011707,1.5284834,0.17699908,0.054463387,-0.11144014,0.98580116,0.6868456,-0.3126581,1.6366909,-0.35954097,-0.8326013,-0.35593042,1.4819299,1.506714
-0.2,-0.2,0.6,-0.5235987755982988,0.34906585039886606,0.523598775598299,1.8139291,1.5332714,0.18821876,0.067566805,-0.14432202,0.97707564,0.6096813,-0.31612855,1.6350975,-0.39248687,-0.82869875,-0.39364913,1.4953483,1.5860562
-0.2,-0.2,0.6,-0.5235987755982988,0.34906585039886606,0.523598775598299,1.8211267,1.5216372,0.18233699,0.05331265,-0.09587266,0.97205377,0.6330531,-0.30758265,1.6315471,-0.41798264,-0.84719557,-0.3418962,1.4878376,1.6178656
-0.2,-0.2,0.6,-0.5235987755982988,0.34906585039886606,0.523598775598299,1.8129015,1.5332896,0.18488052,0.047675617,-0.14324525,0.9657008,0.67204016,-0.31567135,1.624785,-0.39765644,-0.8628971,-0.3587486,1.4756321,1.6011053
-0.2,-0.2,0.6,-0.5235987755982988,0.34906585039886606,0.523598775598299,1.8175498,1.530707,0.18208942,0.08006289,-0.117343776,0.9817785,0.5672882,-0.30729267,1.6158187,-0.39221576,-0.7946845,-0.320951,1.5049242,1.6176304
-0.2,-0.2,0.6,-0.5235987755982988,0.34906585039886606,0.523598775598299,1.80452,1.5258193,0.18783309,0.0621843,-0.10852495,0.9682506,0.675215,-0.31211627,1.627716,-0.3761651,-0.8398181,-0.35165092,1.5075587,1.6586525
-0.2,-0.2,0.6,-0.5235987755982988,0.34906585039886606,0.523598775598299,1.7995658,1.5258746,0.18686187,0.07795043,-0.11751189,0.9844355,0.6727398,-0.3109536,1.6390967,-0.3912573,-0.82204956,-0.33944702,1.5082195,1.6121205
-0.2,-0.2,0.6,-0.5235987755982988,0.34906585039886606,0.523598775598299,1.7900184,1.5178299,0.1899338,0.066406794,-0.11736236,0.98472303,0.59324044,-0.305244,1.6304206,-0.37309152,-0.84577507,-0.4110307,1.5069206,1.5553296
-0.2,-0.2,0.6,-0.5235987755982988,0.34906585039886606,0.523598775598299,1.80515,1.5262219,0.18905619,0.043350443,-0.111729935,0.9635385,0.6438433,-0.3098865,1.6262795,-0.4127571,-0.82297796,-0.33226255,1.4563195,1.5618303
-0.2,-0.2,0.6,-0.5235987755982988,0.34906585039886606,0.523598775598299,1.7925128,1.523619,0.16716303,0.049318254,-0.11402521,0.9835845,0.70423585,-0.3098257,1.6348459,-0.3970824,-0.8374801,-0.34699824,1.4805889,1.6099595
-0.2,-0.2,0.6,-0.5235987755982988,0.34906585039886606,0.523598775598299,1.8163937,1.5165,0.18495044,0.05540001,-0.11906937,0.98898137,0.60368884,-0.30635396,1.612904,-0.3880289,-0.855902,-0.39128354,1.5041336,1.4665391
-0.2,-0.2,0.6,-0.5235987755982988,0.34906585039886606,0.523598775598299,1.8242499,1.5343597,0.16481587,0.06548875,-0.10070218,0.9674752,0.59257364,-0.31447735,1.6167759,-0.36745226,-0.8373018,-0.32285094,1.4695154,1.4630494
-0.2,-0.2,0.6,-0.5235987755982988,0.34906585039886606,0.523598775598299,1.7985559,1.5203729,0.18281068,0.060910437,-0.088765934,0.97164863,0.6505661,-0.32081774,1.6251135,-0.3694159,-0.8100938,-0.31016144,1.494318,1.6844182
-0.2,-0.2,0.6,-0.5235987755982988,0.34906585039886606,0.523598775598299,1.7861016,1.519311,0.17500083,0.05421696,-0.09903143,0.9791179,0.59687966,-0.31431562,1.6210413,-0.40032294,-0.82828707,-0.38983315,1.4697616,1.59092
-0.2,-0.2,0.6,-0.5235987755982988,0.34906585039886606,0.523598775598299,1.8049237,1.53088,0.17085412,0.0483099,-0.120108396,0.9670017,0.6516492,-0.32194632,1.6268221,-0.39732647,-0.8288984,-0.36722562,1.4641252,1.7222053
-0.2,-0.2,0.6,-0.5235987755982988,0.34906585039886606,0.523598775598299,1.7796412,1.5290092,0.19706693,0.05299104,-0.11305658,0.9593847,0.6960675,-0.3187384,1.6215017,-0.39246857,-0.84026766,-0.3258598,1.4917423,1.4691108
-0.2,-0.2,0.6,-0.5235987755982988,0.34906585039886606,0.523598775598299,1.796488,1.5258052,0.19747944,0.051067535,-0.09328055,0.97285324,0.62551284,-0.30702573,1.619345,-0.36962277,-0.8079979,-0.25357127,1.484136,1.6491883
-0.2,-0.2,0.6,-0.5235987755982988,0.34906585039886606,0.523598775598299,1.7757857,1.5189645,0.19889027,0.06170035,-0.11511727,0.9779863,0.6669548,-0.30926687,1.6295696,-0.3825609,-0.8213776,-0.37348947,1.5234996,1.5875046
-0.2,-0.2,0.6,-0.5235987755982988,0.34906585039886606,0.523598775598299,1.799766,1.5146639,0.1683309,0.055210564,-0.09714855,0.9757018,0.6218496,-0.31440166,1.6210098,-0.37893668,-0.8430361,-0.3171267,1.5142304,1.5672207
-0.2,-0.2,0.6,-0.5235987755982988,0.34906585039886606,0.523598775598299,1.8017901,1.5202131,0.17971583,0.055826563,-0.12604368,0.9712763,0.63253826,-0.31979108,1.6331717,-0.3787118,-0.8172473,-0.3540095,1.4622649,1.5954925
-0.2,-0.2,0.6,-0.5235987755982988,0.34906585039886606,0.523598775598299,1.7794324,1.5274038,0.1879052,0.0526573,-0.1109799,0.9595871,0.6394787,-0.30725434,1.636611,-0.40092108,-0.866562,-0.36389756,1.4906008,1.5602673
-0.2,-0.2,0.6,-0.5235987755982988,0.34906585039886606,0.523598775598299,1.811197,1.5207634,0.17575142,0.05954779,-0.08891158,0.9905606,0.6024767,-0.32107055,1.6233333,-0.4018525,-0.8291799,-0.38854674,1.5060805,1.5069727
-0.2,-0.2,0.6,-0.5235987755982988,0.34906585039886606,0.523598775598299,1.8075826,1.531153,0.1596012,0.051600926,-0.12353061,0.9833949,0.7093993,-0.3149877,1.6289817,-0.38165444,-0.8940734,-0.36888644,1.5138822,1.6575977
-0.2,-0.2,0.6,-0.5235987755982988,0.34906585039886606,0.523598775598299,1.8007572,1.5243906,0.17229839,0.059987154,-0.097420044,0.97137517,0.6332244,-0.31255957,1.6324699,-0.38391653,-0.8057704,-0.34968954,1.4855722,1.7018414
-0.2,-0.2,0.6,-0.5235987755982988,0.34906585039886606,0.523598775598299,1.8040363,1.5269864,0.18661217,0.039709542,-0.10298224,0.9799473,0.6293029,-0.3211522,1.631176,-0.40378135,-0.84376514,-0.383672,1.5003585,1.5366044
-0.2,-0.2,0.6,-0.5235987755982988,0.34906585039886606,0.523598775598299,1.797539,1.5281802,0.18496723,0.063268535,-0.095346205,0.9869729,0.63384694,-0.31700426,1.6170794,-0.40196183,-0.81159514,-0.3339054,1.5086683,1.5264574
-0.2,-0.2,0.6,-0.5235987755982988,0.34906585039886606,0.523598775598299,1.7779536,1.5291579,0.18963306,0.05510886,-0.11572997,0.9856286,0.6692498,-0.31448433,1.6250848,-0.35757652,-0.7975695,-0.40650377,1.4994859,1.6348045
-0.2,-0.2,0.6,-0.5235987755982988,0.34906585039886606,0.523598775598299,1.8213983,1.5290619,0.1723721,0.059331376,-0.113366045,0.96783066,0.63775754,-0.30025563,1.6340237,-0.3698919,-0.8468562,-0.40825042,1.5052695,1.6226251
-0.2,-0.2,0.6,-0.5235987755982988,0.34906585039886606,0.523598775598299,1.8110523,1.5185992,0.20004185,0.052401852,-0.10288885,0.9748256,0.6399019,-0.30991423,1.6178582,-0.39708447,-0.82463443,-0.33533716,1.4827726,1.5934074
-0.2,-0.2,0.6,-0.5235987755982988,0.34906585039886606,0.523598775598299,1.806223,1.5115443,0.1971195,0.041461412,-0.109119065,0.96810806,0.64923084,-0.30320597,1.6304563,-0.39371777,-0.8034867,-0.4475762,1.4715124,1.4683696
-0.2,-0.2,0.6,-0.5235987755982988,0.34906585039886606,0.523598775598299,1.7873923,1.5223962,0.19777177,0.07775717,-0.1018849,0.9654756,0.6108659,-0.3184806,1.6168059,-0.36745325,-0.8137824,-0.38002318,1.515889,1.6532258
-0.2,-0.2,0.6,-0.5235987755982988,0.34906585039886606,0.523598775598299,1.8174647,1.5206941,0.18855523,0.061575126,-0.10151467,0.96160907,0.65436125,-0.31478322,1.6098946,-0.41475105,-0.81936544,-0.37247714,1.4896108,1.6120026
-0.2,-0.2,0.6,-0.5235987755982988,0.34906585039886606,0.523598775598299,1.8083123,1.5332872,0.20022707,0.051615737,-0.100930795,0.9804948,0.6186575,-0.3252079,1.6365258,-0.3855119,-0.85339963,-0.31146622,1.5108829,1.5997033
-0.2,-0.2,0.6,-0.5235987755982988,0.34906585039886606,0.523598775598299,1.8030626,1.5215327,0.18679757,0.063482165,-0.098251894,0.98228925,0.68935406,-0.31025472,1.6307318,-0.37961453,-0.7959436,-0.37089512,1.5266799,1.6112033
-0.2,-0.2,0.6,-0.5235987755982988,0.34906585039886606,0.523598775598299,1.8016375,1.5236464,0.1966589,0.05491046,-0.10697736,0.95448285,0.66244024,-0.32193562,1.6102693,-0.37443098,-0.8232379,-0.36488238,1.4767969,1.5801302
-0.2,-0.2,0.6,-0.5235987755982988,0.34906585039886606,0.523598775598299,1.8010873,1.5230752,0.1669314,0.059992477,-0.11421778,0.9762252,0.61405486,-0.3033003,1.630763,-0.38893983,-0.81927645,-0.36212552,1.475108,1.5918221
-0.2,-0.2,0.6,-0.5235987755982988,0.34906585039886606,0.523598775598299,1.8124025,1.5253887,0.17871498,0.06310807,-0.087218285,0.9864393,0.6044,-0.30875,1.6181227,-0.37214467,-0.83235925,-0.29521683,1.5221068,1.6911241
-0.2,-0.2,0.6,-0.5235987755982988,0.34906585039886606,0.523598775598299,1.81034,1.5265394,0.20296496,0.053829815,-0.11261736,0.9720225,0.66659397,-0.29897273,1.6255897,-0.37883365,-0.8317825,-0.33494762,1.5036006,1.6155161
-0.2,-0.2,0.6,-0.5235987755982988,0.34906585039886606,0.523598775598299,1.8255796,1.5126573,0.19609888,0.044455316,-0.10843301,0.9728807,0.63665444,-0.3176239,1.6285985,-0.39396372,-0.8335499,-0.32223287,1.5236282,1.5916069
-0.2,-0.2,0.6,-0.5235987755982988,0.34906585039886606,0.523598775598299,1.8160145,1.5278867,0.17814875,0.06633007,-0.11151228,0.9764719,0.6003932,-0.31646082,1.6208844,-0.4049677,-0.8192488,-0.36107823,1.4831221,1.577416
-0.2,-0.2,0.6,-0.5235987755982988,0.34906585039886606,0.523598775598299,1.8134993,1.5344609,0.16892736,0.047006562,-0.095313676,0.98402965,0.64811456,-0.32294226,1.613191,-0.3955911,-0.8310807,-0.38958928,1.4514433,1.6264007
-0.2,-0.2,0.6,-0.5235987755982988,0.34906585039886606,0.523598775598299,1.8083317,1.5212029,0.16322091,0.07175775,-0.10720769,0.9639503,0.6291593,-0.31077227,1.6235589,-0.36138368,-0.83618814,-0.35842025,1.5070328,1.487625
-0.2,-0.2,0.6,-0.5235987755982988,0.34906585039886606,0.523598775598299,1.8135725,1.5312831,0.18630876,0.044614322,-0.111597605,0.97707474,0.63977474,-0.31563216,1.6290652,-0.36390617,-0.83424896,-0.33422503,1.5009501,1.4819225
-0.2,-0.2,0.6,-0.5235987755982988,0.34906585039886606,0.523598775598299,1.8160899,1.5278866,0.18327485,0.05563,-0.108517416,0.9720578,0.58842623,-0.31656137,1.6287948,-0.39718533,-0.8521064,-0.3682663,1.5004075,1.5326952
-0.2,-0.2,0.6,-0.5235987755982988,0.34906585039886606,0.523598775598299,1.8111299,1.5216886,0.18412048,0.04117998,-0.10223511,0.9689222,0.65183264,-0.31551778,1.6285475,-0.38768655,-0.8388534,-0.35784605,1.4851223,1.6301293
-0.2,-0.2,0.6,-0.5235987755982988,0.34906585039886606,0.523598775598299,1.7853105,1.5204345,0.17708436,0.04540085,-0.11232002,0.97878695,0.6274607,-0.324397,1.6289936,-0.397838,-0.8338804,-0.3356394,1.4758141,1.5866661
-0.2,-0.2,0.6,-0.5235987755982988,0.34906585039886606,0.523598775598299,1.8172138,1.5098232,0.18811704,0.05120563,-0.10087139,0.95653486,0.6109831,-0.3120598,1.6199317,-0.36857754,-0.83654237,-0.3711842,1.4619884,1.5865301
-0.2,-0.2,0.6,-0.5235987755982988,0.34906585039886606,0.523598775598299,1.8058128,1.5258715,0.18637988,0.056518935,-0.10212764,0.9843844,0.66172236,-0.3092614,1.6243783,-0.3942403,-0.84563977,-0.32507402,1.5169885,1.5278808
-0.2,-0.2,0.6,-0.5235987755982988,0.34906585039886606,0.523598775598299,1.7937874,1.5236588,0.1849014,0.062058464,-0.11198389,0.9772964,0.6596664,-0.31175408,1.6180638,-0.3920639,-0.81259805,-0.34449536,1.4866606,1.4900072
-0.2,-0.2,0.6,-0.5235987755982988,0.34906585039886606,0.523598775598299,1.7908212,1.5269647,0.18661746,0.051964913,-0.10393649,0.9828283,0.6375798,-0.3138145,1.6240326,-0.38930777,-0.8639227,-0.37599027,1.5333105,1.5804011
-0.2,-0.2,0.6,-0.5235987755982988,0.34906585039886606,0.523598775598299,1.7959567,1.5285279,0.18849732,0.047009155,-0.089759864,0.9642102,0.6821339,-0.31183568,1.6127876,-0.3829587,-0.83529025,-0.3051564,1.4706337,1.6362934
-0.2,-0.2,0.6,-0.5235987755982988,0.34906585039886606,0.523598775598299,1.8131741,1.5221349,0.18107091,0.05928568,-0.11169349,0.9719956,0.66551554,-0.32088354,1.6258681,-0.33647746,-0.8755241,-0.31521767,1.5161191,1.500623
-0.2,-0.2,0.6,-0.5235987755982988,0.34906585039886606,0.523598775598299,1.7794596,1.5220752,0.19064078,0.05378526,-0.124788746,0.98038995,0.67273307,-0.31268835,1.622524,-0.37866676,-0.83436686,-0.37033343,1.4941353,1.6215159
-0.2,-0.2,0.6,-0.5235987755982988,0.34906585039886606,0.523598775598299,1.8041499,1.5255239,0.18937247,0.051566727,-0.092799865,0.9704613,0.6854116,-0.31457728,1.6292572,-0.41328654,-0.8084405,-0.3159425,1.5007683,1.5866534
-0.2,-0.2,0.6,-0.5235987755982988,0.34906585039886606,0.523598775598299,1.8238127,1.5213944,0.18095067,0.050996166,-0.121604994,0.97153884,0.6646738,-0.31374252,1.6190773,-0.39846197,-0.82105374,-0.38359004,1.4820766,1.4374666
-0.2,-0.2,0.6,-0.5235987755982988,0.34906585039886606,0.523598775598299,1.7963115,1.514364,0.18503052,0.04553041,-0.088728815,0.9888122,0.62492263,-0.30957136,1.612985,-0.3785506,-0.83430463,-0.37560964,1.4896262,1.3984584
-0.2,-0.2,0.6,-0.5235987755982988,0.34906585039886606,0.523598775598299,1.7966624,1.5208219,0.18264848,0.054659605,-0.14341241,0.980794,0.65046984,-0.31875065,1.6219684,-0.37924784,-0.8308996,-0.36383387,1.4734011,1.6018463
-0.2,-0.2,0.6,-0.5235987755982988,0.34906585039886606,0.523598775598299,1.7968014,1.5230439,0.18654521,0.04991917,-0.080029145,0.9723371,0.55360574,-0.3146582,1.6204796,-0.39793327,-0.8678099,-0.3498592,1.4865382,1.6481153
-0.2,-0.2,0.6,-0.5235987755982988,0.34906585039886606,0.523598775598299,1.7947989,1.520364,0.17760533,0.055166397,-0.105656184,0.96378255,0.6147649,-0.30813333,1.6291852,-0.35883164,-0.869181,-0.31575182,1.4876043,1.6794657
-0.2,-0.2,0.6,-0.5235987755982988,0.34906585039886606,0.523598775598299,1.7946842,1.5226631,0.17576061,0.072230145,-0.10000863,0.9687459,0.6799715,-0.30783796,1.6291732,-0.38272098,-0.84841126,-0.3403064,1.5260177,1.5026687
-0.2,-0.2,0.6,-0.5235987755982988,0.34906585039886606,0.523598775598299,1.8005702,1.5322758,0.18697728,0.04762069,-0.114470385,0.96522903,0.580117,-0.33444077,1.6387985,-0.39155877,-0.85371906,-0.39307082,1.4724839,1.5112596
-0.2,-0.2,0.6,-0.5235987755982988,0.34906585039886606,0.523598775598299,1.7853554,1.5253531,0.17935902,0.053740244,-0.13746665,0.9732587,0.63561,-0.31462216,1.6310742,-0.38159782,-0.8324575,-0.34512025,1.4684281,1.5624489
-0.2,-0.2,0.6,-0.5235987755982988,0.34906585039886606,0.523598775598299,1.7862101,1.5189688,0.18311761,0.051656436,-0.117550805,0.96609163,0.59989285,-0.31080666,1.6364576,-0.38470155,-0.85051084,-0.31995934,1.5089198,1.6252456
-0.2,-0.2,0.6,-0.5235987755982988,0.34906585039886606,0.523598775598299,1.7918915,1.5232352,0.1796979,0.0690231,-0.09291796,0.9580467,0.6781102,-0.29526642,1.6250998,-0.40434852,-0.8291718,-0.3877197,1.47981,1.5641042
-0.2,-0.2,0.6,-0.5235987755982988,0.34906585039886606,0.523598775598299,1.8053281,1.5283114,0.17816591,0.06164352,-0.1007558,0.9849931,0.65588224,-0.31529862,1.621113,-0.37613198,-0.8278547,-0.3465471,1.5263112,1.5232534
-0.2,-0.2,0.6,-0.5235987755982988,0.34906585039886606,0.523598775598299,1.8063142,1.5331464,0.19391374,0.0455285,-0.09265222,0.96678734,0.60028857,-0.319158,1.6251105,-0.3743634,-0.8249013,-0.36114913,1.4963301,1.6577598
-0.2,-0.2,0.6,-0.5235987755982988,0.34906585039886606,0.523598775598299,1.8080018,1.5318049,0.16618824,0.06432775,-0.09975344,0.9620897,0.5939941,-0.31614703,1.6449046,-0.36978006,-0.85603285,-0.33696598,1.5071737,1.6920557
-0.2,-0.2,0.6,-0.5235987755982988,0.34906585039886606,0.523598775598299,1.8232138,1.5212262,0.18118808,0.04121434,-0.10307564,0.98505926,0.60298544,-0.32222366,1.6203411,-0.3709179,-0.83895427,-0.40107104,1.4905146,1.5595642
-0.2,-0.2,0.6,-0.5235987755982988,0.34906585039886606,0.523598775598299,1.8087033,1.5341967,0.19201207,0.05118051,-0.14291322,0.9683025,0.70705956,-0.31058645,1.6212093,-0.3815281,-0.8150563,-0.37839687,1.4633691,1.5642213
-0.2,-0.2,0.6,-0.5235987755982988,0.34906585039886606,0.523598775598299,1.801952,1.520936,0.18265952,0.0776071,-0.10620754,0.9771744,0.6195253,-0.31344965,1.6117712,-0.37809372,-0.8002655,-0.32242554,1.5102007,1.5269601
-0.2,-0.2,0.6,-0.5235987755982988,0.34906585039886606,0.523598775598299,1.7994049,1.5237215,0.19335505,0.051934183,-0.10850921,0.96482235,0.6104811,-0.31966743,1.6286203,-0.3689905,-0.85378873,-0.3496925,1.5155293,1.4244694
-0.2,-0.2,0.6,-0.5235987755982988,0.34906585039886606,0.523598775598299,1.798007,1.5318481,0.19293083,0.04822465,-0.099182576,0.96891594,0.6643812,-0.3114519,1.6358596,-0.37263307,-0.8431191,-0.2998354,1.5093515,1.5570935
-0.2,-0.2,0.6,-0.5235987755982988,0.34906585039886606,0.523598775598299,1.815509,1.5244507,0.18507107,0.058127526,-0.10369146,0.9708292,0.63697326,-0.32218263,1.6134176,-0.38324812,-0.82532513,-0.3843496,1.4947838,1.5221882
-0.2,-0.2,0.6,-0.5235987755982988,0.34906585039886606,0.523598775598299,1.7875322,1.5168965,0.19365804,0.04895372,-0.11671827,0.9786392,0.6543465,-0.31327957,1.6342359,-0.3901369,-0.85736436,-0.39134672,1.5132159,1.5918719
-0.2,-0.2,0.6,-0.5235987755982988,0.34906585039886606,0.523598775598299,1.8281361,1.530121,0.18285681,0.051670495,-0.10285742,0.9706849,0.6828001,-0.30981985,1.6155064,-0.36419132,-0.8157137,-0.3707792,1.5080252,1.5894332
-0.2,-0.2,0.6,-0.5235987755982988,0.34906585039886606,0.523598775598299,1.7949153,1.5099419,0.18869644,0.039634578,-0.094801724,0.9729643,0.62874067,-0.3037133,1.6306812,-0.39103937,-0.8156147,-0.3715691,1.4718072,1.6530931
-0.2,-0.2,0.6,-0.5235987755982988,0.34906585039886606,0.523598775598299,1.8061472,1.5269754,0.1893845,0.05615445,-0.09967017,0.9703492,0.638483,-0.31791762,1.6236506,-0.38307926,-0.84271926,-0.30055228,1.4968692,1.5772142
-0.2,-0.2,0.6,-0.5235987755982988,0.34906585039886606,0.523598775598299,1.8015367,1.517079,0.18248704,0.054887008,-0.102214694,0.96561205,0.623587,-0.31110048,1.6335108,-0.37052137,-0.8274987,-0.30818048,1.5002441,1.6001511
-0.2,-0.2,0.6,-0.5235987755982988,0.34906585039886606,0.523598775598299,1.7777722,1.5257592,0.18812345,0.051313303,-0.10300417,0.98315835,0.62708104,-0.29659766,1.6192011,-0.39149442,-0.8154406,-0.3392731,1.4706653,1.6125244
-0.2,-0.2,0.6,-0.5235987755982988,0.34906585039886606,0.523598775598299,1.8091681,1.5208662,0.17679948,0.053145144,-0.13164759,0.96073663,0.6242776,-0.31540555,1.633405,-0.36944246,-0.8112938,-0.35134265,1.4520111,1.5024563
-0.2,-0.2,0.6,-0.5235987755982988,0.34906585039886606,0.523598775598299,1.7896975,1.5187026,0.19606404,0.07155682,-0.115401454,0.9698261,0.64107746,-0.32387164,1.6287562,-0.3871444,-0.84568816,-0.35043722,1.5431883,1.5965154
-0.2,-0.2,0.6,-0.5235987755982988,0.34906585039886606,0.523598775598299,1.789179,1.5269651,0.17487065,0.045777734,-0.112550795,0.9833461,0.64333737,-0.31876892,1.6311326,-0.3888167,-0.88098884,-0.31970376,1.4896405,1.5618306
-0.2,-0.2,0.6,-0.5235987755982988,0.34906585039886606,0.523598775598299,1.8050473,1.5293403,0.17273027,0.056098312,-0.114476435,0.981195,0.62731695,-0.30874276,1.6245857,-0.39722458,-0.83043605,-0.33944297,1.4904983,1.6648647
-0.2,-0.2,0.6,-0.5235987755982988,0.34906585039886606,0.523598775598299,1.7912818,1.532606,0.18900406,0.053100303,-0.13392721,0.9763335,0.70262355,-0.3123404,1.6127802,-0.36109045,-0.83966905,-0.31102332,1.4828246,1.5967572
-0.2,-0.2,0.6,-0.5235987755982988,0.34906585039886606,0.523598775598299,1.8158761,1.5233021,0.18004678,0.053918723,-0.1005691,0.9836224,0.64546263,-0.31103274,1.6195385,-0.38115203,-0.85124326,-0.36093003,1.5101503,1.7087096
-0.2,-0.2,0.6,-0.5235987755982988,0.34906585039886606,0.523598775598299,1.8085539,1.53202,0.17402864,0.05455442,-0.10010604,0.9717093,0.6178938,-0.3130007,1.6317195,-0.3826658,-0.85928214,-0.37548777,1.5071297,1.6350566
-0.2,-0.2,0.6,-0.5235987755982988,0.34906585039886606,0.523598775598299,1.7972913,1.5324992,0.17990431,0.04398102,-0.11066765,0.97666633,0.63353187,-0.31787002,1.6297692,-0.38498354,-0.8446345,-0.3545073,1.4826567,1.6828318
-0.2,-0.2,0.6,-0.5235987755982988,0.34906585039886606,0.523598775598299,1.8144535,1.5193695,0.17632641,0.06252322,-0.13079646,0.9770692,0.6582424,-0.3187122,1.6319238,-0.3852421,-0.82760054,-0.3112261,1.508307,1.6797962
-0.2,-0.2,0.6,-0.5235987755982988,0.34906585039886606,0.523598775598299,1.8078465,1.5295858,0.17809026,0.06095246,-0.117650956,0.97140086,0.62873054,-0.32036516,1.6239581,-0.4079273,-0.89717823,-0.40378863,1.5314457,1.5661061
-0.2,-0.2,0.6,-0.5235987755982988,0.34906585039886606,0.523598775598299,1.8109483,1.5241708,0.191708,0.051252972,-0.107885085,0.9731115,0.6695117,-0.3113991,1.6213452,-0.38307565,-0.84534794,-0.32122403,1.4931543,1.6475095
-0.2,-0.2,0.6,-0.5235987755982988,0.34906585039886606,0.523598775598299,1.7959294,1.5272872,0.18391599,0.052283153,-0.114653446,0.98155534,0.69429,-0.30363423,1.6260196,-0.37606376,-0.82534844,-0.38020924,1.5078981,1.6217679
-0.2,-0.2,0.6,-0.5235987755982988,0.34906585039886606,0.523598775598299,1.8208071,1.5344012,0.1825845,0.050521262,-0.10227588,0.9803923,0.6480521,-0.31275555,1.6258638,-0.3611443,-0.84474933,-0.42147022,1.4976473,1.5337634
-0.2,-0.2,0.6,-0.5235987755982988,0.34906585039886606,0.523598775598299,1.7972963,1.5148575,0.18906674,0.05378659,-0.11758157,0.9711029,0.6295627,-0.32178146,1.6329343,-0.38213146,-0.8311209,-0.36048475,1.5109284,1.5726551
-0.2,-0.2,0.6,-0.5235987755982988,0.34906585039886606,0.523598775598299,1.8136457,1.5240697,0.181509,0.04995745,-0.106718056,0.97361773,0.6227229,-0.30652532,1.6076403,-0.39326572,-0.7976345,-0.41588223,1.4731387,1.5028512
-0.2,-0.2,0.6,-0.5235987755982988,0.34906585039886606,0.523598775598299,1.8177972,1.5316095,0.17941746,0.04987398,-0.10100149,0.97165066,0.61763716,-0.32071233,1.6247858,-0.3983602,-0.83596,-0.32790774,1.4976786,1.5841532
-0.2,-0.2,0.6,-0.5235987755982988,0.34906585039886606,0.523598775598299,1.7799288,1.5381659,0.1716494,0.060500816,-0.14269215,0.9880719,0.6562003,-0.3300844,1.6205212,-0.36235088,-0.82144713,-0.37548396,1.4772422,1.5119077
-0.2,-0.2,0.6,-0.5235987755982988,0.34906585039886606,0.523598775598299,1.7886703,1.5211759,0.18606853,0.051263347,-0.10560901,0.9696084,0.621648,-0.31904224,1.6150272,-0.39644656,-0.8153863,-0.33537874,1.4790119,1.6316496
-0.2,-0.2,0.6,-0.5235987755982988,0.34906585039886606,0.523598775598299,1.7975168,1.5217327,0.19758837,0.04994482,-0.1357079,0.97063804,0.66280216,-0.3181264,1.6325969,-0.40741682,-0.8906512,-0.37218413,1.5112605,1.6419449
-0.2,-0.2,0.6,-0.5235987755982988,0.34906585039886606,0.523598775598299,1.7914668,1.5280887,0.1913355,0.058682285,-0.1270585,0.9832857,0.61116403,-0.30747405,1.6225393,-0.40452206,-0.80714005,-0.31625134,1.4914997,1.663592
-0.2,-0.2,0.6,-0.5235987755982988,0.34906585039886606,0.523598775598299,1.8103951,1.5240818,0.19323279,0.05812688,-0.10524882,0.9760613,0.62353647,-0.3046412,1.622218,-0.38610953,-0.8763195,-0.352344,1.5271308,1.6071513
-0.2,-0.2,0.6,-0.5235987755982988,0.34906585039886606,0.523598775598299,1.8147666,1.5192518,0.18941064,0.057174094,-0.09164945,0.9606136,0.67589885,-0.3181939,1.6225301,-0.37943482,-0.8373082,-0.3730356,1.4978123,1.5864358
-0.2,-0.2,0.6,-0.5235987755982988,0.34906585039886606,0.523598775598299,1.8081273,1.5255352,0.16995506,0.054602925,-0.11604525,0.9638804,0.6477644,-0.32029408,1.64565,-0.36985058,-0.8264361,-0.3671563,1.4896984,1.8009285
-0.2,-0.2,0.6,-0.5235987755982988,0.34906585039886606,0.523598775598299,1.7879096,1.5298579,0.17949033,0.05794623,-0.1121639,0.97241706,0.67575157,-0.307311,1.6170988,-0.39021808,-0.8306325,-0.3558719,1.4703559,1.6855459
-0.2,-0.2,0.6,-0.5235987755982988,0.34906585039886606,0.523598775598299,1.8032591,1.5322661,0.17854929,0.049217798,-0.10726471,0.9792962,0.638786,-0.31610924,1.6355106,-0.3925577,-0.8100663,-0.3485366,1.4902662,1.4560763
-0.2,-0.2,0.6,-0.5235987755982988,0.34906585039886606,0.523598775598299,1.8048385,1.5248473,0.17636494,0.057521388,-0.09811414,0.990218,0.6687996,-0.3215828,1.6312661,-0.4054077,-0.81097496,-0.33712476,1.5194118,1.5405161
-0.2,-0.2,0.6,-0.5235987755982988,0.34906585039886606,0.523598775598299,1.8048123,1.5195379,0.16581173,0.055320363,-0.13398454,0.96805024,0.6036379,-0.3078885,1.6200801,-0.36905044,-0.7941505,-0.37830013,1.4372957,1.5684994
-0.2,-0.2,0.6,-0.5235987755982988,0.34906585039886606,0.523598775598299,1.801154,1.5264978,0.16937575,0.047103126,-0.101689786,0.98510736,0.65477604,-0.32061917,1.616382,-0.35664737,-0.84002405,-0.33250314,1.5159385,1.6122745
-0.2,-0.2,0.6,-0.5235987755982988,0.34906585039886606,0.523598775598299,1.8123513,1.528576,0.15410174,0.05153499,-0.1182716,0.9777962,0.623065,-0.30506238,1.6304685,-0.3828747,-0.8061498,-0.3683893,1.4569957,1.5510855
-0.2,-0.2,0.6,-0.5235987755982988,0.34906585039886606,0.523598775598299,1.7963988,1.5156739,0.16843936,0.064876705,-0.117908746,0.97136676,0.6344357,-0.31807148,1.6301723,-0.3915551,-0.84432596,-0.3907596,1.5064384,1.6098363
-0.2,-0.2,0.6,-0.5235987755982988,0.34906585039886606,0.523598775598299,1.8025318,1.5218631,0.1913077,0.059728388,-0.111522146,0.9735933,0.62845135,-0.3265973,1.6239176,-0.3815457,-0.8346672,-0.31006277,1.5026783,1.6265502
-0.2,-0.2,0.6,-0.5235987755982988,0.34906585039886606,0.523598775598299,1.8158202,1.5227551,0.17116064,0.04865137,-0.12567654,0.9789675,0.6554621,-0.3274075,1.6184437,-0.3804425,-0.8796126,-0.34227067,1.5036149,1.6775813
-0.2,-0.2,0.6,-0.5235987755982988,0.34906585039886606,0.523598775598299,1.8051006,1.5238076,0.18332724,0.054355707,-0.10779152,0.9773039,0.65218544,-0.32682478,1.6439664,-0.39874715,-0.841597,-0.32351157,1.5188738,1.6442698
-0.2,-0.2,0.6,-0.5235987755982988,0.34906585039886606,0.523598775598299,1.7807399,1.5282929,0.20946728,0.047126237,-0.10936128,0.97482276,0.66439503,-0.31452596,1.6267852,-0.40960595,-0.818522,-0.3501032,1.4795679,1.5140395
-0.2,-0.2,0.6,-0.5235987755982988,0.34906585039886606,0.523598775598299,1.7944148,1.5192755,0.19714257,0.04731762,-0.12299407,0.97803247,0.61666197,-0.32080477,1.6346723,-0.4100515,-0.84888035,-0.2659633,1.4986833,1.6708146
-0.2,-0.2,0.6,-0.5235987755982988,0.34906585039886606,0.523598775598299,1.8009808,1.5238479,0.17194648,0.053259376,-0.11640705,0.97809315,0.62709016,-0.31041837,1.6358806,-0.40570858,-0.84020203,-0.36978298,1.4938179,1.6227978
-0.2,-0.2,0.6,-0.5235987755982988,0.34906585039886606,0.523598775598299,1.8087541,1.5195817,0.21079844,0.063178726,-0.105132714,0.97764975,0.61747324,-0.31702632,1.6200389,-0.36780155,-0.8537788,-0.3650087,1.5308886,1.5308659
-0.2,-0.2,0.6,-0.5235987755982988,0.34906585039886606,0.523598775598299,1.8139366,1.5308458,0.17673504,0.043129668,-0.08909163,0.97708297,0.61866486,-0.31298327,1.6134577,-0.39415663,-0.8396333,-0.35509217,1.4767884,1.5998019
-0.2,-0.2,0.6,-0.5235987755982988,0.34906585039886606,0.523598775598299,1.794996,1.5211827,0.17449723,0.05838102,-0.097206764,0.9744934,0.67387336,-0.32061654,1.6185801,-0.3717021,-0.82773596,-0.35172912,1.5122054,1.4795059
-0.2,-0.2,0.6,-0.5235987755982988,0.34906585039886606,0.523598775598299,1.813278,1.52771,0.18240677,0.07853103,-0.13020055,0.9814599,0.6528209,-0.32361466,1.6210588,-0.39053765,-0.83674324,-0.34522456,1.5185004,1.5763681
-0.2,-0.2,0.6,-0.5235987755982988,0.34906585039886606,0.523598775598299,1.8337486,1.5315452,0.1712754,0.04255838,-0.10288114,0.97057796,0.6641089,-0.31365055,1.6223255,-0.33365864,-0.81734157,-0.40415543,1.471594,1.6596029
-0.2,-0.2,0.6,-0.5235987755982988,0.34906585039886606,0.523598775598299,1.8119373,1.5290462,0.15487684,0.060771093,-0.09728085,0.97128904,0.61437535,-0.31777787,1.6268641,-0.35686594,-0.8487655,-0.34356818,1.4772024,1.529534
-0.2,-0.2,0.6,-0.5235987755982988,0.34906585039886606,0.523598775598299,1.7978256,1.5314252,0.19331664,0.05885495,-0.11999884,0.9836258,0.6731982,-0.31206927,1.620693,-0.3974895,-0.84016305,-0.33429965,1.5198277,1.5995353
-0.2,-0.2,0.6,-0.5235987755982988,0.34906585039886606,0.523598775598299,1.8209772,1.5210656,0.17443545,0.0505749,-0.104067095,0.99761057,0.65174353,-0.32032928,1.6232984,-0.38593194,-0.8456876,-0.37954858,1.519297,1.5052491
-0.2,-0.2,0.6,-0.5235987755982988,0.34906585039886606,0.523598775598299,1.777955,1.5262717,0.18856393,0.048523877,-0.10542651,0.98490095,0.618152,-0.32695636,1.6168095,-0.40416607,-0.83590585,-0.37745607,1.4722694,1.6321162
-0.2,-0.2,0.6,-0.5235987755982988,0.34906585039886606,0.523598775598299,1.7927544,1.5236306,0.1694882,0.054473825,-0.09618416,0.9907154,0.64818025,-0.31706706,1.6231833,-0.3777068,-0.843497,-0.4540031,1.5171213,1.665501
-0.2,-0.2,0.6,-0.5235987755982988,0.34906585039886606,0.523598775598299,1.8123536,1.5260869,0.17664084,0.065431505,-0.11358141,0.9872811,0.648754,-0.31044397,1.6266608,-0.37437218,-0.83536524,-0.38991487,1.4910995,1.4641919
-0.2,-0.2,0.6,-0.5235987755982988,0.34906585039886606,0.523598775598299,1.8124607,1.5186701,0.17630923,0.07843054,-0.11086045,0.96162045,0.63974226,-0.3129976,1.6126939,-0.40000632,-0.8351967,-0.34493753,1.505674,1.6111504
-0.2,-0.2,0.6,-0.5235987755982988,0.34906585039886606,0.523598775598299,1.8001984,1.5179021,0.1989718,0.05019349,-0.112276904,0.9792508,0.70135355,-0.31326324,1.6323371,-0.4067149,-0.8020492,-0.37846604,1.4816387,1.5906206
-0.2,-0.2,0.6,-0.5235987755982988,0.34906585039886606,0.523598775598299,1.7926971,1.5278871,0.2060312,0.034472216,-0.10149648,0.97979873,0.6115514,-0.3132426,1.6115861,-0.37918982,-0.83958066,-0.3450759,1.4733281,1.581045
-0.2,-0.2,0.6,-0.5235987755982988,0.34906585039886606,0.523598775598299,1.7804211,1.5229673,0.17719246,0.08155057,-0.101258636,0.96988213,0.63670284,-0.3156589,1.6188512,-0.3872304,-0.8098187,-0.32226938,1.5077225,1.550332
-0.2,-0.2,0.6,-0.5235987755982988,0.34906585039886606,0.523598775598299,1.7917414,1.5312078,0.19125001,0.056723088,-0.09659017,0.96601343,0.6312224,-0.30968016,1.6349328,-0.39398673,-0.8383364,-0.36363465,1.5225147,1.622412
-0.2,-0.2,0.6,-0.5235987755982988,0.34906585039886606,0.523598775598299,1.7989564,1.5278316,0.16530704,0.06064498,-0.118688755,0.9710019,0.659919,-0.32087028,1.6280038,-0.388719,-0.817732,-0.3876648,1.4867884,1.5740169
-0.2,-0.2,0.6,-0.5235987755982988,0.34906585039886606,0.523598775598299,1.8328317,1.5293373,0.17606297,0.0458492,-0.07562591,0.97405803,0.6258666,-0.30942968,1.6279527,-0.38740534,-0.8523213,-0.3861593,1.5105855,1.5642998
-0.2,-0.2,0.6,-0.5235987755982988,0.34906585039886606,0.523598775598299,1.8096596,1.5160303,0.18757951,0.051800013,-0.11267664,0.9676628,0.555266,-0.31452754,1.6284953,-0.3818661,-0.8285905,-0.3404189,1.477429,1.6386367
-0.2,-0.2,0.6,-0.5235987755982988,0.34906585039886606,0.523598775598299,1.7978011,1.5219761,0.19011298,0.04930144,-0.109233,0.9725913,0.6141964,-0.3142332,1.6281654,-0.35830194,-0.81465364,-0.32890192,1.4790772,1.5103049
-0.2,-0.2,0.6,-0.5235987755982988,0.34906585039886606,0.523598775598299,1.8097278,1.5308923,0.17339884,0.05026105,-0.10566744,0.98551947,0.6681197,-0.31554133,1.6080956,-0.36178595,-0.8098742,-0.39795476,1.4852265,1.720959
-0.2,-0.2,0.6,-0.5235987755982988,0.34906585039886606,0.523598775598299,1.8073963,1.5291189,0.18396047,0.057561174,-0.10730637,0.9810018,0.6946062,-0.32381985,1.6159295,-0.40751463,-0.87247986,-0.35986143,1.5184954,1.5379164
-0.2,-0.2,0.6,-0.5235987755982988,0.34906585039886606,0.523598775598299,1.8007305,1.5288353,0.1787511,0.06559762,-0.12453786,0.96686256,0.6127342,-0.30488384,1.6237437,-0.34563822,-0.829996,-0.38064957,1.5018407,1.529178
-0.2,-0.2,0.6,-0.5235987755982988,0.34906585039886606,0.523598775598299,1.7967994,1.5162014,0.16670074,0.0655348,-0.11778798,0.9691816,0.6032523,-0.31797472,1.6285486,-0.37918785,-0.81415576,-0.37446022,1.478691,1.5826929
-0.2,-0.2,0.6,-0.5235987755982988,0.34906585039886606,0.523598775598299,1.800834,1.5208261,0.18828702,0.06355923,-0.11275976,0.96749055,0.6518036,-0.3155422,1.6200094,-0.40192696,-0.8163381,-0.3526884,1.5113648,1.6503997
-0.2,-0.2,0.6,-0.5235987755982988,0.34906585039886606,0.523598775598299,1.8042684,1.5320971,0.18113795,0.063767195,-0.12756899,0.98659116,0.6372335,-0.31592956,1.6037799,-0.38314977,-0.80357283,-0.3425283,1.4763725,1.6465082
-0.2,-0.2,0.6,-0.5235987755982988,0.34906585039886606,0.523598775598299,1.8211555,1.5231948,0.17358167,0.055304352,-0.12516151,0.97564095,0.61620164,-0.307964,1.6317757,-0.3981586,-0.8184128,-0.3220739,1.4935349,1.6521605
-0.2,-0.2,0.6,-0.5235987755982988,0.34906585039886606,0.523598775598299,1.783855,1.5236852,0.15261662,0.062208693,-0.095881924,0.9763375,0.63843757,-0.31956542,1.6202374,-0.38158414,-0.84279937,-0.3451021,1.4989235,1.578289
-0.2,-0.2,0.6,-0.5235987755982988,0.34906585039886606,0.523598775598299,1.8224353,1.5159342,0.16936183,0.046814185,-0.08900931,0.9634481,0.6210235,-0.31975928,1.6435876,-0.38622516,-0.8764443,-0.38075027,1.502091,1.5508864
-0.2,-0.2,0.6,-0.5235987755982988,0.34906585039886606,0.523598775598299,1.8060789,1.5350984,0.17906262,0.060019113,-0.12574542,0.9715932,0.6280572,-0.31911066,1.6243612,-0.3640107,-0.81822914,-0.37368664,1.4794896,1.6819266
-0.2,-0.2,0.6,-0.5235987755982988,0.34906585039886606,0.523598775598299,1.787464,1.5214165,0.16855757,0.089338325,-0.10710771,0.97492236,0.6466243,-0.30437735,1.6276242,-0.38997957,-0.8118131,-0.28105438,1.5413549,1.4787061
-0.2,-0.2,0.6,-0.5235987755982988,0.34906585039886606,0.523598775598299,1.8174268,1.5130061,0.18231922,0.051673982,-0.12803942,0.9765908,0.6492159,-0.324919,1.6137831,-0.37871373,-0.8171606,-0.403999,1.4534779,1.6243855
-0.2,-0.2,0.6,-0.5235987755982988,0.34906585039886606,0.523598775598299,1.8104087,1.5224373,0.17135239,0.064903125,-0.115629844,0.9715263,0.6321941,-0.32106853,1.6130159,-0.37497237,-0.84335274,-0.29665208,1.5111614,1.6083992
-0.2,-0.2,0.6,-0.5235987755982988,0.34906585039886606,0.523598775598299,1.8035717,1.5253061,0.18352556,0.04740337,-0.09373654,0.9632259,0.6129034,-0.30942586,1.6263914,-0.3580766,-0.82602,-0.33911803,1.5015793,1.7991554
-0.2,-0.2,0.6,-0.5235987755982988,0.34906585039886606,0.523598775598299,1.8032435,1.5216185,0.1905626,0.04362584,-0.09029311,0.96934366,0.6212569,-0.31836763,1.6228113,-0.40631709,-0.8443558,-0.3709172,1.5061074,1.7089639
-0.2,-0.2,0.6,-0.5235987755982988,0.34906585039886606,0.523598775598299,1.8021308,1.5252404,0.17717491,0.060128897,-0.11581016,0.98171204,0.57120806,-0.3201697,1.627289,-0.38865685,-0.8264239,-0.356871,1.488,1.6086969
-0.2,-0.2,0.6,-0.5235987755982988,0.34906585039886606,0.523598775598299,1.8193347,1.5185958,0.20770693,0.053646386,-0.12251322,0.9778687,0.57315123,-0.32342523,1.6224763,-0.3868455,-0.8601957,-0.3513451,1.5084866,1.5920782
-0.2,-0.2,0.6,-0.5235987755982988,0.34906585039886606,0.523598775598299,1.8127097,1.5284176,0.22921488,0.057729505,-0.11823524,0.96630114,0.63298005,-0.31159505,1.6280932,-0.38790256,-0.8331821,-0.33276194,1.5195059,1.7544785
-0.2,-0.2,0.6,-0.5235987755982988,0.34906585039886606,0.523598775598299,1.813164,1.5192249,0.1801443,0.050443254,-0.10535554,0.9680943,0.64190716,-0.31313422,1.6222187,-0.38901025,-0.8327139,-0.33241728,1.4831324,1.5397677
-0.2,-0.2,0.6,-0.5235987755982988,0.34906585039886606,0.523598775598299,1.7870396,1.5268672,0.1700709,0.062163953,-0.100500785,0.9614645,0.6683807,-0.3162198,1.6182865,-0.36610827,-0.8264226,-0.3573287,1.4896678,1.6021482
-0.2,-0.2,0.6,-0.5235987755982988,0.34906585039886606,0.523598775598299,1.8034441,1.5256864,0.18189716,0.05361042,-0.11480434,0.97497493,0.6861643,-0.31737766,1.6254493,-0.39183155,-0.8330917,-0.37694052,1.5026778,1.6162237
-0.2,-0.2,0.6,-0.5235987755982988,0.34906585039886606,0.523598775598299,1.8100151,1.527632,0.15944211,0.061994713,-0.12749852,0.9750861,0.6415251,-0.31120026,1.6248394,-0.3845649,-0.8224115,-0.31742534,1.4707713,1.5655707
-0.2,-0.2,0.6,-0.5235987755982988,0.34906585039886606,0.523598775598299,1.7889801,1.5203288,0.17553723,0.058946904,-0.118183024,0.97162896,0.6601756,-0.31543827,1.6252692,-0.382113,-0.8311977,-0.3523125,1.492018,1.5911301
-0.2,-0.2,0.6,-0.5235987755982988,0.34906585039886606,0.523598775598299,1.7949619,1.5191193,0.17711805,0.06661846,-0.11468824,0.96306044,0.6287095,-0.30574512,1.629586,-0.4010765,-0.82338023,-0.34427056,1.4846884,1.4911757
-0.2,-0.2,0.6,-0.5235987755982988,0.34906585039886606,0.523598775598299,1.7973691,1.5319543,0.18848991,0.05637185,-0.1061052,0.95751226,0.6303293,-0.30633667,1.6134425,-0.3747663,-0.79107565,-0.37415797,1.4619582,1.6109648
-0.2,-0.2,0.6,-0.5235987755982988,0.34906585039886606,0.523598775598299,1.7953916,1.5297861,0.1661432,0.057947762,-0.124936156,0.9842554,0.58973116,-0.31393698,1.6346196,-0.39797875,-0.8276214,-0.37356,1.4963721,1.5992064
-0.2,-0.2,0.6,-0.5235987755982988,0.34906585039886606,0.523598775598299,1.7960036,1.5187429,0.16172317,0.08059977,-0.124430105,0.971402,0.6341133,-0.31058925,1.63711,-0.365534,-0.82384974,-0.27563342,1.510821,1.546487
-0.2,-0.2,0.6,-0.5235987755982988,0.34906585039886606,0.523598775598299,1.8099536,1.5185335,0.17180738,0.052099634,-0.10561975,0.9691874,0.66237503,-0.3295106,1.6194475,-0.38799047,-0.846643,-0.3528053,1.4956008,1.7170275
-0.2,-0.2,0.6,-0.5235987755982988,0.34906585039886606,0.523598775598299,1.7950964,1.5188514,0.17166217,0.075576395,-0.11769489,0.9751544,0.6056162,-0.3258582,1.6201683,-0.3787479,-0.84427464,-0.3713177,1.5168163,1.5808264
-0.2,-0.2,0.6,-0.5235987755982988,0.34906585039886606,0.523598775598299,1.7769473,1.5282371,0.18829899,0.054829758,-0.10845736,0.973874,0.6538012,-0.31314206,1.630301,-0.39801055,-0.824363,-0.37848768,1.4865226,1.6105375
-0.2,-0.2,0.6,-0.5235987755982988,0.34906585039886606,0.523598775598299,1.7881331,1.5101291,0.1909697,0.06782195,-0.12307071,0.9668601,0.68202907,-0.319966,1.608011,-0.3824189,-0.8400869,-0.32107323,1.5008032,1.389271
-0.2,-0.2,0.6,-0.5235987755982988,0.34906585039886606,0.523598775598299,1.798375,1.5247802,0.17609163,0.043016355,-0.091321304,0.97795403,0.6603764,-0.3088373,1.6225383,-0.3894403,-0.83252364,-0.32545805,1.4704043,1.595501
-0.2,-0.2,0.6,-0.5235987755982988,0.34906585039886606,0.523598775598299,1.803813,1.5298728,0.17633009,0.05622528,-0.104937755,0.9618491,0.64549285,-0.31805542,1.6254463,-0.38660252,-0.81959075,-0.3688616,1.4855161,1.4852309
-0.2,-0.2,0.6,-0.5235987755982988,0.34906585039886606,0.523598775598299,1.7849379,1.5229975,0.18637303,0.06558111,-0.10063296,0.97616744,0.5682507,-0.30801538,1.619616,-0.38101655,-0.8459283,-0.341724,1.5026699,1.6052289
-0.2,-0.2,0.6,-0.5235987755982988,0.34906585039886606,0.523598775598299,1.8044803,1.5187912,0.18477584,0.065318435,-0.11639337,0.97347075,0.56624633,-0.3068484,1.6353887,-0.3720284,-0.8296031,-0.41251248,1.5083054,1.5554113
-0.2,-0.2,0.6,-0.5235987755982988,0.34906585039886606,0.523598775598299,1.814423,1.5269406,0.17870717,0.05883457,-0.11854689,0.96681166,0.6110771,-0.32188275,1.6305733,-0.36671633,-0.8493405,-0.38492787,1.5211302,1.4738662
-0.2,-0.2,0.6,-0.5235987755982988,0.34906585039886606,0.523598775598299,1.7961066,1.5298249,0.19034655,0.063683264,-0.12890224,0.9805119,0.705367,-0.3219977,1.6227701,-0.4201154,-0.8750431,-0.3378071,1.5330681,1.6550905
-0.2,-0.2,0.6,-0.5235987755982988,0.34906585039886606,0.523598775598299,1.7913852,1.5152067,0.1954447,0.059655186,-0.11488432,0.9726539,0.6421873,-0.3100854,1.6293238,-0.39171973,-0.8652546,-0.287878,1.520157,1.5453365
-0.2,-0.2,0.6,-0.5235987755982988,0.34906585039886606,0.523598775598299,1.8065319,1.5255761,0.1952722,0.046601187,-0.10033671,0.9656764,0.6765183,-0.31323797,1.632116,-0.38610747,-0.8119943,-0.34849492,1.5032771,1.591324
-0.2,-0.2,0.6,-0.5235987755982988,0.34906585039886606,0.523598775598299,1.7986541,1.5292134,0.17864168,0.04668524,-0.09662209,0.9666894,0.6506378,-0.31415963,1.6184599,-0.37949345,-0.82979983,-0.41951698,1.4805671,1.5264922
-0.2,-0.2,0.6,-0.5235987755982988,0.34906585039886606,0.523598775598299,1.8092933,1.5209423,0.19437139,0.056923795,-0.09835793,0.9663929,0.633202,-0.31096283,1.6332872,-0.399333,-0.86168104,-0.31331062,1.5405809,1.6618721
-0.2,-0.2,0.6,-0.5235987755982988,0.34906585039886606,0.523598775598299,1.8026954,1.529514,0.16728804,0.06432204,-0.121438585,0.98312837,0.6351068,-0.31315342,1.6474801,-0.39038524,-0.8202634,-0.36499742,1.5053574,1.5027593
-0.2,-0.2,0.6,-0.5235987755982988,0.34906585039886606,0.523598775598299,1.811281,1.5274044,0.19749087,0.052774683,-0.11751639,0.97496814,0.6413562,-0.31366247,1.616867,-0.3864902,-0.8358039,-0.31576115,1.5332434,1.5470111
-0.2,-0.2,0.6,-0.5235987755982988,0.34906585039886606,0.523598775598299,1.7977421,1.5301604,0.1691428,0.05057378,-0.1034202,0.9644922,0.6401275,-0.3181543,1.6242253,-0.37818366,-0.82887006,-0.35343766,1.4927509,1.5388503
-0.2,-0.2,0.6,-0.5235987755982988,0.34906585039886606,0.523598775598299,1.8062646,1.5254536,0.1868927,0.06076208,-0.10272549,0.9608689,0.612683,-0.30515584,1.6298625,-0.398649,-0.8224751,-0.30362555,1.4885302,1.5202975
-0.2,-0.2,0.6,-0.5235987755982988,0.34906585039886606,0.523598775598299,1.803083,1.5224732,0.16946034,0.055198226,-0.13999024,0.9866621,0.5685988,-0.32741827,1.6305377,-0.37339064,-0.840096,-0.44084948,1.492635,1.5709368
-0.2,-0.2,0.6,-0.5235987755982988,0.34906585039886606,0.523598775598299,1.8044345,1.5192269,0.18734382,0.06107778,-0.10277705,0.9732806,0.5790445,-0.3193596,1.6140926,-0.38529876,-0.82673043,-0.4286487,1.5002664,1.5505785
-0.2,-0.2,0.6,-0.5235987755982988,0.34906585039886606,0.523598775598299,1.8057715,1.5276086,0.18986504,0.04464227,-0.12062797,0.9788806,0.67004156,-0.31143788,1.6115685,-0.3998028,-0.82743955,-0.35231212,1.4906752,1.6293468
-0.2,-0.2,0.6,-0.5235987755982988,0.34906585039886606,0.523598775598299,1.7962121,1.5297918,0.19477348,0.057231218,-0.12739764,0.97532743,0.6919392,-0.31523645,1.6271347,-0.38222006,-0.82452965,-0.38597247,1.5011262,1.6847125
-0.2,-0.2,0.6,-0.5235987755982988,0.34906585039886606,0.523598775598299,1.8224695,1.5261085,0.15779124,0.040846553,-0.09337078,0.9794244,0.64545006,-0.31297943,1.6340945,-0.39072433,-0.8513905,-0.37998876,1.498471,1.5917603
-0.2,-0.2,0.6,-0.5235987755982988,0.34906585039886606,0.523598775598299,1.7854481,1.5315944,0.17188863,0.04393272,-0.09779534,1.0013218,0.57975465,-0.31612542,1.6269643,-0.36349285,-0.8442429,-0.39028016,1.4837155,1.601707
-0.2,-0.2,0.6,-0.5235987755982988,0.34906585039886606,0.523598775598299,1.7902598,1.5219283,0.1825696,0.07851579,-0.1294543,0.9646711,0.65371186,-0.32020527,1.6213889,-0.38106468,-0.8233558,-0.33664516,1.5216849,1.5336344
-0.2,-0.2,0.6,-0.5235987755982988,0.34906585039886606,0.523598775598299,1.7936654,1.5198596,0.1798997,0.06764459,-0.11664648,0.9759132,0.6589108,-0.31757388,1.6319356,-0.36416814,-0.83097285,-0.3920908,1.5360849,1.5846125
-0.2,-0.2,0.6,-0.5235987755982988,0.34906585039886606,0.523598775598299,1.8077236,1.5232902,0.18085407,0.04302055,-0.10222819,0.9706314,0.6671383,-0.30896875,1.6172948,-0.3806352,-0.83144456,-0.3418101,1.4889855,1.5811669
-0.2,-0.2,0.6,-0.5235987755982988,0.34906585039886606,0.523598775598299,1.8126663,1.5207409,0.16816592,0.06793949,-0.097265236,0.97350204,0.6185859,-0.30832675,1.6151322,-0.37491068,-0.83344036,-0.37251943,1.5201205,1.6049278
-0.2,-0.2,0.6,-0.5235987755982988,0.34906585039886606,0.523598775598299,1.8321606,1.5375009,0.18674059,0.03988274,-0.1089075,0.978882,0.6241193,-0.32852563,1.6286656,-0.37184775,-0.8546443,-0.38738552,1.5202569,1.6338295
-0.2,-0.2,0.6,-0.5235987755982988,0.34906585039886606,0.523598775598299,1.7964422,1.5189457,0.18800035,0.056497596,-0.108451985,0.9680603,0.6163689,-0.32105154,1.6215024,-0.3942821,-0.86172926,-0.31830075,1.4909846,1.5566525
-0.2,-0.2,0.6,-0.5235987755982988,0.34906585039886606,0.523598775598299,1.7992016,1.5235537,0.19711237,0.048327677,-0.09126947,0.98170435,0.627804,-0.31136212,1.6167295,-0.3811769,-0.80089384,-0.36796576,1.5149155,1.5721236
-0.2,-0.2,0.6,-0.5235987755982988,0.34906585039886606,0.523598775598299,1.8120948,1.5193346,0.18638559,0.05856674,-0.121031776,0.97711414,0.57814384,-0.30604845,1.6180041,-0.39622793,-0.8155581,-0.31548253,1.4786801,1.624543
-0.2,-0.2,0.6,-0.5235987755982988,0.34906585039886606,0.523598775598299,1.8158829,1.5242543,0.18211591,0.06944833,-0.10243142,0.9711341,0.6128235,-0.31006086,1.6178526,-0.376105,-0.8443416,-0.35570687,1.5402764,1.6424642
-0.2,-0.2,0.6,-0.5235987755982988,0.34906585039886606,0.523598775598299,1.7913836,1.5211687,0.18651414,0.039503314,-0.11366967,0.97240716,0.71432483,-0.31823674,1.6212785,-0.3773657,-0.84479326,-0.37982267,1.4815874,1.542814
-0.2,-0.2,0.6,-0.5235987755982988,0.34906585039886606,0.523598775598299,1.8187686,1.5267953,0.20180091,0.0529445,-0.10001209,0.972675,0.5881592,-0.3170409,1.6158273,-0.39143774,-0.8511966,-0.38285765,1.4980052,1.6152507
-0.2,-0.2,0.6,-0.5235987755982988,0.34906585039886606,0.523598775598299,1.8111962,1.5262038,0.16975544,0.042263977,-0.10971133,0.9895743,0.67401564,-0.3237593,1.6171148,-0.37380663,-0.8050421,-0.33426866,1.4845073,1.6238002
-0.2,-0.2,0.6,-0.5235987755982988,0.34906585039886606,0.523598775598299,1.7793536,1.5246489,0.19446206,0.060553513,-0.13982409,0.9853139,0.6463086,-0.31320423,1.6159354,-0.38751778,-0.8454849,-0.3491791,1.5252979,1.5628263
-0.2,-0.2,0.6,-0.5235987755982988,0.34906585039886606,0.523598775598299,1.8062559,1.5387799,0.17739336,0.056186505,-0.103492066,0.96216214,0.6038879,-0.3017888,1.6257757,-0.39161146,-0.84720004,-0.35446486,1.4999967,1.4563423
-0.2,-0.2,0.6,-0.5235987755982988,0.34906585039886606,0.523598775598299,1.789386,1.5296063,0.19236383,0.058427714,-0.13964856,0.97824407,0.701056,-0.31011704,1.6069758,-0.40151703,-0.81548756,-0.38195825,1.4907087,1.4302657
-0.2,-0.2,0.6,-0.5235987755982988,0.34906585039886606,0.523598775598299,1.8100952,1.525647,0.17385326,0.054557413,-0.10539904,0.9740775,0.5599775,-0.3235369,1.6445062,-0.37475157,-0.82723033,-0.2960885,1.4781492,1.5824604
-0.2,-0.2,0.6,-0.5235987755982988,0.34906585039886606,0.523598775598299,1.7890859,1.5229723,0.1815931,0.06269684,-0.11163879,0.9753778,0.65241694,-0.30573303,1.6255146,-0.3797215,-0.81687987,-0.3747806,1.4987411,1.5751597
-0.2,-0.2,0.6,-0.5235987755982988,0.34906585039886606,0.523598775598299,1.7912163,1.5216185,0.18307735,0.04089478,-0.076097935,0.9698029,0.6126831,-0.3252366,1.6144353,-0.3993119,-0.850171,-0.3875845,1.4890516,1.5835556
-0.2,-0.2,0.6,-0.5235987755982988,0.34906585039886606,0.523598775598299,1.8067333,1.5222777,0.18963857,0.068183765,-0.122640125,0.96508867,0.6314574,-0.32361695,1.6149133,-0.3659219,-0.86211663,-0.38838905,1.555614,1.5949421
-0.2,-0.2,0.6,-0.5235987755982988,0.34906585039886606,0.523598775598299,1.799241,1.5119381,0.18887605,0.059989825,-0.10316721,0.9788324,0.5956296,-0.31810772,1.6168121,-0.36309764,-0.8578532,-0.31061527,1.5050446,1.4770055
-0.2,-0.2,0.6,-0.5235987755982988,0.34906585039886606,0.523598775598299,1.8033093,1.5323558,0.16905461,0.054743957,-0.09405622,0.97666675,0.6733135,-0.3214138,1.6302718,-0.40433848,-0.8482225,-0.30310178,1.5118725,1.6622486
-0.2,-0.2,0.6,-0.5235987755982988,0.34906585039886606,0.523598775598299,1.8094034,1.5302258,0.17723437,0.057666976,-0.12704739,0.97080225,0.6602013,-0.31604058,1.6248424,-0.38569602,-0.8068522,-0.4058957,1.5041689,1.5973706
-0.2,-0.2,0.6,-0.5235987755982988,0.34906585039886606,0.523598775598299,1.7967527,1.5266114,0.18286683,0.044739384,-0.110822745,0.9730629,0.6591856,-0.30972764,1.6331195,-0.40185758,-0.81013244,-0.34508088,1.4611719,1.5447837
-0.2,-0.2,0.6,-0.5235987755982988,0.34906585039886606,0.523598775598299,1.8016009,1.5277969,0.17676222,0.047329675,-0.10210135,0.9734612,0.69521743,-0.31782576,1.6113396,-0.40610465,-0.8257966,-0.37431383,1.4954613,1.6262304
-0.2,-0.2,0.6,-0.5235987755982988,0.34906585039886606,0.523598775598299,1.8043517,1.5325357,0.15712492,0.05676801,-0.10574393,0.9765605,0.6699454,-0.31013528,1.6251036,-0.37710214,-0.82836336,-0.3197819,1.4995937,1.4553276
-0.2,-0.2,0.6,-0.5235987755982988,0.34906585039886606,0.523598775598299,1.8240414,1.526911,0.16019312,0.04851822,-0.109467275,0.95923775,0.6684388,-0.3214656,1.628015,-0.3929227,-0.83884066,-0.3453419,1.4979951,1.566548
-0.2,-0.2,0.6,-0.5235987755982988,0.34906585039886606,0.523598775598299,1.7868751,1.5253432,0.17016193,0.05380112,-0.0985542,0.9830847,0.6568958,-0.31864694,1.6142222,-0.39256266,-0.83022046,-0.30848667,1.4878277,1.5250126
-0.2,-0.2,0.6,-0.5235987755982988,0.34906585039886606,0.523598775598299,1.8138204,1.5271481,0.18232895,0.06278752,-0.095451236,0.97377807,0.57831043,-0.3194878,1.6279621,-0.41094014,-0.83456856,-0.3547836,1.5062361,1.6238704
-0.2,-0.2,0.6,-0.5235987755982988,0.34906585039886606,0.523598775598299,1.7809252,1.52501,0.18980029,0.059034344,-0.14394023,0.9862051,0.6350159,-0.30787906,1.6230693,-0.3669479,-0.81334305,-0.32177743,1.4990373,1.6356404
-0.2,-0.2,0.6,-0.5235987755982988,0.34906585039886606,0.523598775598299,1.8125261,1.5283973,0.16670659,0.057798557,-0.117809474,0.9665374,0.6367275,-0.3214101,1.6233803,-0.38316298,-0.86616164,-0.40112767,1.4873543,1.6919048
-0.2,-0.2,0.6,-0.5235987755982988,0.34906585039886606,0.523598775598299,1.8142799,1.5282174,0.17793687,0.056082737,-0.1127354,0.94941103,0.6136821,-0.32080063,1.6315035,-0.3825788,-0.8036158,-0.35870394,1.460617,1.4789625
-0.2,-0.2,0.6,-0.5235987755982988,0.34906585039886606,0.523598775598299,1.8021836,1.5234505,0.19369489,0.037647456,-0.12816575,0.9655965,0.6490146,-0.32074383,1.6258545,-0.40901393,-0.80816793,-0.3509201,1.444627,1.5340258
-0.2,-0.2,0.6,-0.5235987755982988,0.34906585039886606,0.523598775598299,1.792267,1.5302185,0.186996,0.050269693,-0.11743601,0.9850259,0.6211965,-0.3193551,1.6259624,-0.38745475,-0.8492946,-0.34782338,1.5102504,1.6479416
-0.2,-0.2,0.6,-0.5235987755982988,0.34906585039886606,0.523598775598299,1.8064818,1.519381,0.18447238,0.05661404,-0.11107657,0.9758622,0.62881863,-0.31918776,1.6221045,-0.39658093,-0.8632002,-0.359181,1.5028566,1.6864812
-0.2,-0.2,0.6,-0.5235987755982988,0.34906585039886606,0.523598775598299,1.8062994,1.5203826,0.17157066,0.04825463,-0.12338734,0.994544,0.65944046,-0.32547385,1.6125209,-0.37750128,-0.84065783,-0.37127337,1.4710984,1.4329634
-0.2,-0.2,0.6,-0.5235987755982988,0.34906585039886606,0.523598775598299,1.7995958,1.5309086,0.18832643,0.052938208,-0.106199786,0.96617293,0.5681119,-0.3227336,1.61699,-0.37807244,-0.83327305,-0.2666516,1.472879,1.6121308
-0.2,-0.2,0.6,-0.5235987755982988,0.34906585039886606,0.523598775598299,1.8017291,1.5288126,0.17887434,0.07581426,-0.11742968,0.9717373,0.5544524,-0.31407693,1.618961,-0.39014006,-0.8249413,-0.3219127,1.4796326,1.5529705
-0.2,-0.2,0.6,-0.5235987755982988,0.34906585039886606,0.523598775598299,1.7985791,1.5259185,0.20263498,0.0540971,-0.11820741,0.9751535,0.6046712,-0.31998616,1.6196822,-0.41045004,-0.8386512,-0.38108766,1.5076653,1.5655447
-0.2,-0.2,0.6,-0.5235987755982988,0.34906585039886606,0.523598775598299,1.8037534,1.5158246,0.19605657,0.05762403,-0.11345392,0.9660598,0.63200265,-0.3109288,1.6310269,-0.40555516,-0.861125,-0.3191299,1.5248599,1.7054274
-0.2,-0.2,0.6,-0.5235987755982988,0.34906585039886606,0.523598775598299,1.8114952,1.5264246,0.19471674,0.048113365,-0.08705031,0.9937888,0.6177077,-0.31304455,1.6276844,-0.40036318,-0.8454054,-0.3541865,1.5053991,1.5945206
-0.2,-0.2,0.6,-0.5235987755982988,0.34906585039886606,0.523598775598299,1.8123645,1.5324838,0.18348488,0.050235037,-0.12308811,0.9692519,0.6158997,-0.3170941,1.6225477,-0.38930976,-0.8461357,-0.41466945,1.4940269,1.5704216
-0.2,-0.2,0.6,-0.5235987755982988,0.34906585039886606,0.523598775598299,1.7851319,1.5202539,0.18158634,0.05891407,-0.12541433,0.9675609,0.6294125,-0.32643804,1.6206763,-0.36594227,-0.84924966,-0.36012408,1.4902502,1.5846837
-0.2,-0.2,0.6,-0.5235987755982988,0.34906585039886606,0.523598775598299,1.794096,1.5151936,0.1692631,0.05999951,-0.11796617,0.9658485,0.61179465,-0.32621133,1.6266207,-0.37973025,-0.8424996,-0.3946669,1.4905227,1.5729802
-0.2,-0.2,0.6,-0.5235987755982988,0.34906585039886606,0.523598775598299,1.80759,1.5225024,0.18573388,0.05001385,-0.10614659,0.97234106,0.6219073,-0.32469296,1.6227436,-0.41698396,-0.8633381,-0.3785568,1.5115755,1.700986
-0.2,-0.2,0.6,-0.5235987755982988,0.34906585039886606,0.523598775598299,1.8257543,1.5209914,0.18754031,0.06359514,-0.11166549,0.97467625,0.67135644,-0.31443864,1.6194882,-0.4004359,-0.82192147,-0.38060302,1.5221468,1.6613016
-0.2,-0.2,0.6,-0.5235987755982988,0.34906585039886606,0.523598775598299,1.7836454,1.5309092,0.20110083,0.04829818,-0.09370743,0.9727072,0.6668193,-0.32081318,1.6248376,-0.38619655,-0.85687464,-0.372201,1.5360082,1.5999367
-0.2,-0.2,0.6,-0.5235987755982988,0.34906585039886606,0.523598775598299,1.7821962,1.5180434,0.19391094,0.06733922,-0.13699298,0.95828456,0.60449195,-0.31939536,1.6271019,-0.37332502,-0.8315177,-0.33299884,1.4956197,1.521537
-0.2,-0.2,0.6,-0.5235987755982988,0.34906585039886606,0.523598775598299,1.8102428,1.520702,0.1929189,0.04651648,-0.110161215,0.9724888,0.6634587,-0.33236685,1.6273392,-0.3583042,-0.81721586,-0.3782745,1.5274212,1.553691
-0.2,-0.2,0.6,-0.5235987755982988,0.34906585039886606,0.523598775598299,1.7989588,1.5323921,0.190865,0.056413226,-0.12445606,0.96706456,0.67069185,-0.3202322,1.6121553,-0.37205127,-0.82617587,-0.28396058,1.5029656,1.5291885
-0.2,-0.2,0.6,-0.5235987755982988,0.34906585039886606,0.523598775598299,1.7991723,1.5273455,0.18101966,0.053714227,-0.10059275,0.97136223,0.619325,-0.3130236,1.6264541,-0.36700296,-0.8524765,-0.3465824,1.5150951,1.5470488
-0.2,-0.2,0.6,-0.5235987755982988,0.34906585039886606,0.523598775598299,1.8013524,1.5243267,0.17303021,0.048529703,-0.12156506,0.97924656,0.65872437,-0.32745844,1.6309056,-0.39990756,-0.88245106,-0.42958707,1.4905878,1.5628976
-0.2,-0.2,0.6,-0.5235987755982988,0.34906585039886606,0.523598775598299,1.800168,1.5269305,0.18745701,0.044350605,-0.12772983,0.976327,0.62811154,-0.31301612,1.6214219,-0.39754423,-0.8539062,-0.34625474,1.5092391,1.6422156
-0.2,-0.2,0.6,-0.5235987755982988,0.34906585039886606,0.523598775598299,1.7830708,1.5268826,0.17914267,0.06403723,-0.118538275,0.98509455,0.58745396,-0.31608522,1.6159834,-0.3675139,-0.8122986,-0.3615117,1.4903694,1.6900402
-0.2,-0.2,0.6,-0.5235987755982988,0.34906585039886606,0.523598775598299,1.796423,1.5232445,0.15261944,0.049569465,-0.0789583,0.97977614,0.5693052,-0.30925748,1.625253,-0.3808699,-0.83939666,-0.32623214,1.4861634,1.6688383
-0.2,-0.2,0.6,-0.5235987755982988,0.34906585039886606,0.523598775598299,1.7958494,1.5346439,0.21020037,0.056948625,-0.11436376,0.98183763,0.6603206,-0.31558397,1.6214476,-0.3819454,-0.81080824,-0.34437898,1.4725443,1.5751497
-0.2,-0.2,0.6,-0.5235987755982988,0.34906585039886606,0.523598775598299,1.8115563,1.5242605,0.1564214,0.05842482,-0.119878754,0.9690788,0.6311737,-0.3092823,1.634312,-0.366913,-0.8430056,-0.32485762,1.4871308,1.6210135
-0.2,-0.2,0.6,-0.5235987755982988,0.34906585039886606,0.523598775598299,1.7947066,1.5260603,0.18136698,0.052205026,-0.10169451,0.9757619,0.61596763,-0.31062976,1.6212322,-0.4038289,-0.8430201,-0.30299577,1.517831,1.6038209
-0.2,-0.2,0.6,-0.5235987755982988,0.34906585039886606,0.523598775598299,1.8150152,1.5295835,0.17156729,0.051550463,-0.10657321,0.9784469,0.6359345,-0.32164082,1.6286939,-0.3901495,-0.81340337,-0.3522396,1.4591787,1.6334218
-0.2,-0.2,0.6,-0.5235987755982988,0.34906585039886606,0.523598775598299,1.8147577,1.5241705,0.17487134,0.05843805,-0.116735086,0.9817285,0.58008474,-0.32007423,1.6359715,-0.37483677,-0.81306505,-0.26386797,1.4863157,1.6123272
-0.2,-0.2,0.6,-0.5235987755982988,0.34906585039886606,0.523598775598299,1.7959963,1.5168811,0.16372769,0.07675765,-0.12404346,0.96243054,0.66158324,-0.3118101,1.6156335,-0.38258275,-0.82712525,-0.40118724,1.5087787,1.6741391
-0.2,-0.2,0.6,-0.5235987755982988,0.34906585039886606,0.523598775598299,1.7912732,1.5309734,0.17972544,0.05650693,-0.108690575,0.9699851,0.6411133,-0.31315327,1.6269128,-0.3989856,-0.865923,-0.3415627,1.5021356,1.6458546
-0.2,-0.2,0.6,-0.5235987755982988,0.34906585039886606,0.523598775598299,1.7913897,1.5294751,0.19073346,0.0499447,-0.0852204,0.9655029,0.59209985,-0.3290818,1.6103326,-0.36667427,-0.8161063,-0.3346649,1.4917016,1.586741
-0.2,-0.2,0.6,-0.5235987755982988,0.34906585039886606,0.523598775598299,1.8193315,1.5213411,0.16247736,0.05054136,-0.08852235,0.97149926,0.6536167,-0.3069541,1.6280395,-0.3800104,-0.84310895,-0.36696407,1.5138918,1.7606075
-0.2,-0.2,0.6,-0.5235987755982988,0.34906585039886606,0.523598775598299,1.8119062,1.5232741,0.17283817,0.0541256,-0.13085073,0.9641682,0.62402904,-0.32044944,1.6214888,-0.38510093,-0.8106588,-0.36928195,1.4859922,1.6731986
-0.2,-0.2,0.6,-0.5235987755982988,0.34906585039886606,0.523598775598299,1.806059,1.5265799,0.18076906,0.051782213,-0.12811965,0.9693741,0.6326918,-0.319908,1.6275808,-0.38168824,-0.8385455,-0.3589219,1.4868553,1.5258873
-0.2,-0.2,0.6,-0.5235987755982988,0.34906585039886606,0.523598775598299,1.8139348,1.5230436,0.18659942,0.057766393,-0.07937008,0.9737031,0.6258702,-0.3171364,1.6344564,-0.36121875,-0.83122265,-0.36852223,1.4910251,1.5961087
-0.2,-0.2,0.6,-0.5235987755982988,0.34906585039886606,0.523598775598299,1.8059788,1.5223464,0.17708828,0.052808076,-0.11438306,0.97063553,0.6117698,-0.32074818,1.6187685,-0.38543493,-0.8440341,-0.3462195,1.4799095,1.4570841
-0.2,-0.2,0.6,-0.5235987755982988,0.34906585039886606,0.523598775598299,1.7926844,1.5252256,0.16921121,0.059052818,-0.11988133,0.96712273,0.59343857,-0.32322603,1.6378372,-0.37628186,-0.8577339,-0.37028882,1.5086005,1.6489109
-0.2,-0.2,0.6,-0.5235987755982988,0.34906585039886606,0.523598775598299,1.8028119,1.520021,0.18502858,0.04925052,-0.10225229,0.97347313,0.6745326,-0.32701138,1.6115279,-0.37554735,-0.7944104,-0.3950418,1.4869791,1.5209012
-0.2,-0.2,0.6,-0.5235987755982988,0.34906585039886606,0.523598775598299,1.8019546,1.5250326,0.18032514,0.07313722,-0.104873374,0.9610356,0.6424811,-0.30774334,1.6187718,-0.38863507,-0.8319308,-0.35914958,1.5200943,1.5927982
-0.2,-0.2,0.6,-0.5235987755982988,0.34906585039886606,0.523598775598299,1.8179,1.5221672,0.18072125,0.057262972,-0.102468364,0.972798,0.6824243,-0.31335446,1.5986,-0.39117074,-0.8112197,-0.25828174,1.4810877,1.6440475
-0.2,-0.2,0.6,-0.5235987755982988,0.34906585039886606,0.523598775598299,1.7756292,1.5243859,0.16873397,0.05700832,-0.11555695,0.9937134,0.5277921,-0.31981218,1.621218,-0.37105498,-0.80730605,-0.3237161,1.4347472,1.6211294
-0.2,-0.2,0.6,-0.5235987755982988,0.34906585039886606,0.523598775598299,1.7850482,1.5234578,0.18294448,0.05522806,-0.11003364,0.97889334,0.63371176,-0.32283399,1.6194285,-0.4055843,-0.83145875,-0.3872078,1.5185275,1.6561246
-0.2,-0.2,0.6,-0.5235987755982988,0.34906585039886606,0.523598775598299,1.8150682,1.5307072,0.17003608,0.0662906,-0.122693285,0.99046624,0.6316276,-0.32360741,1.6322514,-0.38447714,-0.8461905,-0.34586394,1.5095047,1.5873076
-0.2,-0.2,0.6,-0.5235987755982988,0.34906585039886606,0.523598775598299,1.781184,1.5372145,0.20589891,0.052175563,-0.107239656,0.97169137,0.5805208,-0.31095082,1.6136628,-0.38196957,-0.8329575,-0.3605893,1.4930446,1.5962183
-0.2,-0.2,0.6,-0.5235987755982988,0.34906585039886606,0.523598775598299,1.7873007,1.5331086,0.1829825,0.044713438,-0.09012012,0.98015904,0.60418946,-0.3032496,1.6159034,-0.39323714,-0.8079258,-0.3673336,1.4576274,1.5351849
-0.2,-0.2,0.6,-0.5235987755982988,0.34906585039886606,0.523598775598299,1.8013457,1.5275569,0.17719872,0.03921976,-0.106029674,0.9787405,0.62414604,-0.30607215,1.6330996,-0.37973762,-0.81259435,-0.35085446,1.4732633,1.5098507
-0.2,-0.2,0.6,-0.5235987755982988,0.34906585039886606,0.523598775598299,1.8035102,1.5264547,0.20155269,0.052393585,-0.08835064,0.97867894,0.6177452,-0.30888805,1.6340138,-0.38245696,-0.80298,-0.30357575,1.480469,1.4451224
-0.2,-0.2,0.6,-0.5235987755982988,0.34906585039886606,0.523598775598299,1.8005768,1.5224133,0.17300406,0.045888275,-0.11365138,0.9833381,0.6383629,-0.31907564,1.6233943,-0.39889342,-0.8717864,-0.33844677,1.4870709,1.4893513
-0.2,-0.2,0.6,-0.5235987755982988,0.34906585039886606,0.523598775598299,1.78417,1.5428851,0.18261032,0.0355432,-0.116196826,0.9659472,0.6481841,-0.31788367,1.6303093,-0.38385335,-0.81205046,-0.34902847,1.4588703,1.649419
-0.2,-0.2,0.6,-0.5235987755982988,0.34906585039886606,0.523598775598299,1.7983465,1.5262727,0.18044224,0.06814546,-0.1386242,0.96957767,0.63720614,-0.32210773,1.6181846,-0.406438,-0.84857875,-0.36382774,1.5063343,1.6243523
-0.2,-0.2,0.6,-0.5235987755982988,0.34906585039886606,0.523598775598299,1.8219216,1.5281335,0.18287352,0.045518745,-0.10874591,0.96896136,0.6746083,-0.3191894,1.6242052,-0.37389037,-0.8448752,-0.31694186,1.5146786,1.5272858
-0.2,-0.2,0.6,-0.5235987755982988,0.34906585039886606,0.523598775598299,1.7809488,1.5267208,0.18956245,0.054996304,-0.118659966,0.9690601,0.6324169,-0.3109912,1.6175377,-0.38060737,-0.83887154,-0.33652854,1.4861233,1.5116948
-0.2,-0.2,0.6,-0.5235987755982988,0.34906585039886606,0.523598775598299,1.81508,1.5335407,0.17751715,0.036046747,-0.10408176,0.9796405,0.5887329,-0.31073463,1.620375,-0.38925183,-0.8361481,-0.3849765,1.4889523,1.4843436
-0.2,-0.2,0.6,-0.5235987755982988,0.34906585039886606,0.523598775598299,1.8026189,1.5205172,0.17439142,0.06824802,-0.12106594,0.96137244,0.6448699,-0.32407513,1.6102324,-0.3874971,-0.80945593,-0.34436038,1.4945135,1.516427
-0.2,-0.2,0.6,-0.5235987755982988,0.34906585039886606,0.523598775598299,1.8020552,1.5183277,0.1893014,0.051168066,-0.13065186,0.9752821,0.63793,-0.29665044,1.6214366,-0.39322922,-0.80820954,-0.37021852,1.4822682,1.6099995
-0.2,-0.2,0.6,-0.5235987755982988,0.34906585039886606,0.523598775598299,1.8077444,1.5192987,0.17563942,0.060616285,-0.10594555,0.9704747,0.62800026,-0.31856254,1.6227498,-0.39952204,-0.8499783,-0.39335585,1.5169225,1.7453388
-0.2,-0.2,0.6,-0.5235987755982988,0.34906585039886606,0.523598775598299,1.8133042,1.5262812,0.18491511,0.043033052,-0.10386815,0.979255,0.65164274,-0.31950462,1.6328112,-0.37366697,-0.82600343,-0.38200927,1.4508142,1.5411019
-0.2,-0.2,0.6,-0.5235987755982988,0.34906585039886606,0.523598775598299,1.8098682,1.5216955,0.16477695,0.05533581,-0.119967125,0.9662136,0.68003803,-0.2968113,1.6264715,-0.3843259,-0.840528,-0.37048754,1.4797547,1.5420703
-0.2,-0.2,0.6,-0.5235987755982988,0.34906585039886606,0.523598775598299,1.7903417,1.526518,0.16618942,0.0547668,-0.103968956,0.9815305,0.6336453,-0.3100084,1.6252543,-0.40022463,-0.8083867,-0.36417615,1.486354,1.6060139
-0.2,-0.2,0.6,-0.5235987755982988,0.34906585039886606,0.523598775598299,1.7888308,1.5263684,0.1897422,0.063120745,-0.09324316,0.972406,0.65577036,-0.3132535,1.615748,-0.3909244,-0.8163722,-0.3696099,1.4948491,1.5773232
-0.2,-0.2,0.6,-0.5235987755982988,0.34906585039886606,0.523598775598299,1.8041676,1.5262611,0.18825719,0.045886982,-0.10470452,0.9725205,0.5799401,-0.3142012,1.6235139,-0.38277125,-0.82852644,-0.37024957,1.5097617,1.6791441
-0.2,-0.2,0.6,-0.5235987755982988,0.34906585039886606,0.523598775598299,1.7954376,1.5149068,0.18489078,0.07397537,-0.123446725,0.9765299,0.6067585,-0.3109747,1.6189826,-0.3912786,-0.7915273,-0.37102762,1.4875075,1.5491546
-0.2,-0.2,0.6,-0.5235987755982988,0.34906585039886606,0.523598775598299,1.791534,1.5248352,0.19872664,0.046742298,-0.10958181,0.97099066,0.6194142,-0.32350937,1.6245203,-0.408872,-0.87839526,-0.35521117,1.5010381,1.6986485
