sanky1234/BimanualDexCatch/isaacgymenvs/cem_results/football_pose_0.0_-0.1_1.1999999999999997_0.0_0.5235987755982988_0_2025-05-26.csv
x,y,z,roll,pitch,yaw,robot1/joint1,robot1/joint2,robot1/joint3,robot1/joint4,robot1/joint5,robot1/joint6,robot1/joint7,robot2/joint1,robot2/joint2,robot2/joint3,robot2/joint4,robot2/joint5,robot2/joint6,robot2/joint7
0.0,-0.1,1.1999999999999997,0.0,0.5235987755982988,0,0.027421061,-1.4662057,0.18694463,-0.41897276,0.048009887,1.2108796,-0.07226623,-0.071960285,-0.65818584,0.30247805,0.13361996,0.20305826,0.9711914,0.68031615
0.0,-0.1,1.1999999999999997,0.0,0.5235987755982988,0,0.03232355,-1.4695423,0.16790056,-0.42030358,0.0183383,1.2087488,-0.96859366,-0.07472194,-0.6584045,0.30345747,0.16202812,0.12231354,1.1503189,1.6274195
0.0,-0.1,1.1999999999999997,0.0,0.5235987755982988,0,0.032262586,-1.4679376,0.18386348,-0.41979852,-0.29199812,1.294006,-0.703089,-0.077285245,-0.65820044,0.3191031,0.18253309,-0.028973605,0.69894737,0.08622607
0.0,-0.1,1.1999999999999997,0.0,0.5235987755982988,0,0.028868316,-1.4683948,0.19128355,-0.41776472,-0.4994983,1.1038595,0.47327968,-0.075409524,-0.6593802,0.3024647,0.17131092,0.037887305,1.0046265,1.4618632
0.0,-0.1,1.1999999999999997,0.0,0.5235987755982988,0,0.034604006,-1.4691575,0.1961358,-0.41445217,0.19708598,1.189184,-0.2824421,-0.07448849,-0.6587672,0.3058321,0.13907818,0.20042598,0.7696069,-0.67450553
0.0,-0.1,1.1999999999999997,0.0,0.5235987755982988,0,0.036736652,-1.4711689,0.19119473,-0.41448936,0.5191727,1.2135361,0.5579915,-0.075978436,-0.6571601,0.30682263,0.15354447,-0.118213855,0.98887503,0.008299057
0.0,-0.1,1.1999999999999997,0.0,0.5235987755982988,0,0.033922493,-1.4685725,0.19590016,-0.41326475,0.10700317,1.2113929,-0.1821628,-0.075494856,-0.6587175,0.29585576,0.17998868,-0.008262917,1.1252079,-0.49334288
0.0,-0.1,1.1999999999999997,0.0,0.5235987755982988,0,0.03185649,-1.4676547,0.18683921,-0.41526967,0.016721329,1.1744839,0.56019586,-0.07436162,-0.65926224,0.3089108,0.17062643,-0.12818295,0.8948197,-2.2220805
0.0,-0.1,1.1999999999999997,0.0,0.5235987755982988,0,0.033777334,-1.4688014,0.20840353,-0.41850743,-0.11588148,1.2073265,1.3086522,-0.07610629,-0.6585826,0.30427018,0.18027852,-0.16819695,0.7334419,0.441428
0.0,-0.1,1.1999999999999997,0.0,0.5235987755982988,0,0.030408777,-1.4692191,0.1845726,-0.41572645,0.020599706,1.176295,-0.2726838,-0.075814374,-0.65778524,0.30895188,0.16214874,0.13873099,0.90725297,-1.8461522
0.0,-0.1,1.1999999999999997,0.0,0.5235987755982988,0,0.02525766,-1.4681126,0.21054243,-0.41695163,0.102145486,1.0911783,-0.08543652,-0.07661813,-0.65907264,0.31885046,0.13469188,0.009855574,0.8775272,-0.31752187
0.0,-0.1,1.1999999999999997,0.0,0.5235987755982988,0,0.028650668,-1.4682853,0.18810582,-0.4136099,0.15930837,1.1234887,0.06203361,-0.07374628,-0.66000795,0.29636553,0.15289223,0.013409885,1.1107482,0.27183738
0.0,-0.1,1.1999999999999997,0.0,0.5235987755982988,0,0.032595053,-1.4691601,0.17813872,-0.4151361,-0.18240139,1.1415781,-0.087949015,-0.0767702,-0.6590372,0.31638265,0.15781835,-0.0147676915,0.66047066,0.14661017
0.0,-0.1,1.1999999999999997,0.0,0.5235987755982988,0,0.022806622,-1.4668686,0.19983537,-0.42075145,-0.27168804,1.1272746,-0.89778745,-0.07663863,-0.65943885,0.31400973,0.1610061,-0.2726181,1.1282431,0.41791463
0.0,-0.1,1.1999999999999997,0.0,0.5235987755982988,0,0.03558805,-1.4691283,0.22977601,-0.4166489,-0.17205438,1.0792054,0.59568715,-0.07621987,-0.6582817,0.30968186,0.14077842,0.21993193,0.89810055,-0.16177982
0.0,-0.1,1.1999999999999997,0.0,0.5235987755982988,0,0.036246616,-1.4690244,0.19369444,-0.4109158,-0.020797046,1.2089266,-0.0314997,-0.07450288,-0.6605115,0.29741392,0.16723162,0.13594691,0.9229478,-1.1607763
0.0,-0.1,1.1999999999999997,0.0,0.5235987755982988,0,0.03433476,-1.4686565,0.18477139,-0.41452634,0.48836845,1.2764587,0.1703284,-0.075183116,-0.6592865,0.29768574,0.19178905,0.07287373,1.0638651,1.0878717
0.0,-0.1,1.1999999999999997,0.0,0.5235987755982988,0,0.03633063,-1.4678065,0.18022542,-0.41932142,0.034225203,1.1747751,-0.20248882,-0.07552513,-0.65855896,0.31877047,0.1641971,0.047008336,0.938852,0.48241338
0.0,-0.1,1.1999999999999997,0.0,0.5235987755982988,0,0.033018406,-1.4681063,0.19764094,-0.42015973,0.14337629,1.1968576,-0.8907607,-0.07313898,-0.65887934,0.29268384,0.15819237,0.11759503,0.8996655,-2.0243878
0.0,-0.1,1.1999999999999997,0.0,0.5235987755982988,0,0.032814234,-1.4677919,0.19785282,-0.41511396,-0.33825165,1.203789,-0.32657072,-0.0716704,-0.65810645,0.30520418,0.14928623,0.22184408,1.218564,-0.027239602
0.0,-0.1,1.1999999999999997,0.0,0.5235987755982988,0,0.040287364,-1.4679437,0.17715378,-0.41684118,0.39454398,1.057761,-0.43789652,-0.07475438,-0.661299,0.2897255,0.15897642,0.012400138,0.9205988,1.0231838
0.0,-0.1,1.1999999999999997,0.0,0.5235987755982988,0,0.031264987,-1.4679728,0.1842173,-0.4187517,0.09387791,1.1892422,-0.7931464,-0.07531553,-0.6591992,0.3030466,0.15699284,0.101572886,0.8999219,-0.3256793
0.0,-0.1,1.1999999999999997,0.0,0.5235987755982988,0,0.03417201,-1.4684429,0.17330676,-0.4157667,0.23757249,1.2094783,0.0037253362,-0.07595066,-0.65765464,0.31123388,0.15999304,0.14810868,1.0187308,1.0047381
0.0,-0.1,1.1999999999999997,0.0,0.5235987755982988,0,0.025453102,-1.4686481,0.19667852,-0.41453508,-0.37438816,1.2499381,0.88737506,-0.07666865,-0.6595092,0.31911668,0.13462943,0.105559334,0.9237869,1.0718927
0.0,-0.1,1.1999999999999997,0.0,0.5235987755982988,0,0.0329746,-1.4675944,0.20794234,-0.42051527,-0.14630826,1.1073412,-1.049837,-0.073514245,-0.6586447,0.30415913,0.20045094,0.18368478,0.94890857,0.44061255
0.0,-0.1,1.1999999999999997,0.0,0.5235987755982988,0,0.032702144,-1.4683787,0.17429116,-0.4143194,-0.2827969,1.2128443,0.2742072,-0.07276353,-0.65840054,0.3036589,0.15779181,0.29409912,1.1678594,-0.9467302
0.0,-0.1,1.1999999999999997,0.0,0.5235987755982988,0,0.031943984,-1.4709814,0.176428,-0.41492555,-0.055063542,1.2270932,0.3673155,-0.07391547,-0.6586363,0.29535782,0.17436557,0.118849166,0.96572256,-0.8465067
0.0,-0.1,1.1999999999999997,0.0,0.5235987755982988,0,0.027507886,-1.4673872,0.18697535,-0.4177546,0.40163988,1.248965,0.24866097,-0.07451575,-0.6592979,0.30787787,0.19081469,0.08082302,1.1221769,-1.9125187
0.0,-0.1,1.1999999999999997,0.0,0.5235987755982988,0,0.028156472,-1.4693297,0.17684339,-0.41733453,-0.14707342,1.0826414,-0.029636733,-0.07335954,-0.6597758,0.3171709,0.14580874,0.061953384,1.1094385,1.1178114
0.0,-0.1,1.1999999999999997,0.0,0.5235987755982988,0,0.031770356,-1.4682083,0.18542016,-0.41575953,0.12546141,1.2007228,-0.10259449,-0.0756284,-0.65964055,0.3014436,0.16295873,0.064276285,1.1862223,-1.4142025
0.0,-0.1,1.1999999999999997,0.0,0.5235987755982988,0,0.03735348,-1.4692807,0.2237419,-0.41676456,0.080432095,1.2068092,0.8394608,-0.07555163,-0.6577837,0.30049267,0.15583737,-0.04978819,1.0771154,-0.48052755
0.0,-0.1,1.1999999999999997,0.0,0.5235987755982988,0,0.03372297,-1.469933,0.1923173,-0.4168494,-0.5484351,1.1642439,-0.59187835,-0.07511567,-0.6588003,0.31410372,0.209106,-0.041797336,0.9103417,0.4768974
0.0,-0.1,1.1999999999999997,0.0,0.5235987755982988,0,0.033625394,-1.4709972,0.18364346,-0.41449535,-0.056843586,1.1684799,0.032382015,-0.075222656,-0.6580067,0.297712,0.14691798,0.08132157,1.0458227,-0.74255514
0.0,-0.1,1.1999999999999997,0.0,0.5235987755982988,0,0.035064083,-1.4704896,0.1985343,-0.41684473,0.34340465,1.1531518,-0.8018336,-0.07622884,-0.65984124,0.29464203,0.17888664,0.18794441,1.0582678,0.0683362
0.0,-0.1,1.1999999999999997,0.0,0.5235987755982988,0,0.034709834,-1.468488,0.19893801,-0.41416606,0.13157645,1.1337316,0.17551011,-0.07525419,-0.6594117,0.31015834,0.14388776,0.011446438,0.8988094,-2.4459617
0.0,-0.1,1.1999999999999997,0.0,0.5235987755982988,0,0.030692764,-1.4692003,0.18817174,-0.41572148,0.24477358,1.1923058,-0.9427211,-0.07257679,-0.65819496,0.30003336,0.1612569,-0.24019414,1.2588487,0.14634016
0.0,-0.1,1.1999999999999997,0.0,0.5235987755982988,0,0.027812842,-1.469108,0.1918251,-0.41778448,0.3489938,1.2033389,-0.20926104,-0.07671082,-0.6612263,0.29975858,0.17366381,0.22154362,0.9377263,-2.2013803
0.0,-0.1,1.1999999999999997,0.0,0.5235987755982988,0,0.027211512,-1.4691746,0.18277346,-0.41445652,-0.01290646,1.2103367,-0.12488141,-0.07544878,-0.65923256,0.31314963,0.20771351,0.028643427,1.100973,0.74892926
0.0,-0.1,1.1999999999999997,0.0,0.5235987755982988,0,0.035103045,-1.4691454,0.17205152,-0.41239053,-0.020831423,1.1678964,0.6830164,-0.07384943,-0.6594894,0.30710894,0.19576727,0.00013346203,1.0304335,0.45578125
0.0,-0.1,1.1999999999999997,0.0,0.5235987755982988,0,0.03163638,-1.4699452,0.18656628,-0.41515884,-0.2815727,1.1553295,0.7124049,-0.075365745,-0.6591942,0.3104053,0.18923962,-0.052839056,1.0085146,-2.1385827
0.0,-0.1,1.1999999999999997,0.0,0.5235987755982988,0,0.03243733,-1.4676951,0.18786071,-0.42032695,0.1689246,1.2371986,-0.16564383,-0.07424467,-0.66039735,0.3015405,0.14009514,-0.007062434,0.8780423,-0.3458316
0.0,-0.1,1.1999999999999997,0.0,0.5235987755982988,0,0.026542785,-1.4693831,0.2067291,-0.42003807,-0.093666784,1.3182746,-0.36745065,-0.07559208,-0.65990466,0.3058789,0.1661652,0.14142472,0.9572699,-0.69208014
0.0,-0.1,1.1999999999999997,0.0,0.5235987755982988,0,0.033807978,-1.4695965,0.20147792,-0.4214295,0.106308006,1.1520839,-0.60809356,-0.0742809,-0.658125,0.3099531,0.18162464,-0.1094043,1.037599,1.1812273
0.0,-0.1,1.1999999999999997,0.0,0.5235987755982988,0,0.02646889,-1.4686614,0.21614127,-0.4163771,0.16722596,1.207227,0.8751852,-0.07384519,-0.65954703,0.3182322,0.16972306,-0.28306234,1.2416035,-0.82349837
0.0,-0.1,1.1999999999999997,0.0,0.5235987755982988,0,0.03493911,-1.4700375,0.17962922,-0.4148175,-0.18653704,1.1081307,-0.021854263,-0.0713485,-0.6598383,0.31045955,0.17592163,0.1550042,0.9159624,-1.4259332
0.0,-0.1,1.1999999999999997,0.0,0.5235987755982988,0,0.024945287,-1.4666884,0.16418675,-0.41101867,-0.15604565,0.98904055,-0.18142779,-0.07648907,-0.65974,0.28483912,0.16910411,0.101080954,0.86256593,0.26476926
0.0,-0.1,1.1999999999999997,0.0,0.5235987755982988,0,0.024769645,-1.4679523,0.20995921,-0.40880322,0.44584972,1.176987,-0.15735611,-0.074631974,-0.65808904,0.3142147,0.18010253,0.076757625,0.7208058,-0.7926373
0.0,-0.1,1.1999999999999997,0.0,0.5235987755982988,0,0.026960948,-1.4671034,0.18999185,-0.41258898,0.24522707,1.218038,-0.027943816,-0.076194614,-0.6588386,0.29574895,0.11712313,0.0650246,1.0564789,-1.2872088
0.0,-0.1,1.1999999999999997,0.0,0.5235987755982988,0,0.025796529,-1.4671054,0.1920376,-0.41389358,0.047029156,1.1279625,-0.15847199,-0.07416548,-0.6587192,0.3031506,0.14208002,-0.002598492,1.1241623,-0.80853903
0.0,-0.1,1.1999999999999997,0.0,0.5235987755982988,0,0.03185404,-1.468248,0.2056857,-0.40957657,-0.0052017965,1.1872973,0.060221434,-0.074223086,-0.65823776,0.30631483,0.13831651,0.067438304,0.97873664,-1.1707572
0.0,-0.1,1.1999999999999997,0.0,0.5235987755982988,0,0.02926001,-1.4676595,0.19084534,-0.41128185,-0.16123052,1.2025336,-0.55590105,-0.07551714,-0.657308,0.2871153,0.19144179,-0.110492095,0.8221244,-0.07230117
0.0,-0.1,1.1999999999999997,0.0,0.5235987755982988,0,0.031051163,-1.4689916,0.19201747,-0.41810513,0.11459341,1.1159344,-0.28528932,-0.07731268,-0.65743023,0.28162396,0.17080507,0.20249932,0.7839068,0.92958117
0.0,-0.1,1.1999999999999997,0.0,0.5235987755982988,0,0.026666986,-1.4675144,0.19694278,-0.415839,0.16425882,1.2234156,0.5311042,-0.07398989,-0.6590813,0.30812213,0.160298,-0.085130274,0.90954626,-0.0759844
0.0,-0.1,1.1999999999999997,0.0,0.5235987755982988,0,0.03432387,-1.466215,0.18275295,-0.41541275,0.4059817,1.1853856,0.26767784,-0.07611296,-0.65968025,0.29732275,0.19730444,0.117655054,0.61321265,0.21280533
0.0,-0.1,1.1999999999999997,0.0,0.5235987755982988,0,0.02289223,-1.4693213,0.19861636,-0.41186902,0.08715849,1.1232681,0.027450759,-0.076186925,-0.65908116,0.29533678,0.13872933,0.08107382,0.7007756,-1.449615
0.0,-0.1,1.1999999999999997,0.0,0.5235987755982988,0,0.03485096,-1.4660621,0.18628946,-0.417228,-0.10050923,1.2674614,-0.4352996,-0.074656114,-0.6591496,0.29877263,0.19770631,0.1832927,0.94150496,-0.35608122
0.0,-0.1,1.1999999999999997,0.0,0.5235987755982988,0,0.02403836,-1.4669352,0.20286518,-0.41292742,0.11121731,1.2431989,0.43750435,-0.07524657,-0.6583955,0.3051725,0.16974978,-0.27460223,0.8829744,-0.071977496
0.0,-0.1,1.1999999999999997,0.0,0.5235987755982988,0,0.033360362,-1.4665183,0.19690743,-0.41091722,-0.24708404,1.1380595,0.38302487,-0.07647414,-0.6569435,0.3024717,0.14038776,0.24766706,1.0883328,-1.5196583
0.0,-0.1,1.1999999999999997,0.0,0.5235987755982988,0,0.029898925,-1.465913,0.20874286,-0.41460907,-0.22883087,1.3514977,0.90820074,-0.07650021,-0.65716314,0.30380678,0.15353316,0.22807084,0.987835,-0.86356544
0.0,-0.1,1.1999999999999997,0.0,0.5235987755982988,0,0.021100184,-1.4679468,0.20473003,-0.41238818,0.10192927,1.1356409,-1.4190577,-0.07493722,-0.6598513,0.2889541,0.18194568,0.13501573,0.8928202,-0.2216631
0.0,-0.1,1.1999999999999997,0.0,0.5235987755982988,0,0.028229918,-1.4673164,0.23921962,-0.4136469,-0.086796835,1.194834,-0.5186521,-0.0752042,-0.658817,0.29657623,0.15689516,0.1307424,0.77188224,-1.3584672
0.0,-0.1,1.1999999999999997,0.0,0.5235987755982988,0,0.032777525,-1.4687811,0.15603995,-0.41655278,-0.13988632,1.208191,0.15411192,-0.07678647,-0.65655327,0.2938842,0.14647622,0.18686743,0.91053444,0.26102626
0.0,-0.1,1.1999999999999997,0.0,0.5235987755982988,0,0.023267988,-1.4678684,0.20519823,-0.41510236,0.12931573,1.2222147,-0.30081826,-0.075042985,-0.6580193,0.28271526,0.15413149,0.07206832,1.2038525,-0.4837834
0.0,-0.1,1.1999999999999997,0.0,0.5235987755982988,0,0.03432115,-1.4662138,0.19742034,-0.41574118,0.4495095,1.2056812,0.9132255,-0.075821355,-0.65913177,0.30662528,0.18797588,0.12041189,1.0854273,0.123744056
0.0,-0.1,1.1999999999999997,0.0,0.5235987755982988,0,0.035454564,-1.4655793,0.18509246,-0.41842994,0.48710793,1.2197155,0.4457668,-0.078263596,-0.6584523,0.28305247,0.16061369,0.057205416,1.0633025,-0.82421255
0.0,-0.1,1.1999999999999997,0.0,0.5235987755982988,0,0.029326903,-1.4673439,0.19663177,-0.41610387,0.027678315,1.1583438,0.1453612,-0.07298924,-0.65840304,0.27936774,0.16514659,0.009498337,1.0401324,-1.3359238
0.0,-0.1,1.1999999999999997,0.0,0.5235987755982988,0,0.03217924,-1.4682556,0.19398065,-0.4109975,-0.15309753,1.1335034,-1.1940873,-0.07502667,-0.6583082,0.3069914,0.17397651,-0.13509712,0.84804744,0.29209286
0.0,-0.1,1.1999999999999997,0.0,0.5235987755982988,0,0.024787607,-1.4674526,0.17909047,-0.41211274,0.40666205,1.2221549,-0.80489933,-0.075328715,-0.6575908,0.30246937,0.1748781,-0.096940875,0.9614905,0.7855394
0.0,-0.1,1.1999999999999997,0.0,0.5235987755982988,0,0.036684383,-1.466205,0.1987502,-0.41610935,-0.2798743,1.2726327,-0.23212653,-0.07264274,-0.65832347,0.31238446,0.20092393,0.06381227,0.8393632,0.759007
0.0,-0.1,1.1999999999999997,0.0,0.5235987755982988,0,0.03471021,-1.4678924,0.17097831,-0.41529673,0.15194437,1.2501156,0.37057424,-0.0737425,-0.6580939,0.28390732,0.17901605,0.40526637,0.7525879,-1.6862459
0.0,-0.1,1.1999999999999997,0.0,0.5235987755982988,0,0.030019827,-1.4663752,0.16849285,-0.41752565,-0.057846446,1.0797374,-0.058427747,-0.073236175,-0.6590835,0.32002145,0.16723683,-0.079599924,0.8370825,-1.3756223
0.0,-0.1,1.1999999999999997,0.0,0.5235987755982988,0,0.03078599,-1.4678327,0.21138367,-0.41538352,-0.027867433,1.153637,-0.40677008,-0.07855069,-0.6589223,0.29393163,0.1949444,-0.031884477,1.1019658,0.4675469
0.0,-0.1,1.1999999999999997,0.0,0.5235987755982988,0,0.032100923,-1.4668335,0.18835992,-0.415094,0.105761044,1.0329949,0.13717066,-0.073731445,-0.659634,0.29536042,0.15780619,0.14351869,1.1362917,-0.100782506
0.0,-0.1,1.1999999999999997,0.0,0.5235987755982988,0,0.038658958,-1.4663072,0.18479435,-0.41572613,-0.3762218,1.1794395,-0.10248749,-0.07521776,-0.65796316,0.2932188,0.18565902,-0.012786228,0.80274284,-0.43063623
0.0,-0.1,1.1999999999999997,0.0,0.5235987755982988,0,0.031471115,-1.469195,0.19252154,-0.41423166,0.08817977,1.119957,-0.28139135,-0.07417828,-0.6568833,0.2846747,0.14875823,0.07934162,1.0102563,-0.8812991
0.0,-0.1,1.1999999999999997,0.0,0.5235987755982988,0,0.031645615,-1.4678108,0.2250554,-0.41115755,-0.09125317,1.0899401,-0.37526804,-0.073775105,-0.6586039,0.30564967,0.19082505,0.094267055,0.7073031,-0.5816781
0.0,-0.1,1.1999999999999997,0.0,0.5235987755982988,0,0.029695196,-1.4684747,0.18339828,-0.4140931,0.33683765,1.1047393,-0.9690829,-0.07590985,-0.6604032,0.3002045,0.16513571,0.125973,0.7768845,-1.4406395
0.0,-0.1,1.1999999999999997,0.0,0.5235987755982988,0,0.02758888,-1.4686254,0.17753698,-0.41202784,-0.26040354,1.2214861,-0.76695913,-0.07508589,-0.6575437,0.2973229,0.16366282,0.1649547,0.8962156,-1.5880189
0.0,-0.1,1.1999999999999997,0.0,0.5235987755982988,0,0.03386754,-1.4670907,0.19686902,-0.4111859,-0.39802045,1.1518843,0.47319296,-0.075003386,-0.6587623,0.301294,0.19298677,0.14090802,1.0921541,0.61624366
0.0,-0.1,1.1999999999999997,0.0,0.5235987755982988,0,0.039057344,-1.469136,0.21341877,-0.4181448,0.0074689863,1.1283495,-0.14118311,-0.07477912,-0.6578467,0.27752197,0.18393944,0.08737551,0.7060603,-0.22391227
0.0,-0.1,1.1999999999999997,0.0,0.5235987755982988,0,0.033694413,-1.4680678,0.1695898,-0.4154067,0.32690665,1.0589464,-0.33305192,-0.07710376,-0.6588297,0.3006146,0.16382353,-0.02553561,0.7207153,-3.0197277
0.0,-0.1,1.1999999999999997,0.0,0.5235987755982988,0,0.03122336,-1.4676731,0.18288566,-0.41550574,-0.10697751,1.1748424,-0.92053634,-0.075263366,-0.6565701,0.30073866,0.15774937,-0.0325232,0.8543082,-1.8260007
0.0,-0.1,1.1999999999999997,0.0,0.5235987755982988,0,0.029869024,-1.4678677,0.19016787,-0.41695753,0.28155527,1.180832,-0.84877765,-0.07743689,-0.65683526,0.31459087,0.16447721,0.27852035,0.7692171,0.082558334
0.0,-0.1,1.1999999999999997,0.0,0.5235987755982988,0,0.028899102,-1.4691256,0.19878653,-0.4115214,0.091473944,1.3120195,0.49621734,-0.07472443,-0.6591675,0.2894417,0.17714533,-0.12577161,0.78857523,-0.31894696
0.0,-0.1,1.1999999999999997,0.0,0.5235987755982988,0,0.029527497,-1.4675958,0.23690827,-0.41248077,0.3411984,1.1861923,-0.43350598,-0.07529131,-0.6604939,0.2909505,0.14157143,-0.12565844,1.1104524,-0.17194523
0.0,-0.1,1.1999999999999997,0.0,0.5235987755982988,0,0.03005317,-1.469713,0.20058465,-0.41365093,0.220943,1.1270125,-0.39196074,-0.07622493,-0.65845656,0.28807187,0.1866993,-0.1438873,0.84731174,-1.1543489
0.0,-0.1,1.1999999999999997,0.0,0.5235987755982988,0,0.026061164,-1.4670552,0.17936695,-0.41472,0.0007358907,1.1921821,0.003222018,-0.07529307,-0.65755236,0.3102163,0.16885039,0.1522947,0.9042511,-2.445589
0.0,-0.1,1.1999999999999997,0.0,0.5235987755982988,0,0.03456201,-1.4679214,0.21156867,-0.4149695,0.17338878,1.1616839,-0.16329938,-0.07497097,-0.6577754,0.2869211,0.19648947,0.09630227,0.93634295,-0.8237347
0.0,-0.1,1.1999999999999997,0.0,0.5235987755982988,0,0.02926833,-1.4690257,0.1651096,-0.41855162,-0.25349233,1.2680635,-0.043223437,-0.07550748,-0.65654504,0.28932,0.13167249,0.3287484,1.1241999,1.3825572
0.0,-0.1,1.1999999999999997,0.0,0.5235987755982988,0,0.02787304,-1.4672062,0.19197306,-0.4158486,0.109473586,1.2195097,-0.79779583,-0.07403059,-0.65908456,0.29419208,0.15859501,-0.17757325,0.87171584,0.22616327
0.0,-0.1,1.1999999999999997,0.0,0.5235987755982988,0,0.033100985,-1.4677385,0.19015522,-0.4140411,0.13759026,1.1362464,0.09460539,-0.07430448,-0.6594899,0.2868978,0.14855044,0.17147641,0.800493,-1.7731186
0.0,-0.1,1.1999999999999997,0.0,0.5235987755982988,0,0.029606406,-1.4693042,0.19892333,-0.4151167,0.085227974,1.1863791,-0.104419895,-0.07702687,-0.6586992,0.29379135,0.14698023,0.35411987,0.8348597,-1.1192276
0.0,-0.1,1.1999999999999997,0.0,0.5235987755982988,0,0.031005995,-1.4663196,0.17908877,-0.41564003,0.1591502,1.2330754,-1.4508384,-0.0739306,-0.65948266,0.28814062,0.16313472,-0.008081959,1.0554351,0.20907265
0.0,-0.1,1.1999999999999997,0.0,0.5235987755982988,0,0.03358313,-1.467514,0.19204094,-0.41245642,0.11531002,1.1528349,-0.5746736,-0.076128006,-0.65801144,0.3028447,0.15981972,0.045750156,1.0143657,-0.019732118
0.0,-0.1,1.1999999999999997,0.0,0.5235987755982988,0,0.030685848,-1.467835,0.19383653,-0.41543835,0.015258311,1.0928969,-0.36455584,-0.07577128,-0.6580368,0.29410818,0.20284103,0.07049511,0.9367226,-0.62187916
0.0,-0.1,1.1999999999999997,0.0,0.5235987755982988,0,0.022634618,-1.4676721,0.19278406,-0.41393638,0.14453524,1.1371121,-0.58718,-0.07579203,-0.6604429,0.32694483,0.20765102,0.26162344,0.8612307,-0.5419757
0.0,-0.1,1.1999999999999997,0.0,0.5235987755982988,0,0.030695295,-1.4688067,0.20279203,-0.4122001,0.024139931,1.1371591,0.20317473,-0.07553622,-0.65810055,0.2950856,0.16704135,0.18950674,1.1075529,0.13440457
0.0,-0.1,1.1999999999999997,0.0,0.5235987755982988,0,0.028942198,-1.467752,0.20329517,-0.41658437,-0.1976107,1.1422209,-0.22345611,-0.074202575,-0.6591479,0.29276222,0.15492328,0.06865394,0.90084076,-0.09265414
0.0,-0.1,1.1999999999999997,0.0,0.5235987755982988,0,0.031795863,-1.468728,0.19149011,-0.41605088,0.12986504,1.1223885,-0.4358201,-0.074486494,-0.6584257,0.28017154,0.16649175,-0.011441727,0.97410923,-1.4689977
0.0,-0.1,1.1999999999999997,0.0,0.5235987755982988,0,0.033585593,-1.47193,0.19188637,-0.41051677,-0.29553488,1.0488284,-0.9620986,-0.075442545,-0.65620583,0.29801914,0.16719653,-0.034334023,0.8423346,-0.2086535
0.0,-0.1,1.1999999999999997,0.0,0.5235987755982988,0,0.030278299,-1.466711,0.17272174,-0.4196522,0.35650003,1.2432586,-0.087524004,-0.07524361,-0.6576172,0.3049911,0.14588311,0.043320008,0.8034998,0.60167974
0.0,-0.1,1.1999999999999997,0.0,0.5235987755982988,0,0.033034455,-1.4671066,0.18095958,-0.4147567,-0.3270655,1.1409485,-0.23916425,-0.076274775,-0.65987647,0.29583392,0.14735673,-0.10986877,0.93180925,0.9757422
0.0,-0.1,1.1999999999999997,0.0,0.5235987755982988,0,0.032187272,-1.468429,0.19566864,-0.4211603,-0.0490919,1.1360369,0.06612799,-0.076294586,-0.6573532,0.28767267,0.15996014,-0.0529594,1.02488,-0.5259773
0.0,-0.1,1.1999999999999997,0.0,0.5235987755982988,0,0.028262021,-1.4673104,0.1966653,-0.41584787,0.22564487,1.1561295,-0.27326754,-0.077065304,-0.6584328,0.30139217,0.1399584,0.08755104,1.0153382,-0.35383695
0.0,-0.1,1.1999999999999997,0.0,0.5235987755982988,0,0.029712956,-1.4683038,0.22796969,-0.41366896,-0.099498376,1.2426771,0.4177047,-0.07615974,-0.6581905,0.3184347,0.16168307,-0.20900944,0.72601056,-0.42019057
0.0,-0.1,1.1999999999999997,0.0,0.5235987755982988,0,0.03345603,-1.4682946,0.1698703,-0.4160024,0.40005147,1.1642625,0.09688684,-0.07551998,-0.65658593,0.29841334,0.13219233,0.1359048,1.1481076,0.60566884
0.0,-0.1,1.1999999999999997,0.0,0.5235987755982988,0,0.029541949,-1.4674785,0.21182467,-0.4141071,-0.099816516,1.1745278,-0.6473013,-0.07649917,-0.6593192,0.2981274,0.19383422,0.114627905,1.0714616,-0.10103841
0.0,-0.1,1.1999999999999997,0.0,0.5235987755982988,0,0.030172922,-1.4676893,0.20583966,-0.4127917,-0.38594735,1.1715462,-0.1694785,-0.074684866,-0.6591196,0.30040276,0.18171285,-0.027365897,1.0543826,0.6197693
0.0,-0.1,1.1999999999999997,0.0,0.5235987755982988,0,0.028671378,-1.4683342,0.18147817,-0.4134912,-0.028387878,1.2141002,-0.58008426,-0.074315555,-0.66037816,0.2818083,0.15643995,0.039716,0.9523946,-1.0956616
0.0,-0.1,1.1999999999999997,0.0,0.5235987755982988,0,0.027801767,-1.4695227,0.16695186,-0.41356736,0.10068331,1.216937,-0.5065795,-0.075536445,-0.6587294,0.3008178,0.14834227,-0.26796773,0.7673207,-1.2540392
0.0,-0.1,1.1999999999999997,0.0,0.5235987755982988,0,0.029600587,-1.4695792,0.18279974,-0.41420513,-0.51754737,1.1590494,0.19188575,-0.07397147,-0.65936255,0.29030082,0.19562867,-0.022282626,0.7840442,-0.21189466
0.0,-0.1,1.1999999999999997,0.0,0.5235987755982988,0,0.028380748,-1.4677043,0.18804236,-0.41443625,-0.4298452,1.162504,-0.38284236,-0.077312104,-0.65952545,0.29945335,0.16778994,-0.22972523,1.0498466,-2.038615
0.0,-0.1,1.1999999999999997,0.0,0.5235987755982988,0,0.025386235,-1.46828,0.18809605,-0.41768014,0.01936397,1.2950412,0.10453712,-0.07345009,-0.6586899,0.29612038,0.18658811,-0.046713337,0.7988358,1.064852
0.0,-0.1,1.1999999999999997,0.0,0.5235987755982988,0,0.037478026,-1.4688535,0.19048582,-0.41306335,-0.08060713,1.1740763,-0.44485107,-0.07351319,-0.65860504,0.2900158,0.119306974,-0.0069816224,0.8352885,-0.11279754
0.0,-0.1,1.1999999999999997,0.0,0.5235987755982988,0,0.028270869,-1.4675425,0.22831872,-0.41986302,-0.022227503,1.1326678,0.43042582,-0.07320728,-0.65753627,0.30994394,0.1529861,-0.061325714,0.7868926,0.29861096
0.0,-0.1,1.1999999999999997,0.0,0.5235987755982988,0,0.028182019,-1.4679219,0.18154486,-0.41185337,0.22124979,1.1740807,-0.9292668,-0.07555649,-0.660471,0.30039722,0.1734471,-0.012017562,1.0186834,0.306135
0.0,-0.1,1.1999999999999997,0.0,0.5235987755982988,0,0.03353362,-1.4682044,0.19194265,-0.4167794,0.015628692,1.1392276,0.21307719,-0.0752827,-0.6593712,0.28555322,0.15386388,0.0348758,0.8572194,0.07563729
0.0,-0.1,1.1999999999999997,0.0,0.5235987755982988,0,0.038400523,-1.4674368,0.21734528,-0.41380686,-0.24745336,1.1253991,-0.90654093,-0.07685279,-0.65865606,0.3265784,0.13761337,0.24310592,1.0962181,-1.2164396
0.0,-0.1,1.1999999999999997,0.0,0.5235987755982988,0,0.026737668,-1.4669429,0.19130468,-0.41788924,-0.26425698,1.1901025,0.24012046,-0.07643394,-0.6585044,0.3018225,0.15640353,-0.18016694,1.041609,0.30135486
0.0,-0.1,1.1999999999999997,0.0,0.5235987755982988,0,0.029613342,-1.4677488,0.19709633,-0.41782606,-0.0060074492,1.1742309,-0.8152949,-0.076619655,-0.65959007,0.29335535,0.14435253,-0.010400061,0.896826,-0.04420109
0.0,-0.1,1.1999999999999997,0.0,0.5235987755982988,0,0.030593637,-1.4685714,0.1932881,-0.41424942,-0.018955436,1.1219515,-0.47859287,-0.07414797,-0.6594594,0.30338863,0.19392657,-0.034560535,0.6486679,-0.2335638
0.0,-0.1,1.1999999999999997,0.0,0.5235987755982988,0,0.030439328,-1.4699444,0.17850824,-0.41237965,-0.026021373,1.091875,-0.3101487,-0.07629525,-0.6569018,0.30628222,0.19117661,0.21941788,1.008947,-1.0674003
0.0,-0.1,1.1999999999999997,0.0,0.5235987755982988,0,0.038726527,-1.4655071,0.19829194,-0.42207983,-0.19580875,1.2741814,0.2793556,-0.07360925,-0.6593883,0.29101655,0.15304045,-0.18174168,0.83070844,-1.4254022
0.0,-0.1,1.1999999999999997,0.0,0.5235987755982988,0,0.02932036,-1.4687676,0.18877794,-0.415201,-0.15163285,1.1599227,0.23478706,-0.07516328,-0.65833783,0.2986226,0.1400261,0.04958476,0.9218121,0.05028015
0.0,-0.1,1.1999999999999997,0.0,0.5235987755982988,0,0.034748483,-1.4681292,0.19500418,-0.41461137,0.23824546,1.1234145,-0.030469831,-0.07371819,-0.6596999,0.28949165,0.19276053,-0.002386215,0.79541737,-0.5518006
0.0,-0.1,1.1999999999999997,0.0,0.5235987755982988,0,0.028253512,-1.4685225,0.214874,-0.41448796,-0.08659917,1.1145867,0.026315624,-0.07687733,-0.65920377,0.29945326,0.16693656,-0.18377097,1.03443,-0.9642381
0.0,-0.1,1.1999999999999997,0.0,0.5235987755982988,0,0.036653347,-1.4679363,0.1934515,-0.4158554,0.18385862,1.2126317,1.139166,-0.07708783,-0.6574569,0.3089135,0.1657461,0.044664893,0.91744274,0.028485654
0.0,-0.1,1.1999999999999997,0.0,0.5235987755982988,0,0.022304242,-1.4671614,0.21677008,-0.4155205,-0.08862801,1.2080303,-0.06859658,-0.0762406,-0.659366,0.31060392,0.13718347,0.19442269,1.0618052,2.652665
0.0,-0.1,1.1999999999999997,0.0,0.5235987755982988,0,0.032469254,-1.4680228,0.20166637,-0.4180342,0.58874375,1.2550921,-0.656186,-0.07486973,-0.6579305,0.301339,0.15874271,0.030565357,0.8034351,0.06568685
0.0,-0.1,1.1999999999999997,0.0,0.5235987755982988,0,0.029365318,-1.4675206,0.19073223,-0.41613072,0.42395037,1.2868282,-0.37884292,-0.07358303,-0.65768915,0.30977044,0.1756754,-0.09948128,0.97917646,0.30740765
0.0,-0.1,1.1999999999999997,0.0,0.5235987755982988,0,0.02998437,-1.4688019,0.17745574,-0.41521293,-0.29607025,1.1842852,-0.81690496,-0.07567294,-0.65803295,0.30917886,0.19664533,-0.05537104,0.84698486,1.2776242
0.0,-0.1,1.1999999999999997,0.0,0.5235987755982988,0,0.032380883,-1.4691565,0.19499741,-0.41622785,0.043163154,1.2084594,0.86910325,-0.07415315,-0.65852505,0.29352093,0.12526512,0.008486486,0.7655773,-1.2458551
0.0,-0.1,1.1999999999999997,0.0,0.5235987755982988,0,0.031711206,-1.4669747,0.16031969,-0.41502565,-0.27733585,1.2173948,-0.4289982,-0.07615057,-0.6596414,0.31476972,0.19021477,-0.01628511,0.9567887,-0.5472186
0.0,-0.1,1.1999999999999997,0.0,0.5235987755982988,0,0.028340872,-1.4679332,0.18699607,-0.41146606,0.085984245,1.2211308,-0.22371699,-0.0748025,-0.6590449,0.308359,0.17017975,-0.041308172,0.9818782,-1.7891116
0.0,-0.1,1.1999999999999997,0.0,0.5235987755982988,0,0.027609566,-1.4695786,0.19440104,-0.41997114,0.14903119,1.2189174,-0.6993764,-0.075853065,-0.65996486,0.31589496,0.17725596,0.01323601,0.7077632,-0.26652706
0.0,-0.1,1.1999999999999997,0.0,0.5235987755982988,0,0.03541658,-1.4694294,0.19864312,-0.41235253,0.10479486,1.1675818,-1.297946,-0.0734432,-0.6582273,0.29095703,0.16038714,-0.25328866,1.0640744,0.32741913
0.0,-0.1,1.1999999999999997,0.0,0.5235987755982988,0,0.031235766,-1.4685254,0.20889927,-0.41613585,0.109862305,1.0010368,0.7075492,-0.07431002,-0.66015995,0.28767315,0.1414184,0.120393015,0.882224,0.7496026
0.0,-0.1,1.1999999999999997,0.0,0.5235987755982988,0,0.032949585,-1.4684813,0.18699373,-0.41552126,-0.1356736,1.1063923,0.3447325,-0.07599548,-0.65861267,0.29663825,0.16158636,-0.2904231,0.9759394,-1.2354344
0.0,-0.1,1.1999999999999997,0.0,0.5235987755982988,0,0.03573668,-1.4692928,0.19932936,-0.4106715,0.0062341387,1.1679482,0.09365163,-0.0732068,-0.6579548,0.3024641,0.17772934,0.14148852,1.0459827,-1.3953925
0.0,-0.1,1.1999999999999997,0.0,0.5235987755982988,0,0.026085446,-1.46748,0.19297746,-0.41594714,0.40487453,1.2506758,0.74165666,-0.07612959,-0.6597084,0.30252275,0.14886233,0.20787351,1.0673658,-0.611036
0.0,-0.1,1.1999999999999997,0.0,0.5235987755982988,0,0.035020143,-1.4701626,0.19085068,-0.41751188,-0.18111119,1.2400112,-0.5549881,-0.077156655,-0.65803695,0.29526746,0.16702884,0.28048974,0.84167176,-0.99039984
0.0,-0.1,1.1999999999999997,0.0,0.5235987755982988,0,0.030296993,-1.4677097,0.2007016,-0.414208,0.29569325,1.1620266,0.115101956,-0.074891135,-0.65851206,0.31817323,0.14553273,0.12846778,0.83440274,0.5088489
0.0,-0.1,1.1999999999999997,0.0,0.5235987755982988,0,0.03628786,-1.4669652,0.18791501,-0.41827065,0.46526474,1.2679383,0.39612132,-0.07484697,-0.6587189,0.30006018,0.16849613,-0.0765667,0.9119845,-0.9731863
0.0,-0.1,1.1999999999999997,0.0,0.5235987755982988,0,0.029680517,-1.4679115,0.19415852,-0.41936225,-0.26023558,1.3272403,-0.6126052,-0.07460348,-0.65751565,0.2999939,0.1707063,-0.0055979616,1.0723231,2.284182
0.0,-0.1,1.1999999999999997,0.0,0.5235987755982988,0,0.03475835,-1.4670871,0.18965814,-0.41907206,-0.118766055,1.1994491,-0.22126867,-0.07660002,-0.6597632,0.29382774,0.1393539,0.22626314,0.9301444,0.13374698
0.0,-0.1,1.1999999999999997,0.0,0.5235987755982988,0,0.030736508,-1.4683685,0.19285642,-0.41741732,0.2705463,1.1903013,0.33473793,-0.07641116,-0.65881395,0.29809853,0.121428736,-0.15046048,0.9982902,-1.5056255
0.0,-0.1,1.1999999999999997,0.0,0.5235987755982988,0,0.031287733,-1.4686083,0.19565825,-0.4173641,-0.4538173,1.1875759,0.3649677,-0.074660026,-0.6591556,0.29565698,0.18332465,0.266125,0.9895492,-1.631904
0.0,-0.1,1.1999999999999997,0.0,0.5235987755982988,0,0.03521908,-1.4688014,0.21684237,-0.41335052,-0.4006171,1.1801524,0.38984135,-0.07301091,-0.65933406,0.3033584,0.14779666,0.046697956,0.7269884,-1.1831403
0.0,-0.1,1.1999999999999997,0.0,0.5235987755982988,0,0.034039285,-1.4690815,0.19039115,-0.4135061,-0.20624606,1.173375,-0.1251102,-0.075921066,-0.6575973,0.30724987,0.15360993,0.08277833,0.9788675,1.6145629
0.0,-0.1,1.1999999999999997,0.0,0.5235987755982988,0,0.031063803,-1.4686399,0.19856296,-0.41678914,-0.16071147,1.1822988,-0.34564683,-0.07466814,-0.6582828,0.2926085,0.15789674,-0.054431908,1.0013815,-0.68819875
0.0,-0.1,1.1999999999999997,0.0,0.5235987755982988,0,0.040582925,-1.4689168,0.19543311,-0.41938698,0.106914274,1.0378745,0.16165295,-0.07532601,-0.659322,0.31038722,0.19799006,0.1795726,0.80869615,0.016727805
0.0,-0.1,1.1999999999999997,0.0,0.5235987755982988,0,0.0353259,-1.4681225,0.16980307,-0.41444555,0.078556746,1.1127028,-0.9935248,-0.075777784,-0.65785456,0.31695518,0.16792727,0.1929275,0.95640147,-1.3301804
0.0,-0.1,1.1999999999999997,0.0,0.5235987755982988,0,0.031444844,-1.4694725,0.18527888,-0.41642782,-0.13499549,1.0572228,-0.8485908,-0.07619603,-0.6595708,0.2812813,0.17340952,0.039993793,1.2070524,-1.7264432
0.0,-0.1,1.1999999999999997,0.0,0.5235987755982988,0,0.024417574,-1.4671863,0.1973389,-0.42177868,-0.36227462,1.166681,-0.058340482,-0.07561319,-0.658002,0.3190566,0.1463263,0.08521432,0.8717512,-0.91457754
0.0,-0.1,1.1999999999999997,0.0,0.5235987755982988,0,0.03022611,-1.4680649,0.17561541,-0.41127166,-0.28757408,1.175032,-0.95665544,-0.07450369,-0.65838134,0.31247982,0.17645518,0.040286664,1.2402445,-2.0573368
0.0,-0.1,1.1999999999999997,0.0,0.5235987755982988,0,0.03092563,-1.4676069,0.194471,-0.4165653,-0.13777238,1.1804545,-0.6981575,-0.07625471,-0.65971047,0.2971506,0.14611882,-0.015338644,1.0021142,-0.52228236
0.0,-0.1,1.1999999999999997,0.0,0.5235987755982988,0,0.03215421,-1.4693408,0.22314805,-0.41749913,0.47162813,1.2453588,-0.7823423,-0.07455612,-0.6586964,0.29982153,0.16110834,0.33615816,0.8732319,-0.73359716
0.0,-0.1,1.1999999999999997,0.0,0.5235987755982988,0,0.033578545,-1.4675386,0.19559434,-0.41765746,0.2978984,1.2120718,-1.0672683,-0.074796885,-0.6586856,0.30850717,0.15281855,0.024760837,0.71574944,0.004762679
0.0,-0.1,1.1999999999999997,0.0,0.5235987755982988,0,0.032718994,-1.4689429,0.19054082,-0.41747418,0.31231436,1.2499728,0.21998712,-0.07579089,-0.65824646,0.30450827,0.18335971,0.24560787,0.8315987,0.55112445
0.0,-0.1,1.1999999999999997,0.0,0.5235987755982988,0,0.03726126,-1.4690826,0.24601063,-0.41473383,-0.31610477,1.1142637,0.8635322,-0.076069415,-0.65977484,0.29859138,0.1581745,0.12663716,0.8977256,0.67576003
0.0,-0.1,1.1999999999999997,0.0,0.5235987755982988,0,0.03297292,-1.4696046,0.18436973,-0.41734865,-0.17322616,1.0546819,-0.41452825,-0.07393424,-0.65745765,0.28889617,0.16940434,0.06861608,1.1878086,-0.8575353
0.0,-0.1,1.1999999999999997,0.0,0.5235987755982988,0,0.03365653,-1.4669186,0.20243539,-0.41346815,-0.03713796,1.1574265,-0.38678384,-0.07555872,-0.6590605,0.31837648,0.14899357,-0.042272292,1.0427377,0.9851615
0.0,-0.1,1.1999999999999997,0.0,0.5235987755982988,0,0.031684343,-1.4693276,0.19195057,-0.41911447,-0.3071586,1.1094978,0.23545988,-0.07670254,-0.6589462,0.2876591,0.15115106,0.04011323,1.0151793,0.5358706
0.0,-0.1,1.1999999999999997,0.0,0.5235987755982988,0,0.0273805,-1.4693726,0.20406815,-0.41398004,-0.13395219,1.1110892,0.97134274,-0.07438355,-0.65891284,0.3032014,0.1988365,0.11007539,0.9343907,-1.1497917
0.0,-0.1,1.1999999999999997,0.0,0.5235987755982988,0,0.03195468,-1.4682444,0.1615654,-0.41367632,-0.04066974,1.2480557,0.75799876,-0.07468337,-0.6590252,0.30873054,0.16780165,0.0902182,0.92706615,-0.34487483
0.0,-0.1,1.1999999999999997,0.0,0.5235987755982988,0,0.033038124,-1.4688649,0.17373286,-0.4159311,-0.07137686,1.201756,-0.9203583,-0.07621722,-0.65903866,0.2869792,0.18833074,-0.0048693367,1.0846498,-1.0009868
0.0,-0.1,1.1999999999999997,0.0,0.5235987755982988,0,0.02802832,-1.4678395,0.18852909,-0.41981545,-0.20695269,1.1483483,0.29402563,-0.07593308,-0.6574406,0.31514993,0.17269427,-0.032156512,0.98371017,-1.5186965
0.0,-0.1,1.1999999999999997,0.0,0.5235987755982988,0,0.029117158,-1.4691737,0.16856724,-0.4196265,0.0021650826,1.1049759,-0.657924,-0.076386765,-0.6589494,0.3015002,0.14785454,0.1389904,0.7131947,-0.65076685
0.0,-0.1,1.1999999999999997,0.0,0.5235987755982988,0,0.029148778,-1.4685516,0.19056962,-0.4143553,-0.3486038,1.2192422,0.016866146,-0.074802265,-0.65969604,0.29792476,0.18592115,0.20867006,1.1416687,-1.8500811
0.0,-0.1,1.1999999999999997,0.0,0.5235987755982988,0,0.031708963,-1.4686319,0.23183668,-0.41419965,-0.081506565,1.2427539,-0.72940874,-0.07397083,-0.65815955,0.31269622,0.15397334,0.14485246,0.8930249,-0.80680734
0.0,-0.1,1.1999999999999997,0.0,0.5235987755982988,0,0.034131326,-1.4690216,0.19329324,-0.4127857,0.18253958,1.1147231,0.06568343,-0.07562699,-0.6591629,0.3057997,0.1829481,-0.025773343,0.8728821,1.2374619
0.0,-0.1,1.1999999999999997,0.0,0.5235987755982988,0,0.029313644,-1.466236,0.18772323,-0.41961214,0.124267146,1.0539001,-0.03275336,-0.07119781,-0.6589542,0.29614592,0.18555732,0.058043767,1.1525843,-0.085631095
0.0,-0.1,1.1999999999999997,0.0,0.5235987755982988,0,0.03248999,-1.4683908,0.20988673,-0.41962615,0.0021647846,1.1623693,-0.31518063,-0.07478168,-0.65879756,0.29716268,0.18959607,0.013376772,0.8744116,0.66628957
0.0,-0.1,1.1999999999999997,0.0,0.5235987755982988,0,0.03337797,-1.4682034,0.20789443,-0.41443276,-0.012528115,1.2629524,1.1086504,-0.07511557,-0.6595217,0.30054685,0.1886182,-0.008395083,1.0165669,-0.2796331
0.0,-0.1,1.1999999999999997,0.0,0.5235987755982988,0,0.032040168,-1.4688329,0.21501581,-0.4183015,0.2588408,1.0578877,-0.750918,-0.07536752,-0.65866697,0.29815423,0.14922042,-0.04638144,1.1744462,-0.8097358
0.0,-0.1,1.1999999999999997,0.0,0.5235987755982988,0,0.029473484,-1.4691188,0.193124,-0.4160335,-0.1449471,1.1163286,-0.42062533,-0.074755415,-0.65945786,0.31120613,0.19023684,0.17644471,0.7239039,-1.4386579
0.0,-0.1,1.1999999999999997,0.0,0.5235987755982988,0,0.03360469,-1.4677868,0.13580395,-0.4135435,-0.19473626,1.2474039,0.66502416,-0.07606145,-0.6595841,0.29699457,0.18139143,0.15014735,1.0026363,-0.89520407
0.0,-0.1,1.1999999999999997,0.0,0.5235987755982988,0,0.03478968,-1.4689409,0.19065319,-0.41436237,-0.23679414,1.2339764,0.43709096,-0.07417488,-0.65791047,0.30071208,0.18063596,0.15947242,0.9358038,0.23261811
0.0,-0.1,1.1999999999999997,0.0,0.5235987755982988,0,0.029670058,-1.4685855,0.19529496,-0.41329733,-0.5025503,1.1557046,-0.3931795,-0.07302822,-0.659255,0.30870572,0.19451942,-0.060665425,0.8722781,0.67500395
0.0,-0.1,1.1999999999999997,0.0,0.5235987755982988,0,0.03658701,-1.4681724,0.20281559,-0.4144065,-0.13427849,1.185176,-0.18977031,-0.074570104,-0.65961856,0.29829204,0.16939765,0.2161187,1.0066814,-0.55523115
0.0,-0.1,1.1999999999999997,0.0,0.5235987755982988,0,0.030913949,-1.4687116,0.19403654,-0.4177985,0.12382174,1.1780261,0.6015114,-0.07428854,-0.65844905,0.29833487,0.1732867,0.030137971,1.0177037,-1.2498668
0.0,-0.1,1.1999999999999997,0.0,0.5235987755982988,0,0.03099868,-1.4705744,0.185449,-0.41739827,0.09671846,1.1976362,-0.43552357,-0.07779259,-0.65762824,0.3099142,0.1628371,0.20056702,0.9318474,1.853669
0.0,-0.1,1.1999999999999997,0.0,0.5235987755982988,0,0.03721768,-1.4676603,0.20638993,-0.4167482,-0.002553954,1.0735341,-0.67182463,-0.07416456,-0.659571,0.2911466,0.14397514,-0.046638846,1.0164601,-0.46145162
0.0,-0.1,1.1999999999999997,0.0,0.5235987755982988,0,0.034701757,-1.4721943,0.1964037,-0.4154913,0.1611934,1.228985,-0.0057949913,-0.075589515,-0.6588914,0.2854209,0.16727048,0.08302909,0.90902466,1.0582713
0.0,-0.1,1.1999999999999997,0.0,0.5235987755982988,0,0.02941652,-1.4684542,0.20539881,-0.41476557,0.25959787,1.2966517,-0.5082892,-0.07460072,-0.6586373,0.3206877,0.18887329,0.04470224,0.8796485,-1.9376668
0.0,-0.1,1.1999999999999997,0.0,0.5235987755982988,0,0.023754217,-1.4681818,0.21097167,-0.41834426,-0.099121116,1.231084,-0.40239438,-0.07800594,-0.6593717,0.30913797,0.15037714,0.17107402,1.301497,0.02516687
0.0,-0.1,1.1999999999999997,0.0,0.5235987755982988,0,0.031231932,-1.4681681,0.18665187,-0.41661763,0.09413868,1.0731488,0.30148035,-0.07757641,-0.65831506,0.3224951,0.1778257,0.014883465,0.90915304,0.6222782
0.0,-0.1,1.1999999999999997,0.0,0.5235987755982988,0,0.03176643,-1.4705076,0.1921411,-0.41354892,0.03666856,1.052367,0.832952,-0.07562979,-0.65859044,0.30038613,0.16867697,-0.013135285,1.0958273,0.2526628
0.0,-0.1,1.1999999999999997,0.0,0.5235987755982988,0,0.0402141,-1.4679493,0.20614329,-0.41283703,0.18243328,1.2305322,-0.50040126,-0.07582446,-0.659702,0.3074717,0.17589751,0.13710469,1.1357679,-0.8836992
0.0,-0.1,1.1999999999999997,0.0,0.5235987755982988,0,0.02603213,-1.4695774,0.17968236,-0.41444492,-0.17113563,1.1615281,0.88919836,-0.07447614,-0.6598868,0.2946379,0.15436077,0.058746208,0.93867815,0.18968987
0.0,-0.1,1.1999999999999997,0.0,0.5235987755982988,0,0.029406307,-1.4676907,0.20383418,-0.4178761,-0.11807642,1.2397275,-0.6448764,-0.076898694,-0.6594188,0.3111322,0.12949033,-0.0063557606,0.9794734,0.6681995
0.0,-0.1,1.1999999999999997,0.0,0.5235987755982988,0,0.031965844,-1.4691124,0.20947608,-0.41450682,-0.25478584,1.2153503,0.3835514,-0.075478725,-0.65884763,0.30382305,0.15883933,-0.005020149,0.9335783,-0.15941212
0.0,-0.1,1.1999999999999997,0.0,0.5235987755982988,0,0.034516864,-1.4678098,0.17885458,-0.41163594,-0.041471362,1.1484977,1.1649656,-0.07695296,-0.663266,0.3011872,0.1690951,-0.0061459476,1.0917485,-1.3599876
0.0,-0.1,1.1999999999999997,0.0,0.5235987755982988,0,0.035355072,-1.4675432,0.18399864,-0.41783932,0.13816746,1.1079893,-0.6459713,-0.07506108,-0.65975875,0.2988812,0.16921929,0.112400524,0.965816,0.49360958
0.0,-0.1,1.1999999999999997,0.0,0.5235987755982988,0,0.032582927,-1.4677447,0.18574569,-0.41658902,0.05988947,1.2268298,-0.5486863,-0.07379067,-0.65905714,0.302704,0.15523651,0.0037703111,0.97574556,-0.82588196
0.0,-0.1,1.1999999999999997,0.0,0.5235987755982988,0,0.033087425,-1.4690658,0.20267524,-0.41955438,-0.07745553,1.1312412,0.33140326,-0.07196648,-0.6579175,0.28877833,0.15865411,0.12820691,0.91661674,1.9812618
0.0,-0.1,1.1999999999999997,0.0,0.5235987755982988,0,0.02420107,-1.4692801,0.17115131,-0.41533476,0.27600482,1.132511,0.84470093,-0.075879544,-0.66042906,0.30724418,0.20618778,0.083966896,0.84025973,0.18967494
0.0,-0.1,1.1999999999999997,0.0,0.5235987755982988,0,0.030892935,-1.4687147,0.19300213,-0.41992202,0.08899235,1.285322,0.094330624,-0.076234646,-0.65884906,0.2950772,0.14904639,0.11549359,1.1732124,0.008248828
0.0,-0.1,1.1999999999999997,0.0,0.5235987755982988,0,0.02918884,-1.4685453,0.15818731,-0.41624466,0.06322305,1.2094119,-0.119539455,-0.07655726,-0.6592552,0.31212938,0.14867865,0.07670521,0.8061927,-0.28869796
0.0,-0.1,1.1999999999999997,0.0,0.5235987755982988,0,0.03310389,-1.4683294,0.18872511,-0.4154841,-0.086738616,1.1601663,-0.56474394,-0.07374296,-0.659542,0.29757628,0.22237952,-0.08019941,1.1445593,0.16212602
0.0,-0.1,1.1999999999999997,0.0,0.5235987755982988,0,0.0331772,-1.4685891,0.21809466,-0.41744795,0.0395543,1.1901214,0.6400401,-0.07415318,-0.6578898,0.30312896,0.16041562,0.008634078,1.121624,1.4080917
0.0,-0.1,1.1999999999999997,0.0,0.5235987755982988,0,0.034313124,-1.4676069,0.19009495,-0.41632652,-0.04421715,1.190835,-0.2998875,-0.075123645,-0.6593615,0.30653074,0.1708857,0.17661738,1.0366482,0.31037915
0.0,-0.1,1.1999999999999997,0.0,0.5235987755982988,0,0.03209564,-1.4689262,0.17915133,-0.41214815,-0.0065124687,1.1417099,0.55698156,-0.073459886,-0.6585623,0.30733532,0.17764282,0.056727447,1.0122273,-1.0824804
0.0,-0.1,1.1999999999999997,0.0,0.5235987755982988,0,0.028425908,-1.4684051,0.19587177,-0.41538858,0.19615908,1.1675693,0.6068288,-0.07432729,-0.6597504,0.3032717,0.1646583,0.008229516,1.0287452,-0.6951799
0.0,-0.1,1.1999999999999997,0.0,0.5235987755982988,0,0.034627143,-1.4677453,0.19639403,-0.41472855,0.025184186,1.2306442,-0.88056606,-0.07448288,-0.6595316,0.30703208,0.16319273,-0.04206273,1.0759417,0.02615057
0.0,-0.1,1.1999999999999997,0.0,0.5235987755982988,0,0.030793807,-1.4687265,0.17831135,-0.41607216,0.30175936,1.1221032,-0.3466799,-0.07588979,-0.6590643,0.3065718,0.11876913,0.103170805,1.2635888,0.44514698
0.0,-0.1,1.1999999999999997,0.0,0.5235987755982988,0,0.027743688,-1.4691525,0.20166744,-0.41374397,-0.08994525,1.1065477,-0.093381785,-0.07768702,-0.6590836,0.32233065,0.15885931,0.13016826,1.0071017,1.3948703
0.0,-0.1,1.1999999999999997,0.0,0.5235987755982988,0,0.031842567,-1.468979,0.2100582,-0.41861212,-0.05933215,1.2445186,-0.31798595,-0.07528205,-0.6604863,0.29971883,0.19202118,0.17567442,0.761371,-0.51730615
0.0,-0.1,1.1999999999999997,0.0,0.5235987755982988,0,0.031423446,-1.4675449,0.18130453,-0.4141986,-0.0379099,1.1593416,0.2914524,-0.07539817,-0.66025144,0.3070694,0.15674986,-0.16820838,1.1557637,1.979199
0.0,-0.1,1.1999999999999997,0.0,0.5235987755982988,0,0.036099415,-1.4682413,0.17096525,-0.41497886,-0.11226269,1.1483556,-0.750312,-0.074703865,-0.66016,0.2961475,0.14957736,-0.032932427,1.2197136,-0.37661308
0.0,-0.1,1.1999999999999997,0.0,0.5235987755982988,0,0.032478865,-1.4684175,0.18940303,-0.41313815,-0.1267039,1.2159004,-1.0280633,-0.07334274,-0.6591458,0.30916873,0.18459345,0.076804064,1.0680857,-1.6280011
0.0,-0.1,1.1999999999999997,0.0,0.5235987755982988,0,0.027523728,-1.4694246,0.19767174,-0.41356468,0.01321688,1.3277882,-0.006058252,-0.07460022,-0.65859014,0.31348884,0.17626737,0.06454791,1.1486655,-0.81637603
0.0,-0.1,1.1999999999999997,0.0,0.5235987755982988,0,0.02973958,-1.471173,0.18050781,-0.41595116,-0.12528102,1.2294405,0.34525123,-0.07400542,-0.6581245,0.30228746,0.19816373,0.061102416,0.82382905,1.1341842
0.0,-0.1,1.1999999999999997,0.0,0.5235987755982988,0,0.029205494,-1.4676384,0.20217256,-0.41628066,-0.15355593,1.1517926,-0.6814462,-0.07510558,-0.6583758,0.3240877,0.1398913,0.054121632,1.2009231,0.4306983
0.0,-0.1,1.1999999999999997,0.0,0.5235987755982988,0,0.035242576,-1.4685563,0.20080103,-0.4140247,-0.33351266,1.1595378,0.38137755,-0.07516057,-0.6608777,0.2983602,0.20399426,-0.12456954,1.0471576,1.1536689
0.0,-0.1,1.1999999999999997,0.0,0.5235987755982988,0,0.03557693,-1.4710833,0.17673975,-0.4158129,0.10907499,1.2943809,0.5498534,-0.075141326,-0.65953374,0.29596308,0.19145867,-0.057493854,0.88678473,-0.2399832
0.0,-0.1,1.1999999999999997,0.0,0.5235987755982988,0,0.03808075,-1.4702914,0.17550346,-0.41838434,-0.41774628,1.2107357,0.044945486,-0.07571812,-0.65974736,0.30018562,0.15056981,-0.066884264,0.9389633,0.730469
0.0,-0.1,1.1999999999999997,0.0,0.5235987755982988,0,0.030777883,-1.4678319,0.19160686,-0.4153097,-0.18162389,1.1418484,-0.9735804,-0.07392901,-0.66134924,0.3103118,0.16478424,-0.111290105,0.8185522,1.5047867
0.0,-0.1,1.1999999999999997,0.0,0.5235987755982988,0,0.03359042,-1.4712324,0.18757163,-0.418588,0.12947685,1.1448258,0.35655537,-0.07808308,-0.65989214,0.29384932,0.1687716,-0.017236786,0.9108379,-0.8260313
0.0,-0.1,1.1999999999999997,0.0,0.5235987755982988,0,0.033771936,-1.469504,0.21184263,-0.4148051,-0.040656306,1.1034617,0.51384693,-0.07462041,-0.6595231,0.30420348,0.20936485,-0.2328411,1.0786891,0.058958896
0.0,-0.1,1.1999999999999997,0.0,0.5235987755982988,0,0.029240973,-1.4702036,0.18998186,-0.41392803,-0.20626625,1.0942513,0.4852549,-0.07610269,-0.6605273,0.30273017,0.15497099,-0.08864789,0.97501856,-0.08226586
0.0,-0.1,1.1999999999999997,0.0,0.5235987755982988,0,0.02146854,-1.468159,0.19983657,-0.4202071,-0.17639554,1.2474626,-1.324112,-0.07323982,-0.659676,0.3058701,0.14649886,0.072651334,0.97676426,0.65033036
0.0,-0.1,1.1999999999999997,0.0,0.5235987755982988,0,0.0340405,-1.4683406,0.19579647,-0.41685203,-0.3639856,1.1850238,0.34892282,-0.07386512,-0.65880156,0.3149154,0.20627193,0.0071648825,1.0860205,0.69595873
0.0,-0.1,1.1999999999999997,0.0,0.5235987755982988,0,0.035749897,-1.4688858,0.20517242,-0.418952,0.2962645,1.2221102,-0.12069015,-0.077348635,-0.65948033,0.3033647,0.1734074,-0.10948729,0.9641099,-0.39803898
0.0,-0.1,1.1999999999999997,0.0,0.5235987755982988,0,0.026180666,-1.4685929,0.19117512,-0.4130587,-0.3523264,1.0811204,-0.23537475,-0.07305502,-0.66052365,0.31252047,0.15966813,-0.18307614,1.099863,-0.20095474
0.0,-0.1,1.1999999999999997,0.0,0.5235987755982988,0,0.031867437,-1.4693114,0.21089762,-0.4111094,0.29849333,1.2666775,0.6699034,-0.073827036,-0.6597865,0.31771064,0.18078624,0.04701277,0.89607465,-1.5157853
0.0,-0.1,1.1999999999999997,0.0,0.5235987755982988,0,0.030971682,-1.4688112,0.19910656,-0.41503578,-0.22108383,1.1069528,0.3009118,-0.07484033,-0.6592142,0.31716162,0.17718354,-0.11347049,0.9752551,-1.7932827
0.0,-0.1,1.1999999999999997,0.0,0.5235987755982988,0,0.036096316,-1.4692076,0.19957063,-0.41396227,0.28645918,1.2666726,-0.19304493,-0.07680682,-0.65894157,0.3130712,0.18085362,0.03990788,1.2085224,-0.68848944
0.0,-0.1,1.1999999999999997,0.0,0.5235987755982988,0,0.033607963,-1.468874,0.1786481,-0.41472104,0.3417198,1.2620035,-0.31819323,-0.073569715,-0.65863824,0.30763564,0.1752854,0.11799252,1.3251965,-0.8695362
0.0,-0.1,1.1999999999999997,0.0,0.5235987755982988,0,0.03383682,-1.4690212,0.19724995,-0.41698685,-0.37595737,1.2280862,0.1142563,-0.07392262,-0.6589375,0.306476,0.15628333,-0.06164904,1.0372856,-0.11451215
0.0,-0.1,1.1999999999999997,0.0,0.5235987755982988,0,0.040443785,-1.4688795,0.22534303,-0.41435298,0.11662622,1.1956953,0.4427293,-0.07442561,-0.6603355,0.30585957,0.17112213,0.112824544,0.8171865,0.8704184
0.0,-0.1,1.1999999999999997,0.0,0.5235987755982988,0,0.03343695,-1.468094,0.17252575,-0.4197964,-0.088911206,1.254269,-0.25047633,-0.07530284,-0.6595813,0.2989487,0.17355202,0.01939871,1.1026797,-0.41244206
0.0,-0.1,1.1999999999999997,0.0,0.5235987755982988,0,0.031005727,-1.4700698,0.18544684,-0.41549623,-0.26959765,1.166223,0.20945942,-0.07589042,-0.6578311,0.32472092,0.1842906,-0.09497503,1.0884181,0.9234574
0.0,-0.1,1.1999999999999997,0.0,0.5235987755982988,0,0.030607618,-1.4695747,0.16755311,-0.41478634,0.29655692,1.172948,-0.72633684,-0.07298484,-0.6587232,0.3054185,0.16171007,-0.020159904,1.2377137,0.24282408
0.0,-0.1,1.1999999999999997,0.0,0.5235987755982988,0,0.028510733,-1.4694716,0.1864647,-0.41728786,-0.28804356,1.0905333,-0.45043385,-0.07491632,-0.6612386,0.3035285,0.16021964,-0.041974112,0.88644433,-1.3072664
0.0,-0.1,1.1999999999999997,0.0,0.5235987755982988,0,0.035718724,-1.4691489,0.18945459,-0.41639158,0.0848772,1.2625324,-0.41010225,-0.07545589,-0.6594328,0.30626196,0.1682498,0.23831996,1.1505535,0.8567394
0.0,-0.1,1.1999999999999997,0.0,0.5235987755982988,0,0.032451767,-1.4698111,0.19182283,-0.41672146,0.17976686,1.2605764,0.50118387,-0.07555032,-0.65826404,0.31428498,0.175424,0.038108625,1.1482536,0.6024545
0.0,-0.1,1.1999999999999997,0.0,0.5235987755982988,0,0.03751087,-1.4686356,0.19586623,-0.4184667,-0.2168788,1.3629307,0.16217037,-0.07462913,-0.6595999,0.305006,0.1918051,0.13751687,1.1576537,-0.71358603
0.0,-0.1,1.1999999999999997,0.0,0.5235987755982988,0,0.022515593,-1.465478,0.20171596,-0.414956,-0.21291305,1.1184446,0.05662127,-0.07552063,-0.6570586,0.2878226,0.18266925,0.24073541,1.14407,-0.8679944
0.0,-0.1,1.1999999999999997,0.0,0.5235987755982988,0,0.02565549,-1.4666998,0.18636604,-0.41434067,0.13520074,1.1805896,0.22154534,-0.076142855,-0.6594827,0.31006888,0.15090472,-0.10627823,1.0175333,0.11173952
0.0,-0.1,1.1999999999999997,0.0,0.5235987755982988,0,0.025304055,-1.4673518,0.20016842,-0.41280136,0.1614256,1.1581353,-0.25859597,-0.074873164,-0.6596966,0.3054825,0.17904447,-0.12739696,1.2432972,-0.3667174
0.0,-0.1,1.1999999999999997,0.0,0.5235987755982988,0,0.03172407,-1.4671583,0.18838407,-0.4123471,-0.18973231,1.0305392,-1.5040205,-0.07616649,-0.65868676,0.29357994,0.1828725,0.1130596,0.9159849,0.5851909
0.0,-0.1,1.1999999999999997,0.0,0.5235987755982988,0,0.025355684,-1.4692929,0.22378914,-0.41336697,0.06766888,1.1585643,-0.4297202,-0.07670806,-0.6583562,0.29749206,0.15677038,-0.03547193,0.8033725,-0.9973567
0.0,-0.1,1.1999999999999997,0.0,0.5235987755982988,0,0.030714737,-1.4691489,0.18515678,-0.4149982,-0.118894264,1.240946,0.012129221,-0.073241964,-0.65876204,0.3009106,0.15873115,0.40812242,0.9658552,-0.95809716
0.0,-0.1,1.1999999999999997,0.0,0.5235987755982988,0,0.024782028,-1.4658448,0.19843608,-0.41657838,0.14128432,1.1862075,-0.31660545,-0.07561395,-0.65795094,0.30727074,0.12643941,0.14402968,0.8838649,-1.5262402
0.0,-0.1,1.1999999999999997,0.0,0.5235987755982988,0,0.03587069,-1.4662836,0.17986773,-0.4120286,-0.3195265,1.2143317,0.16356562,-0.071203806,-0.658013,0.29769054,0.17708176,0.18630667,1.0221722,1.2006284
0.0,-0.1,1.1999999999999997,0.0,0.5235987755982988,0,0.02663196,-1.4674815,0.16928512,-0.41755465,0.25011304,1.1925312,1.1045029,-0.07454923,-0.656363,0.30881256,0.15446767,0.093771406,0.8395939,1.2806734
0.0,-0.1,1.1999999999999997,0.0,0.5235987755982988,0,0.037226226,-1.4686023,0.1847289,-0.417447,0.22069143,1.1353575,0.66737044,-0.0753534,-0.6575685,0.28222045,0.14798334,-0.1649177,1.0145788,-0.3823383
0.0,-0.1,1.1999999999999997,0.0,0.5235987755982988,0,0.037593845,-1.4677538,0.20766534,-0.41159093,-0.33005193,1.0605756,-0.44337216,-0.07299343,-0.6593267,0.2988516,0.15369894,-0.044989157,0.85054874,-1.263432
0.0,-0.1,1.1999999999999997,0.0,0.5235987755982988,0,0.038205132,-1.4695176,0.19992343,-0.41687506,-0.104450405,1.1883973,0.15710795,-0.076152466,-0.65682966,0.29268515,0.21007138,0.09939628,0.84975207,-0.4197855
0.0,-0.1,1.1999999999999997,0.0,0.5235987755982988,0,0.03659388,-1.4686346,0.19832963,-0.41952536,0.1519815,1.1480497,-0.12153761,-0.07339041,-0.65583605,0.29763114,0.18739557,0.25691685,0.7536852,-1.1696695
0.0,-0.1,1.1999999999999997,0.0,0.5235987755982988,0,0.03239754,-1.4689286,0.18533282,-0.41315523,0.33027846,1.1282079,-1.0595478,-0.07440869,-0.6562855,0.30929428,0.18076982,-0.15599807,1.0521386,0.6266347
0.0,-0.1,1.1999999999999997,0.0,0.5235987755982988,0,0.02836127,-1.4683787,0.17964855,-0.4129615,0.0027391629,1.1400985,0.03968944,-0.07656104,-0.65937513,0.32110435,0.12784813,-0.06522295,1.021164,-2.4650862
0.0,-0.1,1.1999999999999997,0.0,0.5235987755982988,0,0.03623372,-1.4686018,0.1601766,-0.41171795,0.19313206,1.2448342,-0.2812379,-0.075014666,-0.6599407,0.3021137,0.18997793,-0.008271882,0.8152207,-1.3968394
0.0,-0.1,1.1999999999999997,0.0,0.5235987755982988,0,0.031896,-1.4661417,0.18331802,-0.4163397,-0.28823626,1.0752362,-0.55053484,-0.07490406,-0.6600974,0.3199084,0.14234897,0.17721269,0.98358697,-0.3019757
0.0,-0.1,1.1999999999999997,0.0,0.5235987755982988,0,0.035859343,-1.4705552,0.20659447,-0.41494304,0.14228395,1.0549992,-0.3045321,-0.07557147,-0.65921277,0.30553004,0.17300682,-0.09136288,0.9271431,-0.16695979
