sanky1234/BimanualDexCatch/isaacgymenvs/cem_results/football_pose_-0.2_-0.2_0.6_-0.5235987755982988_-0.5235987755982988_-0.34906585039886584.csv
x,y,z,roll,pitch,yaw,robot1/joint1,robot1/joint2,robot1/joint3,robot1/joint4,robot1/joint5,robot1/joint6,robot1/joint7,robot2/joint1,robot2/joint2,robot2/joint3,robot2/joint4,robot2/joint5,robot2/joint6,robot2/joint7
-0.2,-0.2,0.6,-0.5235987755982988,-0.5235987755982988,-0.34906585039886584,1.3956404,1.5056584,0.32020482,0.20302239,0.19634962,0.82794833,0.43606308,-0.51066786,1.5725096,-0.21198137,-0.7503198,-0.047638223,1.3742627,-1.0086901
-0.2,-0.2,0.6,-0.5235987755982988,-0.5235987755982988,-0.34906585039886584,1.3835944,1.49688,0.33951157,0.21644826,0.20415244,0.8741182,0.42932412,-0.49648058,1.5583496,-0.18665247,-0.70915896,0.0061507514,1.3878243,-1.1394265
-0.2,-0.2,0.6,-0.5235987755982988,-0.5235987755982988,-0.34906585039886584,1.3810037,1.4957662,0.30270097,0.21000929,0.22754449,0.83138096,0.43385097,-0.49498692,1.5726082,-0.20729858,-0.7110597,0.036768306,1.3551879,-1.044143
-0.2,-0.2,0.6,-0.5235987755982988,-0.5235987755982988,-0.34906585039886584,1.3633475,1.4929558,0.32994172,0.20017084,0.19517128,0.8711839,0.4145947,-0.49907377,1.5599712,-0.17242661,-0.7161452,-0.016312795,1.3886821,-1.0574485
-0.2,-0.2,0.6,-0.5235987755982988,-0.5235987755982988,-0.34906585039886584,1.4035738,1.4939145,0.31613427,0.22200184,0.18846533,0.86132765,0.40555573,-0.50475335,1.5631573,-0.18489815,-0.67570657,-0.021867236,1.3732405,-1.0357136
-0.2,-0.2,0.6,-0.5235987755982988,-0.5235987755982988,-0.34906585039886584,1.3691194,1.499378,0.32739845,0.17310682,0.20393063,0.83488524,0.4427702,-0.50103873,1.5679688,-0.20634666,-0.7153096,-0.022411698,1.3590341,-1.0406451
-0.2,-0.2,0.6,-0.5235987755982988,-0.5235987755982988,-0.34906585039886584,1.4103973,1.4983202,0.29899105,0.22906113,0.25715736,0.8445115,0.4123144,-0.49800834,1.5775295,-0.15539022,-0.6733861,-0.08971004,1.3725017,-1.1091665
-0.2,-0.2,0.6,-0.5235987755982988,-0.5235987755982988,-0.34906585039886584,1.38265,1.5124084,0.31296462,0.22248355,0.22804339,0.85983324,0.4189527,-0.5029944,1.5706636,-0.21716191,-0.7015143,-0.08342896,1.3797976,-1.128092
-0.2,-0.2,0.6,-0.5235987755982988,-0.5235987755982988,-0.34906585039886584,1.3886495,1.4936885,0.34329915,0.18838517,0.19810928,0.874138,0.39229646,-0.5033105,1.5694125,-0.21433544,-0.7141007,-0.09210026,1.382151,-1.0145538
-0.2,-0.2,0.6,-0.5235987755982988,-0.5235987755982988,-0.34906585039886584,1.3847315,1.5051377,0.32632938,0.20703986,0.1933739,0.85785174,0.41427535,-0.50175273,1.5734898,-0.18699537,-0.71890575,-0.06288871,1.3773122,-1.0413065
-0.2,-0.2,0.6,-0.5235987755982988,-0.5235987755982988,-0.34906585039886584,1.4015547,1.5025967,0.32452756,0.21395926,0.17882012,0.8688789,0.31855997,-0.5122686,1.5737206,-0.18426892,-0.71371055,0.029076694,1.370615,-1.0067542
-0.2,-0.2,0.6,-0.5235987755982988,-0.5235987755982988,-0.34906585039886584,1.3872052,1.4997251,0.33406833,0.236034,0.20077163,0.84143794,0.38543501,-0.50719976,1.5718914,-0.18582515,-0.68732643,-0.061082702,1.3666874,-1.0291774
-0.2,-0.2,0.6,-0.5235987755982988,-0.5235987755982988,-0.34906585039886584,1.3816777,1.5208579,0.32368004,0.17657232,0.22506787,0.864769,0.37669212,-0.4957105,1.5760747,-0.17264986,-0.7239877,-0.052868813,1.3755723,-0.998902
-0.2,-0.2,0.6,-0.5235987755982988,-0.5235987755982988,-0.34906585039886584,1.4211658,1.4966221,0.29698563,0.18941484,0.19876988,0.8944186,0.36972016,-0.50887793,1.564345,-0.22798696,-0.7361494,-0.03311574,1.3787651,-1.0549904
-0.2,-0.2,0.6,-0.5235987755982988,-0.5235987755982988,-0.34906585039886584,1.4127074,1.4920151,0.32211778,0.1764154,0.1982356,0.8925042,0.4089534,-0.49652234,1.5770293,-0.21083172,-0.7050886,-0.019642923,1.3733599,-1.0463951
-0.2,-0.2,0.6,-0.5235987755982988,-0.5235987755982988,-0.34906585039886584,1.3780308,1.49734,0.31919366,0.23219115,0.21991967,0.8800454,0.40805653,-0.49316183,1.5763918,-0.20322849,-0.6740869,-0.0445367,1.3935745,-1.149556
-0.2,-0.2,0.6,-0.5235987755982988,-0.5235987755982988,-0.34906585039886584,1.3876382,1.5092211,0.33084214,0.19984312,0.20507674,0.86251044,0.39220414,-0.5113779,1.5716267,-0.19886787,-0.71647084,-0.07873838,1.3668905,-1.0368867
-0.2,-0.2,0.6,-0.5235987755982988,-0.5235987755982988,-0.34906585039886584,1.4030477,1.5019075,0.32326466,0.22181694,0.2564022,0.85138965,0.42873734,-0.50770247,1.5614522,-0.1958271,-0.7354801,-0.072076134,1.3836088,-1.0459307
-0.2,-0.2,0.6,-0.5235987755982988,-0.5235987755982988,-0.34906585039886584,1.3809996,1.4950747,0.31903237,0.22276556,0.19039592,0.8651113,0.38301006,-0.51915026,1.5719485,-0.19004369,-0.7071771,-0.051401984,1.3811215,-1.0918218
-0.2,-0.2,0.6,-0.5235987755982988,-0.5235987755982988,-0.34906585039886584,1.4053261,1.4895201,0.34621477,0.2044455,0.20368509,0.8410259,0.4134666,-0.49411863,1.577198,-0.17540263,-0.6845524,-0.038825963,1.3613567,-1.0919609
-0.2,-0.2,0.6,-0.5235987755982988,-0.5235987755982988,-0.34906585039886584,1.3963451,1.5099127,0.30522582,0.24989672,0.21257985,0.83045185,0.41151136,-0.49634004,1.5580987,-0.21082644,-0.6475663,-0.0035371827,1.3669271,-1.0887687
-0.2,-0.2,0.6,-0.5235987755982988,-0.5235987755982988,-0.34906585039886584,1.396569,1.5190969,0.3273509,0.20520309,0.20392881,0.88486004,0.4361736,-0.5006209,1.5646576,-0.22104602,-0.6942934,-0.022208953,1.3565567,-1.1122192
-0.2,-0.2,0.6,-0.5235987755982988,-0.5235987755982988,-0.34906585039886584,1.3722059,1.4987845,0.3200298,0.21303348,0.17948864,0.8618162,0.3768954,-0.5095023,1.5732111,-0.19438024,-0.7379456,-0.003666781,1.3707114,-1.0580713
-0.2,-0.2,0.6,-0.5235987755982988,-0.5235987755982988,-0.34906585039886584,1.38018,1.5204753,0.32590693,0.24881274,0.16826525,0.85394377,0.36565456,-0.4968265,1.5748867,-0.20179868,-0.6905848,-0.011529931,1.3730154,-1.1157066
-0.2,-0.2,0.6,-0.5235987755982988,-0.5235987755982988,-0.34906585039886584,1.3716949,1.5094366,0.3214203,0.18433043,0.17535055,0.8936268,0.48259687,-0.4974587,1.5638173,-0.17795591,-0.6861959,-0.03898301,1.3703849,-1.0756638
-0.2,-0.2,0.6,-0.5235987755982988,-0.5235987755982988,-0.34906585039886584,1.4045583,1.4904149,0.31775528,0.22945446,0.17579493,0.8501805,0.44456512,-0.5071463,1.5688064,-0.20206048,-0.71162105,-0.059020627,1.3909944,-1.1342763
-0.2,-0.2,0.6,-0.5235987755982988,-0.5235987755982988,-0.34906585039886584,1.4301859,1.5026603,0.3211286,0.23761219,0.19408654,0.83331233,0.43639114,-0.498224,1.5716358,-0.20676807,-0.70025474,-0.03530865,1.3876166,-1.0903858
-0.2,-0.2,0.6,-0.5235987755982988,-0.5235987755982988,-0.34906585039886584,1.3786582,1.4958506,0.3376374,0.2373603,0.22187956,0.8489089,0.41128328,-0.49775693,1.5760883,-0.20708859,-0.6834213,-0.06037131,1.3728853,-1.0584335
-0.2,-0.2,0.6,-0.5235987755982988,-0.5235987755982988,-0.34906585039886584,1.3794489,1.491735,0.3083487,0.22682151,0.19489527,0.860845,0.42406645,-0.50946534,1.571536,-0.20261884,-0.70220584,0.00557361,1.3597025,-1.1400882
-0.2,-0.2,0.6,-0.5235987755982988,-0.5235987755982988,-0.34906585039886584,1.3864101,1.4979589,0.3282592,0.22936766,0.17243235,0.86294055,0.42505187,-0.5038569,1.5728008,-0.18431576,-0.7029913,-0.07257335,1.3801014,-1.0604113
-0.2,-0.2,0.6,-0.5235987755982988,-0.5235987755982988,-0.34906585039886584,1.3755362,1.5087214,0.34176219,0.2091287,0.20075962,0.8531995,0.47051302,-0.5181274,1.5768828,-0.19916879,-0.67765075,-0.038766127,1.363336,-1.0788329
-0.2,-0.2,0.6,-0.5235987755982988,-0.5235987755982988,-0.34906585039886584,1.4176687,1.494504,0.31603676,0.20358941,0.21999168,0.84727377,0.40454966,-0.5054375,1.5696856,-0.15975279,-0.7140162,-0.048683167,1.3780984,-1.0047275
-0.2,-0.2,0.6,-0.5235987755982988,-0.5235987755982988,-0.34906585039886584,1.3581846,1.494481,0.30812338,0.22532488,0.2161525,0.8803045,0.44918755,-0.4898037,1.5632404,-0.18871096,-0.6823529,0.043210443,1.3838546,-1.1120723
-0.2,-0.2,0.6,-0.5235987755982988,-0.5235987755982988,-0.34906585039886584,1.3822849,1.5102631,0.2860513,0.25056556,0.20572184,0.84766734,0.3605912,-0.5011413,1.5770923,-0.21104938,-0.682369,-0.047642447,1.3675908,-1.0717207
-0.2,-0.2,0.6,-0.5235987755982988,-0.5235987755982988,-0.34906585039886584,1.3853565,1.494193,0.31031424,0.24444108,0.216426,0.8780949,0.465065,-0.5046785,1.5622376,-0.22348684,-0.7012104,-0.017925255,1.3635241,-1.0341359
-0.2,-0.2,0.6,-0.5235987755982988,-0.5235987755982988,-0.34906585039886584,1.3714316,1.5094099,0.3093761,0.20071484,0.20157467,0.8670351,0.3823098,-0.4967957,1.5638094,-0.19761774,-0.7174717,0.015531312,1.3538613,-1.0825682
-0.2,-0.2,0.6,-0.5235987755982988,-0.5235987755982988,-0.34906585039886584,1.3833927,1.492656,0.31615934,0.19195469,0.22060321,0.859525,0.43205968,-0.49711937,1.5666194,-0.19725467,-0.70114577,-0.06598621,1.3808911,-1.0966979
-0.2,-0.2,0.6,-0.5235987755982988,-0.5235987755982988,-0.34906585039886584,1.3539664,1.4952261,0.33059457,0.21246544,0.21653564,0.8585208,0.4070417,-0.4878441,1.5735835,-0.21620938,-0.72796404,-0.048592832,1.3815678,-1.0670141
-0.2,-0.2,0.6,-0.5235987755982988,-0.5235987755982988,-0.34906585039886584,1.407956,1.5212988,0.3190055,0.20293847,0.22757283,0.8634488,0.4030277,-0.50414145,1.5604912,-0.19197558,-0.70691293,-0.065650046,1.3962554,-1.08149
-0.2,-0.2,0.6,-0.5235987755982988,-0.5235987755982988,-0.34906585039886584,1.4013058,1.5075611,0.34537345,0.22730263,0.20806569,0.8593473,0.42260918,-0.49925038,1.5697455,-0.20418991,-0.68055,-0.06410572,1.3717229,-1.083683
-0.2,-0.2,0.6,-0.5235987755982988,-0.5235987755982988,-0.34906585039886584,1.3840147,1.5055186,0.32006633,0.22052808,0.25551584,0.8420195,0.45779657,-0.4903741,1.570522,-0.20657691,-0.67371225,-0.06278877,1.3747712,-0.9368094
-0.2,-0.2,0.6,-0.5235987755982988,-0.5235987755982988,-0.34906585039886584,1.4062549,1.509052,0.34579712,0.18842614,0.21762407,0.8470574,0.4371859,-0.5066621,1.5591047,-0.17616233,-0.6999562,-0.00563894,1.3803821,-1.1466088
-0.2,-0.2,0.6,-0.5235987755982988,-0.5235987755982988,-0.34906585039886584,1.392827,1.5012236,0.30781755,0.24177453,0.20420681,0.8314711,0.37295794,-0.5040928,1.5664548,-0.20235683,-0.69397926,-0.096825905,1.358047,-1.0986476
-0.2,-0.2,0.6,-0.5235987755982988,-0.5235987755982988,-0.34906585039886584,1.3918687,1.5003244,0.31491145,0.18974753,0.20104365,0.8645089,0.42605045,-0.50949234,1.5737439,-0.23478325,-0.715333,-0.017253835,1.3699864,-1.0548736
-0.2,-0.2,0.6,-0.5235987755982988,-0.5235987755982988,-0.34906585039886584,1.3522158,1.5011342,0.33115244,0.24669445,0.18562193,0.8365124,0.4569284,-0.50101507,1.5682422,-0.18997256,-0.67653584,-0.0232287,1.3645376,-1.1235394
-0.2,-0.2,0.6,-0.5235987755982988,-0.5235987755982988,-0.34906585039886584,1.3786173,1.5077173,0.3148487,0.24507704,0.16242969,0.8272376,0.44143263,-0.5088846,1.5726725,-0.18291675,-0.7069037,-0.07029776,1.3742766,-1.0568972
-0.2,-0.2,0.6,-0.5235987755982988,-0.5235987755982988,-0.34906585039886584,1.387849,1.5160573,0.32345605,0.22892392,0.23971066,0.849563,0.36746463,-0.51092786,1.5698662,-0.1840389,-0.71071357,-0.08988311,1.3657086,-1.1057829
-0.2,-0.2,0.6,-0.5235987755982988,-0.5235987755982988,-0.34906585039886584,1.3644115,1.4852867,0.3323145,0.23495887,0.19074355,0.89062256,0.42646325,-0.5131283,1.5678275,-0.19209884,-0.7113626,-0.07799005,1.3810863,-1.1185107
-0.2,-0.2,0.6,-0.5235987755982988,-0.5235987755982988,-0.34906585039886584,1.3859975,1.4916933,0.31076515,0.24675617,0.1970922,0.84211147,0.43902516,-0.5028661,1.5636631,-0.19581504,-0.6832643,0.0031550953,1.3850032,-1.1884298
-0.2,-0.2,0.6,-0.5235987755982988,-0.5235987755982988,-0.34906585039886584,1.3906159,1.5100683,0.30599216,0.22762337,0.23200122,0.847857,0.44480333,-0.49762625,1.5630884,-0.22328585,-0.68263245,-0.055083267,1.3715646,-0.99103993
-0.2,-0.2,0.6,-0.5235987755982988,-0.5235987755982988,-0.34906585039886584,1.360776,1.5032257,0.31958234,0.22237888,0.18506986,0.851491,0.42576957,-0.4981683,1.5716525,-0.18319158,-0.68319046,-0.019927133,1.3792146,-1.0569645
-0.2,-0.2,0.6,-0.5235987755982988,-0.5235987755982988,-0.34906585039886584,1.3821644,1.4978652,0.32296178,0.16013248,0.21894604,0.8716383,0.45455343,-0.49951512,1.561274,-0.18275656,-0.71352994,-0.053450327,1.381804,-1.1076611
-0.2,-0.2,0.6,-0.5235987755982988,-0.5235987755982988,-0.34906585039886584,1.4176446,1.5043516,0.2998868,0.23368157,0.17480035,0.83812034,0.37242478,-0.5017726,1.5624245,-0.19678073,-0.65730083,-0.0051761973,1.3686743,-1.1115324
-0.2,-0.2,0.6,-0.5235987755982988,-0.5235987755982988,-0.34906585039886584,1.3582836,1.5025532,0.3172356,0.2266654,0.20122115,0.8834184,0.41112274,-0.48844552,1.5729725,-0.17090444,-0.6553216,-0.012667573,1.368591,-1.08648
-0.2,-0.2,0.6,-0.5235987755982988,-0.5235987755982988,-0.34906585039886584,1.4007952,1.5229079,0.33271095,0.20096833,0.21352066,0.8531615,0.4309339,-0.5115803,1.5599648,-0.19216943,-0.7504323,-0.07985525,1.3741761,-0.98218614
-0.2,-0.2,0.6,-0.5235987755982988,-0.5235987755982988,-0.34906585039886584,1.4150783,1.5099416,0.326414,0.19382931,0.2007349,0.8638552,0.43606985,-0.49251807,1.5683749,-0.20429122,-0.6919101,-0.036839273,1.3729833,-1.1543826
-0.2,-0.2,0.6,-0.5235987755982988,-0.5235987755982988,-0.34906585039886584,1.3779408,1.4971423,0.32819578,0.2518194,0.17995203,0.8519736,0.36759436,-0.4913766,1.5688612,-0.20517538,-0.6677666,-0.05571663,1.3940146,-1.1123084
-0.2,-0.2,0.6,-0.5235987755982988,-0.5235987755982988,-0.34906585039886584,1.4034052,1.4981253,0.33051926,0.17830949,0.2292147,0.8639767,0.4204988,-0.5005632,1.5692966,-0.19859742,-0.6883919,-0.088649325,1.3473531,-1.0095023
-0.2,-0.2,0.6,-0.5235987755982988,-0.5235987755982988,-0.34906585039886584,1.4000683,1.5100387,0.315942,0.17592038,0.18966562,0.8572184,0.40592,-0.49804658,1.5785577,-0.20253642,-0.71432585,-0.053437565,1.3661189,-1.0907159
-0.2,-0.2,0.6,-0.5235987755982988,-0.5235987755982988,-0.34906585039886584,1.3981571,1.5034328,0.3168583,0.2345919,0.20848697,0.86576086,0.37730938,-0.50861895,1.5762677,-0.18489198,-0.6920186,-0.024363376,1.3805622,-1.0445635
-0.2,-0.2,0.6,-0.5235987755982988,-0.5235987755982988,-0.34906585039886584,1.3798668,1.4863417,0.33706912,0.19923604,0.20250262,0.83826065,0.42708594,-0.50413346,1.5691655,-0.20644173,-0.7115559,-0.00088328426,1.369051,-1.0104632
-0.2,-0.2,0.6,-0.5235987755982988,-0.5235987755982988,-0.34906585039886584,1.3989587,1.495401,0.33511695,0.20483235,0.15989684,0.84941953,0.41193074,-0.50272274,1.5698955,-0.20329769,-0.69889647,-0.062825665,1.3676354,-1.038555
-0.2,-0.2,0.6,-0.5235987755982988,-0.5235987755982988,-0.34906585039886584,1.4031535,1.4879351,0.31074002,0.23305315,0.20952629,0.88712865,0.3725976,-0.5027233,1.577943,-0.18381318,-0.68986064,-0.043089133,1.3823564,-1.126692
-0.2,-0.2,0.6,-0.5235987755982988,-0.5235987755982988,-0.34906585039886584,1.3784133,1.5189385,0.3224098,0.2021406,0.18293965,0.8627304,0.4149327,-0.5091439,1.5705658,-0.19242238,-0.73422015,-0.01000496,1.378088,-1.1182015
-0.2,-0.2,0.6,-0.5235987755982988,-0.5235987755982988,-0.34906585039886584,1.4035468,1.4985926,0.33650178,0.23062404,0.19069396,0.86683035,0.37004298,-0.5072437,1.5745962,-0.17995282,-0.6948058,0.031713735,1.3793069,-1.071187
-0.2,-0.2,0.6,-0.5235987755982988,-0.5235987755982988,-0.34906585039886584,1.3601239,1.5041324,0.34405345,0.20880844,0.19214422,0.8536276,0.42597413,-0.51056916,1.5727633,-0.18114498,-0.6615368,-0.026003411,1.3748006,-1.0692488
-0.2,-0.2,0.6,-0.5235987755982988,-0.5235987755982988,-0.34906585039886584,1.4024132,1.5036467,0.31310463,0.243666,0.16588299,0.85776687,0.4108915,-0.50132024,1.5734124,-0.20289636,-0.69808066,-0.029414576,1.3768262,-1.1397542
-0.2,-0.2,0.6,-0.5235987755982988,-0.5235987755982988,-0.34906585039886584,1.4099424,1.5118123,0.31612504,0.19438757,0.22229928,0.8663092,0.39638662,-0.4962112,1.5654088,-0.18550375,-0.702796,-0.015374859,1.3652287,-1.1006032
-0.2,-0.2,0.6,-0.5235987755982988,-0.5235987755982988,-0.34906585039886584,1.3387686,1.5022461,0.3161303,0.21110548,0.18280338,0.8510816,0.430802,-0.4927797,1.5766274,-0.19347812,-0.7261716,-0.041367028,1.3695196,-1.0771507
-0.2,-0.2,0.6,-0.5235987755982988,-0.5235987755982988,-0.34906585039886584,1.399262,1.5041317,0.32160226,0.18688484,0.22526617,0.87392133,0.4464798,-0.5017049,1.5665809,-0.19407892,-0.69209516,-0.0615701,1.3808829,-1.1095884
-0.2,-0.2,0.6,-0.5235987755982988,-0.5235987755982988,-0.34906585039886584,1.384562,1.4997482,0.3219063,0.18756075,0.22146967,0.89632463,0.39653406,-0.5093731,1.5766821,-0.20268823,-0.7054704,-0.067009784,1.376378,-1.092488
-0.2,-0.2,0.6,-0.5235987755982988,-0.5235987755982988,-0.34906585039886584,1.3761189,1.4972105,0.3246221,0.26776353,0.16208756,0.8146845,0.40672302,-0.49556863,1.5706259,-0.18973854,-0.6695446,-0.0035717324,1.3893063,-1.0462517
-0.2,-0.2,0.6,-0.5235987755982988,-0.5235987755982988,-0.34906585039886584,1.3818254,1.4993044,0.3226187,0.21831737,0.20284374,0.85630435,0.40525764,-0.49462655,1.5590872,-0.19623514,-0.7127911,-0.024500519,1.3935561,-1.0867655
-0.2,-0.2,0.6,-0.5235987755982988,-0.5235987755982988,-0.34906585039886584,1.3790224,1.4905077,0.300946,0.2755747,0.1899573,0.85242665,0.4333012,-0.4998458,1.5712708,-0.20847234,-0.66233957,0.0034134253,1.3777404,-1.0530912
-0.2,-0.2,0.6,-0.5235987755982988,-0.5235987755982988,-0.34906585039886584,1.39268,1.4948342,0.3293763,0.20795393,0.20656446,0.864998,0.4419415,-0.49222562,1.5658298,-0.1940827,-0.69972444,-0.008865952,1.3982091,-1.0679567
-0.2,-0.2,0.6,-0.5235987755982988,-0.5235987755982988,-0.34906585039886584,1.3838513,1.4932362,0.3362468,0.22944859,0.18893968,0.8820137,0.38401112,-0.4987629,1.574058,-0.18945898,-0.7026744,-0.0152546195,1.384381,-1.1511915
-0.2,-0.2,0.6,-0.5235987755982988,-0.5235987755982988,-0.34906585039886584,1.4336168,1.4932897,0.3348655,0.21974343,0.18507402,0.8872081,0.46824163,-0.50128543,1.5811538,-0.19419472,-0.680906,0.0070698257,1.3737987,-1.0705348
-0.2,-0.2,0.6,-0.5235987755982988,-0.5235987755982988,-0.34906585039886584,1.4165795,1.5000136,0.33708355,0.20788136,0.22239594,0.8661585,0.40157166,-0.49790075,1.5658135,-0.1926003,-0.68117976,-0.087263115,1.3761612,-1.1408839
-0.2,-0.2,0.6,-0.5235987755982988,-0.5235987755982988,-0.34906585039886584,1.3870835,1.5059115,0.3007777,0.20864232,0.22125697,0.85970414,0.3711105,-0.49609223,1.5697178,-0.18437874,-0.7185691,-0.027596064,1.358951,-1.1183826
-0.2,-0.2,0.6,-0.5235987755982988,-0.5235987755982988,-0.34906585039886584,1.3844246,1.500035,0.3478723,0.18650505,0.18850292,0.86183393,0.40472415,-0.5043156,1.5613875,-0.22510855,-0.6756774,-0.012985619,1.3618051,-1.0262946
-0.2,-0.2,0.6,-0.5235987755982988,-0.5235987755982988,-0.34906585039886584,1.4087709,1.4988909,0.33987907,0.234973,0.19962628,0.85487986,0.4045552,-0.50439817,1.5759479,-0.19603895,-0.7208946,-0.1160186,1.3922237,-1.0789531
-0.2,-0.2,0.6,-0.5235987755982988,-0.5235987755982988,-0.34906585039886584,1.3949642,1.4991342,0.30755883,0.22024916,0.1849181,0.8619534,0.37579685,-0.5083039,1.5711411,-0.18107544,-0.71983683,-0.062494017,1.375745,-1.1147517
-0.2,-0.2,0.6,-0.5235987755982988,-0.5235987755982988,-0.34906585039886584,1.3789141,1.4997555,0.3310741,0.23219189,0.1930354,0.84743,0.39587274,-0.50716263,1.564178,-0.19515952,-0.686484,-0.088985234,1.3618969,-0.99986076
-0.2,-0.2,0.6,-0.5235987755982988,-0.5235987755982988,-0.34906585039886584,1.379529,1.4929339,0.3483466,0.20067239,0.17599577,0.8837969,0.36899504,-0.49566603,1.5656992,-0.21044113,-0.68813676,-0.111984946,1.3729086,-1.1220809
-0.2,-0.2,0.6,-0.5235987755982988,-0.5235987755982988,-0.34906585039886584,1.3954073,1.4972274,0.33059365,0.19859973,0.18463348,0.83941466,0.39921552,-0.4971425,1.5774344,-0.21673831,-0.7460119,-0.007848803,1.3905623,-1.1611992
-0.2,-0.2,0.6,-0.5235987755982988,-0.5235987755982988,-0.34906585039886584,1.4394568,1.5119869,0.30408013,0.22321725,0.1989276,0.85334843,0.38681695,-0.51012075,1.5676303,-0.18216318,-0.71350473,-0.04816967,1.3925334,-1.0561672
-0.2,-0.2,0.6,-0.5235987755982988,-0.5235987755982988,-0.34906585039886584,1.3973181,1.5034353,0.3350626,0.20100833,0.21152484,0.85559136,0.4005631,-0.50577646,1.5752448,-0.20070055,-0.7120362,-0.058274277,1.369165,-1.1896372
-0.2,-0.2,0.6,-0.5235987755982988,-0.5235987755982988,-0.34906585039886584,1.3953693,1.4913987,0.30565825,0.2135033,0.1837073,0.84326845,0.4314478,-0.5095997,1.5713751,-0.18658231,-0.69998544,-0.07577395,1.3817834,-1.090794
-0.2,-0.2,0.6,-0.5235987755982988,-0.5235987755982988,-0.34906585039886584,1.3855277,1.5016778,0.32626432,0.20160642,0.20880844,0.85535085,0.39990914,-0.5110789,1.5740626,-0.18973191,-0.6983503,-0.07209888,1.3748702,-1.129475
-0.2,-0.2,0.6,-0.5235987755982988,-0.5235987755982988,-0.34906585039886584,1.3771358,1.49858,0.34153903,0.21172382,0.21112218,0.84491026,0.39411464,-0.485854,1.5661755,-0.19943535,-0.69290835,0.031487484,1.3779066,-1.0731643
-0.2,-0.2,0.6,-0.5235987755982988,-0.5235987755982988,-0.34906585039886584,1.3765297,1.5154462,0.3182331,0.23898076,0.19781412,0.86562604,0.38657522,-0.5086317,1.5687361,-0.20604517,-0.68687177,-0.016103845,1.3911932,-1.0527306
-0.2,-0.2,0.6,-0.5235987755982988,-0.5235987755982988,-0.34906585039886584,1.3916773,1.5162065,0.34457558,0.19918965,0.19576724,0.87660986,0.39829206,-0.5128863,1.5646346,-0.20357426,-0.675868,-0.07689066,1.3568146,-1.0606805
-0.2,-0.2,0.6,-0.5235987755982988,-0.5235987755982988,-0.34906585039886584,1.3870617,1.5181066,0.32049662,0.21562833,0.22409268,0.86907685,0.44045463,-0.5035691,1.573789,-0.21494411,-0.70100987,-0.079799406,1.373534,-1.0863148
-0.2,-0.2,0.6,-0.5235987755982988,-0.5235987755982988,-0.34906585039886584,1.3949642,1.4952787,0.30679044,0.20839916,0.18491787,0.8635463,0.39409187,-0.49984604,1.569638,-0.16354382,-0.7107511,0.05714807,1.3921953,-1.0898631
-0.2,-0.2,0.6,-0.5235987755982988,-0.5235987755982988,-0.34906585039886584,1.3497878,1.4995823,0.3160493,0.22987123,0.20148224,0.85995066,0.4460106,-0.493733,1.5722498,-0.20493557,-0.7079375,-0.0644619,1.3798057,-1.0361087
-0.2,-0.2,0.6,-0.5235987755982988,-0.5235987755982988,-0.34906585039886584,1.4121677,1.4989934,0.3142189,0.20377971,0.20074773,0.8864982,0.3886785,-0.502315,1.5669793,-0.22757463,-0.6895768,-0.033011355,1.3586501,-1.0245876
-0.2,-0.2,0.6,-0.5235987755982988,-0.5235987755982988,-0.34906585039886584,1.3764251,1.498272,0.29723838,0.2429831,0.2477886,0.83888066,0.40308827,-0.5017159,1.5717686,-0.1860272,-0.7039683,-0.022668378,1.389645,-1.1136632
-0.2,-0.2,0.6,-0.5235987755982988,-0.5235987755982988,-0.34906585039886584,1.370093,1.5063202,0.30668205,0.22060171,0.16633631,0.8660087,0.41849864,-0.50153047,1.5760596,-0.20423307,-0.6982949,-0.03567273,1.3739113,-1.0329547
-0.2,-0.2,0.6,-0.5235987755982988,-0.5235987755982988,-0.34906585039886584,1.3751978,1.5085095,0.31847036,0.21109638,0.2133907,0.8644391,0.4349924,-0.5070327,1.5652151,-0.18448281,-0.6970474,-0.085943334,1.386584,-1.0415492
-0.2,-0.2,0.6,-0.5235987755982988,-0.5235987755982988,-0.34906585039886584,1.3858933,1.504991,0.3378459,0.19624151,0.20059578,0.86050695,0.37924933,-0.4888384,1.5732857,-0.19005945,-0.7207961,-0.025407612,1.3834724,-1.1263494
-0.2,-0.2,0.6,-0.5235987755982988,-0.5235987755982988,-0.34906585039886584,1.3724614,1.5022913,0.35270056,0.18334205,0.19627297,0.85172194,0.41059685,-0.51541156,1.5718619,-0.19489329,-0.7115687,-0.04249298,1.3772122,-1.0886195
-0.2,-0.2,0.6,-0.5235987755982988,-0.5235987755982988,-0.34906585039886584,1.3759516,1.5195171,0.30379435,0.25533938,0.22718574,0.8557103,0.4064234,-0.4917875,1.563742,-0.20995386,-0.67804074,-0.044251896,1.3641851,-1.1158645
-0.2,-0.2,0.6,-0.5235987755982988,-0.5235987755982988,-0.34906585039886584,1.3943658,1.4982669,0.3310673,0.2073796,0.18364789,0.86218923,0.44673282,-0.50893086,1.5643044,-0.2270112,-0.7010803,0.008389299,1.3633715,-1.0875067
-0.2,-0.2,0.6,-0.5235987755982988,-0.5235987755982988,-0.34906585039886584,1.4039189,1.5205592,0.32029882,0.20553586,0.20856786,0.88611203,0.3488652,-0.50365794,1.5749667,-0.17020985,-0.74439263,-0.018089158,1.4117355,-1.0707731
-0.2,-0.2,0.6,-0.5235987755982988,-0.5235987755982988,-0.34906585039886584,1.4174325,1.5169255,0.3302254,0.20286942,0.19330165,0.86209476,0.40426567,-0.49305853,1.5646613,-0.20942372,-0.7093928,-0.035541765,1.3729345,-1.0933232
-0.2,-0.2,0.6,-0.5235987755982988,-0.5235987755982988,-0.34906585039886584,1.3970484,1.5103734,0.31008643,0.15705164,0.20886976,0.886178,0.43188325,-0.49909273,1.5702624,-0.1936792,-0.72699845,0.0023751485,1.3727043,-0.9812628
-0.2,-0.2,0.6,-0.5235987755982988,-0.5235987755982988,-0.34906585039886584,1.4203573,1.5054519,0.33201897,0.19216326,0.2575426,0.868927,0.35632303,-0.50071675,1.5672672,-0.21481954,-0.69296986,-0.030573457,1.382692,-1.0275456
-0.2,-0.2,0.6,-0.5235987755982988,-0.5235987755982988,-0.34906585039886584,1.4162947,1.4953152,0.33563393,0.19852313,0.1993512,0.84856266,0.3875442,-0.4994528,1.5633029,-0.19938172,-0.69509226,-0.022463577,1.3699336,-1.1206572
-0.2,-0.2,0.6,-0.5235987755982988,-0.5235987755982988,-0.34906585039886584,1.3571829,1.5041064,0.33260468,0.20840886,0.21747169,0.84618807,0.38007173,-0.50365275,1.5668126,-0.21485929,-0.7274724,-0.06744054,1.375456,-1.0982378
-0.2,-0.2,0.6,-0.5235987755982988,-0.5235987755982988,-0.34906585039886584,1.4088728,1.4906881,0.3338892,0.18607904,0.21825022,0.85827947,0.4176228,-0.50502586,1.5640093,-0.19099934,-0.7106106,-0.013718126,1.392842,-1.0869261
-0.2,-0.2,0.6,-0.5235987755982988,-0.5235987755982988,-0.34906585039886584,1.38276,1.5159317,0.31187522,0.21650532,0.2281634,0.8714708,0.35308608,-0.49962357,1.5735167,-0.21224718,-0.6896257,-0.045386296,1.389813,-1.0892361
-0.2,-0.2,0.6,-0.5235987755982988,-0.5235987755982988,-0.34906585039886584,1.4053355,1.5147697,0.3136664,0.1729506,0.19731934,0.8656328,0.43866286,-0.5085447,1.5858965,-0.21219963,-0.75627637,-0.0685834,1.3763381,-1.0908674
-0.2,-0.2,0.6,-0.5235987755982988,-0.5235987755982988,-0.34906585039886584,1.407493,1.5209327,0.34012043,0.19284849,0.20280674,0.847958,0.41628674,-0.5015078,1.5763361,-0.20221107,-0.7039254,-0.037511945,1.3849558,-0.98256385
-0.2,-0.2,0.6,-0.5235987755982988,-0.5235987755982988,-0.34906585039886584,1.4062301,1.5050571,0.31991667,0.22131723,0.22492653,0.8895597,0.40456358,-0.50289917,1.569022,-0.2044398,-0.7015098,-0.013470606,1.3967115,-1.0989105
-0.2,-0.2,0.6,-0.5235987755982988,-0.5235987755982988,-0.34906585039886584,1.3996959,1.5024176,0.31538033,0.20652059,0.19694436,0.88175446,0.38929805,-0.5035178,1.5788989,-0.20413703,-0.6921057,-0.03430244,1.3818538,-1.1389117
-0.2,-0.2,0.6,-0.5235987755982988,-0.5235987755982988,-0.34906585039886584,1.4440436,1.5154986,0.31178188,0.23636879,0.15704754,0.8690622,0.39555147,-0.50207704,1.5726316,-0.19831641,-0.68208045,-0.0650078,1.3725755,-1.0041975
-0.2,-0.2,0.6,-0.5235987755982988,-0.5235987755982988,-0.34906585039886584,1.3954701,1.5109187,0.3032571,0.23655471,0.20759776,0.8793542,0.41368723,-0.49570426,1.5650945,-0.21124691,-0.6811133,-0.040618196,1.3839139,-0.9972673
-0.2,-0.2,0.6,-0.5235987755982988,-0.5235987755982988,-0.34906585039886584,1.3653785,1.4944438,0.3052154,0.2136978,0.21980421,0.86013883,0.39845416,-0.50372666,1.5638099,-0.21773218,-0.7252697,-0.014849143,1.3854457,-1.1087216
-0.2,-0.2,0.6,-0.5235987755982988,-0.5235987755982988,-0.34906585039886584,1.3607128,1.5064983,0.3311291,0.21154171,0.20410375,0.8689608,0.41075134,-0.49036914,1.5702789,-0.20345472,-0.6741857,-0.094933145,1.3722328,-1.1170813
-0.2,-0.2,0.6,-0.5235987755982988,-0.5235987755982988,-0.34906585039886584,1.414569,1.4936725,0.32132256,0.2021331,0.20800817,0.88662326,0.36401877,-0.4983798,1.5582197,-0.1986131,-0.70328724,-0.04731184,1.397759,-0.9626037
-0.2,-0.2,0.6,-0.5235987755982988,-0.5235987755982988,-0.34906585039886584,1.3666537,1.4959843,0.30628052,0.20517284,0.24122092,0.8479606,0.3691832,-0.49457178,1.5683422,-0.19261087,-0.71803397,-0.0054785083,1.3687038,-1.1240262
-0.2,-0.2,0.6,-0.5235987755982988,-0.5235987755982988,-0.34906585039886584,1.3851885,1.5060124,0.3173017,0.19926457,0.19669285,0.8538437,0.37372524,-0.49853584,1.5687313,-0.19246933,-0.7280853,-0.081122026,1.3692191,-1.0885395
-0.2,-0.2,0.6,-0.5235987755982988,-0.5235987755982988,-0.34906585039886584,1.4141582,1.5114992,0.31151742,0.18010698,0.22063233,0.8869581,0.40642774,-0.4995003,1.5709893,-0.2224277,-0.713112,-0.005179495,1.374272,-1.0468656
-0.2,-0.2,0.6,-0.5235987755982988,-0.5235987755982988,-0.34906585039886584,1.4164313,1.5013388,0.33374774,0.18811496,0.18482907,0.887011,0.42764083,-0.50126356,1.5670406,-0.21027493,-0.6714486,-0.05118256,1.372756,-1.1207279
-0.2,-0.2,0.6,-0.5235987755982988,-0.5235987755982988,-0.34906585039886584,1.391525,1.5081905,0.32948598,0.19882703,0.19670156,0.8735506,0.40484497,-0.50824654,1.5750027,-0.20109956,-0.72727865,-0.03233441,1.3786868,-1.1799552
-0.2,-0.2,0.6,-0.5235987755982988,-0.5235987755982988,-0.34906585039886584,1.3634862,1.5063695,0.3309209,0.18624191,0.21355285,0.8363323,0.4130281,-0.50666755,1.5618118,-0.23616064,-0.7278432,0.002218863,1.366352,-1.1511813
-0.2,-0.2,0.6,-0.5235987755982988,-0.5235987755982988,-0.34906585039886584,1.382362,1.4984007,0.325842,0.23156293,0.18015392,0.8446015,0.43070444,-0.50129664,1.5672544,-0.20480008,-0.71839416,-0.01792603,1.3808061,-1.1572527
-0.2,-0.2,0.6,-0.5235987755982988,-0.5235987755982988,-0.34906585039886584,1.3640649,1.5088735,0.33737093,0.20784599,0.18280642,0.86852235,0.38886645,-0.50116605,1.5569408,-0.19647028,-0.69391036,-0.037608147,1.383966,-1.1389718
-0.2,-0.2,0.6,-0.5235987755982988,-0.5235987755982988,-0.34906585039886584,1.3994155,1.5088943,0.30672202,0.20794931,0.24020718,0.8457889,0.42649835,-0.49028254,1.5592078,-0.2091188,-0.6516243,-0.04171869,1.3500605,-1.0597264
-0.2,-0.2,0.6,-0.5235987755982988,-0.5235987755982988,-0.34906585039886584,1.398027,1.497951,0.3322509,0.19562347,0.21668077,0.87468123,0.3740952,-0.49426365,1.5575293,-0.20269094,-0.69964516,-0.07241427,1.3753805,-1.034087
-0.2,-0.2,0.6,-0.5235987755982988,-0.5235987755982988,-0.34906585039886584,1.3880812,1.493022,0.32941478,0.19200937,0.18487668,0.878819,0.37858522,-0.49718976,1.556448,-0.19854607,-0.71948004,-0.083429635,1.3735602,-1.1380479
-0.2,-0.2,0.6,-0.5235987755982988,-0.5235987755982988,-0.34906585039886584,1.4031328,1.5088887,0.34753284,0.1962699,0.19919518,0.8794939,0.3799411,-0.49566126,1.5763316,-0.2188291,-0.7300307,-0.026045999,1.3931581,-1.093362
-0.2,-0.2,0.6,-0.5235987755982988,-0.5235987755982988,-0.34906585039886584,1.3835568,1.4996551,0.32805136,0.23284449,0.2300982,0.827395,0.39001665,-0.502355,1.553441,-0.20675416,-0.7212511,0.017251367,1.3811845,-1.1284893
-0.2,-0.2,0.6,-0.5235987755982988,-0.5235987755982988,-0.34906585039886584,1.4311686,1.5134999,0.31474152,0.19170211,0.17290863,0.8693037,0.39857265,-0.5055346,1.5744933,-0.19710071,-0.71570754,-0.05230297,1.363827,-1.1264926
-0.2,-0.2,0.6,-0.5235987755982988,-0.5235987755982988,-0.34906585039886584,1.3819236,1.502158,0.33397287,0.21117567,0.17482404,0.85637105,0.4074926,-0.50366664,1.5686388,-0.20642477,-0.69543093,-0.08742975,1.3720164,-1.10057
-0.2,-0.2,0.6,-0.5235987755982988,-0.5235987755982988,-0.34906585039886584,1.3841916,1.496782,0.33723912,0.18714748,0.18687643,0.8469959,0.41638651,-0.5011325,1.5679808,-0.19443142,-0.7143787,-0.027987724,1.3879269,-1.1510152
-0.2,-0.2,0.6,-0.5235987755982988,-0.5235987755982988,-0.34906585039886584,1.4007634,1.4984075,0.33404094,0.24642469,0.16844313,0.8715674,0.44052818,-0.4933014,1.5727141,-0.20434503,-0.70029783,-0.02597123,1.3874514,-1.0940975
-0.2,-0.2,0.6,-0.5235987755982988,-0.5235987755982988,-0.34906585039886584,1.3843064,1.515995,0.3207381,0.19313899,0.24533087,0.85290027,0.3658975,-0.49032554,1.573407,-0.20257884,-0.71267796,-0.031009894,1.3764014,-1.0885575
-0.2,-0.2,0.6,-0.5235987755982988,-0.5235987755982988,-0.34906585039886584,1.396394,1.4997954,0.33440024,0.2345955,0.18500382,0.8482364,0.40930027,-0.49734196,1.5730348,-0.18727192,-0.70367587,-0.07916041,1.3811498,-1.0641801
-0.2,-0.2,0.6,-0.5235987755982988,-0.5235987755982988,-0.34906585039886584,1.3882816,1.4953395,0.32545048,0.20862907,0.24284789,0.8422073,0.4167592,-0.5021594,1.5575072,-0.20556127,-0.6739269,-0.006069535,1.3851204,-1.0478853
-0.2,-0.2,0.6,-0.5235987755982988,-0.5235987755982988,-0.34906585039886584,1.3803651,1.5104681,0.33671293,0.22907755,0.1911144,0.84856063,0.41580102,-0.4948514,1.5658885,-0.21010856,-0.6995823,-0.054332435,1.3913025,-1.1529484
-0.2,-0.2,0.6,-0.5235987755982988,-0.5235987755982988,-0.34906585039886584,1.3943869,1.5228219,0.32625037,0.20575811,0.21224743,0.84419185,0.33560932,-0.49820974,1.5633179,-0.198007,-0.6777119,-0.053247314,1.3400238,-1.033371
-0.2,-0.2,0.6,-0.5235987755982988,-0.5235987755982988,-0.34906585039886584,1.3714478,1.504378,0.31851777,0.17339939,0.19476795,0.87367934,0.37859687,-0.50151324,1.5770904,-0.22622032,-0.75804913,-0.015862707,1.3928503,-1.0345294
-0.2,-0.2,0.6,-0.5235987755982988,-0.5235987755982988,-0.34906585039886584,1.3713431,1.4967536,0.3208398,0.17282271,0.2170866,0.8624392,0.40143344,-0.4940272,1.5612533,-0.17695583,-0.7214007,-0.045309607,1.3620669,-1.0452914
-0.2,-0.2,0.6,-0.5235987755982988,-0.5235987755982988,-0.34906585039886584,1.3844682,1.5118723,0.31164137,0.19400328,0.18941297,0.8579912,0.4017409,-0.49213248,1.5647811,-0.19431652,-0.72850156,0.008446789,1.3688163,-1.1513397
-0.2,-0.2,0.6,-0.5235987755982988,-0.5235987755982988,-0.34906585039886584,1.3822757,1.5000262,0.33564982,0.17401072,0.20316018,0.8471253,0.3792589,-0.49903756,1.5638396,-0.20060676,-0.74855095,-0.04917767,1.3707019,-1.1094781
-0.2,-0.2,0.6,-0.5235987755982988,-0.5235987755982988,-0.34906585039886584,1.3765726,1.5001376,0.31603485,0.21350098,0.19028805,0.8556966,0.40626314,-0.49718153,1.5811945,-0.20248464,-0.70182306,-0.007800382,1.3776401,-1.0455616
-0.2,-0.2,0.6,-0.5235987755982988,-0.5235987755982988,-0.34906585039886584,1.3850973,1.5191609,0.33082402,0.19293551,0.19632657,0.84601456,0.4580524,-0.49414653,1.5716068,-0.1870925,-0.7140216,0.013791035,1.3807945,-1.0832056
-0.2,-0.2,0.6,-0.5235987755982988,-0.5235987755982988,-0.34906585039886584,1.3557184,1.4928099,0.32308567,0.23571667,0.20974867,0.8466757,0.42119527,-0.5086059,1.5588477,-0.17353596,-0.6842356,-0.06867578,1.3718386,-1.1888715
-0.2,-0.2,0.6,-0.5235987755982988,-0.5235987755982988,-0.34906585039886584,1.3757876,1.510376,0.3179091,0.21687445,0.19342428,0.8819009,0.41013092,-0.5057751,1.5669849,-0.19022052,-0.6972536,-0.037056297,1.3708761,-1.0484866
-0.2,-0.2,0.6,-0.5235987755982988,-0.5235987755982988,-0.34906585039886584,1.4302441,1.4962628,0.3191464,0.21348022,0.24125876,0.86111116,0.3982047,-0.5046152,1.5615978,-0.21191137,-0.71169585,-0.04977852,1.3792456,-1.1426886
-0.2,-0.2,0.6,-0.5235987755982988,-0.5235987755982988,-0.34906585039886584,1.3925227,1.5077376,0.32119742,0.20764935,0.21031275,0.867549,0.33985806,-0.49012613,1.5733697,-0.18991731,-0.7110063,-0.09903944,1.386401,-1.0887315
-0.2,-0.2,0.6,-0.5235987755982988,-0.5235987755982988,-0.34906585039886584,1.3848536,1.4962264,0.3416042,0.21611711,0.1831804,0.8559944,0.39611375,-0.5061218,1.5627153,-0.22218952,-0.67102414,-0.044689532,1.3584803,-1.0579251
-0.2,-0.2,0.6,-0.5235987755982988,-0.5235987755982988,-0.34906585039886584,1.3608239,1.4792033,0.31940728,0.20854858,0.2247455,0.86836654,0.4187837,-0.5002484,1.5679573,-0.18807958,-0.7010483,-0.049941435,1.382324,-1.0338815
-0.2,-0.2,0.6,-0.5235987755982988,-0.5235987755982988,-0.34906585039886584,1.4159873,1.5155956,0.32653722,0.23014449,0.17757109,0.84047323,0.3894103,-0.50312227,1.57821,-0.19497612,-0.6900962,-0.03925759,1.370183,-1.0575147
-0.2,-0.2,0.6,-0.5235987755982988,-0.5235987755982988,-0.34906585039886584,1.3929414,1.495043,0.32821128,0.18543763,0.23338597,0.8887886,0.41512486,-0.5124221,1.5758075,-0.20310298,-0.7416823,-0.027687823,1.3827742,-1.205186
-0.2,-0.2,0.6,-0.5235987755982988,-0.5235987755982988,-0.34906585039886584,1.3711338,1.5181543,0.33211643,0.21698318,0.17551804,0.85966206,0.3923341,-0.49658927,1.5745953,-0.18323793,-0.6990102,-0.03797843,1.3574533,-1.0236977
-0.2,-0.2,0.6,-0.5235987755982988,-0.5235987755982988,-0.34906585039886584,1.3621871,1.5114273,0.32338625,0.1942677,0.20375217,0.8752309,0.4068698,-0.50189674,1.5669982,-0.20186341,-0.7205507,-0.0901848,1.3759013,-1.0766017
-0.2,-0.2,0.6,-0.5235987755982988,-0.5235987755982988,-0.34906585039886584,1.3773726,1.5032643,0.35112166,0.20389266,0.19203526,0.8551758,0.43863395,-0.4907494,1.5668273,-0.21589915,-0.68314046,-0.029820496,1.3869611,-0.99431103
-0.2,-0.2,0.6,-0.5235987755982988,-0.5235987755982988,-0.34906585039886584,1.3824492,1.4991813,0.31954947,0.20894241,0.23167248,0.8438324,0.38321528,-0.49941102,1.5677462,-0.19453931,-0.70411015,0.011860431,1.3780842,-1.0449266
-0.2,-0.2,0.6,-0.5235987755982988,-0.5235987755982988,-0.34906585039886584,1.389797,1.5133108,0.36951733,0.17503765,0.18547441,0.85469174,0.3676295,-0.50708294,1.5579368,-0.18746373,-0.6746369,-0.036621474,1.3781359,-1.1072106
-0.2,-0.2,0.6,-0.5235987755982988,-0.5235987755982988,-0.34906585039886584,1.3885312,1.4982764,0.3129701,0.20936161,0.19542292,0.86447364,0.4047907,-0.50636005,1.5661047,-0.20112482,-0.6954388,-0.10900338,1.3713382,-1.1285658
-0.2,-0.2,0.6,-0.5235987755982988,-0.5235987755982988,-0.34906585039886584,1.4118211,1.4883633,0.33346233,0.2277673,0.19151592,0.85123503,0.47336257,-0.50429815,1.5585597,-0.20830113,-0.67949724,-0.050311454,1.3586553,-1.1038302
-0.2,-0.2,0.6,-0.5235987755982988,-0.5235987755982988,-0.34906585039886584,1.3860759,1.5092931,0.3055611,0.22562611,0.22913674,0.88766605,0.42868784,-0.49847603,1.5653855,-0.21246292,-0.6795533,-0.03607476,1.3683096,-1.0104479
-0.2,-0.2,0.6,-0.5235987755982988,-0.5235987755982988,-0.34906585039886584,1.4079872,1.5166109,0.3030409,0.21419701,0.21397346,0.8583798,0.39962414,-0.50111794,1.5750397,-0.19687037,-0.7033645,-0.042441573,1.4050605,-1.0380594
-0.2,-0.2,0.6,-0.5235987755982988,-0.5235987755982988,-0.34906585039886584,1.413656,1.5049906,0.32123843,0.1478864,0.20188032,0.84817445,0.42930076,-0.5050534,1.5685849,-0.1901497,-0.7693043,-0.046335865,1.3845083,-1.0786109
-0.2,-0.2,0.6,-0.5235987755982988,-0.5235987755982988,-0.34906585039886584,1.4092472,1.4938508,0.3249892,0.22071745,0.18273497,0.8661776,0.4046494,-0.50689924,1.5719283,-0.19793929,-0.7296933,-0.016368655,1.3890656,-1.0850548
-0.2,-0.2,0.6,-0.5235987755982988,-0.5235987755982988,-0.34906585039886584,1.3958182,1.5229614,0.3402674,0.17098753,0.16888279,0.8722271,0.3734828,-0.49537113,1.5704707,-0.18940355,-0.72056276,0.033886854,1.3768818,-1.064863
-0.2,-0.2,0.6,-0.5235987755982988,-0.5235987755982988,-0.34906585039886584,1.3829045,1.4937404,0.32836124,0.25322556,0.1836589,0.8191465,0.43001327,-0.4951551,1.57008,-0.21457694,-0.7054061,-0.006651098,1.3784997,-1.0562782
-0.2,-0.2,0.6,-0.5235987755982988,-0.5235987755982988,-0.34906585039886584,1.3787528,1.5011232,0.31217986,0.20651351,0.18500318,0.8755413,0.3731744,-0.49493855,1.5690259,-0.21079823,-0.7177627,-0.016496198,1.3727944,-1.0841415
-0.2,-0.2,0.6,-0.5235987755982988,-0.5235987755982988,-0.34906585039886584,1.4298884,1.5006399,0.34334573,0.2136445,0.21063444,0.8609037,0.40735677,-0.49509674,1.5646806,-0.22457008,-0.6994638,-0.022388265,1.3916959,-1.1691893
-0.2,-0.2,0.6,-0.5235987755982988,-0.5235987755982988,-0.34906585039886584,1.4237099,1.5015987,0.3117653,0.19889225,0.2117798,0.85916173,0.36811346,-0.5039492,1.5745631,-0.22026056,-0.71493477,-0.056777988,1.3699124,-1.1305242
-0.2,-0.2,0.6,-0.5235987755982988,-0.5235987755982988,-0.34906585039886584,1.3837074,1.496211,0.32456672,0.23776993,0.2065827,0.8705231,0.39135638,-0.5008006,1.5750422,-0.22794513,-0.7160859,-0.07618956,1.3895354,-1.0576825
-0.2,-0.2,0.6,-0.5235987755982988,-0.5235987755982988,-0.34906585039886584,1.3919024,1.5021962,0.3295166,0.20117058,0.20281254,0.87596273,0.41982877,-0.50923645,1.5612568,-0.22330663,-0.6822936,0.014428897,1.367746,-1.0835732
-0.2,-0.2,0.6,-0.5235987755982988,-0.5235987755982988,-0.34906585039886584,1.4134737,1.5107858,0.32934043,0.17955033,0.19133851,0.85684186,0.38033876,-0.49631536,1.5657693,-0.19121403,-0.7172934,0.021175982,1.3925275,-1.1495264
-0.2,-0.2,0.6,-0.5235987755982988,-0.5235987755982988,-0.34906585039886584,1.4006144,1.5152128,0.3391751,0.23612736,0.19630094,0.8737377,0.37276888,-0.507771,1.5558622,-0.202091,-0.6750049,-0.0840111,1.3722624,-1.1061509
-0.2,-0.2,0.6,-0.5235987755982988,-0.5235987755982988,-0.34906585039886584,1.4065281,1.4975117,0.3329713,0.2110782,0.19336496,0.8605598,0.4318056,-0.5002459,1.5689956,-0.20397967,-0.6862283,0.0011525749,1.3552984,-1.0746245
-0.2,-0.2,0.6,-0.5235987755982988,-0.5235987755982988,-0.34906585039886584,1.412213,1.5031501,0.33677563,0.17107002,0.21252713,0.8833817,0.35383126,-0.4942667,1.5693704,-0.19523013,-0.70882714,-0.07897382,1.3839087,-1.0966917
-0.2,-0.2,0.6,-0.5235987755982988,-0.5235987755982988,-0.34906585039886584,1.3739436,1.5136433,0.34688658,0.21171574,0.19565396,0.84428924,0.36745626,-0.4903091,1.5632772,-0.19830741,-0.70699465,-0.022621673,1.395533,-1.1156027
-0.2,-0.2,0.6,-0.5235987755982988,-0.5235987755982988,-0.34906585039886584,1.3908271,1.4916723,0.31296322,0.21366124,0.20530498,0.8626187,0.3613111,-0.49780542,1.5675948,-0.22442387,-0.70740813,-0.063583426,1.3801324,-1.0793296
-0.2,-0.2,0.6,-0.5235987755982988,-0.5235987755982988,-0.34906585039886584,1.3847069,1.5046859,0.31913146,0.21431546,0.210453,0.8576098,0.4098091,-0.51363134,1.5560715,-0.19726849,-0.70630974,-0.0018413124,1.3737888,-1.1168131
-0.2,-0.2,0.6,-0.5235987755982988,-0.5235987755982988,-0.34906585039886584,1.3664275,1.4996946,0.294999,0.21878448,0.22679874,0.86268294,0.38234913,-0.49286085,1.562722,-0.20037533,-0.7063211,-0.02793272,1.3650279,-1.0447634
-0.2,-0.2,0.6,-0.5235987755982988,-0.5235987755982988,-0.34906585039886584,1.37662,1.4989924,0.3244289,0.20686525,0.22674322,0.8500298,0.31529295,-0.50595975,1.5663149,-0.19259468,-0.7259456,-0.0394359,1.3827857,-1.0294758
-0.2,-0.2,0.6,-0.5235987755982988,-0.5235987755982988,-0.34906585039886584,1.4099554,1.5052913,0.31937566,0.17400812,0.22060166,0.85465527,0.33500123,-0.49253193,1.575605,-0.17758557,-0.72930205,-0.023685185,1.3689,-1.0000496
-0.2,-0.2,0.6,-0.5235987755982988,-0.5235987755982988,-0.34906585039886584,1.3803371,1.4981016,0.32514986,0.22146183,0.21476963,0.8653305,0.457508,-0.49280182,1.5674655,-0.22509728,-0.6770258,-0.021028642,1.378358,-1.0136249
-0.2,-0.2,0.6,-0.5235987755982988,-0.5235987755982988,-0.34906585039886584,1.3542742,1.4944228,0.31637993,0.21073537,0.1887212,0.8732726,0.4014409,-0.5065718,1.5713925,-0.18161325,-0.6918505,-0.0123928655,1.3736748,-0.9832704
-0.2,-0.2,0.6,-0.5235987755982988,-0.5235987755982988,-0.34906585039886584,1.4343334,1.5134209,0.33431435,0.20870897,0.16127397,0.8576046,0.376449,-0.5005672,1.5627115,-0.19801146,-0.6778364,-0.036058567,1.3781804,-1.1113429
-0.2,-0.2,0.6,-0.5235987755982988,-0.5235987755982988,-0.34906585039886584,1.3600848,1.5025927,0.33050308,0.22271693,0.17661043,0.8633426,0.39672518,-0.5102282,1.5776417,-0.19489956,-0.70090127,0.0039008334,1.3812703,-1.1235049
-0.2,-0.2,0.6,-0.5235987755982988,-0.5235987755982988,-0.34906585039886584,1.4033682,1.5061101,0.32643783,0.20036097,0.17353582,0.8919813,0.36286974,-0.51080203,1.5719804,-0.19471642,-0.721882,-0.04686769,1.3750948,-1.1300355
-0.2,-0.2,0.6,-0.5235987755982988,-0.5235987755982988,-0.34906585039886584,1.358163,1.5207485,0.33776852,0.21863264,0.18187827,0.84751934,0.38703233,-0.5056682,1.5652779,-0.18933819,-0.7323401,-0.04305421,1.3753501,-1.2105094
-0.2,-0.2,0.6,-0.5235987755982988,-0.5235987755982988,-0.34906585039886584,1.378694,1.5028414,0.3240409,0.20010476,0.22240809,0.8424751,0.41387954,-0.49354744,1.5668364,-0.2084813,-0.6934387,-0.056379076,1.3726364,-1.0426431
-0.2,-0.2,0.6,-0.5235987755982988,-0.5235987755982988,-0.34906585039886584,1.3842916,1.5072162,0.324493,0.22496575,0.16528791,0.86160046,0.41492227,-0.49849433,1.5764344,-0.19277732,-0.7116901,0.027686164,1.3872464,-1.0220141
-0.2,-0.2,0.6,-0.5235987755982988,-0.5235987755982988,-0.34906585039886584,1.393815,1.506742,0.32396784,0.20972237,0.19797328,0.8758538,0.3536147,-0.5006803,1.5678778,-0.20536807,-0.7112963,-0.088999376,1.3772299,-1.1094686
-0.2,-0.2,0.6,-0.5235987755982988,-0.5235987755982988,-0.34906585039886584,1.3443589,1.4923406,0.31130055,0.2359355,0.17905392,0.8317693,0.4171579,-0.49995577,1.5686607,-0.20565894,-0.68468535,-0.0051805633,1.3726304,-1.0671024
-0.2,-0.2,0.6,-0.5235987755982988,-0.5235987755982988,-0.34906585039886584,1.39028,1.5072212,0.33274823,0.18528874,0.19432849,0.8479423,0.41319868,-0.50386107,1.5709598,-0.19024152,-0.7284132,-0.049011372,1.3782243,-1.0575726
-0.2,-0.2,0.6,-0.5235987755982988,-0.5235987755982988,-0.34906585039886584,1.4038464,1.5142875,0.30700365,0.18154734,0.18792498,0.8772587,0.417972,-0.5124316,1.5676725,-0.20160504,-0.73983014,-0.0053138724,1.3926861,-1.0772781
-0.2,-0.2,0.6,-0.5235987755982988,-0.5235987755982988,-0.34906585039886584,1.4078838,1.5022582,0.34826937,0.14162545,0.2008025,0.8496742,0.4558365,-0.4995119,1.5622721,-0.20889445,-0.6951829,-0.013783013,1.3815205,-1.0933353
-0.2,-0.2,0.6,-0.5235987755982988,-0.5235987755982988,-0.34906585039886584,1.378064,1.4980463,0.3155914,0.20333737,0.23018599,0.83919114,0.47772485,-0.5075358,1.5742344,-0.22581649,-0.7052751,-0.011912042,1.3653218,-1.1330788
-0.2,-0.2,0.6,-0.5235987755982988,-0.5235987755982988,-0.34906585039886584,1.4016877,1.5151236,0.31622514,0.19851196,0.19871144,0.8439924,0.42259213,-0.50498533,1.563132,-0.2169445,-0.7197583,-0.0071087657,1.3664824,-1.0153565
-0.2,-0.2,0.6,-0.5235987755982988,-0.5235987755982988,-0.34906585039886584,1.389177,1.4862499,0.3500618,0.25720972,0.19218224,0.8654838,0.3999988,-0.5144231,1.5766904,-0.19987962,-0.6823785,-0.0034637519,1.3903489,-1.074192
-0.2,-0.2,0.6,-0.5235987755982988,-0.5235987755982988,-0.34906585039886584,1.341664,1.4989132,0.31216887,0.2053921,0.22504275,0.8612197,0.40252322,-0.51452714,1.5729545,-0.20140184,-0.73281574,-0.08910505,1.3786328,-1.1186525
-0.2,-0.2,0.6,-0.5235987755982988,-0.5235987755982988,-0.34906585039886584,1.4296966,1.4857839,0.34253722,0.18873909,0.22350886,0.8553363,0.36113617,-0.49946815,1.5629752,-0.22976099,-0.67909855,0.011590991,1.3693368,-1.1200197
-0.2,-0.2,0.6,-0.5235987755982988,-0.5235987755982988,-0.34906585039886584,1.3775042,1.4928001,0.34392738,0.1987248,0.19859469,0.83126736,0.3467339,-0.5064398,1.5587372,-0.18038519,-0.6820378,0.021672301,1.3678796,-1.088602
-0.2,-0.2,0.6,-0.5235987755982988,-0.5235987755982988,-0.34906585039886584,1.3907799,1.5075042,0.31515542,0.2172068,0.17996664,0.8506909,0.373477,-0.50774294,1.5645471,-0.191516,-0.71171147,-0.05068371,1.3622794,-1.0959566
-0.2,-0.2,0.6,-0.5235987755982988,-0.5235987755982988,-0.34906585039886584,1.4107387,1.5019703,0.32040352,0.20643555,0.19419648,0.8624414,0.42586473,-0.5036322,1.5632073,-0.22023049,-0.7012086,-0.12096713,1.3662014,-1.0930893
-0.2,-0.2,0.6,-0.5235987755982988,-0.5235987755982988,-0.34906585039886584,1.3984703,1.4927406,0.32477093,0.16687755,0.2191142,0.87339324,0.35282856,-0.49717835,1.5743347,-0.19117989,-0.74442905,-0.027744057,1.3771828,-1.1341047
-0.2,-0.2,0.6,-0.5235987755982988,-0.5235987755982988,-0.34906585039886584,1.3890935,1.4923853,0.33453146,0.2010496,0.16723824,0.8387968,0.3957052,-0.49212608,1.5656731,-0.21769288,-0.71814233,0.0023025384,1.3699543,-1.0428385
-0.2,-0.2,0.6,-0.5235987755982988,-0.5235987755982988,-0.34906585039886584,1.3877821,1.5021895,0.3252209,0.21466793,0.12516168,0.85073566,0.4315876,-0.502,1.5640302,-0.21284558,-0.7397666,-0.025762174,1.4030362,-1.1296223
-0.2,-0.2,0.6,-0.5235987755982988,-0.5235987755982988,-0.34906585039886584,1.3624021,1.4967647,0.33254406,0.18216161,0.24606426,0.8479749,0.35854727,-0.51074266,1.5611922,-0.19355929,-0.6927645,0.047448814,1.3659265,-1.1277525
-0.2,-0.2,0.6,-0.5235987755982988,-0.5235987755982988,-0.34906585039886584,1.3708982,1.5015814,0.32681736,0.21621312,0.230101,0.8722138,0.42158788,-0.49704963,1.5671189,-0.2063936,-0.7003764,-0.023757938,1.394925,-1.1199546
-0.2,-0.2,0.6,-0.5235987755982988,-0.5235987755982988,-0.34906585039886584,1.4141771,1.4991084,0.3156927,0.18356322,0.21051164,0.85390544,0.378791,-0.5011192,1.572794,-0.21004453,-0.7317202,-0.033625998,1.3767501,-1.167788
-0.2,-0.2,0.6,-0.5235987755982988,-0.5235987755982988,-0.34906585039886584,1.4013616,1.5092844,0.3438414,0.18977769,0.18557616,0.8869577,0.43264034,-0.50290227,1.557709,-0.22876103,-0.68595713,-0.06418602,1.3752598,-1.1509225
-0.2,-0.2,0.6,-0.5235987755982988,-0.5235987755982988,-0.34906585039886584,1.3882694,1.5122454,0.31693566,0.1816376,0.19375767,0.8734085,0.42393357,-0.49949855,1.5748825,-0.18832213,-0.7159991,-0.03275085,1.3703324,-0.9563897
-0.2,-0.2,0.6,-0.5235987755982988,-0.5235987755982988,-0.34906585039886584,1.3935554,1.5058112,0.30626965,0.20547208,0.22071134,0.8512712,0.43129152,-0.49247837,1.5815264,-0.18657415,-0.7209171,-0.050291438,1.3891628,-1.1705928
-0.2,-0.2,0.6,-0.5235987755982988,-0.5235987755982988,-0.34906585039886584,1.3817511,1.5046804,0.32684338,0.22976063,0.17973353,0.8451371,0.3970301,-0.5047522,1.5667517,-0.20807143,-0.7030731,-0.04314047,1.3656428,-1.075257
-0.2,-0.2,0.6,-0.5235987755982988,-0.5235987755982988,-0.34906585039886584,1.4103026,1.5064559,0.30382356,0.15943687,0.21441706,0.88655305,0.38016832,-0.49747634,1.5684077,-0.18156613,-0.7023172,-0.050302267,1.3768777,-1.1583097
-0.2,-0.2,0.6,-0.5235987755982988,-0.5235987755982988,-0.34906585039886584,1.4125643,1.5063059,0.31221387,0.15487212,0.18120675,0.881782,0.3875538,-0.5075192,1.5797138,-0.21019576,-0.757983,-0.08399788,1.3772222,-0.96397436
-0.2,-0.2,0.6,-0.5235987755982988,-0.5235987755982988,-0.34906585039886584,1.3926597,1.5135741,0.32334825,0.22907718,0.19185123,0.8495427,0.36392513,-0.49555808,1.5692322,-0.19247887,-0.7073711,-0.054391768,1.3902637,-1.0266347
-0.2,-0.2,0.6,-0.5235987755982988,-0.5235987755982988,-0.34906585039886584,1.3761444,1.4978637,0.32037964,0.18751718,0.22874586,0.86442554,0.4366445,-0.5027437,1.5774398,-0.22124699,-0.70868605,-0.014061264,1.3697095,-1.0442197
-0.2,-0.2,0.6,-0.5235987755982988,-0.5235987755982988,-0.34906585039886584,1.4162694,1.4989446,0.35794848,0.19632016,0.21895619,0.8623148,0.42001352,-0.50067616,1.5680467,-0.20226578,-0.6978337,-0.029700559,1.374857,-1.1473689
-0.2,-0.2,0.6,-0.5235987755982988,-0.5235987755982988,-0.34906585039886584,1.3821759,1.5071713,0.31251335,0.23318622,0.16067062,0.83947414,0.45623153,-0.51110053,1.5682671,-0.19417477,-0.7309971,-0.017465774,1.3860956,-1.0935464
-0.2,-0.2,0.6,-0.5235987755982988,-0.5235987755982988,-0.34906585039886584,1.4025514,1.5064265,0.32992062,0.19312876,0.19645825,0.86025035,0.39141983,-0.5048126,1.5689665,-0.20161818,-0.73887897,-0.043402888,1.3882092,-1.0537592
-0.2,-0.2,0.6,-0.5235987755982988,-0.5235987755982988,-0.34906585039886584,1.3836788,1.5153706,0.31909874,0.20262314,0.21614921,0.8616966,0.36918455,-0.5038319,1.5691184,-0.19489656,-0.71819025,-0.04533866,1.3693688,-1.0594476
-0.2,-0.2,0.6,-0.5235987755982988,-0.5235987755982988,-0.34906585039886584,1.4226913,1.4994308,0.33354774,0.1773451,0.21267949,0.83354884,0.45272103,-0.48604205,1.5661299,-0.20303753,-0.6709901,-0.0010193577,1.3806497,-0.93396384
-0.2,-0.2,0.6,-0.5235987755982988,-0.5235987755982988,-0.34906585039886584,1.4051819,1.4965969,0.34613693,0.20625922,0.16565855,0.88171756,0.35460246,-0.49849063,1.5762827,-0.20623803,-0.715275,-0.029042304,1.4079263,-1.0736537
-0.2,-0.2,0.6,-0.5235987755982988,-0.5235987755982988,-0.34906585039886584,1.4024373,1.5058584,0.31627557,0.20641151,0.23602425,0.8310431,0.3746694,-0.5109011,1.5739495,-0.19282967,-0.74893683,-0.059530765,1.39721,-1.0551721
-0.2,-0.2,0.6,-0.5235987755982988,-0.5235987755982988,-0.34906585039886584,1.3824723,1.5123521,0.31509963,0.21242903,0.2101073,0.8472981,0.46598303,-0.4994458,1.5628827,-0.186634,-0.72076696,-0.015226022,1.3777112,-1.1128019
-0.2,-0.2,0.6,-0.5235987755982988,-0.5235987755982988,-0.34906585039886584,1.3998805,1.5130471,0.3107127,0.1853093,0.20578855,0.8362573,0.42526567,-0.5027712,1.5666459,-0.17975533,-0.69008666,-0.063949205,1.3640697,-0.9835171
-0.2,-0.2,0.6,-0.5235987755982988,-0.5235987755982988,-0.34906585039886584,1.4048619,1.4991906,0.31318894,0.1900587,0.23089507,0.84693366,0.40129265,-0.5006896,1.5685241,-0.19176713,-0.7276495,-0.01403676,1.3871866,-1.1285673
-0.2,-0.2,0.6,-0.5235987755982988,-0.5235987755982988,-0.34906585039886584,1.3830783,1.499527,0.32188952,0.20999639,0.20861347,0.8765321,0.3732805,-0.5068135,1.5716342,-0.2101627,-0.716716,-0.09000596,1.3819134,-1.1172032
-0.2,-0.2,0.6,-0.5235987755982988,-0.5235987755982988,-0.34906585039886584,1.3981797,1.5035841,0.3388231,0.20407529,0.19233744,0.84395176,0.4193842,-0.49979782,1.5592827,-0.18159917,-0.7167792,-0.011430265,1.3816735,-1.0845274
-0.2,-0.2,0.6,-0.5235987755982988,-0.5235987755982988,-0.34906585039886584,1.4025093,1.5035268,0.32216468,0.19559996,0.2085519,0.82375383,0.38863757,-0.50453585,1.5568992,-0.1793821,-0.7434681,-0.019999202,1.3885117,-1.1172737
-0.2,-0.2,0.6,-0.5235987755982988,-0.5235987755982988,-0.34906585039886584,1.3740115,1.5027423,0.31864288,0.18491113,0.16017696,0.86417127,0.42002636,-0.50291145,1.5711404,-0.19411896,-0.74760455,-0.05732926,1.3883061,-1.0901827
-0.2,-0.2,0.6,-0.5235987755982988,-0.5235987755982988,-0.34906585039886584,1.3949246,1.4917465,0.30477023,0.21295662,0.23401244,0.8412405,0.39583936,-0.5069747,1.5703344,-0.21476339,-0.6432166,-0.0066731186,1.3900013,-1.1365813
-0.2,-0.2,0.6,-0.5235987755982988,-0.5235987755982988,-0.34906585039886584,1.3894445,1.5085253,0.31255946,0.14981037,0.20317261,0.8844178,0.4064035,-0.5049142,1.5683042,-0.1700132,-0.7219598,-0.056122985,1.3650879,-1.0104853
-0.2,-0.2,0.6,-0.5235987755982988,-0.5235987755982988,-0.34906585039886584,1.3623984,1.5084947,0.33364293,0.21287537,0.15373303,0.8588115,0.3853722,-0.500272,1.5610512,-0.20071277,-0.71488476,-0.049117412,1.3662438,-1.053497
-0.2,-0.2,0.6,-0.5235987755982988,-0.5235987755982988,-0.34906585039886584,1.3505499,1.5045254,0.33071306,0.18426871,0.21804206,0.8546765,0.37993225,-0.5067554,1.5807167,-0.18640082,-0.6821913,0.00069788314,1.3875768,-1.0486953
-0.2,-0.2,0.6,-0.5235987755982988,-0.5235987755982988,-0.34906585039886584,1.3949387,1.5014917,0.31582493,0.23776828,0.23686211,0.85858566,0.42771783,-0.50484985,1.569767,-0.206558,-0.698351,0.022235395,1.3833652,-1.0848501
-0.2,-0.2,0.6,-0.5235987755982988,-0.5235987755982988,-0.34906585039886584,1.4185046,1.5037011,0.32026786,0.21415398,0.23279871,0.87153584,0.37924564,-0.50234765,1.5606453,-0.18876617,-0.6852858,-0.09073301,1.3684168,-1.0633283
-0.2,-0.2,0.6,-0.5235987755982988,-0.5235987755982988,-0.34906585039886584,1.4057007,1.5170493,0.3103301,0.2570608,0.17917907,0.8672954,0.45394027,-0.5075734,1.5693489,-0.2022698,-0.688195,-0.10595133,1.3564924,-1.0298263
-0.2,-0.2,0.6,-0.5235987755982988,-0.5235987755982988,-0.34906585039886584,1.3667464,1.5166045,0.33400872,0.24440084,0.22257802,0.8664208,0.36224025,-0.50173116,1.5658253,-0.18901807,-0.6838181,-0.06944635,1.3912667,-1.0302386
-0.2,-0.2,0.6,-0.5235987755982988,-0.5235987755982988,-0.34906585039886584,1.3858322,1.506347,0.32548997,0.2297114,0.16254802,0.87410665,0.46214777,-0.5118834,1.5676486,-0.20597129,-0.70807266,-0.04013382,1.367258,-1.063211
-0.2,-0.2,0.6,-0.5235987755982988,-0.5235987755982988,-0.34906585039886584,1.378936,1.4862082,0.31237456,0.19337788,0.20155929,0.85615134,0.42729312,-0.5021124,1.5699716,-0.18787155,-0.7297069,-0.0763069,1.3927385,-1.1144251
-0.2,-0.2,0.6,-0.5235987755982988,-0.5235987755982988,-0.34906585039886584,1.4027398,1.5025251,0.3435909,0.19887689,0.17803136,0.8422626,0.38916072,-0.5047217,1.5644579,-0.1764069,-0.76380086,0.0071245492,1.3965693,-1.0334542
-0.2,-0.2,0.6,-0.5235987755982988,-0.5235987755982988,-0.34906585039886584,1.371135,1.4980427,0.30133033,0.17197476,0.22496171,0.8421907,0.38937274,-0.51323897,1.5724269,-0.17723145,-0.75469846,0.014573298,1.3644121,-1.0090958
-0.2,-0.2,0.6,-0.5235987755982988,-0.5235987755982988,-0.34906585039886584,1.3702755,1.490777,0.33981648,0.20305175,0.23970191,0.8695813,0.46359205,-0.4921676,1.5622476,-0.21407759,-0.6865691,-0.021504315,1.3721795,-1.1230803
-0.2,-0.2,0.6,-0.5235987755982988,-0.5235987755982988,-0.34906585039886584,1.3927612,1.5154296,0.31351137,0.21889506,0.18677424,0.863857,0.35779795,-0.514131,1.562788,-0.19803147,-0.69759,-0.026035737,1.3884026,-1.1023539
-0.2,-0.2,0.6,-0.5235987755982988,-0.5235987755982988,-0.34906585039886584,1.4025886,1.5092629,0.32536426,0.17353627,0.19789666,0.84871614,0.38058913,-0.49081558,1.5714027,-0.20385128,-0.72813964,-0.057902392,1.3759584,-1.1470678
-0.2,-0.2,0.6,-0.5235987755982988,-0.5235987755982988,-0.34906585039886584,1.3858863,1.510262,0.3462341,0.18501571,0.19969665,0.8285082,0.3601824,-0.49604136,1.5569601,-0.19224843,-0.67753196,-0.026594047,1.3584083,-1.1278571
-0.2,-0.2,0.6,-0.5235987755982988,-0.5235987755982988,-0.34906585039886584,1.396856,1.5021372,0.34028906,0.19794878,0.19473797,0.8634396,0.33481675,-0.51248914,1.5660822,-0.21434131,-0.68629724,-0.01818429,1.361449,-1.0323582
-0.2,-0.2,0.6,-0.5235987755982988,-0.5235987755982988,-0.34906585039886584,1.3729932,1.5061858,0.3151271,0.19967547,0.20411032,0.8261543,0.40835497,-0.494155,1.5684465,-0.20078862,-0.736398,-0.036515404,1.3807764,-1.1505448
-0.2,-0.2,0.6,-0.5235987755982988,-0.5235987755982988,-0.34906585039886584,1.3729782,1.4940692,0.3179261,0.19028573,0.21548876,0.84987503,0.43575314,-0.5041471,1.5719178,-0.18555368,-0.74603426,-0.02329861,1.3881451,-1.1375681
-0.2,-0.2,0.6,-0.5235987755982988,-0.5235987755982988,-0.34906585039886584,1.3636773,1.4932458,0.31041473,0.23464675,0.22844814,0.86281496,0.440687,-0.5064212,1.5721,-0.23668845,-0.77518576,-0.07222522,1.3707933,-1.1333694
-0.2,-0.2,0.6,-0.5235987755982988,-0.5235987755982988,-0.34906585039886584,1.3574221,1.5033456,0.31998837,0.2114445,0.20937026,0.85146224,0.35136032,-0.49689773,1.5678654,-0.19242495,-0.71173704,-0.044351187,1.384431,-1.1292548
-0.2,-0.2,0.6,-0.5235987755982988,-0.5235987755982988,-0.34906585039886584,1.3827353,1.4961026,0.3236671,0.18560275,0.17703779,0.827574,0.40836746,-0.49810213,1.5648359,-0.18853705,-0.69976664,-0.056857165,1.3785596,-1.2018249
-0.2,-0.2,0.6,-0.5235987755982988,-0.5235987755982988,-0.34906585039886584,1.4180207,1.5041294,0.33183953,0.22324751,0.18348338,0.87006944,0.4215954,-0.49454528,1.5741683,-0.19009106,-0.7198429,-0.02981295,1.3773861,-1.0483298
-0.2,-0.2,0.6,-0.5235987755982988,-0.5235987755982988,-0.34906585039886584,1.3939935,1.5145168,0.30944782,0.2013614,0.23172283,0.83173007,0.41994822,-0.49146447,1.5762572,-0.18845864,-0.70510644,-0.0137226395,1.3907939,-1.0392022
-0.2,-0.2,0.6,-0.5235987755982988,-0.5235987755982988,-0.34906585039886584,1.3934083,1.4902716,0.3017659,0.16852133,0.17521717,0.8745196,0.35937634,-0.50623596,1.568674,-0.2146653,-0.76758057,-0.028639248,1.373827,-1.0843868
-0.2,-0.2,0.6,-0.5235987755982988,-0.5235987755982988,-0.34906585039886584,1.3587222,1.4989694,0.3362034,0.17093226,0.1887096,0.86613274,0.40940407,-0.50877714,1.5589921,-0.19342938,-0.7228919,-0.0672825,1.3773569,-1.0421517
-0.2,-0.2,0.6,-0.5235987755982988,-0.5235987755982988,-0.34906585039886584,1.3643197,1.502649,0.33023754,0.2006953,0.1892183,0.8626492,0.36809856,-0.50196254,1.5698353,-0.20027731,-0.71259683,0.0013019126,1.3891499,-1.1230494
-0.2,-0.2,0.6,-0.5235987755982988,-0.5235987755982988,-0.34906585039886584,1.378358,1.5137415,0.3322373,0.18645045,0.23474893,0.85892296,0.38644493,-0.49984133,1.5764178,-0.20921947,-0.7017186,0.021298854,1.3568323,-1.0882952
-0.2,-0.2,0.6,-0.5235987755982988,-0.5235987755982988,-0.34906585039886584,1.390582,1.5092936,0.3282245,0.20403059,0.19900255,0.8819364,0.39975718,-0.49967942,1.5528058,-0.20671597,-0.6770027,-0.11831282,1.3878095,-1.1101013
-0.2,-0.2,0.6,-0.5235987755982988,-0.5235987755982988,-0.34906585039886584,1.4176121,1.5108602,0.3260843,0.20142937,0.16166426,0.86377496,0.4611308,-0.49667346,1.5752465,-0.18680619,-0.75614136,-0.036815617,1.3901857,-1.0595659
-0.2,-0.2,0.6,-0.5235987755982988,-0.5235987755982988,-0.34906585039886584,1.4201717,1.4977952,0.3138542,0.23160335,0.17221159,0.8344524,0.41564086,-0.5060329,1.5529983,-0.2274888,-0.6943171,-0.07840145,1.3686042,-1.0750847
-0.2,-0.2,0.6,-0.5235987755982988,-0.5235987755982988,-0.34906585039886584,1.350587,1.507626,0.36031565,0.2291499,0.22989784,0.8544379,0.3971161,-0.49223658,1.577673,-0.21902461,-0.6953936,-0.041837342,1.3621327,-1.133294
-0.2,-0.2,0.6,-0.5235987755982988,-0.5235987755982988,-0.34906585039886584,1.3876663,1.4970444,0.3007146,0.20800568,0.18449192,0.85417986,0.46477142,-0.49963158,1.5717795,-0.20865758,-0.7233284,-0.052395456,1.3816752,-1.1156975
-0.2,-0.2,0.6,-0.5235987755982988,-0.5235987755982988,-0.34906585039886584,1.3987998,1.5010691,0.32238987,0.21685085,0.26405108,0.8706282,0.31880608,-0.48871177,1.5645974,-0.20219122,-0.708631,-0.031002553,1.3895326,-1.1232835
-0.2,-0.2,0.6,-0.5235987755982988,-0.5235987755982988,-0.34906585039886584,1.3986396,1.4860116,0.33063927,0.17864808,0.2096844,0.86905795,0.37749478,-0.50846684,1.5702139,-0.19601989,-0.73044765,-0.032419298,1.3850895,-1.0617393
-0.2,-0.2,0.6,-0.5235987755982988,-0.5235987755982988,-0.34906585039886584,1.3973913,1.5153584,0.3174946,0.16828394,0.1682606,0.8645595,0.44608012,-0.50349337,1.5679297,-0.20214918,-0.72862905,-0.034456015,1.3668146,-1.0991364
-0.2,-0.2,0.6,-0.5235987755982988,-0.5235987755982988,-0.34906585039886584,1.4262477,1.4992874,0.31597877,0.19333342,0.19190492,0.8842562,0.34652847,-0.5055201,1.5620022,-0.18063508,-0.7520818,-0.017303297,1.3902999,-1.1513506
-0.2,-0.2,0.6,-0.5235987755982988,-0.5235987755982988,-0.34906585039886584,1.429444,1.5049903,0.3352236,0.1863906,0.23183027,0.8464572,0.46625102,-0.4842599,1.5632714,-0.20555675,-0.6718702,-0.040511686,1.3878726,-1.049296
-0.2,-0.2,0.6,-0.5235987755982988,-0.5235987755982988,-0.34906585039886584,1.4078059,1.5045831,0.32693323,0.21225818,0.19996731,0.86498505,0.38226962,-0.49509975,1.5824398,-0.17704731,-0.7034459,-0.0016078402,1.3688799,-1.0657841
-0.2,-0.2,0.6,-0.5235987755982988,-0.5235987755982988,-0.34906585039886584,1.413693,1.4980729,0.33966258,0.22034441,0.19918704,0.84832203,0.4033255,-0.5072358,1.5737381,-0.19200376,-0.7343224,0.006703339,1.3840824,-1.0963345
-0.2,-0.2,0.6,-0.5235987755982988,-0.5235987755982988,-0.34906585039886584,1.3929355,1.5019132,0.32542053,0.18870388,0.19232424,0.84862536,0.33834514,-0.49598497,1.5599226,-0.19913484,-0.7099264,-0.0097405575,1.3771806,-1.008512
-0.2,-0.2,0.6,-0.5235987755982988,-0.5235987755982988,-0.34906585039886584,1.4187139,1.5186855,0.3091854,0.19775969,0.2029004,0.8700474,0.38175368,-0.49566856,1.5738469,-0.19877124,-0.7381833,-0.07353466,1.3833333,-1.1622975
-0.2,-0.2,0.6,-0.5235987755982988,-0.5235987755982988,-0.34906585039886584,1.4095833,1.514946,0.29957664,0.22916825,0.23252822,0.8581729,0.42712262,-0.5040184,1.5747603,-0.20805444,-0.7422892,-0.09301524,1.3805408,-1.0541058
-0.2,-0.2,0.6,-0.5235987755982988,-0.5235987755982988,-0.34906585039886584,1.3659202,1.5058774,0.33323374,0.19505759,0.18020658,0.8584991,0.37028855,-0.50057566,1.5719886,-0.19267912,-0.7498741,-0.050811887,1.3862761,-1.087199
-0.2,-0.2,0.6,-0.5235987755982988,-0.5235987755982988,-0.34906585039886584,1.356489,1.4962865,0.30602062,0.18248285,0.17434226,0.85934335,0.48619863,-0.5076778,1.5675629,-0.200004,-0.7348177,-0.034209955,1.3900853,-1.0905341
-0.2,-0.2,0.6,-0.5235987755982988,-0.5235987755982988,-0.34906585039886584,1.3977557,1.5065783,0.32370943,0.2115188,0.21216373,0.8516945,0.38816193,-0.50092953,1.5684427,-0.20783997,-0.69558954,-0.080694735,1.3705574,-1.0023615
-0.2,-0.2,0.6,-0.5235987755982988,-0.5235987755982988,-0.34906585039886584,1.4025898,1.5151833,0.3454508,0.20552886,0.22630326,0.8792464,0.47103503,-0.49763313,1.575482,-0.21203162,-0.6892437,-0.053110424,1.3667998,-1.0670115
-0.2,-0.2,0.6,-0.5235987755982988,-0.5235987755982988,-0.34906585039886584,1.4186723,1.4940398,0.31499335,0.24670462,0.16178891,0.8585995,0.38967776,-0.50620526,1.5666448,-0.20017765,-0.7205293,-0.010480394,1.3750355,-1.0815893
-0.2,-0.2,0.6,-0.5235987755982988,-0.5235987755982988,-0.34906585039886584,1.3984928,1.5205618,0.331527,0.19645375,0.25019285,0.8356772,0.37999475,-0.50418085,1.5633856,-0.18565066,-0.7212868,-0.10370948,1.3724222,-1.0378578
-0.2,-0.2,0.6,-0.5235987755982988,-0.5235987755982988,-0.34906585039886584,1.4045255,1.5082675,0.30408296,0.17249978,0.19108729,0.8436409,0.35866234,-0.4920394,1.5647205,-0.20824298,-0.7318793,-0.05247399,1.399672,-1.013807
-0.2,-0.2,0.6,-0.5235987755982988,-0.5235987755982988,-0.34906585039886584,1.393088,1.5204564,0.3057937,0.24001692,0.16098058,0.85522276,0.3675805,-0.4986912,1.572611,-0.18621829,-0.6981086,-0.07134065,1.3806603,-1.1769574
-0.2,-0.2,0.6,-0.5235987755982988,-0.5235987755982988,-0.34906585039886584,1.4039437,1.4887508,0.31364408,0.18525727,0.22266674,0.8951409,0.41298997,-0.49677217,1.5748883,-0.20719506,-0.6969038,-0.037548956,1.3617487,-1.0892777
-0.2,-0.2,0.6,-0.5235987755982988,-0.5235987755982988,-0.34906585039886584,1.381211,1.5068891,0.33319226,0.17621832,0.2126543,0.8789331,0.42771155,-0.49031764,1.5711073,-0.19249624,-0.73357975,-0.08371253,1.3817058,-0.98355985
-0.2,-0.2,0.6,-0.5235987755982988,-0.5235987755982988,-0.34906585039886584,1.3977275,1.5090637,0.30538747,0.17070448,0.20667343,0.86209464,0.39438394,-0.5023719,1.5712899,-0.22296834,-0.7266313,-0.067398615,1.383916,-1.073127
-0.2,-0.2,0.6,-0.5235987755982988,-0.5235987755982988,-0.34906585039886584,1.3909408,1.4970391,0.33297685,0.18168731,0.22443357,0.8463805,0.41475424,-0.5015157,1.5701561,-0.19774342,-0.7399779,-0.053207103,1.3853412,-1.1143099
-0.2,-0.2,0.6,-0.5235987755982988,-0.5235987755982988,-0.34906585039886584,1.3748564,1.4970609,0.33888647,0.227033,0.17188275,0.830187,0.37627307,-0.5123098,1.5576246,-0.16537917,-0.7332259,-0.008935182,1.38452,-1.0654327
-0.2,-0.2,0.6,-0.5235987755982988,-0.5235987755982988,-0.34906585039886584,1.3570893,1.5035167,0.33421272,0.23326516,0.20499016,0.8267257,0.36916775,-0.49180534,1.5640502,-0.19875874,-0.6798355,-0.082449436,1.3821045,-1.0662041
-0.2,-0.2,0.6,-0.5235987755982988,-0.5235987755982988,-0.34906585039886584,1.3935313,1.4966605,0.32217568,0.20543802,0.19699307,0.83644265,0.40041468,-0.50163424,1.5682293,-0.1864946,-0.69212466,0.003707437,1.3806026,-1.0817418
-0.2,-0.2,0.6,-0.5235987755982988,-0.5235987755982988,-0.34906585039886584,1.3599336,1.5002029,0.32948706,0.19180042,0.20693168,0.8702517,0.34683892,-0.5011793,1.5679859,-0.19757923,-0.69837224,-0.06336645,1.4012828,-0.976886
-0.2,-0.2,0.6,-0.5235987755982988,-0.5235987755982988,-0.34906585039886584,1.36668,1.4949491,0.31426445,0.20128176,0.18001778,0.8338957,0.41318724,-0.5061343,1.5695591,-0.18333703,-0.732252,-0.04713574,1.3563933,-1.0770844
-0.2,-0.2,0.6,-0.5235987755982988,-0.5235987755982988,-0.34906585039886584,1.356318,1.492315,0.3480182,0.18031816,0.20859928,0.86629605,0.40025404,-0.51791173,1.570117,-0.18354087,-0.7437913,-0.052107275,1.3780389,-1.0993153
-0.2,-0.2,0.6,-0.5235987755982988,-0.5235987755982988,-0.34906585039886584,1.3992639,1.4963971,0.34023148,0.21995966,0.21611479,0.8416226,0.42279342,-0.49580607,1.560038,-0.19017605,-0.68140125,-0.06256495,1.3674321,-1.1150862
-0.2,-0.2,0.6,-0.5235987755982988,-0.5235987755982988,-0.34906585039886584,1.37627,1.5080678,0.32875523,0.20554626,0.20071651,0.8649872,0.4105174,-0.5076745,1.5567616,-0.20087956,-0.6906938,0.035893697,1.3854,-0.9357705
-0.2,-0.2,0.6,-0.5235987755982988,-0.5235987755982988,-0.34906585039886584,1.3901393,1.5212277,0.340549,0.17384008,0.20725325,0.8476025,0.39447254,-0.48979986,1.5664307,-0.20250008,-0.6902932,-0.036251258,1.3677382,-1.051674
-0.2,-0.2,0.6,-0.5235987755982988,-0.5235987755982988,-0.34906585039886584,1.3989279,1.4977099,0.331629,0.25506434,0.23218979,0.844611,0.38656345,-0.5037768,1.5727707,-0.22032295,-0.6758771,-0.029272188,1.3818924,-1.0643148
-0.2,-0.2,0.6,-0.5235987755982988,-0.5235987755982988,-0.34906585039886584,1.3835509,1.5046543,0.3113669,0.2125001,0.1947436,0.8639479,0.41887295,-0.49980634,1.5627863,-0.21495874,-0.7113067,-0.021607403,1.3866196,-1.0140721
-0.2,-0.2,0.6,-0.5235987755982988,-0.5235987755982988,-0.34906585039886584,1.390611,1.5073007,0.33350182,0.20763966,0.23329493,0.85057133,0.43267438,-0.4998491,1.5811244,-0.19480862,-0.71231294,-0.00170042,1.3863463,-1.009317
-0.2,-0.2,0.6,-0.5235987755982988,-0.5235987755982988,-0.34906585039886584,1.3947483,1.5033736,0.3190313,0.15779242,0.20861873,0.86854124,0.39329645,-0.5108968,1.5659165,-0.20599967,-0.7410494,-0.027350415,1.3690752,-1.113886
-0.2,-0.2,0.6,-0.5235987755982988,-0.5235987755982988,-0.34906585039886584,1.3690946,1.5076019,0.3014821,0.21290888,0.23055622,0.84132886,0.3923138,-0.5166043,1.5596424,-0.1941724,-0.7019871,0.00600975,1.367898,-1.0367125
-0.2,-0.2,0.6,-0.5235987755982988,-0.5235987755982988,-0.34906585039886584,1.3788363,1.5040908,0.30957943,0.21065016,0.20119996,0.85331285,0.4502164,-0.49363372,1.5674605,-0.19463393,-0.6831649,-0.06469861,1.3519863,-1.08381
-0.2,-0.2,0.6,-0.5235987755982988,-0.5235987755982988,-0.34906585039886584,1.4098709,1.5115409,0.29375887,0.20757936,0.19036761,0.86145,0.44765565,-0.5045148,1.5703039,-0.19938514,-0.69976085,-0.020723585,1.3718766,-1.1221743
-0.2,-0.2,0.6,-0.5235987755982988,-0.5235987755982988,-0.34906585039886584,1.3813473,1.4918975,0.29440242,0.18272139,0.19546236,0.873223,0.37275943,-0.50211006,1.5653563,-0.20415936,-0.732387,-0.035759866,1.3668956,-1.1472801
-0.2,-0.2,0.6,-0.5235987755982988,-0.5235987755982988,-0.34906585039886584,1.4109465,1.4981749,0.297728,0.18396136,0.19088921,0.84674376,0.4437947,-0.4973382,1.5594529,-0.19519877,-0.71081096,-0.06246705,1.3742055,-1.0728419
-0.2,-0.2,0.6,-0.5235987755982988,-0.5235987755982988,-0.34906585039886584,1.3868867,1.4952027,0.32355282,0.18981029,0.19579688,0.85213387,0.42422143,-0.5099033,1.5669822,-0.21172339,-0.7252449,-0.06147385,1.385051,-1.1298282
-0.2,-0.2,0.6,-0.5235987755982988,-0.5235987755982988,-0.34906585039886584,1.379943,1.498416,0.34201908,0.20052147,0.18536973,0.8265225,0.4043557,-0.5147746,1.5722685,-0.20565796,-0.6820406,0.036102857,1.36619,-1.1574574
-0.2,-0.2,0.6,-0.5235987755982988,-0.5235987755982988,-0.34906585039886584,1.4158723,1.5000198,0.2991136,0.2135385,0.19854629,0.8503195,0.4588444,-0.50450367,1.5733819,-0.19928227,-0.6928568,-0.04631985,1.3846251,-1.0313824
-0.2,-0.2,0.6,-0.5235987755982988,-0.5235987755982988,-0.34906585039886584,1.3760443,1.4829934,0.33825526,0.18978773,0.18077686,0.85554385,0.40340748,-0.5021776,1.5779015,-0.19543955,-0.7629845,-0.042358812,1.3887292,-1.0444378
-0.2,-0.2,0.6,-0.5235987755982988,-0.5235987755982988,-0.34906585039886584,1.3905646,1.4999856,0.31550917,0.22585209,0.16362132,0.8426999,0.36775282,-0.4988702,1.575037,-0.21357316,-0.7412216,0.016008222,1.3750372,-1.093713
-0.2,-0.2,0.6,-0.5235987755982988,-0.5235987755982988,-0.34906585039886584,1.3932841,1.5091225,0.312567,0.17720735,0.22321072,0.8658325,0.37522167,-0.4913879,1.5576129,-0.21146582,-0.7397882,-0.013933629,1.4094689,-1.0693254
-0.2,-0.2,0.6,-0.5235987755982988,-0.5235987755982988,-0.34906585039886584,1.3737897,1.5064416,0.33097178,0.17382303,0.20775445,0.87201,0.43821657,-0.49143565,1.5687926,-0.20792274,-0.67730767,-0.06160825,1.3700051,-1.0517751
-0.2,-0.2,0.6,-0.5235987755982988,-0.5235987755982988,-0.34906585039886584,1.365005,1.5016844,0.31261763,0.2141718,0.20569736,0.86133665,0.40240055,-0.50459236,1.5653721,-0.19157162,-0.71398246,-0.034464937,1.401014,-1.049013
-0.2,-0.2,0.6,-0.5235987755982988,-0.5235987755982988,-0.34906585039886584,1.4004582,1.5167016,0.31211513,0.1731093,0.18297353,0.83283883,0.37951234,-0.5131553,1.5756177,-0.19731359,-0.78849405,-0.04989207,1.3835316,-1.108554
-0.2,-0.2,0.6,-0.5235987755982988,-0.5235987755982988,-0.34906585039886584,1.3566585,1.5040158,0.30797875,0.17880093,0.17962481,0.81859446,0.4365881,-0.514818,1.551513,-0.18675824,-0.7474941,-0.02668002,1.3643656,-1.0817152
-0.2,-0.2,0.6,-0.5235987755982988,-0.5235987755982988,-0.34906585039886584,1.3930883,1.4943761,0.3018076,0.20167492,0.20315264,0.8734629,0.41160077,-0.51489496,1.5763856,-0.19987273,-0.7203364,-0.027263,1.3812138,-1.0193489
-0.2,-0.2,0.6,-0.5235987755982988,-0.5235987755982988,-0.34906585039886584,1.4281838,1.4903855,0.35426968,0.1590345,0.18767773,0.86830294,0.3998313,-0.49915615,1.5701883,-0.19553055,-0.6985286,0.00823705,1.355452,-0.95964783
-0.2,-0.2,0.6,-0.5235987755982988,-0.5235987755982988,-0.34906585039886584,1.3996437,1.5101986,0.30172104,0.18668342,0.1895818,0.8345966,0.3885209,-0.50953364,1.5591447,-0.20320994,-0.752658,-0.020697452,1.3951355,-1.1221684
-0.2,-0.2,0.6,-0.5235987755982988,-0.5235987755982988,-0.34906585039886584,1.3890216,1.5054907,0.3326046,0.18647163,0.21895614,0.84557253,0.43747145,-0.50830483,1.5658118,-0.18346134,-0.7143528,-0.060470518,1.3775907,-1.0830605
-0.2,-0.2,0.6,-0.5235987755982988,-0.5235987755982988,-0.34906585039886584,1.3668556,1.4936244,0.31902078,0.19313385,0.18300714,0.8534771,0.41555503,-0.48966423,1.5647033,-0.20124355,-0.68591344,0.02165878,1.3749081,-0.99707437
-0.2,-0.2,0.6,-0.5235987755982988,-0.5235987755982988,-0.34906585039886584,1.3708723,1.5089401,0.31726864,0.18957293,0.1922805,0.85744745,0.4050816,-0.5022475,1.5680891,-0.21192898,-0.73300916,-0.031184854,1.3749084,-1.1727086
-0.2,-0.2,0.6,-0.5235987755982988,-0.5235987755982988,-0.34906585039886584,1.400727,1.4917357,0.3037051,0.18959829,0.1847391,0.85704577,0.40164965,-0.49799293,1.5548221,-0.2029375,-0.7246814,-0.10376413,1.375473,-1.0941998
-0.2,-0.2,0.6,-0.5235987755982988,-0.5235987755982988,-0.34906585039886584,1.4074533,1.50044,0.35069683,0.23182438,0.17037241,0.83671796,0.31720695,-0.5068736,1.5752237,-0.21611829,-0.73138875,0.0009566864,1.3802783,-1.0781319
-0.2,-0.2,0.6,-0.5235987755982988,-0.5235987755982988,-0.34906585039886584,1.3822476,1.506697,0.29866886,0.22087058,0.22990248,0.860646,0.42220172,-0.49477312,1.5646259,-0.16801722,-0.73459876,-0.08863022,1.3972864,-1.0332026
-0.2,-0.2,0.6,-0.5235987755982988,-0.5235987755982988,-0.34906585039886584,1.3775698,1.4955608,0.33612457,0.20328246,0.22963157,0.84640455,0.37213758,-0.5032196,1.5758204,-0.2037049,-0.7299054,-0.025754863,1.393554,-1.1216633
-0.2,-0.2,0.6,-0.5235987755982988,-0.5235987755982988,-0.34906585039886584,1.4089751,1.4976894,0.31040263,0.18997604,0.19577558,0.84871256,0.39486548,-0.48936617,1.5789508,-0.19436233,-0.7239901,-0.057589985,1.3838204,-1.1223159
-0.2,-0.2,0.6,-0.5235987755982988,-0.5235987755982988,-0.34906585039886584,1.3733048,1.5054556,0.32946363,0.17594069,0.18352,0.83868486,0.37231448,-0.50395983,1.5704495,-0.20509419,-0.7554197,-0.06411001,1.3953441,-1.019065
-0.2,-0.2,0.6,-0.5235987755982988,-0.5235987755982988,-0.34906585039886584,1.4078556,1.5030427,0.31159368,0.20705847,0.21939912,0.85041696,0.36630663,-0.49468392,1.5807693,-0.20670502,-0.71253824,-0.03171826,1.3613887,-1.0696102
-0.2,-0.2,0.6,-0.5235987755982988,-0.5235987755982988,-0.34906585039886584,1.3677064,1.5093874,0.29667312,0.18009223,0.17993036,0.8643835,0.42712474,-0.50322723,1.5830152,-0.17058869,-0.7436236,-0.035977546,1.3769143,-1.0405507
-0.2,-0.2,0.6,-0.5235987755982988,-0.5235987755982988,-0.34906585039886584,1.3762151,1.5123384,0.32151064,0.17183773,0.17859185,0.90278953,0.40045947,-0.49846214,1.5752431,-0.17696905,-0.70926714,-0.02359908,1.3931051,-1.1531577
-0.2,-0.2,0.6,-0.5235987755982988,-0.5235987755982988,-0.34906585039886584,1.384238,1.5090888,0.34534097,0.21303244,0.1983152,0.8593556,0.4272353,-0.49602786,1.568293,-0.20137298,-0.6936709,0.03618329,1.3796474,-1.1262287
-0.2,-0.2,0.6,-0.5235987755982988,-0.5235987755982988,-0.34906585039886584,1.4020205,1.5139403,0.32766578,0.17501412,0.23664206,0.85608214,0.3920354,-0.4968455,1.5613817,-0.21116844,-0.70203006,-0.0527186,1.362725,-1.0579126
-0.2,-0.2,0.6,-0.5235987755982988,-0.5235987755982988,-0.34906585039886584,1.3725499,1.5032029,0.34782687,0.20429794,0.19408678,0.8741871,0.4444192,-0.51043797,1.571567,-0.19870088,-0.704137,0.016509365,1.3759804,-1.0541162
-0.2,-0.2,0.6,-0.5235987755982988,-0.5235987755982988,-0.34906585039886584,1.3901197,1.514062,0.31105042,0.17109334,0.20011416,0.8659536,0.46477306,-0.48764205,1.5658855,-0.19751632,-0.6991883,-0.017966423,1.375774,-1.1365356
-0.2,-0.2,0.6,-0.5235987755982988,-0.5235987755982988,-0.34906585039886584,1.386765,1.4962538,0.31527027,0.22338974,0.15855809,0.8695972,0.39302343,-0.49741572,1.5637717,-0.1887135,-0.717763,-0.107753895,1.3874066,-1.0608361
-0.2,-0.2,0.6,-0.5235987755982988,-0.5235987755982988,-0.34906585039886584,1.3534703,1.4934282,0.31828603,0.20819189,0.2386005,0.860311,0.43098494,-0.49789557,1.5677745,-0.18416938,-0.7108872,-0.002377139,1.3802782,-1.0598879
-0.2,-0.2,0.6,-0.5235987755982988,-0.5235987755982988,-0.34906585039886584,1.3873633,1.500088,0.31838584,0.19050848,0.21921048,0.8376467,0.38945645,-0.49025464,1.5570493,-0.21387698,-0.6999547,-0.014237992,1.3863529,-1.0812471
-0.2,-0.2,0.6,-0.5235987755982988,-0.5235987755982988,-0.34906585039886584,1.399204,1.5076047,0.33651233,0.18472254,0.17176308,0.8527448,0.41546607,-0.50339794,1.5815197,-0.17233084,-0.7726192,-0.015846886,1.4125861,-0.99971044
-0.2,-0.2,0.6,-0.5235987755982988,-0.5235987755982988,-0.34906585039886584,1.4058747,1.499991,0.3333515,0.20134352,0.20179547,0.8720206,0.3966778,-0.51358175,1.572608,-0.21147682,-0.728679,-0.051193375,1.3616365,-0.908384
-0.2,-0.2,0.6,-0.5235987755982988,-0.5235987755982988,-0.34906585039886584,1.4030285,1.490369,0.32716006,0.16444707,0.15949681,0.860494,0.4206665,-0.51820904,1.5769851,-0.22480546,-0.75732464,-0.016571095,1.372351,-1.0886463
-0.2,-0.2,0.6,-0.5235987755982988,-0.5235987755982988,-0.34906585039886584,1.4081517,1.494922,0.31207523,0.21490382,0.20032765,0.83126813,0.36119047,-0.50013983,1.5672079,-0.21550757,-0.70496273,-0.10820726,1.3846859,-0.99288785
-0.2,-0.2,0.6,-0.5235987755982988,-0.5235987755982988,-0.34906585039886584,1.4132761,1.5133002,0.35675156,0.19608307,0.18687575,0.850289,0.45071024,-0.48515233,1.5727847,-0.17189789,-0.7153647,-0.03687774,1.3615675,-1.1313624
-0.2,-0.2,0.6,-0.5235987755982988,-0.5235987755982988,-0.34906585039886584,1.3867116,1.5049044,0.33843,0.17775394,0.16636363,0.82479954,0.39812478,-0.49921563,1.5641845,-0.21730804,-0.7700578,-0.020562628,1.3913696,-1.0735991
-0.2,-0.2,0.6,-0.5235987755982988,-0.5235987755982988,-0.34906585039886584,1.3843194,1.5024875,0.33031136,0.17071602,0.22747119,0.8305038,0.3744995,-0.5072698,1.5743201,-0.20725259,-0.7604161,-0.02168326,1.3895992,-1.1808201
-0.2,-0.2,0.6,-0.5235987755982988,-0.5235987755982988,-0.34906585039886584,1.3528593,1.5150578,0.30588126,0.21318485,0.18670268,0.8645546,0.3859898,-0.49508008,1.5664215,-0.21342574,-0.7396453,-0.008193244,1.4211285,-1.1127418
-0.2,-0.2,0.6,-0.5235987755982988,-0.5235987755982988,-0.34906585039886584,1.4160923,1.4895878,0.3504545,0.19249435,0.2082861,0.8829125,0.4171398,-0.49977106,1.5621172,-0.19120373,-0.7015398,-0.083744355,1.3690864,-1.1346849
-0.2,-0.2,0.6,-0.5235987755982988,-0.5235987755982988,-0.34906585039886584,1.3840007,1.5016204,0.33276692,0.22002923,0.21831381,0.8420874,0.4653149,-0.4935475,1.5719558,-0.19309956,-0.70068896,-0.07775565,1.3660406,-1.0075659
-0.2,-0.2,0.6,-0.5235987755982988,-0.5235987755982988,-0.34906585039886584,1.374813,1.5046474,0.33872622,0.13761215,0.19753781,0.85949636,0.42041057,-0.49339852,1.5754663,-0.19058353,-0.70889467,-0.08899908,1.373269,-1.027161
-0.2,-0.2,0.6,-0.5235987755982988,-0.5235987755982988,-0.34906585039886584,1.3977404,1.5015768,0.3137003,0.17802267,0.21450162,0.8587982,0.40645936,-0.5077856,1.5624108,-0.1971978,-0.72944754,-0.010232781,1.3669187,-1.0416706
-0.2,-0.2,0.6,-0.5235987755982988,-0.5235987755982988,-0.34906585039886584,1.3819818,1.5116651,0.3310091,0.20849772,0.22546448,0.86113566,0.39890826,-0.50287104,1.573127,-0.19016747,-0.7279223,-0.02808138,1.372168,-1.1043339
-0.2,-0.2,0.6,-0.5235987755982988,-0.5235987755982988,-0.34906585039886584,1.3883874,1.4966986,0.3353371,0.20611446,0.20995064,0.88383895,0.43858352,-0.5043186,1.5723193,-0.21425563,-0.71508175,-0.03288049,1.3560544,-1.1393422
-0.2,-0.2,0.6,-0.5235987755982988,-0.5235987755982988,-0.34906585039886584,1.3860506,1.5092337,0.3514203,0.19462532,0.22583608,0.8618608,0.35587525,-0.50096923,1.57797,-0.20551442,-0.7425634,-0.058542646,1.383169,-1.0113161
-0.2,-0.2,0.6,-0.5235987755982988,-0.5235987755982988,-0.34906585039886584,1.3639183,1.511809,0.34786102,0.21474892,0.21726628,0.8915005,0.42089295,-0.50164706,1.5616459,-0.20554668,-0.6574149,-0.026530355,1.3814572,-1.0605184
-0.2,-0.2,0.6,-0.5235987755982988,-0.5235987755982988,-0.34906585039886584,1.4113225,1.501287,0.32832512,0.20493431,0.18426009,0.8483843,0.4097863,-0.50674736,1.5699154,-0.20343459,-0.7139757,-0.07722937,1.3744355,-1.1377084
-0.2,-0.2,0.6,-0.5235987755982988,-0.5235987755982988,-0.34906585039886584,1.3746864,1.5038248,0.3799398,0.18006091,0.20368813,0.87130356,0.40357882,-0.500203,1.561805,-0.18647525,-0.68728554,-0.060662523,1.3842199,-1.0832696
-0.2,-0.2,0.6,-0.5235987755982988,-0.5235987755982988,-0.34906585039886584,1.3760988,1.4844036,0.3158105,0.18439454,0.21419954,0.8736498,0.42469144,-0.5022112,1.574243,-0.18929014,-0.7316505,-0.07675588,1.4124087,-1.045079
-0.2,-0.2,0.6,-0.5235987755982988,-0.5235987755982988,-0.34906585039886584,1.3624829,1.4982594,0.3324969,0.17618461,0.1950605,0.86146,0.3834265,-0.49374256,1.5668541,-0.20288044,-0.70844,0.0068110465,1.3590162,-1.0934616
-0.2,-0.2,0.6,-0.5235987755982988,-0.5235987755982988,-0.34906585039886584,1.403866,1.4979703,0.31281656,0.20566325,0.17935383,0.8598531,0.39833942,-0.4967336,1.5616585,-0.17889597,-0.6879949,-0.056991503,1.4022433,-1.0710365
-0.2,-0.2,0.6,-0.5235987755982988,-0.5235987755982988,-0.34906585039886584,1.4349971,1.4942181,0.3511497,0.16945113,0.22457592,0.830594,0.36488387,-0.50913364,1.567357,-0.19977017,-0.68494964,-0.042230938,1.3766905,-1.1360298
-0.2,-0.2,0.6,-0.5235987755982988,-0.5235987755982988,-0.34906585039886584,1.3884186,1.5001704,0.31060532,0.22717036,0.15655133,0.8441984,0.42081442,-0.5003338,1.5578378,-0.20390306,-0.6904101,-0.077440605,1.365905,-1.1366925
-0.2,-0.2,0.6,-0.5235987755982988,-0.5235987755982988,-0.34906585039886584,1.383309,1.4919285,0.33735776,0.22075443,0.19073127,0.8630706,0.4080733,-0.49324283,1.5680146,-0.19283412,-0.74109405,-0.028976057,1.383632,-1.1079454
-0.2,-0.2,0.6,-0.5235987755982988,-0.5235987755982988,-0.34906585039886584,1.3962843,1.5097259,0.33258605,0.17851461,0.20006076,0.87088424,0.41376328,-0.50584537,1.571472,-0.19340445,-0.7411474,0.021002151,1.3773752,-1.1445389
-0.2,-0.2,0.6,-0.5235987755982988,-0.5235987755982988,-0.34906585039886584,1.3683858,1.495265,0.33346048,0.17991519,0.23586404,0.8466451,0.45556447,-0.49438015,1.5747298,-0.21211214,-0.732644,-0.034644175,1.3682456,-1.0455745
-0.2,-0.2,0.6,-0.5235987755982988,-0.5235987755982988,-0.34906585039886584,1.3880781,1.5206915,0.31337783,0.19414385,0.17112984,0.8541532,0.42648122,-0.5025331,1.5681319,-0.18110844,-0.73123676,-0.084986575,1.3697232,-1.1705973
-0.2,-0.2,0.6,-0.5235987755982988,-0.5235987755982988,-0.34906585039886584,1.3964201,1.5015827,0.3294715,0.1734228,0.21451643,0.87007624,0.37874368,-0.49999598,1.5753485,-0.20760575,-0.67286706,4.787769e-05,1.359701,-1.0610762
-0.2,-0.2,0.6,-0.5235987755982988,-0.5235987755982988,-0.34906585039886584,1.3776115,1.5071473,0.30382842,0.18526247,0.17017624,0.86935675,0.43867326,-0.4882856,1.5639157,-0.1985368,-0.707341,-0.04482043,1.3652614,-1.0644543
-0.2,-0.2,0.6,-0.5235987755982988,-0.5235987755982988,-0.34906585039886584,1.3830694,1.5175861,0.31011268,0.20365898,0.18378013,0.8508943,0.37792966,-0.5121938,1.5609787,-0.18687293,-0.7345606,-0.02014508,1.3751749,-1.02773
-0.2,-0.2,0.6,-0.5235987755982988,-0.5235987755982988,-0.34906585039886584,1.3485503,1.5170684,0.33301514,0.19712529,0.2157116,0.8364534,0.38761303,-0.5007393,1.5732576,-0.18900889,-0.714674,-0.047502585,1.3777093,-1.1503271
-0.2,-0.2,0.6,-0.5235987755982988,-0.5235987755982988,-0.34906585039886584,1.4081097,1.5138863,0.31616622,0.19403104,0.21373333,0.88257396,0.38018593,-0.50309026,1.5676564,-0.19828254,-0.80012745,-0.10849703,1.4064884,-1.0613655
-0.2,-0.2,0.6,-0.5235987755982988,-0.5235987755982988,-0.34906585039886584,1.4027468,1.5110974,0.34867713,0.14027983,0.17009269,0.87344235,0.42672914,-0.5127661,1.563723,-0.16844769,-0.7317601,-0.0857809,1.3866286,-1.0859867
-0.2,-0.2,0.6,-0.5235987755982988,-0.5235987755982988,-0.34906585039886584,1.399875,1.4962726,0.3440737,0.16640916,0.20034626,0.88479763,0.45119223,-0.49906304,1.5740886,-0.18906702,-0.71569186,0.0022921492,1.3775462,-1.0469322
-0.2,-0.2,0.6,-0.5235987755982988,-0.5235987755982988,-0.34906585039886584,1.3820755,1.5190427,0.3239565,0.20968333,0.21345831,0.82612264,0.45480645,-0.49648342,1.5699188,-0.2076079,-0.74598247,0.015845753,1.3762453,-1.0991359
-0.2,-0.2,0.6,-0.5235987755982988,-0.5235987755982988,-0.34906585039886584,1.4062419,1.4844741,0.32289815,0.18975265,0.22098814,0.88886535,0.4144599,-0.49342358,1.5778636,-0.1982734,-0.74743587,-0.035971828,1.3744862,-1.0871041
-0.2,-0.2,0.6,-0.5235987755982988,-0.5235987755982988,-0.34906585039886584,1.3727685,1.5061059,0.3208524,0.16271871,0.19272828,0.88155466,0.40010324,-0.49123466,1.5720314,-0.19883725,-0.7823413,0.0013623096,1.386523,-1.0650766
-0.2,-0.2,0.6,-0.5235987755982988,-0.5235987755982988,-0.34906585039886584,1.4042212,1.5116541,0.31918582,0.1982744,0.22277081,0.82584006,0.38238657,-0.51101685,1.564115,-0.18040235,-0.6708698,-0.0354373,1.358066,-1.082185
-0.2,-0.2,0.6,-0.5235987755982988,-0.5235987755982988,-0.34906585039886584,1.3954678,1.4970138,0.2916457,0.2139757,0.1976519,0.8824708,0.4028446,-0.49939644,1.5769943,-0.16691482,-0.7323813,-0.045225784,1.3612152,-1.0418227
-0.2,-0.2,0.6,-0.5235987755982988,-0.5235987755982988,-0.34906585039886584,1.3993704,1.5049282,0.33294126,0.19113018,0.23845136,0.8169575,0.43151003,-0.49836266,1.5667707,-0.18379824,-0.68140984,-0.049067862,1.3805395,-1.0834172
-0.2,-0.2,0.6,-0.5235987755982988,-0.5235987755982988,-0.34906585039886584,1.4196507,1.4957008,0.33564082,0.20781161,0.19113776,0.85893536,0.41298687,-0.49903354,1.5704553,-0.200684,-0.72601485,-0.050519798,1.3796536,-1.0267395
-0.2,-0.2,0.6,-0.5235987755982988,-0.5235987755982988,-0.34906585039886584,1.3831097,1.5105895,0.30646878,0.22103837,0.17793912,0.8343374,0.35070455,-0.49742275,1.5728227,-0.19685705,-0.724526,0.006281323,1.3937372,-1.1307347
-0.2,-0.2,0.6,-0.5235987755982988,-0.5235987755982988,-0.34906585039886584,1.4197738,1.5077282,0.31202623,0.18746188,0.23268776,0.85878915,0.42977566,-0.4954318,1.573136,-0.20027211,-0.6900369,-0.0062120254,1.3662521,-1.1314335
-0.2,-0.2,0.6,-0.5235987755982988,-0.5235987755982988,-0.34906585039886584,1.3622141,1.5022497,0.32269552,0.17214994,0.1694563,0.86463374,0.37691426,-0.5038334,1.5703328,-0.23172182,-0.74184155,-0.026900005,1.3681868,-1.0871817
-0.2,-0.2,0.6,-0.5235987755982988,-0.5235987755982988,-0.34906585039886584,1.387506,1.5066302,0.30583164,0.17926985,0.21936013,0.87739563,0.46362144,-0.4942782,1.5611225,-0.18294735,-0.7066018,-0.049041983,1.4039118,-1.0249946
-0.2,-0.2,0.6,-0.5235987755982988,-0.5235987755982988,-0.34906585039886584,1.3842453,1.5134207,0.31646886,0.20019574,0.18168585,0.84353906,0.31463736,-0.5032379,1.5690545,-0.22220977,-0.7491561,-0.020951614,1.3803748,-1.1440434
-0.2,-0.2,0.6,-0.5235987755982988,-0.5235987755982988,-0.34906585039886584,1.4041817,1.5141741,0.35522434,0.17490833,0.20822339,0.8414966,0.4160745,-0.50444734,1.5662044,-0.19693598,-0.7190018,-0.06952885,1.3541961,-1.0495775
-0.2,-0.2,0.6,-0.5235987755982988,-0.5235987755982988,-0.34906585039886584,1.3914359,1.5057609,0.33225396,0.23554097,0.19632094,0.84618515,0.40121672,-0.4979692,1.5782273,-0.21648179,-0.7052416,-0.04665105,1.3924369,-1.2360522
-0.2,-0.2,0.6,-0.5235987755982988,-0.5235987755982988,-0.34906585039886584,1.3879412,1.4904355,0.34303635,0.19048955,0.20314415,0.8602082,0.34882888,-0.503293,1.5747674,-0.1989286,-0.74710774,0.04244272,1.38264,-0.99313575
-0.2,-0.2,0.6,-0.5235987755982988,-0.5235987755982988,-0.34906585039886584,1.4054391,1.5145918,0.34279,0.195118,0.19248123,0.85057515,0.45394042,-0.50098044,1.5753694,-0.18147077,-0.74743575,-0.05847849,1.3845931,-1.0641727
-0.2,-0.2,0.6,-0.5235987755982988,-0.5235987755982988,-0.34906585039886584,1.3886337,1.5005198,0.31693327,0.18947224,0.21039598,0.85537976,0.4446907,-0.5061987,1.5669519,-0.22048803,-0.7321104,0.00932559,1.3695998,-1.0984317
-0.2,-0.2,0.6,-0.5235987755982988,-0.5235987755982988,-0.34906585039886584,1.3913215,1.496833,0.3436425,0.16503103,0.1920235,0.85715926,0.38760662,-0.49172255,1.56209,-0.1968453,-0.71239346,-0.0605548,1.3865936,-1.1137623
-0.2,-0.2,0.6,-0.5235987755982988,-0.5235987755982988,-0.34906585039886584,1.3884363,1.5000514,0.34023848,0.19045922,0.20439492,0.8485144,0.39845413,-0.5024999,1.565076,-0.18839787,-0.731404,-0.05052177,1.3661374,-1.0575813
-0.2,-0.2,0.6,-0.5235987755982988,-0.5235987755982988,-0.34906585039886584,1.4021156,1.5014734,0.31844044,0.21495117,0.21624358,0.86370623,0.35822743,-0.50566846,1.5711306,-0.18383162,-0.74652165,-0.022378644,1.3726944,-1.1100714
-0.2,-0.2,0.6,-0.5235987755982988,-0.5235987755982988,-0.34906585039886584,1.3764472,1.5078814,0.3234004,0.20459528,0.19088818,0.8885279,0.3802372,-0.5061961,1.5623126,-0.21023092,-0.7179613,-0.0019093002,1.3736852,-1.1528025
-0.2,-0.2,0.6,-0.5235987755982988,-0.5235987755982988,-0.34906585039886584,1.3793312,1.5163859,0.34210825,0.19659483,0.20558375,0.83943117,0.43134645,-0.49836385,1.5686818,-0.17721593,-0.73206556,-0.09441116,1.3757296,-1.1881845
-0.2,-0.2,0.6,-0.5235987755982988,-0.5235987755982988,-0.34906585039886584,1.380952,1.5016168,0.31186795,0.19053085,0.19635917,0.86126745,0.3484111,-0.51372355,1.5671448,-0.20012115,-0.7545711,-0.05020098,1.3773513,-1.130105
-0.2,-0.2,0.6,-0.5235987755982988,-0.5235987755982988,-0.34906585039886584,1.3682923,1.4940423,0.31411055,0.19924349,0.22984488,0.83330333,0.38282508,-0.496591,1.5593297,-0.18528275,-0.72096294,-0.045883354,1.396041,-1.0433828
-0.2,-0.2,0.6,-0.5235987755982988,-0.5235987755982988,-0.34906585039886584,1.3673928,1.4963658,0.3117587,0.2175311,0.20614143,0.8483585,0.45398736,-0.49304622,1.5667968,-0.18029048,-0.72955734,-0.038981397,1.3678323,-1.0997956
-0.2,-0.2,0.6,-0.5235987755982988,-0.5235987755982988,-0.34906585039886584,1.372037,1.4989161,0.31762633,0.20667261,0.20393205,0.8478098,0.4357226,-0.50474775,1.5747541,-0.19780156,-0.7482991,-0.060216274,1.3635831,-1.011856
-0.2,-0.2,0.6,-0.5235987755982988,-0.5235987755982988,-0.34906585039886584,1.3985997,1.5019047,0.3214686,0.18890944,0.18175742,0.85715514,0.3785157,-0.5070304,1.5667157,-0.20142001,-0.7217798,0.02164935,1.3880093,-1.1018082
-0.2,-0.2,0.6,-0.5235987755982988,-0.5235987755982988,-0.34906585039886584,1.4130337,1.5112023,0.34646583,0.162362,0.20661871,0.85585654,0.4466468,-0.5000805,1.5741457,-0.20846954,-0.7038259,-0.05950676,1.3908653,-1.0576144
-0.2,-0.2,0.6,-0.5235987755982988,-0.5235987755982988,-0.34906585039886584,1.3744584,1.5060694,0.34539112,0.20038247,0.20326255,0.86232674,0.37827846,-0.5131112,1.572716,-0.20348167,-0.70747674,-0.022462774,1.387061,-1.1058141
-0.2,-0.2,0.6,-0.5235987755982988,-0.5235987755982988,-0.34906585039886584,1.39692,1.4844791,0.32452148,0.17398824,0.18508232,0.86329263,0.43165687,-0.49607533,1.5689019,-0.19717945,-0.78567487,-0.039721265,1.3805239,-1.0961831
-0.2,-0.2,0.6,-0.5235987755982988,-0.5235987755982988,-0.34906585039886584,1.375559,1.5144675,0.31360406,0.19690126,0.19366635,0.83647406,0.41103616,-0.50300497,1.560618,-0.2028013,-0.7329688,-0.03419926,1.352269,-1.0290912
-0.2,-0.2,0.6,-0.5235987755982988,-0.5235987755982988,-0.34906585039886584,1.397673,1.5069379,0.3292959,0.18743165,0.2309158,0.8333805,0.4204601,-0.49355575,1.5687304,-0.20366915,-0.72087985,0.035089966,1.3709567,-1.1340092
-0.2,-0.2,0.6,-0.5235987755982988,-0.5235987755982988,-0.34906585039886584,1.3581594,1.5115719,0.34359682,0.20747392,0.18872134,0.8483763,0.38922316,-0.5106519,1.5684739,-0.18761186,-0.7620926,-0.021758998,1.3702302,-1.0908194
-0.2,-0.2,0.6,-0.5235987755982988,-0.5235987755982988,-0.34906585039886584,1.4100262,1.5037452,0.31218997,0.2308967,0.18283302,0.83437866,0.4016232,-0.49274817,1.5736493,-0.19325319,-0.75181764,-0.032314423,1.3816124,-1.0368419
-0.2,-0.2,0.6,-0.5235987755982988,-0.5235987755982988,-0.34906585039886584,1.4172522,1.50563,0.32742295,0.16571051,0.19988003,0.85506636,0.3535716,-0.49393386,1.5709058,-0.22346358,-0.7126685,-0.010764066,1.4072548,-1.1168633
-0.2,-0.2,0.6,-0.5235987755982988,-0.5235987755982988,-0.34906585039886584,1.3978239,1.4969519,0.33082837,0.22379835,0.21445413,0.8452792,0.40747625,-0.49925414,1.5675277,-0.17836313,-0.7454156,-0.041774023,1.3754915,-1.055142
-0.2,-0.2,0.6,-0.5235987755982988,-0.5235987755982988,-0.34906585039886584,1.3996315,1.4934651,0.3285511,0.18655822,0.2268188,0.8647081,0.39665225,-0.49324995,1.5646536,-0.17146821,-0.7232522,-0.09427869,1.3677244,-1.0328197
-0.2,-0.2,0.6,-0.5235987755982988,-0.5235987755982988,-0.34906585039886584,1.3693471,1.5167929,0.3304853,0.20092316,0.19345753,0.8290573,0.368647,-0.50313777,1.5599867,-0.19408298,-0.7133271,0.0051381025,1.3774848,-1.1352999
-0.2,-0.2,0.6,-0.5235987755982988,-0.5235987755982988,-0.34906585039886584,1.403202,1.4935267,0.33609337,0.21980248,0.23062979,0.8620235,0.313544,-0.50061786,1.5704373,-0.15357155,-0.6751665,-0.011173532,1.3962216,-1.0523914
-0.2,-0.2,0.6,-0.5235987755982988,-0.5235987755982988,-0.34906585039886584,1.3752209,1.4943075,0.35323277,0.14670637,0.21638174,0.86743516,0.41730776,-0.50068647,1.5819209,-0.1937748,-0.7791908,-0.055516932,1.3907113,-1.0090106
-0.2,-0.2,0.6,-0.5235987755982988,-0.5235987755982988,-0.34906585039886584,1.4194529,1.508125,0.35200053,0.18985213,0.196233,0.84305847,0.38410896,-0.5001458,1.5693747,-0.18960354,-0.73694146,-0.038920656,1.3796686,-1.0468036
-0.2,-0.2,0.6,-0.5235987755982988,-0.5235987755982988,-0.34906585039886584,1.3812997,1.5182091,0.28522635,0.17164665,0.21490453,0.85109574,0.38703954,-0.4991166,1.5615205,-0.19417009,-0.7604892,-0.010305036,1.3809656,-1.037658
-0.2,-0.2,0.6,-0.5235987755982988,-0.5235987755982988,-0.34906585039886584,1.3921984,1.5165458,0.34155464,0.18220416,0.19702804,0.8574541,0.40180713,-0.4993074,1.56542,-0.17974466,-0.73227644,-0.054962326,1.3728793,-1.1416299
-0.2,-0.2,0.6,-0.5235987755982988,-0.5235987755982988,-0.34906585039886584,1.3662877,1.5006745,0.3145192,0.15942971,0.2116896,0.8521546,0.37447977,-0.51123405,1.5644251,-0.20123462,-0.77193505,-0.027800107,1.3761863,-1.1931857
-0.2,-0.2,0.6,-0.5235987755982988,-0.5235987755982988,-0.34906585039886584,1.390183,1.4916571,0.30134755,0.15308571,0.2059705,0.8490131,0.44657877,-0.50295657,1.5630947,-0.19289213,-0.74122876,-0.011726173,1.3693683,-1.1447214
-0.2,-0.2,0.6,-0.5235987755982988,-0.5235987755982988,-0.34906585039886584,1.3786085,1.4979078,0.31859964,0.18152995,0.18526286,0.83336604,0.37451664,-0.5017142,1.5665803,-0.20030247,-0.7419368,-0.09226688,1.3561997,-1.0482866
-0.2,-0.2,0.6,-0.5235987755982988,-0.5235987755982988,-0.34906585039886584,1.3859829,1.5067269,0.33220786,0.19771317,0.18842879,0.839082,0.44077894,-0.49669555,1.5544918,-0.19341755,-0.73861635,-0.045791738,1.3699416,-1.0051575
-0.2,-0.2,0.6,-0.5235987755982988,-0.5235987755982988,-0.34906585039886584,1.3952588,1.509522,0.30177408,0.18797253,0.22292289,0.8312537,0.35845414,-0.4976153,1.5649068,-0.18420173,-0.7612102,-0.033416886,1.3707037,-1.0967706
-0.2,-0.2,0.6,-0.5235987755982988,-0.5235987755982988,-0.34906585039886584,1.3981707,1.5063869,0.33545077,0.21062115,0.21867359,0.8449896,0.40427768,-0.5087188,1.5602365,-0.18593715,-0.72094434,-0.033830244,1.3641796,-1.0871342
-0.2,-0.2,0.6,-0.5235987755982988,-0.5235987755982988,-0.34906585039886584,1.3968078,1.4967492,0.32214925,0.1735571,0.22860248,0.88778776,0.36221436,-0.50671124,1.5572549,-0.19958197,-0.72995377,-0.031133184,1.3644806,-1.1117332
-0.2,-0.2,0.6,-0.5235987755982988,-0.5235987755982988,-0.34906585039886584,1.4096389,1.4946735,0.3288538,0.20453459,0.18379113,0.84294355,0.40498114,-0.51957756,1.5649563,-0.19616768,-0.6809599,-0.045897737,1.3941656,-1.1123343
-0.2,-0.2,0.6,-0.5235987755982988,-0.5235987755982988,-0.34906585039886584,1.3721925,1.504965,0.33266255,0.15848222,0.22812738,0.84748495,0.45073673,-0.490127,1.5684208,-0.21037595,-0.68677896,-0.014020801,1.3917714,-1.1784111
-0.2,-0.2,0.6,-0.5235987755982988,-0.5235987755982988,-0.34906585039886584,1.3886237,1.5126754,0.31699142,0.1941293,0.23707345,0.85082835,0.3902048,-0.5013941,1.5771918,-0.19690433,-0.76123303,-0.014826905,1.379518,-0.99691105
-0.2,-0.2,0.6,-0.5235987755982988,-0.5235987755982988,-0.34906585039886584,1.3898168,1.5028664,0.31347287,0.204254,0.16409077,0.8426015,0.47030857,-0.5100574,1.5738443,-0.18090492,-0.7612481,-0.015295345,1.3830143,-0.9927912
-0.2,-0.2,0.6,-0.5235987755982988,-0.5235987755982988,-0.34906585039886584,1.4108002,1.4935064,0.31201124,0.20763014,0.19643967,0.87879026,0.3974808,-0.503145,1.5603791,-0.18132833,-0.72220063,0.0110670375,1.3625143,-1.1227949
-0.2,-0.2,0.6,-0.5235987755982988,-0.5235987755982988,-0.34906585039886584,1.368367,1.5045522,0.29790863,0.17930804,0.21126989,0.8651357,0.38587627,-0.49991578,1.5647631,-0.17078216,-0.7524154,-0.022789596,1.3892015,-1.054131
-0.2,-0.2,0.6,-0.5235987755982988,-0.5235987755982988,-0.34906585039886584,1.3709308,1.4964072,0.31025642,0.21336682,0.16634162,0.8716515,0.37118548,-0.492625,1.5654205,-0.18593444,-0.7587635,-0.036988974,1.3739095,-1.0175343
-0.2,-0.2,0.6,-0.5235987755982988,-0.5235987755982988,-0.34906585039886584,1.3761698,1.5017725,0.3211384,0.1784439,0.2026257,0.85512173,0.3535928,-0.49596098,1.569483,-0.185344,-0.78489727,-0.0068686404,1.3844829,-1.1159159
-0.2,-0.2,0.6,-0.5235987755982988,-0.5235987755982988,-0.34906585039886584,1.4069693,1.4944719,0.31914616,0.18518533,0.21810225,0.847164,0.37813824,-0.4980951,1.5642594,-0.19700424,-0.682814,-0.05773905,1.3726234,-1.2031088
-0.2,-0.2,0.6,-0.5235987755982988,-0.5235987755982988,-0.34906585039886584,1.3882812,1.4982811,0.33499047,0.19420783,0.19631644,0.85984826,0.45292982,-0.5128887,1.5596665,-0.19835119,-0.7207586,-0.05802876,1.3657768,-0.9913175
-0.2,-0.2,0.6,-0.5235987755982988,-0.5235987755982988,-0.34906585039886584,1.389573,1.4918171,0.3034564,0.18056704,0.22387946,0.8442217,0.3936627,-0.5012344,1.5599434,-0.19877143,-0.7085393,-0.036863472,1.382831,-1.1529834
-0.2,-0.2,0.6,-0.5235987755982988,-0.5235987755982988,-0.34906585039886584,1.4188367,1.5004618,0.31182933,0.21510859,0.21012568,0.8557715,0.35555694,-0.49513817,1.5682203,-0.21075659,-0.7464738,0.011253159,1.3681642,-1.0541723
-0.2,-0.2,0.6,-0.5235987755982988,-0.5235987755982988,-0.34906585039886584,1.3921303,1.5053209,0.32218072,0.16240415,0.21520065,0.85365695,0.38787457,-0.50134736,1.5624436,-0.18155487,-0.72808003,-0.030617926,1.3693973,-1.087876
-0.2,-0.2,0.6,-0.5235987755982988,-0.5235987755982988,-0.34906585039886584,1.370381,1.4998608,0.33056462,0.19718954,0.16927849,0.8443082,0.40586254,-0.4826951,1.5621088,-0.20199145,-0.70342445,-0.07855942,1.3848333,-1.0949409
-0.2,-0.2,0.6,-0.5235987755982988,-0.5235987755982988,-0.34906585039886584,1.3975502,1.4871435,0.30848297,0.21566321,0.19226381,0.8377129,0.39551115,-0.50373,1.5674604,-0.18954639,-0.776255,-0.027083103,1.383994,-1.1112369
-0.2,-0.2,0.6,-0.5235987755982988,-0.5235987755982988,-0.34906585039886584,1.3820975,1.5078237,0.32709,0.19465356,0.22753827,0.83943844,0.38586622,-0.5059333,1.5710754,-0.23336211,-0.69680184,-0.07118109,1.3618487,-1.1233869
-0.2,-0.2,0.6,-0.5235987755982988,-0.5235987755982988,-0.34906585039886584,1.3922181,1.5036756,0.34401295,0.18720713,0.2346758,0.8558812,0.378603,-0.50191516,1.5636926,-0.20146084,-0.7102505,-0.03261888,1.3541178,-1.0916
-0.2,-0.2,0.6,-0.5235987755982988,-0.5235987755982988,-0.34906585039886584,1.444705,1.492104,0.33552325,0.19241221,0.19728285,0.8601511,0.4346697,-0.50854594,1.5599698,-0.21215683,-0.6765481,0.08831196,1.3851937,-1.1195627
-0.2,-0.2,0.6,-0.5235987755982988,-0.5235987755982988,-0.34906585039886584,1.3951343,1.5058019,0.31624174,0.20061234,0.21031654,0.83999884,0.40876302,-0.5057287,1.5701135,-0.19586328,-0.7701943,-0.024440179,1.379054,-1.097409
