sanky1234/BimanualDexCatch/isaacgymenvs/cem_results/football_pose_-0.2_-0.2_0.9999999999999999_0.5235987755982988_0.0_0_2025-05-24.csv
x,y,z,roll,pitch,yaw,robot1/joint1,robot1/joint2,robot1/joint3,robot1/joint4,robot1/joint5,robot1/joint6,robot1/joint7,robot2/joint1,robot2/joint2,robot2/joint3,robot2/joint4,robot2/joint5,robot2/joint6,robot2/joint7
-0.2,-0.2,0.9999999999999999,0.5235987755982988,0.0,0,-0.38653347,1.2959734,-0.19458963,-0.06893003,-0.24649486,0.14347994,-0.0076181223,-0.56297493,0.94088304,-1.2415229,-0.028200215,-0.73633766,1.0239179,-1.739601
-0.2,-0.2,0.9999999999999999,0.5235987755982988,0.0,0,-0.6131601,1.0838516,-0.9005794,0.115456074,-0.014840454,0.34167898,-0.25960287,-0.5661062,0.9453925,-1.2421623,-0.029420838,-0.7315897,1.0237522,-1.7278923
-0.2,-0.2,0.9999999999999999,0.5235987755982988,0.0,0,0.22123381,1.1346045,0.33766398,0.2031084,-0.102263674,0.30849677,0.60287774,-0.56326413,0.94267416,-1.2398386,-0.029668288,-0.73538953,1.0254838,-1.7355925
-0.2,-0.2,0.9999999999999999,0.5235987755982988,0.0,0,-0.14514443,1.3275063,0.5809069,0.23352228,-0.11043245,0.102856606,1.7013867,-0.5649232,0.94411826,-1.2396525,-0.027777396,-0.73284507,1.0256919,-1.74553
-0.2,-0.2,0.9999999999999999,0.5235987755982988,0.0,0,0.17918894,1.0033185,0.01759993,-0.10211245,-0.5049071,-0.48787117,-0.23100476,-0.5653216,0.9459532,-1.2434945,-0.027974442,-0.7329592,1.030451,-1.7281895
-0.2,-0.2,0.9999999999999999,0.5235987755982988,0.0,0,0.53897077,1.2271763,-0.40952492,0.06341429,-0.005610109,-1.3818616,0.69137865,-0.5658851,0.9415875,-1.2437967,-0.02901663,-0.73652124,1.0302609,-1.7311141
-0.2,-0.2,0.9999999999999999,0.5235987755982988,0.0,0,-0.82931566,0.99185234,-0.5280553,-0.34793565,-0.10729905,0.31885868,0.15142655,-0.56471545,0.9403794,-1.2425665,-0.030587777,-0.72891295,1.0291336,-1.7283424
-0.2,-0.2,0.9999999999999999,0.5235987755982988,0.0,0,0.30703467,1.5733222,-0.77499455,0.015742427,-0.022070596,0.3457684,0.77742696,-0.56475955,0.93851584,-1.2449759,-0.03011723,-0.7313171,1.0270311,-1.744061
-0.2,-0.2,0.9999999999999999,0.5235987755982988,0.0,0,-0.44168788,1.3243431,0.14159541,0.11466238,-0.4905092,0.21241707,-0.113863066,-0.5649797,0.9417109,-1.2409878,-0.02791055,-0.7330575,1.0356863,-1.7399601
-0.2,-0.2,0.9999999999999999,0.5235987755982988,0.0,0,-0.7341265,1.4906601,0.35969287,-0.41064212,-0.054197606,-0.61875415,-0.22752379,-0.5602592,0.9397411,-1.2380035,-0.03034026,-0.73156166,1.0248389,-1.7392006
-0.2,-0.2,0.9999999999999999,0.5235987755982988,0.0,0,-0.29385918,1.1785661,-0.10784875,0.12064727,0.10175599,0.41593084,1.0518541,-0.56600213,0.94418687,-1.2446177,-0.02951674,-0.7328671,1.0289552,-1.7390567
-0.2,-0.2,0.9999999999999999,0.5235987755982988,0.0,0,-0.03023358,1.1825601,-0.6762293,-0.14706768,0.016218303,-0.4606078,0.24175183,-0.5660641,0.93964154,-1.2428375,-0.029073924,-0.7343002,1.0302415,-1.7350483
-0.2,-0.2,0.9999999999999999,0.5235987755982988,0.0,0,0.0031768302,1.0914642,-0.14623469,0.010087725,-0.19901602,-0.795549,1.6271143,-0.5610844,0.9377297,-1.240383,-0.028275609,-0.7338771,1.0235984,-1.7383043
-0.2,-0.2,0.9999999999999999,0.5235987755982988,0.0,0,-0.13966201,1.3654289,0.45335904,0.17181425,-0.082199976,-0.9250451,1.7133904,-0.5667026,0.94187844,-1.2412028,-0.025297176,-0.7383223,1.0306169,-1.7350955
-0.2,-0.2,0.9999999999999999,0.5235987755982988,0.0,0,0.32194874,1.0157094,0.27804935,-0.0045584417,0.05434412,-0.93564886,-0.0017767244,-0.56426024,0.94062144,-1.242864,-0.029382706,-0.7267823,1.0244889,-1.7384641
-0.2,-0.2,0.9999999999999999,0.5235987755982988,0.0,0,-0.0010095414,1.2098615,0.7897029,-0.10661159,-0.07654196,-0.063061796,0.6533893,-0.5628796,0.9404681,-1.2378396,-0.027849572,-0.73753035,1.0280973,-1.7288113
-0.2,-0.2,0.9999999999999999,0.5235987755982988,0.0,0,-0.665244,1.1149763,1.1745716,-0.22306973,0.2040897,0.64093226,-0.046338733,-0.5632918,0.9421922,-1.2428039,-0.030820329,-0.73465216,1.0260632,-1.7330087
-0.2,-0.2,0.9999999999999999,0.5235987755982988,0.0,0,-0.8691953,1.391564,0.17610146,0.20988676,-0.14537184,-0.3099853,0.16961089,-0.5632168,0.94114596,-1.2404381,-0.026623864,-0.73374575,1.0252529,-1.7351145
-0.2,-0.2,0.9999999999999999,0.5235987755982988,0.0,0,-0.40107378,1.3605847,-0.5479427,-0.19454071,-0.63831395,-0.9845018,-0.13379504,-0.56255394,0.9346575,-1.2372988,-0.028947638,-0.7376021,1.0310909,-1.7346137
-0.2,-0.2,0.9999999999999999,0.5235987755982988,0.0,0,-0.25342658,1.47192,0.35018742,0.34818423,-0.54230547,-0.14738274,-0.8543805,-0.56487596,0.9386592,-1.2389157,-0.02814748,-0.73764706,1.0188683,-1.7285589
-0.2,-0.2,0.9999999999999999,0.5235987755982988,0.0,0,0.4779538,1.0090493,0.1427328,0.0081895925,-0.09716474,-0.7225292,0.55202377,-0.56361675,0.94172275,-1.2410282,-0.028946837,-0.73076516,1.0310045,-1.7427135
-0.2,-0.2,0.9999999999999999,0.5235987755982988,0.0,0,0.3981,1.0014858,1.2625785,0.015974317,0.07011037,-0.49032864,0.46474123,-0.56837237,0.9404218,-1.2373536,-0.031166123,-0.7416665,1.0323964,-1.7325472
-0.2,-0.2,0.9999999999999999,0.5235987755982988,0.0,0,-0.4488903,1.1950873,-0.025111984,0.08501892,0.31075045,-0.34970394,0.45925722,-0.56225187,0.9451019,-1.2400806,-0.030622428,-0.73868877,1.0213193,-1.7416471
-0.2,-0.2,0.9999999999999999,0.5235987755982988,0.0,0,-0.1297812,1.0409623,-0.018888894,0.26362994,0.22872408,0.086535566,1.1788912,-0.56629735,0.94047576,-1.2375631,-0.030528441,-0.7345755,1.0325702,-1.7519536
-0.2,-0.2,0.9999999999999999,0.5235987755982988,0.0,0,-0.5220998,1.1602961,0.7117597,-0.22128259,-0.18754287,0.24845934,0.97460604,-0.5642444,0.93869615,-1.2362101,-0.028547997,-0.7297452,1.0273865,-1.7350639
-0.2,-0.2,0.9999999999999999,0.5235987755982988,0.0,0,0.6016037,1.3324909,0.22149457,0.13315076,0.5064838,0.18829367,0.63150376,-0.56138366,0.93871903,-1.2446313,-0.027474826,-0.72839326,1.0285748,-1.7368208
-0.2,-0.2,0.9999999999999999,0.5235987755982988,0.0,0,-0.2963558,1.0103025,-0.54333746,-0.308598,0.039550208,0.46707743,-0.5197674,-0.5659005,0.94596064,-1.243721,-0.027733574,-0.7359393,1.0335501,-1.7400246
-0.2,-0.2,0.9999999999999999,0.5235987755982988,0.0,0,0.5164326,1.2413136,-0.49658045,-0.24236143,-0.33118173,-0.08263068,-0.00044452777,-0.5644475,0.9410148,-1.2441536,-0.03051592,-0.7377002,1.0327213,-1.7343491
-0.2,-0.2,0.9999999999999999,0.5235987755982988,0.0,0,0.06686627,1.3009299,-0.17637955,-0.018164068,0.4973526,0.18016413,0.8750845,-0.5653366,0.9445547,-1.2415425,-0.029375251,-0.7338824,1.0269784,-1.7225459
-0.2,-0.2,0.9999999999999999,0.5235987755982988,0.0,0,0.37979135,1.0647366,-0.35245243,-0.036869284,0.2149263,-0.00046698676,0.8379122,-0.5650606,0.9407704,-1.2368774,-0.028156415,-0.7381777,1.0292346,-1.730764
-0.2,-0.2,0.9999999999999999,0.5235987755982988,0.0,0,0.17084713,1.3615674,-0.35016805,0.20006455,-0.14074345,-0.71686673,-0.5923082,-0.56465894,0.9399242,-1.2408807,-0.029846236,-0.7339509,1.023631,-1.7376287
-0.2,-0.2,0.9999999999999999,0.5235987755982988,0.0,0,0.33017614,0.94379485,-0.04059911,-0.13204297,-0.25517485,-0.29415977,2.265399,-0.5620095,0.9413575,-1.241432,-0.028637465,-0.72803664,1.016743,-1.7400824
-0.2,-0.2,0.9999999999999999,0.5235987755982988,0.0,0,-0.58900815,0.9465684,1.2045366,-0.23761891,-0.13908096,-0.45627663,0.2996675,-0.5645454,0.9430114,-1.2422563,-0.028325452,-0.73730093,1.0299205,-1.728502
-0.2,-0.2,0.9999999999999999,0.5235987755982988,0.0,0,-0.26221308,1.3132387,-0.050972644,-0.09724115,-0.26899686,-0.03647253,-0.18363863,-0.5647884,0.9400868,-1.2404196,-0.029229615,-0.73722506,1.0262145,-1.73794
-0.2,-0.2,0.9999999999999999,0.5235987755982988,0.0,0,0.44506675,1.2711285,-0.6027252,0.004151448,0.108482845,-0.10560027,1.0422698,-0.56024355,0.9416132,-1.2401873,-0.030685782,-0.73114115,1.0319434,-1.7302333
-0.2,-0.2,0.9999999999999999,0.5235987755982988,0.0,0,0.10502767,0.80455166,0.25369212,-0.30468443,-0.32224706,-0.94833374,0.94969934,-0.5650434,0.93714523,-1.2375394,-0.02897906,-0.73529255,1.0211104,-1.7565511
-0.2,-0.2,0.9999999999999999,0.5235987755982988,0.0,0,-0.45960668,1.2111515,-0.7962797,-0.1545842,0.08814125,-0.5389361,0.2904019,-0.5615177,0.9369169,-1.2380748,-0.028137054,-0.7378891,1.0414394,-1.7358508
-0.2,-0.2,0.9999999999999999,0.5235987755982988,0.0,0,0.46945423,1.3316209,0.21104853,0.0016863741,-0.37062287,0.7377322,-0.54460526,-0.56437147,0.9408184,-1.236017,-0.029105533,-0.7300931,1.0230412,-1.747829
-0.2,-0.2,0.9999999999999999,0.5235987755982988,0.0,0,-0.8629404,0.8380819,0.13779095,-0.011980225,-0.116852716,-0.38612148,0.7467676,-0.56642556,0.94446284,-1.2421926,-0.026677785,-0.73197305,1.0243894,-1.7396394
-0.2,-0.2,0.9999999999999999,0.5235987755982988,0.0,0,0.1433443,0.9741444,-0.36156535,0.02035133,-0.47433922,-1.1050304,1.4224949,-0.5614036,0.93841946,-1.245558,-0.028339818,-0.7308696,1.0232781,-1.7433723
-0.2,-0.2,0.9999999999999999,0.5235987755982988,0.0,0,0.6450963,1.1316794,-0.37355924,-0.2834712,0.38819093,-0.41277766,0.6325519,-0.5631502,0.9369003,-1.2380958,-0.029176494,-0.73897165,1.0292671,-1.732109
-0.2,-0.2,0.9999999999999999,0.5235987755982988,0.0,0,-0.9380296,1.0317439,-0.32126966,-0.2234549,0.35875228,1.29497,0.21695374,-0.56462824,0.94098234,-1.2378476,-0.029573414,-0.73329246,1.0423838,-1.743356
-0.2,-0.2,0.9999999999999999,0.5235987755982988,0.0,0,-0.82254976,1.2502465,-0.7041654,0.027276224,-0.10907875,0.7004895,-0.066071056,-0.5656498,0.9480461,-1.2444168,-0.033614747,-0.7319558,1.0218745,-1.7379744
-0.2,-0.2,0.9999999999999999,0.5235987755982988,0.0,0,-0.07898176,1.5611008,-0.7271621,0.053992275,0.24806455,-1.2567022,0.57668626,-0.56372184,0.93985605,-1.2423991,-0.028865231,-0.73470294,1.0261618,-1.726055
-0.2,-0.2,0.9999999999999999,0.5235987755982988,0.0,0,0.08356757,1.0594349,0.22924782,-0.12204589,0.016995411,-1.146745,0.76717764,-0.5633405,0.9395421,-1.2424963,-0.027568676,-0.7289543,1.022193,-1.7375858
-0.2,-0.2,0.9999999999999999,0.5235987755982988,0.0,0,0.7216183,1.276128,-0.55850697,-0.18574166,-0.063089386,-0.36803013,-0.43120736,-0.5652731,0.9395374,-1.2387825,-0.028904034,-0.73503214,1.0215145,-1.7334617
-0.2,-0.2,0.9999999999999999,0.5235987755982988,0.0,0,-0.13925414,0.92557794,0.522943,-0.2365148,-0.01293004,-0.67092025,1.0441064,-0.5670426,0.9360504,-1.2417872,-0.026022708,-0.73331434,1.027604,-1.728844
-0.2,-0.2,0.9999999999999999,0.5235987755982988,0.0,0,0.34905466,1.2602154,-0.4811163,0.027393736,-0.051108398,0.53019965,0.0635007,-0.56147015,0.9444907,-1.2404107,-0.026811013,-0.73211104,1.0234812,-1.7263396
-0.2,-0.2,0.9999999999999999,0.5235987755982988,0.0,0,-0.46049133,0.8119606,0.697841,-0.036459073,-0.32045078,0.64541155,1.1065308,-0.56450045,0.94362384,-1.2400825,-0.031097695,-0.73846227,1.0191829,-1.736968
-0.2,-0.2,0.9999999999999999,0.5235987755982988,0.0,0,-0.080436304,1.2306781,0.592171,-0.14288633,0.43337673,-0.6632125,0.30067104,-0.56732506,0.93516266,-1.2374965,-0.027064364,-0.73914605,1.0264052,-1.7342845
-0.2,-0.2,0.9999999999999999,0.5235987755982988,0.0,0,0.14801477,1.3280815,-0.14985298,-0.10417106,-0.21338671,0.5112046,-0.39394745,-0.5649253,0.9410413,-1.2428421,-0.027274668,-0.7374821,1.0299047,-1.743523
-0.2,-0.2,0.9999999999999999,0.5235987755982988,0.0,0,-1.1654589,1.0582376,0.69120854,-0.03562342,-0.025626265,-0.85983676,1.3222382,-0.5629137,0.93867964,-1.2413863,-0.028782414,-0.73584497,1.0263382,-1.7457695
-0.2,-0.2,0.9999999999999999,0.5235987755982988,0.0,0,-0.4512625,1.1753603,0.7484575,-0.42002285,-0.003029243,-1.114963,1.7588879,-0.5641171,0.9400065,-1.2414571,-0.030002598,-0.72970027,1.0390148,-1.7445589
-0.2,-0.2,0.9999999999999999,0.5235987755982988,0.0,0,0.22734502,1.6584946,-0.35787165,-0.15106094,0.08346723,0.30070513,1.0527656,-0.5618307,0.9519008,-1.2415925,-0.030643573,-0.73974496,1.0174512,-1.741757
-0.2,-0.2,0.9999999999999999,0.5235987755982988,0.0,0,0.0805346,1.4823883,-1.0072775,-0.07194029,0.20572041,0.29376057,1.6157194,-0.5642133,0.9411901,-1.2365689,-0.026832651,-0.7330104,1.028777,-1.7427465
-0.2,-0.2,0.9999999999999999,0.5235987755982988,0.0,0,-0.036850393,1.1514301,1.0631559,-0.07302006,-0.33534706,0.26439813,-0.29433173,-0.56666225,0.9421441,-1.2408301,-0.03163737,-0.73343223,1.031872,-1.726164
-0.2,-0.2,0.9999999999999999,0.5235987755982988,0.0,0,-0.4978802,1.1069189,0.19753458,-0.122556135,0.20750888,0.050135262,0.2349519,-0.56268835,0.9388782,-1.2397081,-0.028722439,-0.73730767,1.0269583,-1.7473087
-0.2,-0.2,0.9999999999999999,0.5235987755982988,0.0,0,-0.20013516,1.2947546,0.037692297,0.0075979405,-0.16573721,0.008303407,0.6845112,-0.5696889,0.9381387,-1.2397242,-0.032314003,-0.73456675,1.0371554,-1.7246716
-0.2,-0.2,0.9999999999999999,0.5235987755982988,0.0,0,-0.5843892,1.3613588,0.42380214,0.12172898,-0.16322051,0.026009968,0.6791752,-0.566381,0.93797356,-1.2387637,-0.028732378,-0.7346849,1.0328212,-1.7446709
-0.2,-0.2,0.9999999999999999,0.5235987755982988,0.0,0,-0.5235583,0.94433737,0.89856863,0.07578767,-0.07793923,0.4964091,0.44076362,-0.5665092,0.9381171,-1.2372471,-0.027855456,-0.73793566,1.0270591,-1.730865
-0.2,-0.2,0.9999999999999999,0.5235987755982988,0.0,0,0.3383132,1.3724169,-0.3369734,-0.04876428,0.09328051,-0.3520812,0.42018992,-0.56223625,0.9427394,-1.2396667,-0.027388534,-0.7342444,1.0266201,-1.7451937
-0.2,-0.2,0.9999999999999999,0.5235987755982988,0.0,0,-0.19212586,1.0065892,-0.36879808,-0.11967264,-0.38610086,0.042994067,-0.117917836,-0.5629924,0.9412716,-1.2406342,-0.029391311,-0.73360366,1.026009,-1.7292212
-0.2,-0.2,0.9999999999999999,0.5235987755982988,0.0,0,-0.33107916,1.2970395,-0.020576859,-0.036104072,0.01549177,1.0391104,0.36286432,-0.5659506,0.9371578,-1.2438042,-0.027279798,-0.72888327,1.0207982,-1.7337987
-0.2,-0.2,0.9999999999999999,0.5235987755982988,0.0,0,-0.053149488,0.87246984,0.10063454,-0.046322357,0.43088663,-0.46315223,0.27350307,-0.56589514,0.9401436,-1.2425392,-0.02862892,-0.73114175,1.0371479,-1.7353181
-0.2,-0.2,0.9999999999999999,0.5235987755982988,0.0,0,-0.49824545,1.4575442,-0.45153093,-0.19666447,-0.23916662,-0.77334857,0.30265635,-0.5653718,0.94311213,-1.2397381,-0.029897194,-0.73307973,1.0298942,-1.7359506
-0.2,-0.2,0.9999999999999999,0.5235987755982988,0.0,0,-0.3240361,1.3800725,0.31626847,0.07693941,0.066219315,-0.28926557,0.1454027,-0.5661616,0.93897927,-1.235035,-0.029462893,-0.7338541,1.0389502,-1.7448114
-0.2,-0.2,0.9999999999999999,0.5235987755982988,0.0,0,-0.5898922,1.4297354,-0.04068308,0.014939575,-0.22938049,0.43401882,-0.41718596,-0.5657729,0.9354096,-1.2459877,-0.02707317,-0.7271012,1.0198812,-1.72319
-0.2,-0.2,0.9999999999999999,0.5235987755982988,0.0,0,0.48440844,1.0011346,0.24926008,0.17498042,-0.3811142,0.6112712,1.0950153,-0.56524545,0.934627,-1.2399759,-0.028897233,-0.73560035,1.0264293,-1.7360787
-0.2,-0.2,0.9999999999999999,0.5235987755982988,0.0,0,-0.2453152,1.0349926,-0.19395739,0.038166683,-0.14974785,0.78406674,0.73067933,-0.56518376,0.94207627,-1.2461011,-0.02944376,-0.7328356,1.0174273,-1.7518046
-0.2,-0.2,0.9999999999999999,0.5235987755982988,0.0,0,0.32507032,1.2128402,-0.41810012,-0.20237106,-0.34972343,-0.5546677,2.1462712,-0.5659236,0.94193095,-1.2389379,-0.029556219,-0.7347672,1.0314691,-1.7277472
-0.2,-0.2,0.9999999999999999,0.5235987755982988,0.0,0,-0.5262142,1.2826853,-0.3713429,-0.06194859,0.4836602,0.25051025,0.2213958,-0.5618368,0.93856484,-1.2396393,-0.028696511,-0.72823673,1.0276825,-1.7400258
-0.2,-0.2,0.9999999999999999,0.5235987755982988,0.0,0,0.5932332,1.1262479,0.21713558,-0.098664775,0.22771792,0.01866185,0.69678426,-0.5684907,0.94063807,-1.2420385,-0.030649401,-0.73062694,1.0310179,-1.7349818
-0.2,-0.2,0.9999999999999999,0.5235987755982988,0.0,0,0.5382303,1.0565176,0.07650268,0.07331897,0.2844383,0.06094443,1.0028943,-0.5639739,0.9377716,-1.2378842,-0.029873963,-0.73618823,1.0413564,-1.745636
-0.2,-0.2,0.9999999999999999,0.5235987755982988,0.0,0,0.042047307,1.5419453,0.54179215,-0.08634184,0.40133676,-0.52933073,-0.23250803,-0.5628256,0.94244474,-1.2421333,-0.028942669,-0.72717255,1.0256206,-1.7307796
-0.2,-0.2,0.9999999999999999,0.5235987755982988,0.0,0,0.3005987,1.1777958,1.0837955,-0.016894285,-0.04430236,0.40566647,0.16227974,-0.56408525,0.9431037,-1.2428261,-0.02948908,-0.724199,1.0261922,-1.742421
-0.2,-0.2,0.9999999999999999,0.5235987755982988,0.0,0,-0.09998967,1.1403726,-1.0907398,0.14576393,0.2937115,-0.34951982,0.82348025,-0.56542337,0.9418878,-1.2395258,-0.030197877,-0.7283094,1.0326557,-1.7525567
-0.2,-0.2,0.9999999999999999,0.5235987755982988,0.0,0,0.1607216,1.2212946,0.59008676,0.16034126,0.31275305,0.8217618,0.21917905,-0.5606459,0.93943703,-1.2451389,-0.029767236,-0.7300823,1.0305159,-1.7225258
-0.2,-0.2,0.9999999999999999,0.5235987755982988,0.0,0,-0.7860195,1.1447029,0.046694055,-0.036605738,-0.33102205,-0.0770426,0.955357,-0.56613195,0.94261813,-1.2413231,-0.031398788,-0.7310886,1.0342914,-1.7153836
-0.2,-0.2,0.9999999999999999,0.5235987755982988,0.0,0,0.004643073,0.94308585,0.5697246,-0.23129834,-0.0013961097,-0.8015845,0.02488886,-0.5651882,0.93735653,-1.242161,-0.02670102,-0.73320425,1.0332432,-1.7345415
-0.2,-0.2,0.9999999999999999,0.5235987755982988,0.0,0,0.25317776,1.0901762,-0.18938068,-0.08172979,0.2519399,0.11066777,0.72089493,-0.5634702,0.93780863,-1.2407664,-0.027318507,-0.72935617,1.0293369,-1.7318054
-0.2,-0.2,0.9999999999999999,0.5235987755982988,0.0,0,-0.007801808,1.3351492,0.16626085,-0.28390712,0.21304297,-1.0627751,0.60901225,-0.5639715,0.9402804,-1.2429906,-0.028555244,-0.73184305,1.0237175,-1.7348155
-0.2,-0.2,0.9999999999999999,0.5235987755982988,0.0,0,0.14324589,1.4273407,-0.13786536,0.030556899,0.39119354,-0.32156667,0.7677309,-0.56172115,0.94151926,-1.2379253,-0.031265806,-0.7404689,1.0300674,-1.7286756
-0.2,-0.2,0.9999999999999999,0.5235987755982988,0.0,0,0.102623,1.268817,-0.026171181,0.1829666,0.024511423,0.5544932,-0.21663879,-0.561886,0.94340354,-1.2393363,-0.028581208,-0.73761284,1.0270622,-1.7206056
-0.2,-0.2,0.9999999999999999,0.5235987755982988,0.0,0,-0.3546452,1.2613778,0.27892905,0.11336893,-0.09618345,-0.17849632,-0.18220803,-0.5632963,0.9392228,-1.241036,-0.02952167,-0.72977084,1.0328258,-1.7369837
-0.2,-0.2,0.9999999999999999,0.5235987755982988,0.0,0,0.14423884,1.4568809,-0.26096833,-0.017194666,-0.019269478,-0.24591081,0.29424348,-0.5634774,0.9426582,-1.237756,-0.030595051,-0.7295376,1.0260415,-1.741194
-0.2,-0.2,0.9999999999999999,0.5235987755982988,0.0,0,0.035767023,1.0191126,0.121104464,-0.29759547,0.09702402,-1.38311,1.3765191,-0.5625696,0.9424477,-1.2349538,-0.029203618,-0.7309637,1.0254674,-1.7312497
-0.2,-0.2,0.9999999999999999,0.5235987755982988,0.0,0,-0.35361362,1.1085098,0.28516474,-0.08711527,-0.061498795,0.5861816,0.3145785,-0.5659863,0.9461075,-1.2392429,-0.02884541,-0.735353,1.0274454,-1.7460655
-0.2,-0.2,0.9999999999999999,0.5235987755982988,0.0,0,-0.334228,1.0655857,0.31179917,-0.07499954,0.111749,0.9365511,0.5059685,-0.5632348,0.9446111,-1.2433395,-0.030159542,-0.72813326,1.0167867,-1.7324678
-0.2,-0.2,0.9999999999999999,0.5235987755982988,0.0,0,0.24459866,1.4134449,-0.07953433,0.0008201859,-0.3582629,-0.22735032,0.06365111,-0.5652733,0.9422058,-1.2391019,-0.028583191,-0.7337471,1.0328685,-1.735401
-0.2,-0.2,0.9999999999999999,0.5235987755982988,0.0,0,0.015903164,0.9955171,-0.31023183,-0.41511676,-0.078956276,-0.150303,0.10960391,-0.5647436,0.9375868,-1.2369552,-0.027076872,-0.7353009,1.0269011,-1.7503607
-0.2,-0.2,0.9999999999999999,0.5235987755982988,0.0,0,0.056035947,1.1970841,0.30163294,-0.10579073,-0.040927537,0.7802269,0.53536534,-0.5644855,0.9407508,-1.2395366,-0.030686341,-0.73858637,1.0256574,-1.7486811
-0.2,-0.2,0.9999999999999999,0.5235987755982988,0.0,0,-0.18259507,1.2570579,0.37826267,-0.44397303,-0.50726086,-0.45014793,0.9183971,-0.56301296,0.94458246,-1.2410574,-0.027383797,-0.7390424,1.0389686,-1.7539837
-0.2,-0.2,0.9999999999999999,0.5235987755982988,0.0,0,0.032602478,1.5101559,0.52860624,-0.26175034,-0.45503795,-0.25815168,0.56324905,-0.56188864,0.940618,-1.2455584,-0.027571099,-0.7330995,1.0246356,-1.7291887
-0.2,-0.2,0.9999999999999999,0.5235987755982988,0.0,0,0.037078075,1.1794753,0.18489818,-0.52507806,0.11991285,0.77485996,0.18023066,-0.5629668,0.9391667,-1.241282,-0.028506953,-0.7287007,1.0235169,-1.7359113
-0.2,-0.2,0.9999999999999999,0.5235987755982988,0.0,0,0.6052619,1.1568867,-0.41906992,0.0090974225,-0.1830536,0.89816445,0.22480442,-0.5616409,0.9417758,-1.2355696,-0.030481251,-0.73291653,1.0334989,-1.7425356
-0.2,-0.2,0.9999999999999999,0.5235987755982988,0.0,0,0.2499631,1.4871463,0.42637366,-0.36839688,-0.4968205,1.1673018,1.1827161,-0.561675,0.93956846,-1.2392668,-0.0295411,-0.7287286,1.0243205,-1.7270517
-0.2,-0.2,0.9999999999999999,0.5235987755982988,0.0,0,-0.1634547,0.9375782,-0.2450323,-0.5873107,-0.11633892,0.20886059,0.41788945,-0.56561136,0.9477684,-1.2405508,-0.026930498,-0.73150563,1.0263441,-1.7328483
-0.2,-0.2,0.9999999999999999,0.5235987755982988,0.0,0,-0.26659724,1.11542,0.05357178,0.22483478,-0.32930312,0.68976426,0.17491807,-0.5648866,0.93884623,-1.2409556,-0.028277954,-0.7283595,1.0286037,-1.737216
-0.2,-0.2,0.9999999999999999,0.5235987755982988,0.0,0,-0.1421878,1.2709402,0.2373819,0.0031453131,-0.11129145,-0.819003,1.3927399,-0.56238,0.9417471,-1.2380149,-0.03110751,-0.731263,1.0243523,-1.75313
-0.2,-0.2,0.9999999999999999,0.5235987755982988,0.0,0,-0.29103574,1.1816761,0.35651216,-0.025344925,0.19619603,-0.7158912,0.07822991,-0.5624859,0.9451547,-1.240753,-0.029474817,-0.7321732,1.0313011,-1.7417324
-0.2,-0.2,0.9999999999999999,0.5235987755982988,0.0,0,-0.27111363,0.93618596,0.43029633,-0.17660102,0.13174988,0.3290396,1.228981,-0.56443936,0.9404681,-1.2434644,-0.0292849,-0.72858477,1.021669,-1.748063
-0.2,-0.2,0.9999999999999999,0.5235987755982988,0.0,0,-0.57011044,1.4878601,0.1833247,-0.0658791,-0.43477955,-1.0731609,-0.5812713,-0.5657355,0.94201773,-1.238906,-0.028471218,-0.7332814,1.0185075,-1.7330961
-0.2,-0.2,0.9999999999999999,0.5235987755982988,0.0,0,-0.44364756,1.4149793,0.37828842,-0.18333338,-0.043430444,-0.89118075,0.73366946,-0.5655098,0.9338701,-1.2391443,-0.027496781,-0.7337392,1.0240301,-1.7370945
-0.2,-0.2,0.9999999999999999,0.5235987755982988,0.0,0,0.13692407,1.0751435,1.0731379,-0.27561435,-0.116432056,-0.7546901,0.2743802,-0.56326866,0.9454163,-1.2400595,-0.029207934,-0.73097414,1.0277618,-1.7232281
-0.2,-0.2,0.9999999999999999,0.5235987755982988,0.0,0,0.49483234,1.2722827,-0.0043086237,-0.13717397,-0.07787074,-0.43404186,-0.34434786,-0.56383747,0.93754625,-1.2395205,-0.028308215,-0.7323586,1.0250727,-1.7398877
-0.2,-0.2,0.9999999999999999,0.5235987755982988,0.0,0,0.48422313,1.2906861,1.4893165,-0.08825667,-0.5137264,-1.2578739,-0.016483987,-0.5640744,0.943158,-1.2394204,-0.026731826,-0.7265911,1.0265446,-1.7400689
-0.2,-0.2,0.9999999999999999,0.5235987755982988,0.0,0,-0.28053632,0.8302544,-0.18883117,0.24570991,-0.62965596,-0.45757285,1.2600117,-0.56497496,0.93506604,-1.2413185,-0.029148512,-0.73083144,1.0328971,-1.7324425
-0.2,-0.2,0.9999999999999999,0.5235987755982988,0.0,0,-0.08412346,1.7732449,0.37689906,-0.45721456,-0.17381938,0.931605,1.0081843,-0.567355,0.94108844,-1.2374564,-0.02913939,-0.7247319,1.0302744,-1.739461
-0.2,-0.2,0.9999999999999999,0.5235987755982988,0.0,0,-0.022757623,1.0596914,-0.8861169,-0.4134806,-0.14913873,0.5411637,0.40343717,-0.56494766,0.9403918,-1.2390294,-0.030237647,-0.7347405,1.0241016,-1.7289135
-0.2,-0.2,0.9999999999999999,0.5235987755982988,0.0,0,0.16530047,1.2318493,-0.12703797,-0.17935383,-0.36785895,-0.6393084,0.45730913,-0.5652002,0.9406789,-1.2400926,-0.029067043,-0.73415405,1.0310346,-1.7174783
-0.2,-0.2,0.9999999999999999,0.5235987755982988,0.0,0,-0.0609456,1.1805356,0.21870169,-0.18977559,0.20930028,0.14196874,0.7922559,-0.5626008,0.94073933,-1.2389454,-0.029928131,-0.73403484,1.0246685,-1.7285404
-0.2,-0.2,0.9999999999999999,0.5235987755982988,0.0,0,-1.0329744,1.522589,-0.79286873,-0.20884614,0.27186364,0.21604007,-0.34979516,-0.5659043,0.9386691,-1.2387149,-0.029134883,-0.7370491,1.0341823,-1.7415075
-0.2,-0.2,0.9999999999999999,0.5235987755982988,0.0,0,-0.64683795,1.6867466,0.175933,0.012987775,-0.46986124,-0.34612456,-0.23103218,-0.56484514,0.93801206,-1.2415422,-0.030393178,-0.73518294,1.0359871,-1.7287539
-0.2,-0.2,0.9999999999999999,0.5235987755982988,0.0,0,-0.2897818,1.2955903,0.26755804,-0.35543883,-0.31495488,-1.4937447,0.5200406,-0.5639737,0.94153345,-1.2407951,-0.027369447,-0.7329916,1.0250269,-1.7324646
-0.2,-0.2,0.9999999999999999,0.5235987755982988,0.0,0,-0.06590713,1.3603597,-0.2051009,-0.06602461,0.6561271,-0.93394,0.39816236,-0.56532675,0.9356355,-1.2389494,-0.02720966,-0.72884405,1.02894,-1.7437984
-0.2,-0.2,0.9999999999999999,0.5235987755982988,0.0,0,0.3213169,1.3080214,-0.38072935,0.058813024,0.058047127,0.029548397,0.13806543,-0.5659634,0.94588494,-1.2421591,-0.026544837,-0.7359655,1.023939,-1.7294859
-0.2,-0.2,0.9999999999999999,0.5235987755982988,0.0,0,-0.5308021,1.1260798,-0.5452647,-0.0060456954,0.18425998,-0.14837766,0.99504316,-0.5632201,0.9368611,-1.239357,-0.030683747,-0.726555,1.0319916,-1.7394382
-0.2,-0.2,0.9999999999999999,0.5235987755982988,0.0,0,-0.22713023,1.2587003,0.8819914,-0.008848092,0.1715211,0.47877246,-0.2638918,-0.56252205,0.9354427,-1.2376308,-0.027371284,-0.74010164,1.0310905,-1.7374836
-0.2,-0.2,0.9999999999999999,0.5235987755982988,0.0,0,-0.35023817,1.1624947,0.14349297,0.095180735,-0.22928524,0.4160112,-0.0565873,-0.5655194,0.94119436,-1.2387214,-0.029129934,-0.7376763,1.0318393,-1.731277
-0.2,-0.2,0.9999999999999999,0.5235987755982988,0.0,0,0.5307996,0.96139896,-0.09046766,-0.11854738,-0.049063057,0.13739714,0.8931444,-0.5613599,0.93647575,-1.2417207,-0.028564718,-0.73228455,1.0374753,-1.7357819
-0.2,-0.2,0.9999999999999999,0.5235987755982988,0.0,0,0.069929115,1.4027835,0.23012438,-0.12695584,-0.19387265,0.09110786,1.0068405,-0.56723964,0.93715847,-1.2394718,-0.026227811,-0.7305408,1.0175989,-1.7262381
-0.2,-0.2,0.9999999999999999,0.5235987755982988,0.0,0,-0.014529791,1.5108027,0.42952135,-0.14167349,-0.10353203,-0.077301815,0.36586663,-0.5604763,0.938715,-1.2420783,-0.026184708,-0.7380498,1.0212029,-1.738151
-0.2,-0.2,0.9999999999999999,0.5235987755982988,0.0,0,-0.1786136,1.2186931,-0.06446077,-0.19361372,0.12587304,-0.8333522,-0.47547293,-0.5641692,0.941904,-1.2398477,-0.029192524,-0.7314295,1.0262158,-1.7218919
-0.2,-0.2,0.9999999999999999,0.5235987755982988,0.0,0,0.02788379,1.1051276,0.29128304,0.065943256,-0.07926799,-0.34899253,1.3457555,-0.56412065,0.94333047,-1.2416124,-0.030230708,-0.73420614,1.0236148,-1.7347867
-0.2,-0.2,0.9999999999999999,0.5235987755982988,0.0,0,-0.013799285,1.1771533,-0.20893314,-0.20659125,-0.14250988,0.9813992,-0.1351724,-0.56446004,0.9410716,-1.2390301,-0.02762685,-0.7282705,1.026821,-1.7327951
-0.2,-0.2,0.9999999999999999,0.5235987755982988,0.0,0,0.06677493,1.1697992,0.25107715,-0.16584045,-0.39255205,-0.9064685,-0.3318102,-0.56456274,0.941087,-1.237363,-0.02672392,-0.7395845,1.0291696,-1.7241726
-0.2,-0.2,0.9999999999999999,0.5235987755982988,0.0,0,0.2656104,1.1979414,-0.16953997,0.114229955,0.36829546,1.3842627,1.3700666,-0.56529826,0.94047326,-1.2426882,-0.030183038,-0.7305204,1.0253316,-1.7445564
-0.2,-0.2,0.9999999999999999,0.5235987755982988,0.0,0,0.47254857,1.356591,0.12524192,-0.121515304,0.04290697,1.1802528,-0.88938373,-0.5652168,0.947118,-1.2416453,-0.029070683,-0.7281692,1.0270782,-1.7405678
-0.2,-0.2,0.9999999999999999,0.5235987755982988,0.0,0,0.303099,1.2984152,0.4665303,0.077777565,-0.10257905,0.68327045,0.8565536,-0.565086,0.9424717,-1.2370265,-0.028963624,-0.7259162,1.0172958,-1.7421203
-0.2,-0.2,0.9999999999999999,0.5235987755982988,0.0,0,0.098070994,1.3272911,0.2514671,0.012957593,0.15152389,-0.17709203,0.67166394,-0.56622356,0.9416623,-1.244852,-0.029432692,-0.7285873,1.0227988,-1.7285414
-0.2,-0.2,0.9999999999999999,0.5235987755982988,0.0,0,-0.5607117,1.033235,-0.41710335,-0.25095072,-0.2904322,-1.1344022,-0.32472372,-0.564613,0.93638,-1.2385507,-0.027851343,-0.73453563,1.0261004,-1.7348328
-0.2,-0.2,0.9999999999999999,0.5235987755982988,0.0,0,-0.66851354,1.4711099,0.5433213,-0.23927104,-0.2883581,0.6131399,0.17690483,-0.5626812,0.9411651,-1.242346,-0.03161061,-0.7308079,1.0311675,-1.7488017
-0.2,-0.2,0.9999999999999999,0.5235987755982988,0.0,0,-0.72548866,1.4353216,-0.56239253,-0.2155929,0.41319898,-0.040909942,0.37559614,-0.5650193,0.9398178,-1.2385678,-0.027814694,-0.73420787,1.0183785,-1.7446874
-0.2,-0.2,0.9999999999999999,0.5235987755982988,0.0,0,0.100901276,1.2193197,0.21290572,-0.006332606,-0.122462854,1.1400431,0.5774477,-0.56350285,0.9369497,-1.2418784,-0.028855931,-0.7323852,1.033482,-1.7381469
-0.2,-0.2,0.9999999999999999,0.5235987755982988,0.0,0,0.15779673,1.0272348,0.25033253,-0.0002802942,0.23431866,1.1337684,1.1243935,-0.5625669,0.9372152,-1.2354182,-0.029218042,-0.74234015,1.035832,-1.7469128
-0.2,-0.2,0.9999999999999999,0.5235987755982988,0.0,0,-0.30301586,1.3129301,0.36645895,-0.31069615,0.22257943,0.32180282,-0.49450687,-0.5660893,0.9390736,-1.2422388,-0.0296588,-0.73750097,1.0349004,-1.7236387
-0.2,-0.2,0.9999999999999999,0.5235987755982988,0.0,0,-0.5102625,1.0566912,0.1611374,-0.24874854,0.08562855,-0.824828,0.44551182,-0.5640951,0.94186735,-1.2398996,-0.029537776,-0.73355466,1.0345349,-1.7483507
-0.2,-0.2,0.9999999999999999,0.5235987755982988,0.0,0,-0.18783394,1.1113256,-0.56268966,-0.19191061,0.008219412,1.0248333,-0.5312117,-0.56716806,0.93942827,-1.2369884,-0.02951361,-0.73351014,1.0362742,-1.7273347
-0.2,-0.2,0.9999999999999999,0.5235987755982988,0.0,0,-0.4461845,1.110038,0.935883,-0.29337075,0.20992813,-1.3545111,1.1380559,-0.5655973,0.9374233,-1.2407998,-0.029141154,-0.7318827,1.0289379,-1.7312292
-0.2,-0.2,0.9999999999999999,0.5235987755982988,0.0,0,0.354379,1.0479227,0.05513925,0.050824225,-0.18142182,0.136128,1.3655642,-0.56412226,0.9393736,-1.2427319,-0.027606621,-0.7355372,1.0250956,-1.7315699
-0.2,-0.2,0.9999999999999999,0.5235987755982988,0.0,0,0.16322075,1.0729221,0.40982008,0.10693779,0.005605413,0.6860621,-0.17931564,-0.564559,0.9386873,-1.2397441,-0.030141078,-0.7292888,1.0319482,-1.742686
-0.2,-0.2,0.9999999999999999,0.5235987755982988,0.0,0,-0.14082795,1.0271347,0.40018418,0.1542571,-0.18653956,0.14106213,0.7531932,-0.5660378,0.94217074,-1.2331766,-0.030178843,-0.7334183,1.0214607,-1.7455738
-0.2,-0.2,0.9999999999999999,0.5235987755982988,0.0,0,-0.34125578,1.4381177,-0.82728136,-0.09681633,0.1447648,-0.27734613,-0.051665287,-0.5689776,0.93946654,-1.2410746,-0.028221428,-0.7322756,1.0309964,-1.7349806
-0.2,-0.2,0.9999999999999999,0.5235987755982988,0.0,0,-0.06858096,1.0784377,0.77899927,-0.17578529,-0.048792604,-0.92292875,0.7229334,-0.56446445,0.93900555,-1.2377914,-0.029350786,-0.73143065,1.0189838,-1.7517705
-0.2,-0.2,0.9999999999999999,0.5235987755982988,0.0,0,-0.21280056,1.3344182,-0.057025637,-0.18204167,-0.025533287,0.629555,-0.22317809,-0.56437373,0.9379816,-1.2403493,-0.029940601,-0.7314561,1.0310134,-1.7338071
-0.2,-0.2,0.9999999999999999,0.5235987755982988,0.0,0,-0.06483861,1.3735069,-0.71786714,-0.05243461,-0.030491956,0.22610754,0.5177518,-0.5641398,0.940346,-1.236983,-0.028402217,-0.73052377,1.0346726,-1.7402682
-0.2,-0.2,0.9999999999999999,0.5235987755982988,0.0,0,-0.32580814,1.4095975,0.42116717,-0.009903408,0.10907873,-0.37763464,0.8927039,-0.5632157,0.9393439,-1.234313,-0.029387977,-0.7354178,1.0327545,-1.7487271
-0.2,-0.2,0.9999999999999999,0.5235987755982988,0.0,0,-0.4303083,1.4775499,0.44514978,0.048681363,-0.1740619,0.3303142,0.51597536,-0.5655105,0.9387372,-1.2435765,-0.02679215,-0.7347011,1.0265639,-1.7401975
-0.2,-0.2,0.9999999999999999,0.5235987755982988,0.0,0,-0.24168429,1.7856749,-0.12036745,0.057169944,-0.045539316,-0.35600117,0.3223305,-0.5653574,0.9508324,-1.2413731,-0.027303115,-0.7355103,1.0258051,-1.7436651
-0.2,-0.2,0.9999999999999999,0.5235987755982988,0.0,0,-0.24605936,1.3262194,-0.4280514,-0.23277779,0.06474064,0.5147736,1.4022654,-0.56578064,0.9480166,-1.2457076,-0.029380906,-0.73520106,1.0265108,-1.7465389
-0.2,-0.2,0.9999999999999999,0.5235987755982988,0.0,0,-0.15955663,1.0014696,0.65196526,-0.05276063,0.04593913,-1.0194188,1.5808344,-0.56542766,0.9344579,-1.2374831,-0.025791518,-0.73716706,1.026975,-1.737004
-0.2,-0.2,0.9999999999999999,0.5235987755982988,0.0,0,0.54032487,1.319438,-0.40739924,-0.17177804,-0.40739277,0.20399885,0.7383561,-0.5629547,0.9387129,-1.2372637,-0.030239213,-0.7332679,1.0345997,-1.7328347
-0.2,-0.2,0.9999999999999999,0.5235987755982988,0.0,0,-0.009225986,1.0558869,0.20591003,-0.039069317,-0.5177116,-0.2210182,0.4880281,-0.5650805,0.95022404,-1.245399,-0.030855985,-0.72585493,1.0268826,-1.7213887
-0.2,-0.2,0.9999999999999999,0.5235987755982988,0.0,0,-0.039320234,0.93698245,1.1131425,0.0076172883,0.14254734,-0.2211245,0.1239709,-0.5653203,0.93969053,-1.2373887,-0.029806726,-0.7327683,1.0355496,-1.7359765
-0.2,-0.2,0.9999999999999999,0.5235987755982988,0.0,0,-0.30214122,1.3023868,-0.081207715,-0.12460881,-0.5235247,-0.20227061,-0.16536885,-0.56160367,0.94094485,-1.2425768,-0.028466463,-0.7318816,1.0264136,-1.7276038
-0.2,-0.2,0.9999999999999999,0.5235987755982988,0.0,0,-0.46654245,1.1090002,-0.20151429,-0.012344336,-0.53103715,0.7928861,0.6642359,-0.5645308,0.941411,-1.2372266,-0.029475786,-0.739283,1.0320345,-1.7384212
-0.2,-0.2,0.9999999999999999,0.5235987755982988,0.0,0,-0.43087515,0.30315563,0.07342562,-0.041724186,-0.0874637,1.254836,-0.3985221,-0.5637853,0.94006664,-1.2440869,-0.027723735,-0.73432094,1.03818,-1.7344077
-0.2,-0.2,0.9999999999999999,0.5235987755982988,0.0,0,-0.015522672,1.3088075,-0.8016142,-0.024515593,-0.08480641,0.8396483,0.51360613,-0.56282806,0.94243616,-1.2386663,-0.028883712,-0.7344166,1.0215952,-1.7387182
-0.2,-0.2,0.9999999999999999,0.5235987755982988,0.0,0,-0.041351337,1.1526172,0.049570758,-0.01120348,-0.3819166,0.49338725,0.2578963,-0.56349385,0.942614,-1.2402519,-0.032442745,-0.72818685,1.0309473,-1.7361916
-0.2,-0.2,0.9999999999999999,0.5235987755982988,0.0,0,-0.907993,1.0454106,0.6005052,-0.14588656,-0.04916483,0.038953863,0.09629414,-0.56409335,0.93965006,-1.2354467,-0.031881392,-0.73740274,1.0291007,-1.7367975
-0.2,-0.2,0.9999999999999999,0.5235987755982988,0.0,0,0.1922779,1.0525349,0.14461471,-0.14404857,0.19550931,0.11238875,0.6340014,-0.56479985,0.94363093,-1.2378758,-0.031878274,-0.73536855,1.0232387,-1.745097
-0.2,-0.2,0.9999999999999999,0.5235987755982988,0.0,0,-0.22008064,1.052718,0.66122437,-0.25948986,0.21340518,0.82338554,0.06472467,-0.5626908,0.93953365,-1.2387363,-0.029869754,-0.73332906,1.0302606,-1.7275625
-0.2,-0.2,0.9999999999999999,0.5235987755982988,0.0,0,-0.54748327,1.068667,-0.07503287,-0.040575743,-0.30038705,0.9061479,0.97895825,-0.5629204,0.94834644,-1.2471484,-0.028079825,-0.7325648,1.0408099,-1.7398051
-0.2,-0.2,0.9999999999999999,0.5235987755982988,0.0,0,0.05396923,1.4189508,0.23032776,0.08084474,-0.07923715,-1.3632207,0.30613726,-0.56643474,0.945856,-1.2432065,-0.02557274,-0.7319895,1.0217681,-1.7276919
-0.2,-0.2,0.9999999999999999,0.5235987755982988,0.0,0,-0.44703904,1.1955193,-0.3376322,0.10769481,-0.0852701,0.45904338,0.62326604,-0.5705594,0.93236256,-1.2390515,-0.02948276,-0.7303304,1.0244576,-1.7344848
-0.2,-0.2,0.9999999999999999,0.5235987755982988,0.0,0,-0.30332646,1.3200408,0.5853142,-0.030815473,-0.47131577,0.9128793,-0.26685244,-0.5628572,0.9413218,-1.2426561,-0.029261095,-0.7251565,1.0265485,-1.7384272
-0.2,-0.2,0.9999999999999999,0.5235987755982988,0.0,0,-0.16377486,1.6342945,-0.50824434,-0.035226904,0.0041218493,-0.120033294,0.13432951,-0.5680441,0.94183236,-1.2395948,-0.02796836,-0.7314064,1.0266808,-1.7371466
-0.2,-0.2,0.9999999999999999,0.5235987755982988,0.0,0,0.3309654,1.1514548,-0.6199286,0.119557165,-0.060963664,1.1082784,-0.11488885,-0.5640525,0.93425846,-1.2342023,-0.027182767,-0.74187094,1.0373143,-1.731842
-0.2,-0.2,0.9999999999999999,0.5235987755982988,0.0,0,0.28372204,1.429013,-0.42912087,-0.06621927,-0.14140789,0.54239726,1.5425212,-0.56577647,0.93741304,-1.2412168,-0.027757833,-0.73817086,1.0349219,-1.7296493
-0.2,-0.2,0.9999999999999999,0.5235987755982988,0.0,0,-0.6570781,1.4987403,0.06869561,-0.1454204,-0.043294758,-0.5843732,0.9706733,-0.5642655,0.9357123,-1.2392707,-0.026080566,-0.73064506,1.0271974,-1.7351204
-0.2,-0.2,0.9999999999999999,0.5235987755982988,0.0,0,0.11880599,1.2244319,-1.3354771,0.05964252,-0.30296743,0.86508566,0.8062671,-0.56368995,0.93761486,-1.2397686,-0.02846298,-0.7300167,1.0429862,-1.7443866
-0.2,-0.2,0.9999999999999999,0.5235987755982988,0.0,0,0.6118471,1.4210002,-0.29695338,0.10891712,-0.16831249,0.30305117,1.1667471,-0.5645583,0.94562155,-1.2418462,-0.028083043,-0.73564,1.0330276,-1.7320442
-0.2,-0.2,0.9999999999999999,0.5235987755982988,0.0,0,0.07580968,1.2835608,-0.5020653,0.07645393,0.035433736,1.2381384,0.343355,-0.56708926,0.93505853,-1.2409786,-0.026680358,-0.73007816,1.0275401,-1.7388864
-0.2,-0.2,0.9999999999999999,0.5235987755982988,0.0,0,0.0812936,1.0649405,-0.6842375,-0.47526178,0.26296577,0.8561871,0.78702486,-0.564406,0.9355333,-1.2382514,-0.028329806,-0.7305474,1.0294058,-1.7314843
-0.2,-0.2,0.9999999999999999,0.5235987755982988,0.0,0,-0.10482299,1.0294005,-0.0016430286,-0.10101661,-0.0468947,-0.9507673,1.2833425,-0.56611204,0.9396113,-1.2344664,-0.029516848,-0.73249364,1.036934,-1.7383548
-0.2,-0.2,0.9999999999999999,0.5235987755982988,0.0,0,-0.12831151,1.2825671,1.5136983,0.2959451,-0.086839095,0.104959905,-0.18094145,-0.56726426,0.93910056,-1.2371423,-0.027476631,-0.73634255,1.0349011,-1.7323799
-0.2,-0.2,0.9999999999999999,0.5235987755982988,0.0,0,0.20587835,1.4678041,-0.15227629,0.042270467,-0.7040446,-1.0010306,0.665036,-0.5659938,0.94183344,-1.240272,-0.026548607,-0.73685616,1.0247545,-1.7269256
-0.2,-0.2,0.9999999999999999,0.5235987755982988,0.0,0,0.5984248,0.8820572,0.77452564,-0.29993483,-0.109530136,1.2928277,-0.57707846,-0.56652534,0.9361819,-1.2377911,-0.026561206,-0.7370768,1.0253962,-1.7419323
-0.2,-0.2,0.9999999999999999,0.5235987755982988,0.0,0,-0.2105547,1.3513262,-0.1523151,-0.16795702,0.14147003,-0.85278267,0.07872279,-0.56367105,0.9361299,-1.2390333,-0.027006958,-0.73268545,1.032283,-1.7397665
-0.2,-0.2,0.9999999999999999,0.5235987755982988,0.0,0,1.1391757,0.9815213,-0.63418597,0.1740351,0.61752176,-1.0211942,0.40958035,-0.563789,0.93597615,-1.2373115,-0.028892003,-0.73653495,1.0377901,-1.7287142
-0.2,-0.2,0.9999999999999999,0.5235987755982988,0.0,0,-0.5681172,1.208187,0.27774456,-0.083405405,0.20585696,-0.061733447,0.25659895,-0.5647413,0.9432868,-1.2391062,-0.029073551,-0.73109293,1.0269605,-1.7430984
-0.2,-0.2,0.9999999999999999,0.5235987755982988,0.0,0,0.86280376,1.4356742,-0.16141693,0.12664111,0.21589044,1.0491933,0.44924614,-0.5612761,0.93802315,-1.2413112,-0.028229412,-0.73349774,1.0312903,-1.7472012
-0.2,-0.2,0.9999999999999999,0.5235987755982988,0.0,0,-0.42128953,1.3420261,-0.6540049,-0.042859513,-0.19783695,1.0674857,0.43333855,-0.56526315,0.939417,-1.2402372,-0.02872671,-0.73143023,1.029388,-1.7416807
-0.2,-0.2,0.9999999999999999,0.5235987755982988,0.0,0,-0.44012877,0.93298924,-0.011885175,0.15968469,-0.54384863,1.0854634,1.1809762,-0.56251144,0.9428239,-1.2350473,-0.029084222,-0.73370695,1.0261786,-1.7431462
-0.2,-0.2,0.9999999999999999,0.5235987755982988,0.0,0,0.49113855,1.5985543,-0.35522926,0.04931852,-0.5041038,1.2608222,1.1386169,-0.5638171,0.93892294,-1.2412379,-0.028835105,-0.72762555,1.0281025,-1.7386267
-0.2,-0.2,0.9999999999999999,0.5235987755982988,0.0,0,-0.78554255,0.892395,-0.058470532,-0.29248843,0.20547695,0.7847518,-0.53195596,-0.5649792,0.9359726,-1.2373855,-0.027517391,-0.7367315,1.0222622,-1.7299916
-0.2,-0.2,0.9999999999999999,0.5235987755982988,0.0,0,0.8617329,1.2095596,0.65078264,-0.11269656,-0.48346546,0.44048145,0.24712513,-0.5626219,0.9486189,-1.2434161,-0.028663998,-0.7351114,1.0209491,-1.7281172
-0.2,-0.2,0.9999999999999999,0.5235987755982988,0.0,0,0.59076005,1.1849425,1.1805855,-0.23615359,-0.20186527,-0.26695535,-0.26372945,-0.56494695,0.939449,-1.2392762,-0.025878698,-0.7385449,1.044636,-1.7355474
-0.2,-0.2,0.9999999999999999,0.5235987755982988,0.0,0,0.24536692,1.196587,0.1553419,-0.20572682,0.27682656,-0.83914363,-0.34608164,-0.56386244,0.9424223,-1.2389123,-0.028885623,-0.7319951,1.0303625,-1.7408533
-0.2,-0.2,0.9999999999999999,0.5235987755982988,0.0,0,0.27556837,1.2047737,0.043138944,-0.008986716,0.31006074,1.0278685,0.53381246,-0.56494325,0.93712145,-1.2409439,-0.029091688,-0.7349843,1.0315133,-1.7348316
-0.2,-0.2,0.9999999999999999,0.5235987755982988,0.0,0,0.43038937,1.2294202,0.6524247,0.20845644,-0.07033105,1.0693034,-0.44903016,-0.56443185,0.9458679,-1.2432925,-0.028030355,-0.73060435,1.0366957,-1.7429198
-0.2,-0.2,0.9999999999999999,0.5235987755982988,0.0,0,-0.036455575,1.3413345,0.020104963,0.025827944,-0.014221709,1.42715,-0.69046277,-0.564293,0.93904126,-1.238408,-0.028003642,-0.7305186,1.0312678,-1.7390808
-0.2,-0.2,0.9999999999999999,0.5235987755982988,0.0,0,0.0374983,1.0990801,-0.005072887,-0.17649542,-0.05641243,-0.35105142,0.25313655,-0.56430453,0.9470148,-1.2379642,-0.027883304,-0.7279368,1.0135859,-1.742646
-0.2,-0.2,0.9999999999999999,0.5235987755982988,0.0,0,-0.653897,0.95926046,0.040258028,-0.06592091,-0.11036053,0.816357,0.6942372,-0.566185,0.9406156,-1.2384853,-0.029169478,-0.7285076,1.0345737,-1.7455418
-0.2,-0.2,0.9999999999999999,0.5235987755982988,0.0,0,0.053961504,1.4135623,-0.40352532,-0.13194415,-0.3432739,0.57938105,-1.2368778,-0.56293344,0.9374665,-1.2385652,-0.02787039,-0.73028535,1.024037,-1.7451549
-0.2,-0.2,0.9999999999999999,0.5235987755982988,0.0,0,-0.3406765,1.2006369,-0.4828359,0.20615809,0.20789608,1.5375917,-0.13040304,-0.56969655,0.93529814,-1.2391403,-0.028939288,-0.7323194,1.0304422,-1.7482982
-0.2,-0.2,0.9999999999999999,0.5235987755982988,0.0,0,0.79884326,1.6150875,-0.7278244,-0.24290821,-0.08154266,0.4295867,0.08458376,-0.56559753,0.94265026,-1.2364372,-0.026193146,-0.7357705,1.0312157,-1.7346551
-0.2,-0.2,0.9999999999999999,0.5235987755982988,0.0,0,0.0047820993,1.1371424,0.1875988,-0.044833295,-0.394895,-0.16976054,0.42897362,-0.56400007,0.94075245,-1.236557,-0.0313626,-0.73100543,1.0281799,-1.7470274
-0.2,-0.2,0.9999999999999999,0.5235987755982988,0.0,0,-0.42455113,1.2008475,-0.38579097,-0.081265055,-0.35856494,-0.22685885,0.41340303,-0.5671039,0.950925,-1.2427486,-0.02808551,-0.733977,1.0293472,-1.7378845
-0.2,-0.2,0.9999999999999999,0.5235987755982988,0.0,0,0.33048287,1.0919634,0.89859164,-0.15684074,0.2725089,0.029659783,-0.71615326,-0.5641303,0.9394233,-1.2392843,-0.02767525,-0.73059815,1.0315473,-1.7412636
-0.2,-0.2,0.9999999999999999,0.5235987755982988,0.0,0,-0.44698203,0.92128676,1.2335036,0.035601217,0.47463357,0.86635786,0.4793045,-0.56809366,0.9421455,-1.2400533,-0.028979177,-0.7353508,1.0296665,-1.7193346
-0.2,-0.2,0.9999999999999999,0.5235987755982988,0.0,0,0.3667566,1.1422966,-0.016270135,0.01272056,0.24887712,0.15243186,0.9431618,-0.56478924,0.94362456,-1.2403967,-0.028851919,-0.7349642,1.0403473,-1.7476085
-0.2,-0.2,0.9999999999999999,0.5235987755982988,0.0,0,0.7374012,0.5610901,-0.92366076,-0.2800544,-0.28781667,-0.95572364,0.31480813,-0.5667936,0.94599766,-1.2360064,-0.028037926,-0.73440456,1.0270033,-1.7485864
-0.2,-0.2,0.9999999999999999,0.5235987755982988,0.0,0,-0.071095414,1.5012087,0.4767918,0.026305918,-0.0073544984,-0.42327395,0.28908357,-0.5640345,0.9364235,-1.2412518,-0.02556898,-0.7319363,1.031702,-1.7343777
-0.2,-0.2,0.9999999999999999,0.5235987755982988,0.0,0,0.3668477,1.0347656,-0.16715394,-0.10839788,0.07942989,-0.25823724,0.73415923,-0.5656736,0.94053715,-1.2347147,-0.028863233,-0.7337241,1.0372467,-1.7424829
-0.2,-0.2,0.9999999999999999,0.5235987755982988,0.0,0,0.5702195,1.4972463,0.35745582,-0.0010227384,0.18011293,1.1020093,-0.54318666,-0.5685293,0.9363827,-1.2391093,-0.026494374,-0.73213416,1.031389,-1.7324848
-0.2,-0.2,0.9999999999999999,0.5235987755982988,0.0,0,-0.30447093,1.2580149,0.03239831,-0.32559276,-0.17308779,-1.289893,0.2011779,-0.5631582,0.9394587,-1.2371162,-0.030689644,-0.7358133,1.0309118,-1.738103
-0.2,-0.2,0.9999999999999999,0.5235987755982988,0.0,0,-0.53761715,1.1022615,-0.47572103,-0.05282949,-0.11491246,-0.4724067,-0.26385736,-0.5626279,0.94275206,-1.240209,-0.030281842,-0.7317977,1.0338266,-1.7312082
-0.2,-0.2,0.9999999999999999,0.5235987755982988,0.0,0,-0.47503674,0.92717355,0.43287176,0.21503127,0.2158628,-0.28007346,1.1406581,-0.56696737,0.9487967,-1.2426487,-0.028101644,-0.73608184,1.0430211,-1.7373887
-0.2,-0.2,0.9999999999999999,0.5235987755982988,0.0,0,-0.046708576,1.1041894,1.2235788,-0.005450435,0.16481498,0.2973736,-0.032827694,-0.56571823,0.94491947,-1.2372569,-0.028543925,-0.73869205,1.0185536,-1.7225432
-0.2,-0.2,0.9999999999999999,0.5235987755982988,0.0,0,0.6132914,1.3653749,-0.2828883,-0.15899895,-0.0018110558,-0.6760404,0.5734774,-0.5675948,0.93952256,-1.2400017,-0.026870439,-0.73424834,1.0299889,-1.7346216
-0.2,-0.2,0.9999999999999999,0.5235987755982988,0.0,0,-0.7142112,1.3853116,0.041242603,0.12011279,0.07588653,0.74892706,0.68234646,-0.5650906,0.949788,-1.2414144,-0.029164765,-0.7317821,1.0163903,-1.736248
-0.2,-0.2,0.9999999999999999,0.5235987755982988,0.0,0,-0.3532195,1.5787386,-0.02709901,-0.07920533,-0.5185554,0.13203351,-0.16209482,-0.5645466,0.94247144,-1.238982,-0.028019182,-0.73299104,1.0317913,-1.7363974
-0.2,-0.2,0.9999999999999999,0.5235987755982988,0.0,0,0.08771134,0.9763703,0.7450957,-0.19316816,-0.3500071,-0.76239246,0.7184645,-0.5640836,0.94446594,-1.2355572,-0.027335828,-0.7360231,1.0277712,-1.7515255
-0.2,-0.2,0.9999999999999999,0.5235987755982988,0.0,0,-0.23533776,1.1612314,-0.3493247,4.5472338e-05,0.25862342,-1.0762627,0.6027197,-0.56378794,0.9400649,-1.2360233,-0.027570523,-0.73673016,1.0335991,-1.7499526
-0.2,-0.2,0.9999999999999999,0.5235987755982988,0.0,0,0.29866174,1.4885786,0.5944091,-0.38971663,0.02783887,0.47012803,1.2779583,-0.56733304,0.93759346,-1.2410891,-0.026232606,-0.7317058,1.0328524,-1.7425982
-0.2,-0.2,0.9999999999999999,0.5235987755982988,0.0,0,-0.3071689,1.3247303,-0.41595533,-0.019373408,-0.34951845,1.2237322,1.310428,-0.5639742,0.94010305,-1.2337928,-0.029402895,-0.73589426,1.0325247,-1.732699
-0.2,-0.2,0.9999999999999999,0.5235987755982988,0.0,0,0.31575835,1.4909899,0.54301727,-0.4969151,0.24581014,-1.1016035,0.4259521,-0.56299883,0.94517016,-1.2372962,-0.027864916,-0.7324103,1.0362453,-1.7418134
-0.2,-0.2,0.9999999999999999,0.5235987755982988,0.0,0,-0.20606206,1.2285264,0.98740286,-0.22915995,0.30006936,-0.78018737,-0.5047954,-0.5691382,0.9408166,-1.2405331,-0.027321286,-0.7335108,1.0307927,-1.7350708
-0.2,-0.2,0.9999999999999999,0.5235987755982988,0.0,0,-0.6576099,1.1123091,0.16914032,-0.1450079,-0.20191135,-0.92550534,0.278983,-0.56365156,0.9422464,-1.2359923,-0.02909148,-0.7367226,1.0349776,-1.746266
-0.2,-0.2,0.9999999999999999,0.5235987755982988,0.0,0,-0.0166396,1.1001961,-0.25293925,-0.12985142,-0.0014394975,-0.06917605,0.58098835,-0.5662039,0.9369,-1.2379047,-0.028021218,-0.73411816,1.0354382,-1.7398872
-0.2,-0.2,0.9999999999999999,0.5235987755982988,0.0,0,-0.08247936,1.2643316,-0.26526293,-0.18411085,0.21796907,-1.1154191,1.0378827,-0.56283635,0.9424964,-1.2371098,-0.027617352,-0.7344433,1.0260807,-1.7388314
-0.2,-0.2,0.9999999999999999,0.5235987755982988,0.0,0,0.32740453,1.4211088,-0.05177101,-0.13254188,0.14902633,-0.12519276,-0.35390365,-0.5667955,0.94486076,-1.2414042,-0.028248848,-0.7308132,1.0367835,-1.7361397
-0.2,-0.2,0.9999999999999999,0.5235987755982988,0.0,0,0.19824533,1.4132395,0.6235701,0.28779167,-0.085055694,0.9431857,0.011180013,-0.56651264,0.9414419,-1.2390672,-0.027132275,-0.7342511,1.0357813,-1.7347949
-0.2,-0.2,0.9999999999999999,0.5235987755982988,0.0,0,-0.3582456,1.5132055,0.19706401,-0.24650908,-0.08333307,1.262506,1.1269729,-0.56640166,0.9478454,-1.2454988,-0.029457983,-0.73141545,1.0424222,-1.7442266
-0.2,-0.2,0.9999999999999999,0.5235987755982988,0.0,0,-0.29826623,1.0792097,0.31061098,-0.321664,-0.2959402,0.67766225,1.0323381,-0.56331795,0.9371895,-1.239065,-0.028135778,-0.73166806,1.0324938,-1.729614
-0.2,-0.2,0.9999999999999999,0.5235987755982988,0.0,0,-0.46198034,1.4573145,0.12337138,-0.19325309,-0.19405587,0.43382025,0.029969921,-0.5624644,0.9401517,-1.2368548,-0.028596962,-0.73378134,1.034972,-1.7441405
-0.2,-0.2,0.9999999999999999,0.5235987755982988,0.0,0,-0.39406407,0.99709386,0.96899277,0.020733176,-0.04459096,1.0254589,0.48041385,-0.5654697,0.9339385,-1.2375885,-0.025263933,-0.7353819,1.0322429,-1.7407577
-0.2,-0.2,0.9999999999999999,0.5235987755982988,0.0,0,0.251975,0.87502885,-0.2467248,-0.3313412,-0.27333406,0.26608005,0.5311431,-0.5636164,0.93819994,-1.2381268,-0.027432842,-0.72764397,1.022353,-1.7307389
-0.2,-0.2,0.9999999999999999,0.5235987755982988,0.0,0,-0.13248855,1.2412032,-1.3043177,-0.020795519,-0.2641835,0.3635942,-0.6096446,-0.563598,0.93897825,-1.2403494,-0.024394818,-0.72996837,1.0321573,-1.7440875
-0.2,-0.2,0.9999999999999999,0.5235987755982988,0.0,0,-0.45250586,1.1745471,0.9369014,-0.055036716,-0.00025600003,-1.5540018,-0.102236375,-0.5667442,0.94904333,-1.2420994,-0.030547287,-0.7285809,1.033806,-1.7481095
-0.2,-0.2,0.9999999999999999,0.5235987755982988,0.0,0,0.31781226,1.2716035,0.58066005,-0.07674617,-0.16961464,-0.7774468,-0.08396501,-0.563902,0.9407332,-1.2354805,-0.027408803,-0.73684627,1.0254036,-1.741729
-0.2,-0.2,0.9999999999999999,0.5235987755982988,0.0,0,-0.07609793,1.0002239,0.46003026,-0.07520147,-0.29298073,-0.5154051,0.19362259,-0.56346655,0.94543487,-1.2388484,-0.02820827,-0.73002326,1.0293301,-1.7569635
-0.2,-0.2,0.9999999999999999,0.5235987755982988,0.0,0,-0.35246488,1.3828125,0.86988354,-0.15361689,0.08283518,0.15934871,0.1282978,-0.56418663,0.94550276,-1.2450788,-0.030484518,-0.72810084,1.0307031,-1.7475471
-0.2,-0.2,0.9999999999999999,0.5235987755982988,0.0,0,-0.32537332,1.0040245,-0.46911696,0.0056640524,-0.1254407,0.571535,0.6947776,-0.56802267,0.9388305,-1.2405084,-0.025568819,-0.73565745,1.0310624,-1.7349268
-0.2,-0.2,0.9999999999999999,0.5235987755982988,0.0,0,-0.46817526,1.1176082,0.80015284,-0.07860882,0.033570416,-0.9856946,1.1166698,-0.5631535,0.94632053,-1.2382065,-0.027900621,-0.7336421,1.0277085,-1.7328649
-0.2,-0.2,0.9999999999999999,0.5235987755982988,0.0,0,-0.505611,1.2537985,0.8654224,0.11102271,-0.27433237,1.4157815,0.78582704,-0.56720716,0.9449132,-1.2400026,-0.028898738,-0.7301043,1.0356587,-1.7386862
-0.2,-0.2,0.9999999999999999,0.5235987755982988,0.0,0,-0.016917098,1.1960343,1.2909937,-0.10983941,-0.43622863,0.10484149,0.38430786,-0.5633503,0.94622713,-1.2359016,-0.027595999,-0.7318069,1.0271584,-1.7374282
-0.2,-0.2,0.9999999999999999,0.5235987755982988,0.0,0,-0.06961571,1.320037,0.031924106,0.16796666,0.12975045,0.112047024,0.5977534,-0.56338567,0.9429791,-1.239661,-0.029769203,-0.726387,1.023776,-1.7335234
-0.2,-0.2,0.9999999999999999,0.5235987755982988,0.0,0,-0.07273317,0.9317134,-0.44738132,-0.2516018,-0.026401686,0.56500894,-0.38473803,-0.56605375,0.941131,-1.2386436,-0.02620195,-0.7306832,1.0276144,-1.7360876
-0.2,-0.2,0.9999999999999999,0.5235987755982988,0.0,0,-0.19778366,1.355602,0.19917865,-0.2362491,-0.31335124,0.64414465,-0.12000345,-0.5666979,0.94361645,-1.2443497,-0.026960934,-0.73376894,1.0307031,-1.7364774
-0.2,-0.2,0.9999999999999999,0.5235987755982988,0.0,0,0.40214732,1.5110945,0.32340074,-0.12378597,-0.19526802,0.12034717,0.30578157,-0.5664398,0.9417661,-1.2433566,-0.027793344,-0.73063993,1.0371885,-1.7284147
-0.2,-0.2,0.9999999999999999,0.5235987755982988,0.0,0,-0.22831357,1.1061559,0.86400217,-0.3605131,-0.15860678,0.6823001,0.7660024,-0.5655633,0.94986707,-1.240263,-0.030006452,-0.73097605,1.019002,-1.7286332
-0.2,-0.2,0.9999999999999999,0.5235987755982988,0.0,0,-0.71024644,1.2577653,-0.60339093,0.0071168286,0.29613063,0.005776747,-0.30168095,-0.5652393,0.9406756,-1.2362018,-0.027731115,-0.7448318,1.0309491,-1.7269576
-0.2,-0.2,0.9999999999999999,0.5235987755982988,0.0,0,0.27040127,1.1440234,0.50302655,-0.004211492,-0.40424752,-0.6206608,0.8819178,-0.56590664,0.9461528,-1.2400329,-0.027649889,-0.7351453,1.035383,-1.731461
-0.2,-0.2,0.9999999999999999,0.5235987755982988,0.0,0,0.03383941,1.4437016,-0.31740645,0.14083987,-0.1379964,1.3170981,-0.20453471,-0.5657007,0.94600093,-1.2374336,-0.03086571,-0.7289087,1.0247864,-1.7411445
-0.2,-0.2,0.9999999999999999,0.5235987755982988,0.0,0,-0.35376716,1.4206269,-0.214983,-0.06690023,0.063406475,0.39481106,0.36164647,-0.56580895,0.9460879,-1.238028,-0.030125123,-0.7419641,1.027625,-1.7344856
-0.2,-0.2,0.9999999999999999,0.5235987755982988,0.0,0,0.18660182,1.4404776,0.39742815,0.00023245662,0.092651464,0.5941998,0.36145833,-0.5629391,0.9412289,-1.2360346,-0.026579415,-0.73550785,1.0339329,-1.746468
-0.2,-0.2,0.9999999999999999,0.5235987755982988,0.0,0,0.02846811,1.1994448,-0.96090984,0.066712484,-0.17699689,-0.3656609,1.2270485,-0.56231743,0.933986,-1.2371302,-0.027078504,-0.7329468,1.0304108,-1.7371103
-0.2,-0.2,0.9999999999999999,0.5235987755982988,0.0,0,0.37682766,0.9053797,-0.2225006,-0.1704612,0.08197446,0.5770025,-0.1676157,-0.5631934,0.9436194,-1.237278,-0.027746048,-0.7372962,1.0236421,-1.7542075
-0.2,-0.2,0.9999999999999999,0.5235987755982988,0.0,0,-0.20755734,1.0074297,0.10491779,-0.14978042,-0.22568043,1.1831466,0.8590439,-0.5640278,0.9444421,-1.2417511,-0.028248781,-0.7378775,1.0240368,-1.7251631
-0.2,-0.2,0.9999999999999999,0.5235987755982988,0.0,0,0.31087694,1.0935978,0.0013420904,-0.14886807,0.23995842,0.093636006,0.9759377,-0.56559634,0.9418138,-1.2423993,-0.029879788,-0.7306586,1.0193809,-1.7228382
-0.2,-0.2,0.9999999999999999,0.5235987755982988,0.0,0,-0.076470666,1.3927647,0.3220394,0.16597249,-0.465935,0.16717878,1.0470154,-0.56508285,0.93789494,-1.2461894,-0.028122371,-0.7247632,1.0248952,-1.7446693
-0.2,-0.2,0.9999999999999999,0.5235987755982988,0.0,0,0.10390709,1.219778,0.82088804,-0.0825524,-0.077601574,0.5035901,0.36741534,-0.5644001,0.94348675,-1.2410319,-0.029299993,-0.7358055,1.0268083,-1.7237386
-0.2,-0.2,0.9999999999999999,0.5235987755982988,0.0,0,-0.63066673,1.6099125,0.32451734,0.014276665,-0.14983188,-0.26719472,0.57601166,-0.5674363,0.94061005,-1.2405397,-0.027735181,-0.73570263,1.0181749,-1.7425448
-0.2,-0.2,0.9999999999999999,0.5235987755982988,0.0,0,-0.6615692,1.3705597,0.31986725,0.017956989,-0.24291357,-0.91851795,0.4762286,-0.5664356,0.9389373,-1.2432112,-0.030558063,-0.730668,1.0413237,-1.7359064
