sanky1234/BimanualDexCatch/isaacgymenvs/cem_results/football_pose_-0.1_0.1_0.7_0.0_-0.5235987755982988_0_2025-05-26.csv
x,y,z,roll,pitch,yaw,robot1/joint1,robot1/joint2,robot1/joint3,robot1/joint4,robot1/joint5,robot1/joint6,robot1/joint7,robot2/joint1,robot2/joint2,robot2/joint3,robot2/joint4,robot2/joint5,robot2/joint6,robot2/joint7
-0.1,0.1,0.7,0.0,-0.5235987755982988,0,0.44654694,1.3098421,0.072385214,-0.113757916,0.11739056,1.4152588,0.15875094,0.92915016,1.2744467,0.33045334,-0.07231987,-0.3992773,1.2349645,0.8611865
-0.1,0.1,0.7,0.0,-0.5235987755982988,0,0.44840914,1.2995485,0.06957359,-0.09727596,0.12691961,1.4071697,0.046589866,0.037389815,1.380875,0.3020302,-0.06384416,0.09767303,1.274992,0.834994
-0.1,0.1,0.7,0.0,-0.5235987755982988,0,0.44480196,1.3058052,0.064701326,-0.10725914,0.12738632,1.4104567,0.08040139,0.51550454,1.2759502,-0.32312638,-0.09268432,0.069380835,1.1451929,0.98713577
-0.1,0.1,0.7,0.0,-0.5235987755982988,0,0.4433508,1.3001575,0.0540688,-0.098255046,0.1104638,1.4106922,0.12138565,0.9520112,1.183279,-0.11381002,-0.06981588,-0.046509095,1.4224421,0.76961714
-0.1,0.1,0.7,0.0,-0.5235987755982988,0,0.4414972,1.3043483,0.06577569,-0.104776286,0.09781108,1.4113773,0.052654658,0.3067131,1.3049612,0.04920368,-0.1246556,0.18329409,1.2769186,1.2360729
-0.1,0.1,0.7,0.0,-0.5235987755982988,0,0.43495962,1.2927015,0.06122301,-0.082969874,0.13981003,1.413171,0.054731652,0.53680253,1.4263322,0.46376997,-0.04686068,-0.20716646,1.1977137,0.6526296
-0.1,0.1,0.7,0.0,-0.5235987755982988,0,0.44224373,1.3009388,0.06407516,-0.10095416,0.14706294,1.414073,0.10308988,0.35839957,1.3745797,0.29419696,-0.020429883,-0.18874006,1.2485286,0.82886827
-0.1,0.1,0.7,0.0,-0.5235987755982988,0,0.43792656,1.2998296,0.060487255,-0.09798294,0.12644187,1.4182969,0.043051917,0.40999636,1.2573379,0.25710112,-0.043424506,-0.25902963,1.2954634,1.1259433
-0.1,0.1,0.7,0.0,-0.5235987755982988,0,0.44738206,1.3094329,0.06996573,-0.114365794,0.12547873,1.4170234,0.13646603,0.3581397,1.2249962,-0.007824391,-0.09312381,-0.08967526,1.3186307,1.314064
-0.1,0.1,0.7,0.0,-0.5235987755982988,0,0.44552577,1.3066096,0.06360465,-0.11182645,0.13953222,1.4164332,0.05796075,0.5875092,1.2263352,-0.029395882,-0.011447078,-0.01097948,1.2961366,0.46936816
-0.1,0.1,0.7,0.0,-0.5235987755982988,0,0.44028643,1.3096483,0.064743824,-0.11210741,0.15443833,1.4286003,0.102173306,0.95746976,1.228227,0.15898152,-0.11073845,-0.3735354,1.3546305,0.9916676
-0.1,0.1,0.7,0.0,-0.5235987755982988,0,0.4465432,1.305957,0.058224577,-0.108833246,0.1355441,1.4107567,0.07889452,0.81180966,1.2324399,-0.05788478,-0.06875721,0.14844573,1.2228236,0.78452486
-0.1,0.1,0.7,0.0,-0.5235987755982988,0,0.44269195,1.3041261,0.060855895,-0.10450508,0.10306177,1.4159397,0.14064105,0.91781276,1.283048,-0.015515739,-0.096246466,-0.21473137,1.274877,0.441859
-0.1,0.1,0.7,0.0,-0.5235987755982988,0,0.4453957,1.3017921,0.06353878,-0.099521466,0.11272661,1.4114726,0.123542294,1.0610108,1.3886685,0.25212383,-0.1468125,-0.14254753,1.1899927,0.6239996
-0.1,0.1,0.7,0.0,-0.5235987755982988,0,0.44609448,1.3156078,0.054439485,-0.11490108,0.13793892,1.4213045,0.106467836,0.1483246,1.2261876,-0.10395573,-0.06477033,0.05193981,1.3815204,0.91179734
-0.1,0.1,0.7,0.0,-0.5235987755982988,0,0.44139686,1.3022747,0.06303393,-0.10044555,0.12432695,1.4176685,0.048601832,0.40256664,1.3890468,-0.10435524,-0.1294248,0.3809662,1.2675432,0.98905283
-0.1,0.1,0.7,0.0,-0.5235987755982988,0,0.4468078,1.3043934,0.06617277,-0.10512256,0.13582313,1.4120976,0.06837864,0.38117588,1.3095644,-0.04650592,-0.12637848,-0.009273328,1.3909119,0.77577305
-0.1,0.1,0.7,0.0,-0.5235987755982988,0,0.4365477,1.304003,0.06652359,-0.10201065,0.12142029,1.4040031,0.08150295,0.9321121,1.3492858,-0.0628029,-0.02912977,-0.47879496,1.3304256,0.48674524
-0.1,0.1,0.7,0.0,-0.5235987755982988,0,0.43899387,1.3098918,0.060913693,-0.11192685,0.1260387,1.4215858,0.033429537,0.15325941,1.3358332,0.32467824,-0.061918586,-0.32507002,1.3071244,0.88530624
-0.1,0.1,0.7,0.0,-0.5235987755982988,0,0.43980458,1.2984612,0.060011994,-0.09309872,0.14264275,1.4187963,0.10278483,1.2119211,1.167804,-0.0020298837,-0.07230434,-0.27613422,1.2321396,0.88890857
-0.1,0.1,0.7,0.0,-0.5235987755982988,0,0.44777808,1.3012372,0.06414066,-0.09849853,0.14414674,1.41133,0.070592985,0.27251434,1.1862202,0.22865616,0.014361867,-0.4244986,1.2545056,0.37035453
-0.1,0.1,0.7,0.0,-0.5235987755982988,0,0.43809572,1.3024663,0.07089377,-0.10055834,0.14703567,1.408864,0.056248043,0.37409723,1.2258298,0.16979964,-0.117526904,-0.25703648,1.27718,0.23881234
-0.1,0.1,0.7,0.0,-0.5235987755982988,0,0.4509114,1.3067505,0.05724204,-0.11313229,0.14421995,1.4080354,0.066443086,-0.23531352,1.3928064,-0.08737011,-0.011252672,0.1896747,1.3511453,1.0773209
-0.1,0.1,0.7,0.0,-0.5235987755982988,0,0.4457496,1.3027653,0.061734512,-0.101405494,0.13291752,1.4125198,0.103646345,0.21782915,1.1878972,0.078690976,-0.005675551,0.451509,1.2282755,0.65852493
-0.1,0.1,0.7,0.0,-0.5235987755982988,0,0.4423279,1.3003752,0.05945813,-0.098021165,0.1374199,1.4148399,0.045038946,0.27851138,1.3188211,0.10719296,-0.060920082,-0.32855445,1.3061882,0.5909028
-0.1,0.1,0.7,0.0,-0.5235987755982988,0,0.44383872,1.3039666,0.07309537,-0.10219043,0.12875843,1.4185089,0.13316408,0.53094286,1.2358055,-0.15843317,-0.07698385,-0.5550297,1.3154863,0.5172563
-0.1,0.1,0.7,0.0,-0.5235987755982988,0,0.43662852,1.3108193,0.05420013,-0.11540522,0.13031106,1.4233644,0.060323827,0.84612876,1.2908962,-0.34494847,-0.10800933,0.107911706,1.3415096,0.59150565
-0.1,0.1,0.7,0.0,-0.5235987755982988,0,0.44879055,1.3045217,0.060694046,-0.10571606,0.13130641,1.4161955,0.021092216,1.0403267,1.3302704,0.14899372,-0.13775449,-0.16469322,1.3218237,0.85998696
-0.1,0.1,0.7,0.0,-0.5235987755982988,0,0.4486513,1.3125695,0.065739825,-0.117221914,0.13616708,1.4189457,0.12424572,0.021068271,1.3249588,0.093709014,-0.00557795,-0.47546718,1.2122469,0.9073615
-0.1,0.1,0.7,0.0,-0.5235987755982988,0,0.4415519,1.3038602,0.05983981,-0.103243135,0.12980473,1.4155319,0.1511802,0.90183336,1.3388977,0.0784014,-0.08379895,-0.118430264,1.3180203,1.0347356
-0.1,0.1,0.7,0.0,-0.5235987755982988,0,0.43613762,1.306731,0.05751,-0.1065478,0.13915162,1.4106826,0.12697394,0.5891783,1.3211294,0.006190822,-0.08275216,0.20343845,1.284554,0.9725258
-0.1,0.1,0.7,0.0,-0.5235987755982988,0,0.44310609,1.3059367,0.06492616,-0.106396884,0.15273899,1.415861,0.031577896,0.92116445,1.3630693,-0.28320593,-0.044968266,-0.2234422,1.2705775,0.9825927
-0.1,0.1,0.7,0.0,-0.5235987755982988,0,0.4415693,1.307055,0.053633783,-0.110360034,0.1138259,1.4137863,0.14688289,0.33641893,1.3704298,-0.16035612,-0.027139945,-0.1832016,1.2688481,0.5721973
-0.1,0.1,0.7,0.0,-0.5235987755982988,0,0.45066682,1.3126425,0.06329566,-0.118637666,0.14038701,1.4173281,0.004061569,0.74510336,1.2321055,0.043166667,-0.06190093,-0.19259177,1.1852626,0.6262282
-0.1,0.1,0.7,0.0,-0.5235987755982988,0,0.43955654,1.3030756,0.061163884,-0.10355398,0.114919156,1.4155482,0.080661744,0.6104494,1.2833871,-0.35009784,-0.07649314,0.008515654,1.3168119,1.2102884
-0.1,0.1,0.7,0.0,-0.5235987755982988,0,0.44440484,1.3024507,0.06476827,-0.10019692,0.13080522,1.405889,0.09832116,0.19483884,1.3353318,0.0031612918,-0.005180414,-0.60474056,1.3383685,0.59248054
-0.1,0.1,0.7,0.0,-0.5235987755982988,0,0.43939143,1.3083012,0.067118466,-0.10942558,0.105679676,1.4108803,0.11264137,0.46915436,1.2530646,0.06844194,-0.01499418,-0.11152801,1.2094604,1.3411455
-0.1,0.1,0.7,0.0,-0.5235987755982988,0,0.43420503,1.3027833,0.06845218,-0.09756563,0.112702504,1.4181298,0.071015455,0.33234656,1.3788807,-0.10030551,-0.030305048,-0.5590976,1.2915816,0.89334345
-0.1,0.1,0.7,0.0,-0.5235987755982988,0,0.44334275,1.2994828,0.05783664,-0.0953759,0.14008652,1.4175335,0.0927671,0.37582025,1.2715775,-0.03324684,-0.13034932,0.030287586,1.2196947,0.574325
-0.1,0.1,0.7,0.0,-0.5235987755982988,0,0.44587928,1.306575,0.04532712,-0.10766736,0.13514395,1.4072045,-0.0052598855,1.039407,1.2854489,0.34538853,-0.10462911,-0.38450605,1.2779388,0.9797466
-0.1,0.1,0.7,0.0,-0.5235987755982988,0,0.44434407,1.3006457,0.05405349,-0.09841699,0.12689535,1.4104526,0.038935002,0.38132828,1.2788163,-0.038895927,-0.04440606,-0.3261246,1.2596657,1.3360754
-0.1,0.1,0.7,0.0,-0.5235987755982988,0,0.44716403,1.3116614,0.065107815,-0.11607463,0.107050024,1.4201894,0.1161265,0.8381435,1.2602397,0.17704105,-0.11229036,-0.2900339,1.2359776,0.4828815
-0.1,0.1,0.7,0.0,-0.5235987755982988,0,0.4393896,1.3022476,0.051558595,-0.098207,0.11721426,1.4082565,0.102849856,0.816453,1.2218176,0.020581061,-0.0770473,-0.38481247,1.1760856,0.8246125
-0.1,0.1,0.7,0.0,-0.5235987755982988,0,0.43731713,1.3012339,0.057917528,-0.09784761,0.14533632,1.410722,0.06944724,0.47340828,1.2339399,-0.08441592,-0.057273537,-0.24656886,1.2357391,-0.14442489
-0.1,0.1,0.7,0.0,-0.5235987755982988,0,0.4415657,1.3089907,0.06908478,-0.110822305,0.14030342,1.4174398,0.11402357,-0.4216829,1.2957695,0.0089461105,-0.04278324,0.123115234,1.3455465,0.48782563
-0.1,0.1,0.7,0.0,-0.5235987755982988,0,0.43931624,1.29989,0.06527595,-0.09425721,0.11887974,1.4183501,0.010847057,0.57910424,1.3859255,0.068303175,-0.12247084,-0.48433062,1.404494,1.0008502
-0.1,0.1,0.7,0.0,-0.5235987755982988,0,0.4422019,1.3080273,0.061584532,-0.108686805,0.13571973,1.4068077,0.027774831,1.027162,1.4339652,-0.013782108,-0.15188344,0.25033054,1.2733692,0.9725621
-0.1,0.1,0.7,0.0,-0.5235987755982988,0,0.44989616,1.3044219,0.061692152,-0.10507223,0.11577641,1.4138653,0.07084647,0.5783738,1.3882918,0.23169808,-0.09173846,-0.2004255,1.297903,0.8107243
-0.1,0.1,0.7,0.0,-0.5235987755982988,0,0.4456677,1.2984248,0.074718274,-0.09431516,0.11162418,1.4183091,0.10264234,1.1311533,1.3331358,-0.34170303,-0.08108605,-0.10584259,1.3778759,0.9593187
-0.1,0.1,0.7,0.0,-0.5235987755982988,0,0.4423162,1.3085223,0.06651241,-0.10913701,0.13647418,1.4160575,0.0548915,0.401592,1.3137779,-0.37488174,0.0020739837,0.16026436,1.3804934,0.7720196
-0.1,0.1,0.7,0.0,-0.5235987755982988,0,0.44487682,1.3063917,0.06781395,-0.10614928,0.15417527,1.4143158,0.13299675,0.18456368,1.1728421,0.14599994,-0.18054171,-0.19706808,1.3790828,1.0725832
-0.1,0.1,0.7,0.0,-0.5235987755982988,0,0.4422101,1.3072828,0.06554452,-0.10690117,0.114343956,1.4071745,0.04772216,0.12086066,1.380372,-0.25271645,-0.12897804,0.4840029,1.2024257,0.7122227
-0.1,0.1,0.7,0.0,-0.5235987755982988,0,0.4427499,1.3046533,0.063661955,-0.10469048,0.11559543,1.4266992,0.052011587,0.0988731,1.2709979,0.13521507,-0.060088906,-0.035008375,1.2300885,0.71528405
-0.1,0.1,0.7,0.0,-0.5235987755982988,0,0.44229916,1.3012763,0.061833754,-0.097265586,0.13132173,1.4265751,0.11522376,1.3054339,1.2685229,0.20796536,-0.054630406,-0.31395963,1.3283384,1.1637862
-0.1,0.1,0.7,0.0,-0.5235987755982988,0,0.4455659,1.3069353,0.056906715,-0.10611789,0.14040732,1.4095887,0.086393476,0.55456126,1.2956216,0.41061118,-0.03590405,0.023840215,1.4493954,1.0589526
-0.1,0.1,0.7,0.0,-0.5235987755982988,0,0.43701336,1.3078197,0.05784782,-0.107336596,0.11663527,1.417662,-0.0015634197,0.45518908,1.3684362,0.2983559,-0.04927214,-0.12657419,1.2987564,1.1412234
-0.1,0.1,0.7,0.0,-0.5235987755982988,0,0.44360352,1.3073685,0.07335915,-0.10739087,0.11715233,1.4169065,0.10050245,0.56258315,1.1134415,-0.061143175,0.0037228307,-0.15029107,1.2569698,0.9302127
-0.1,0.1,0.7,0.0,-0.5235987755982988,0,0.44555056,1.3002119,0.05018684,-0.096252546,0.13030787,1.4141102,0.105589114,0.85002315,1.2433854,0.14806508,-0.12436263,-0.3321141,1.3197272,0.6977567
-0.1,0.1,0.7,0.0,-0.5235987755982988,0,0.44835687,1.3042679,0.074941635,-0.10753532,0.10213955,1.4041388,0.015092683,0.035324495,1.1630067,-0.12169138,-0.06784589,0.034985866,1.3436122,0.14286812
-0.1,0.1,0.7,0.0,-0.5235987755982988,0,0.44755575,1.3054839,0.06708606,-0.1058033,0.12604892,1.4184859,0.16701111,0.84993184,1.2724569,-0.011299065,-0.028577585,-0.34727332,1.2794235,0.45479977
-0.1,0.1,0.7,0.0,-0.5235987755982988,0,0.4385719,1.3073592,0.06144072,-0.106262594,0.12869115,1.4121628,0.12983215,0.6795236,1.1996396,0.15986907,-0.1044322,0.4365208,1.2149758,0.80289775
-0.1,0.1,0.7,0.0,-0.5235987755982988,0,0.4476616,1.2979578,0.058328297,-0.09437838,0.1369692,1.4091882,0.08119564,0.3727031,1.2803637,-0.11863715,-0.06639989,0.45596233,1.3917878,1.0212259
-0.1,0.1,0.7,0.0,-0.5235987755982988,0,0.44305822,1.3056056,0.0717003,-0.1055293,0.12244026,1.4131377,0.030973013,0.1921118,1.2055857,-0.0027390448,-0.029063208,-0.27674636,1.2849782,0.83273923
-0.1,0.1,0.7,0.0,-0.5235987755982988,0,0.43966198,1.3028938,0.054349206,-0.09945863,0.15687658,1.4189779,0.049889967,0.78235394,1.350909,-0.057713557,-0.08387518,-0.03673351,1.2826636,0.97679794
-0.1,0.1,0.7,0.0,-0.5235987755982988,0,0.4505038,1.3085831,0.063510224,-0.11438671,0.11805709,1.4195672,0.0763316,-0.577467,1.2699702,-0.028351048,0.0021461807,0.023221126,1.2056537,0.9419695
-0.1,0.1,0.7,0.0,-0.5235987755982988,0,0.43995777,1.3059307,0.060123093,-0.10416969,0.11161992,1.4178064,0.08053064,0.6443949,1.1715603,0.43908125,-0.05804519,0.19012833,1.3039508,0.47872493
-0.1,0.1,0.7,0.0,-0.5235987755982988,0,0.4410552,1.3052388,0.055314645,-0.103918575,0.14685324,1.4128767,0.15985528,0.5066252,1.4262123,0.14732425,-0.060018435,-0.05746652,1.2713366,0.6815868
-0.1,0.1,0.7,0.0,-0.5235987755982988,0,0.4389892,1.3062881,0.07733389,-0.10339116,0.13184837,1.4220635,0.056869097,1.234069,1.1655852,0.22808325,-0.014566146,-0.42272037,1.4427958,0.3906765
-0.1,0.1,0.7,0.0,-0.5235987755982988,0,0.44405317,1.3045872,0.06794992,-0.102255724,0.12609577,1.4164314,0.10727608,0.4981595,1.3235723,0.09717236,0.009445126,-0.72121286,1.4132843,1.1160526
-0.1,0.1,0.7,0.0,-0.5235987755982988,0,0.4471867,1.305407,0.060855508,-0.10554676,0.14390774,1.4054227,0.14219582,-0.11260121,1.2185125,0.020386979,-0.035897944,0.18756893,1.3216454,0.6195138
-0.1,0.1,0.7,0.0,-0.5235987755982988,0,0.44442496,1.3107792,0.065567486,-0.11692328,0.11621444,1.4207237,0.083018966,0.5725375,1.2840643,-0.14934677,-0.058507886,-0.057326254,1.3156894,0.9196896
-0.1,0.1,0.7,0.0,-0.5235987755982988,0,0.44583833,1.3069147,0.06950602,-0.1082797,0.15237446,1.4147468,0.12380553,0.5113961,1.2898777,0.016512802,-0.04731835,0.060353406,1.2527537,0.7044734
-0.1,0.1,0.7,0.0,-0.5235987755982988,0,0.44045836,1.311498,0.07228583,-0.11279832,0.12760799,1.4101034,0.06984504,0.48490566,1.2698973,-0.1828102,-0.048126422,-0.15599363,1.4604821,0.59554845
-0.1,0.1,0.7,0.0,-0.5235987755982988,0,0.43806812,1.2993362,0.06262094,-0.0934582,0.120763004,1.4103436,0.04960737,0.36424387,1.2548743,-0.020285608,-0.08370013,-0.024393944,1.2520679,0.97678554
-0.1,0.1,0.7,0.0,-0.5235987755982988,0,0.4438084,1.3057532,0.06660425,-0.10358332,0.113735884,1.4115659,0.030639771,0.4470182,1.2435884,-0.41810673,0.023425194,0.021197964,1.2469645,0.35417223
-0.1,0.1,0.7,0.0,-0.5235987755982988,0,0.44836384,1.3048671,0.06823261,-0.104979515,0.12875456,1.4145371,0.019478977,0.57703227,1.3292289,0.22432564,-0.08390214,-0.15329236,1.2576232,1.1765199
-0.1,0.1,0.7,0.0,-0.5235987755982988,0,0.43693113,1.3036993,0.069363244,-0.0995012,0.115045875,1.4212921,0.0638646,-0.017177576,1.3282378,0.00958752,-0.018088447,0.06907221,1.2433484,0.5626626
-0.1,0.1,0.7,0.0,-0.5235987755982988,0,0.4520898,1.2998173,0.052671295,-0.096717596,0.116350025,1.4041889,0.053453155,0.32952186,1.3124666,-0.006644778,-0.11290042,-0.04272128,1.2329595,0.30585557
-0.1,0.1,0.7,0.0,-0.5235987755982988,0,0.4493669,1.306074,0.055894777,-0.10889671,0.11100163,1.4151626,0.029570065,-0.35214415,1.329553,0.32359028,-0.007847782,-0.48487192,1.2671205,0.21618697
-0.1,0.1,0.7,0.0,-0.5235987755982988,0,0.43899724,1.3021913,0.061455514,-0.09747939,0.13826734,1.4078443,0.11780392,0.6641662,1.1512874,-0.111389995,-0.061951295,-0.048503153,1.2389548,0.21762148
-0.1,0.1,0.7,0.0,-0.5235987755982988,0,0.44586018,1.3037889,0.055432346,-0.102309994,0.13722627,1.416437,0.017860437,0.84639406,1.2362955,0.19124565,-0.055123314,0.13408418,1.2841374,1.2522423
-0.1,0.1,0.7,0.0,-0.5235987755982988,0,0.4392422,1.3117758,0.06247637,-0.11288832,0.11647968,1.413502,-0.018132785,0.2800281,1.3391877,-0.031859495,-0.033125665,-0.3626874,1.3699113,0.53141457
-0.1,0.1,0.7,0.0,-0.5235987755982988,0,0.4385573,1.3033657,0.06946453,-0.09902259,0.13124149,1.4112114,0.12640923,0.49106318,1.360116,0.07820958,-0.0142834345,0.16564526,1.222512,0.769901
-0.1,0.1,0.7,0.0,-0.5235987755982988,0,0.44202682,1.3036133,0.06916959,-0.10033709,0.13024029,1.4155772,0.09053525,0.5963143,1.2658916,0.26991612,-0.08969693,-0.07798401,1.2886491,0.32688728
-0.1,0.1,0.7,0.0,-0.5235987755982988,0,0.44601762,1.3030009,0.05874404,-0.10016722,0.14696941,1.4102167,-0.002221923,1.095079,1.3099911,0.009840124,-0.06379214,-0.25501204,1.2878252,0.31072918
-0.1,0.1,0.7,0.0,-0.5235987755982988,0,0.43872443,1.2989304,0.06689133,-0.09400029,0.16042773,1.4167762,0.15452354,0.8121784,1.2607149,-0.1657845,-0.062394246,-0.1536139,1.1457949,0.56074035
-0.1,0.1,0.7,0.0,-0.5235987755982988,0,0.43906167,1.3089294,0.0666073,-0.107848056,0.11268266,1.4251066,0.110996224,1.1414665,1.3980403,0.35558262,-0.11970368,0.010731412,1.3811471,0.8472819
-0.1,0.1,0.7,0.0,-0.5235987755982988,0,0.44450498,1.3069901,0.06515581,-0.10668886,0.12246659,1.4257289,0.085249476,0.10537236,1.3512188,-0.03335636,-0.02381233,0.050073627,1.2855008,0.8281751
-0.1,0.1,0.7,0.0,-0.5235987755982988,0,0.44197452,1.3084275,0.05875537,-0.1080724,0.10919284,1.4080931,0.13079797,1.4698778,1.1119245,0.007930769,-0.01007442,-0.10863497,1.3009408,1.0330681
-0.1,0.1,0.7,0.0,-0.5235987755982988,0,0.44723734,1.3022981,0.05349926,-0.0993958,0.17250961,1.4044329,0.01144433,0.104832366,1.2346162,0.013362367,-0.076680005,0.07290886,1.2732843,0.33130103
-0.1,0.1,0.7,0.0,-0.5235987755982988,0,0.44470513,1.3096808,0.055875283,-0.11092565,0.1282113,1.4100474,0.100380786,0.37593213,1.3128083,-0.03504309,-0.021217879,-0.22741379,1.2785633,0.8663606
-0.1,0.1,0.7,0.0,-0.5235987755982988,0,0.44663098,1.3100245,0.06270534,-0.11013532,0.112534896,1.4068894,0.11474209,0.3438309,1.4362419,-0.28295174,-0.0042187646,-0.45956874,1.3767469,0.6267222
-0.1,0.1,0.7,0.0,-0.5235987755982988,0,0.45372173,1.3068,0.06835304,-0.1075263,0.1545927,1.4091656,0.08195393,0.442477,1.3219945,-0.13478476,-0.06927313,0.023403283,1.2880193,0.7960534
-0.1,0.1,0.7,0.0,-0.5235987755982988,0,0.45109046,1.3075877,0.05567784,-0.108319886,0.12426749,1.4109749,0.058715664,-0.01754897,1.3173984,-0.07715556,-0.024094729,-0.31522414,1.3591713,0.5828948
-0.1,0.1,0.7,0.0,-0.5235987755982988,0,0.4374746,1.3065281,0.07350199,-0.103827305,0.1588781,1.4172343,0.1611322,0.38659105,1.4025307,0.1897074,-0.10634988,-0.24808925,1.3632247,0.5322839
-0.1,0.1,0.7,0.0,-0.5235987755982988,0,0.44025123,1.3042184,0.06617145,-0.10050985,0.14269565,1.4119292,0.0781943,0.21017596,1.2998462,0.045832727,-0.09610945,-0.08179183,1.2821175,0.7618831
-0.1,0.1,0.7,0.0,-0.5235987755982988,0,0.4461851,1.3123465,0.060658403,-0.114644006,0.1328064,1.4178853,-0.042643297,0.64203644,1.3412645,0.14292428,-0.05703946,-0.4002932,1.2752888,0.6825919
-0.1,0.1,0.7,0.0,-0.5235987755982988,0,0.44060284,1.3052102,0.054190934,-0.104468524,0.09447087,1.4232724,0.017555576,1.1189884,1.3992127,0.008184774,-0.04120128,-0.17303734,1.3062125,0.6773255
-0.1,0.1,0.7,0.0,-0.5235987755982988,0,0.4440412,1.3069135,0.0648276,-0.10779241,0.13126448,1.4185033,0.12870833,0.01836514,1.3598273,-0.14767028,-0.05226546,-0.5505375,1.2697475,-0.13266562
-0.1,0.1,0.7,0.0,-0.5235987755982988,0,0.43827072,1.3048745,0.0756529,-0.100960314,0.1552852,1.41262,0.118733265,0.27296415,1.4414289,-0.10412003,-0.15803629,-0.36080867,1.2799358,0.6463431
-0.1,0.1,0.7,0.0,-0.5235987755982988,0,0.43636417,1.3051394,0.06421382,-0.10145923,0.12065108,1.4223591,0.021500684,0.9978021,1.3815438,-0.112371854,-0.057020243,-0.19623406,1.2302446,0.8475912
-0.1,0.1,0.7,0.0,-0.5235987755982988,0,0.43885824,1.3063858,0.06580286,-0.10251871,0.16579399,1.4141469,-0.0046860697,1.0266865,1.2422756,0.009359054,-0.09329647,-0.27954793,1.5215094,0.6598847
-0.1,0.1,0.7,0.0,-0.5235987755982988,0,0.44894078,1.3069576,0.06376492,-0.10662358,0.11722453,1.4241031,0.06255881,0.4009115,1.1997399,-0.1302553,-0.04546502,-0.21686742,1.2968906,0.77334285
-0.1,0.1,0.7,0.0,-0.5235987755982988,0,0.44777274,1.3058622,0.07152971,-0.103911884,0.12268917,1.4143708,0.054910656,-0.120985374,1.1929303,0.41333807,-0.03763555,-0.40415612,1.2899948,0.4843359
-0.1,0.1,0.7,0.0,-0.5235987755982988,0,0.450333,1.3117265,0.081527665,-0.11446762,0.104425795,1.42693,0.16449346,0.31993127,1.2565991,0.2324926,-0.0355617,-0.060757164,1.1939566,0.49409705
-0.1,0.1,0.7,0.0,-0.5235987755982988,0,0.4469042,1.3067757,0.07361032,-0.10580507,0.14721842,1.411129,0.041870736,0.58787245,1.2605745,0.018821,-0.0073667816,0.0036990773,1.3555232,0.53143436
-0.1,0.1,0.7,0.0,-0.5235987755982988,0,0.43997046,1.3158337,0.0704217,-0.118434995,0.11835072,1.4111629,0.09564732,0.25384998,1.2680387,0.29907376,-0.09560039,-0.21954404,1.2523763,0.6845559
-0.1,0.1,0.7,0.0,-0.5235987755982988,0,0.44183317,1.3127643,0.07275,-0.114126,0.10838652,1.4070898,0.07226959,0.84559745,1.302888,0.044738255,-0.118620716,-0.3575618,1.2952003,0.50017893
-0.1,0.1,0.7,0.0,-0.5235987755982988,0,0.44023573,1.3073504,0.0712594,-0.104728244,0.10670571,1.4189651,0.012776148,0.7772551,1.4272568,0.18467447,-0.10007793,-0.26011604,1.2736442,0.6078404
-0.1,0.1,0.7,0.0,-0.5235987755982988,0,0.44828597,1.3080531,0.05771699,-0.1074197,0.12555565,1.4132217,0.112395465,1.1537832,1.2624753,-0.054265086,-0.11189017,-0.005209416,1.0928584,0.6059128
-0.1,0.1,0.7,0.0,-0.5235987755982988,0,0.45334125,1.3118615,0.063492104,-0.11419005,0.14016125,1.4116472,0.10768592,0.6479031,1.3355625,-0.38692153,-0.054090846,-0.16360672,1.1116191,0.28713575
-0.1,0.1,0.7,0.0,-0.5235987755982988,0,0.44351882,1.3066763,0.06205362,-0.103755586,0.11428735,1.4218138,0.087487906,-0.2896855,1.3709157,-0.47364697,-0.16944914,-0.25202307,1.343929,0.6843559
-0.1,0.1,0.7,0.0,-0.5235987755982988,0,0.44068646,1.3109177,0.05991023,-0.10927926,0.1105983,1.4129673,0.05122927,-0.39367113,1.4146863,0.40248573,-0.067924164,-0.04442917,1.4211552,0.5542059
-0.1,0.1,0.7,0.0,-0.5235987755982988,0,0.44120204,1.2979778,0.063049875,-0.088439554,0.13058639,1.4107063,0.082938105,0.4557102,1.2258339,-0.3024853,-0.08945419,-0.21900882,1.3880455,0.6507093
-0.1,0.1,0.7,0.0,-0.5235987755982988,0,0.4455706,1.3076844,0.06806444,-0.10675445,0.13204421,1.4299144,0.023999799,-0.12444457,1.2658938,0.037280016,-0.08201999,0.198134,1.2686534,0.7500231
-0.1,0.1,0.7,0.0,-0.5235987755982988,0,0.44514167,1.304744,0.067726865,-0.10160466,0.1327994,1.4104396,0.1521338,-0.08374168,1.3020706,0.10633702,-0.04998491,-0.31940928,1.29504,0.41397047
-0.1,0.1,0.7,0.0,-0.5235987755982988,0,0.4396333,1.3047864,0.055285685,-0.09944501,0.14824887,1.4181012,0.13098922,0.021468278,1.440512,-0.11517125,-0.014080083,-0.3818255,1.2674075,1.37171
-0.1,0.1,0.7,0.0,-0.5235987755982988,0,0.44631156,1.3061222,0.071836375,-0.104260564,0.11446144,1.422721,0.15019648,0.8949876,1.2685018,-0.079673,-0.14463164,-0.34743744,1.304768,1.1829762
-0.1,0.1,0.7,0.0,-0.5235987755982988,0,0.44397095,1.3059092,0.07277004,-0.10391292,0.11359871,1.4241779,0.048742555,0.6365481,1.2897462,-0.16119707,-0.09349483,-0.009923479,1.263731,0.7202492
-0.1,0.1,0.7,0.0,-0.5235987755982988,0,0.45210943,1.3081393,0.05914424,-0.10839117,0.12583414,1.4114392,0.014015632,0.7221349,1.3243364,0.12674922,-0.043951016,0.06845561,1.286273,0.048564464
-0.1,0.1,0.7,0.0,-0.5235987755982988,0,0.43998054,1.3048941,0.062703684,-0.103295185,0.12688707,1.4188195,0.085846,0.49557155,1.2558413,-0.23062718,-0.11651483,-0.20635746,1.3502517,0.8984658
-0.1,0.1,0.7,0.0,-0.5235987755982988,0,0.4487487,1.3022112,0.054739017,-0.09819112,0.14414553,1.4138007,0.1103652,0.6760582,1.19317,0.16191246,-0.08884115,0.16169946,1.2546738,0.9468927
-0.1,0.1,0.7,0.0,-0.5235987755982988,0,0.4376021,1.3055596,0.05948149,-0.10084144,0.12878342,1.409965,0.0065468843,0.10348019,1.2037894,0.0571327,-0.092691556,-0.44102368,1.3494653,0.42177823
-0.1,0.1,0.7,0.0,-0.5235987755982988,0,0.44556004,1.309079,0.07117543,-0.10800832,0.111421674,1.4077412,0.21766311,0.378831,1.2414273,0.1029139,-0.15204914,-0.25627697,1.2271888,0.90066195
-0.1,0.1,0.7,0.0,-0.5235987755982988,0,0.44557324,1.3120332,0.05785308,-0.11280075,0.119325735,1.4211993,0.1087858,0.78026545,1.2323761,-0.026334481,-0.09287988,-0.14512697,1.174593,0.61286455
-0.1,0.1,0.7,0.0,-0.5235987755982988,0,0.4504544,1.3079928,0.06866137,-0.10758543,0.14652243,1.4171649,0.02215627,0.12097082,1.328265,-0.0379514,-0.032599576,-0.0131290285,1.3186278,0.78707993
-0.1,0.1,0.7,0.0,-0.5235987755982988,0,0.44089147,1.3048347,0.05985268,-0.10018014,0.10545084,1.413285,0.117413096,-0.1442483,1.3592436,-0.16215543,-0.02303253,0.2011669,1.3483102,1.1225947
-0.1,0.1,0.7,0.0,-0.5235987755982988,0,0.43480474,1.3052424,0.06714773,-0.09969243,0.09227091,1.4145926,0.1279891,-0.021191167,1.1843417,-0.12139077,-0.035271592,0.091023624,1.3378149,0.3407868
-0.1,0.1,0.7,0.0,-0.5235987755982988,0,0.4431297,1.3048317,0.060199775,-0.10000268,0.121090256,1.4235618,0.09168891,0.14350553,1.1291418,0.102527864,-0.006803033,-0.088490225,1.2231758,0.089824855
-0.1,0.1,0.7,0.0,-0.5235987755982988,0,0.44308543,1.3010688,0.06543923,-0.09416916,0.14133538,1.4181759,0.084932655,0.71130276,1.3314159,-0.046630967,-0.02947513,-0.23145954,1.2476583,0.62139446
-0.1,0.1,0.7,0.0,-0.5235987755982988,0,0.44893652,1.3023403,0.067431726,-0.098487645,0.110250205,1.4092321,0.124313176,-0.66034514,1.2006278,-0.21085602,-0.031074965,-0.15776414,1.2719597,1.1771704
-0.1,0.1,0.7,0.0,-0.5235987755982988,0,0.44131362,1.3016689,0.054350976,-0.09325049,0.10708521,1.422257,0.0713102,0.67537826,1.1724323,0.6534023,0.029055,-0.0073438557,1.2915078,1.0180774
-0.1,0.1,0.7,0.0,-0.5235987755982988,0,0.4389244,1.3024809,0.057629947,-0.09672391,0.1078451,1.4151133,0.03399948,0.30169857,1.2894297,0.03011094,-0.06553684,0.10972732,1.2821568,0.43159118
-0.1,0.1,0.7,0.0,-0.5235987755982988,0,0.44548103,1.3088192,0.059288163,-0.10698398,0.118267104,1.4144297,0.08399107,1.4059513,1.2565898,0.34527782,0.008682264,-0.015786482,1.3401473,0.41104656
-0.1,0.1,0.7,0.0,-0.5235987755982988,0,0.43497986,1.301633,0.058656633,-0.094047174,0.11801974,1.4097974,0.0044357195,0.96146363,1.4094824,0.16846438,-0.09653581,-0.1462395,1.2830279,0.6791504
-0.1,0.1,0.7,0.0,-0.5235987755982988,0,0.44310415,1.307231,0.07266303,-0.10479299,0.13844137,1.4135766,0.13725527,0.9653241,1.2363977,-0.06697401,-0.07486603,-0.055599727,1.3348848,0.92246467
-0.1,0.1,0.7,0.0,-0.5235987755982988,0,0.44901186,1.3076161,0.07324421,-0.10574895,0.1452176,1.4152529,0.058277857,0.8531637,1.2851845,-0.2127104,-0.03815139,-0.27845135,1.2375504,0.74345595
-0.1,0.1,0.7,0.0,-0.5235987755982988,0,0.43645418,1.3116797,0.05413865,-0.10988281,0.106479816,1.4182245,0.028626902,0.8283661,1.1808797,-0.15015914,-0.077808805,0.013971498,1.2124753,0.8951882
-0.1,0.1,0.7,0.0,-0.5235987755982988,0,0.44161373,1.3046626,0.07462838,-0.10027963,0.11808236,1.4118714,0.07663393,0.024598982,1.2728379,0.31441185,-0.094890386,-0.20960572,1.2670559,0.24484143
-0.1,0.1,0.7,0.0,-0.5235987755982988,0,0.43989357,1.3080386,0.06434208,-0.10478252,0.1325595,1.4098396,0.047075994,0.45353532,1.2938526,-0.013599261,-0.086022824,-0.14374135,1.1156162,0.7244994
-0.1,0.1,0.7,0.0,-0.5235987755982988,0,0.446796,1.3094733,0.06850254,-0.108104244,0.13849671,1.4129217,0.109844305,0.60098666,1.3191926,-0.030628772,0.016939158,-0.33200577,1.3009814,0.8538269
-0.1,0.1,0.7,0.0,-0.5235987755982988,0,0.44311383,1.311791,0.06506192,-0.11112847,0.15135081,1.4199164,0.12266624,0.18760489,1.3118914,-0.15841949,-0.006693644,-0.087888,1.2006836,0.78648275
-0.1,0.1,0.7,0.0,-0.5235987755982988,0,0.4341839,1.308957,0.0544128,-0.10487438,0.13157761,1.4149877,0.108556464,0.57011557,1.285234,-0.17925882,-0.09073195,-0.21720816,1.376922,0.9340694
-0.1,0.1,0.7,0.0,-0.5235987755982988,0,0.43625358,1.3149691,0.065827794,-0.11403145,0.13147609,1.4145651,0.092590444,0.4901423,1.2220575,-0.28670004,-0.08699822,0.532953,1.3192949,0.1458349
-0.1,0.1,0.7,0.0,-0.5235987755982988,0,0.44039363,1.3065528,0.0656703,-0.102392405,0.14627647,1.4099122,0.067435086,0.92166483,1.2387191,0.17216265,-0.15814093,-0.058638353,1.3208377,1.0827194
-0.1,0.1,0.7,0.0,-0.5235987755982988,0,0.44658834,1.3032763,0.06088071,-0.09818379,0.1488836,1.4161527,0.1478819,0.98077035,1.1895888,-0.09678747,-0.017887807,0.18390492,1.3427814,0.68990606
-0.1,0.1,0.7,0.0,-0.5235987755982988,0,0.44730237,1.3015611,0.0630758,-0.094653375,0.12222009,1.4188542,0.109179676,0.8256346,1.2398407,0.18884695,-0.11299696,-0.037919074,1.3020586,0.90970594
-0.1,0.1,0.7,0.0,-0.5235987755982988,0,0.4435586,1.3059657,0.06716308,-0.100642964,0.1357437,1.414303,0.07168759,0.40564132,1.3676457,0.20124,0.014992926,-0.35803685,1.2617428,0.86828107
-0.1,0.1,0.7,0.0,-0.5235987755982988,0,0.4401702,1.3116833,0.057013724,-0.1097455,0.12762445,1.4229432,0.07280693,0.09457463,1.3473593,-0.07743725,-0.026721979,-0.2193438,1.3458171,0.29654032
-0.1,0.1,0.7,0.0,-0.5235987755982988,0,0.43769392,1.3074517,0.078216024,-0.10334246,0.12653291,1.4184816,0.03172326,0.8998621,1.3438036,-0.058856428,-0.04406093,-0.07855241,1.3003471,1.221204
-0.1,0.1,0.7,0.0,-0.5235987755982988,0,0.44974354,1.3089468,0.07310279,-0.10789627,0.13356549,1.4178188,0.14862722,0.111999206,1.2681581,0.019476883,0.023737907,0.09402006,1.2144277,0.6141138
-0.1,0.1,0.7,0.0,-0.5235987755982988,0,0.451087,1.306691,0.06734245,-0.10472952,0.11039035,1.4204134,0.053749356,0.9528737,1.3461044,0.043315697,-0.092172675,-0.16810705,1.2624729,0.8242324
-0.1,0.1,0.7,0.0,-0.5235987755982988,0,0.45055494,1.3093925,0.07065966,-0.1080893,0.13115323,1.418468,0.061716646,-0.08636784,1.3753943,-0.253409,-0.12604739,-0.018086392,1.347701,0.7391876
-0.1,0.1,0.7,0.0,-0.5235987755982988,0,0.4411059,1.3078774,0.062230915,-0.10378108,0.1262452,1.4085503,0.118925065,1.0375807,1.3448168,-0.032802206,0.015391052,0.074219435,1.2058594,0.113465495
-0.1,0.1,0.7,0.0,-0.5235987755982988,0,0.42803013,1.3107507,0.06580877,-0.107725374,0.12987272,1.4146539,0.060305435,0.93197584,1.2511647,-0.113136746,-0.17733823,-0.30128065,1.2930804,0.7378896
-0.1,0.1,0.7,0.0,-0.5235987755982988,0,0.43322885,1.3128268,0.0484951,-0.10794997,0.14756966,1.4189128,0.15687762,0.4499188,1.3604738,0.27145284,0.029513415,-0.44993132,1.1987091,0.33018395
-0.1,0.1,0.7,0.0,-0.5235987755982988,0,0.4498109,1.3122473,0.07103614,-0.11162726,0.12761354,1.4227026,0.043939956,-0.23943917,1.3299949,-0.21291941,-0.033089455,0.022173503,1.3853178,0.8032627
-0.1,0.1,0.7,0.0,-0.5235987755982988,0,0.4434826,1.3085245,0.059698965,-0.10422478,0.1474021,1.4225214,0.095794186,0.9334256,1.2811165,0.42151833,-0.031221299,-0.31642345,1.222725,1.0171685
-0.1,0.1,0.7,0.0,-0.5235987755982988,0,0.4448285,1.3015696,0.06536608,-0.092589654,0.1403207,1.4195851,0.04330303,0.42573395,1.3004142,-0.28271767,-0.045243397,0.28188065,1.312272,0.8146302
-0.1,0.1,0.7,0.0,-0.5235987755982988,0,0.4343082,1.3136787,0.055902362,-0.111108005,0.1187046,1.416087,0.099008486,0.8221352,1.3564512,-0.09458532,-0.09084852,-0.08076724,1.3308318,0.73074377
-0.1,0.1,0.7,0.0,-0.5235987755982988,0,0.44456083,1.3117133,0.060513515,-0.11387963,0.14851324,1.4256501,0.07363448,0.77796334,1.3451804,-0.095687985,-0.07146318,-0.15821235,1.2619393,0.57724583
-0.1,0.1,0.7,0.0,-0.5235987755982988,0,0.43931636,1.3037636,0.050469555,-0.09582856,0.115504205,1.4061433,0.07305964,0.98033553,1.1752822,-0.38098526,-0.024327569,0.18952769,1.3797789,1.1897591
-0.1,0.1,0.7,0.0,-0.5235987755982988,0,0.44495955,1.3102049,0.06309943,-0.10751921,0.119344756,1.4148526,0.09459381,-0.108357765,1.3206077,0.14108104,0.0012509729,-0.1167776,1.3085512,1.0546322
-0.1,0.1,0.7,0.0,-0.5235987755982988,0,0.44085425,1.3006159,0.059092164,-0.09118754,0.1040381,1.4102274,0.123397395,-0.02738169,1.3561915,0.01100603,-0.14128366,-0.09381229,1.4485607,0.6588123
-0.1,0.1,0.7,0.0,-0.5235987755982988,0,0.442328,1.3104972,0.062165227,-0.10695248,0.11490506,1.4231749,0.029013561,1.0727643,1.2837319,-0.49063838,-0.13699627,-0.121305496,1.2257724,0.6215852
-0.1,0.1,0.7,0.0,-0.5235987755982988,0,0.43608356,1.3101226,0.051762294,-0.10526904,0.1464701,1.4154397,0.094601616,0.8966518,1.3362604,-0.19779363,-0.05950814,0.026529606,1.3681133,0.85922927
-0.1,0.1,0.7,0.0,-0.5235987755982988,0,0.44351923,1.3081515,0.06281015,-0.10285093,0.13887055,1.4192232,0.14032622,0.50281936,1.2762021,-0.102334626,-0.06326598,0.035022337,1.5058681,0.6285468
-0.1,0.1,0.7,0.0,-0.5235987755982988,0,0.43828595,1.3091509,0.06897635,-0.10446794,0.115903705,1.4134314,0.091166325,-0.13638665,1.2062596,-0.14219956,-0.04704045,-0.030757057,1.2708054,1.01838
-0.1,0.1,0.7,0.0,-0.5235987755982988,0,0.44256154,1.3088294,0.062350653,-0.104273826,0.1436617,1.4178926,0.025933847,0.05953007,1.2766323,0.4575895,-0.10620011,-0.21541838,1.3414111,0.56403893
-0.1,0.1,0.7,0.0,-0.5235987755982988,0,0.44422254,1.3072107,0.06084123,-0.102573,0.10326843,1.4150234,0.08663543,0.27880257,1.2252834,-0.06926523,-0.035822384,-0.2980193,1.2645807,0.9913339
-0.1,0.1,0.7,0.0,-0.5235987755982988,0,0.44169894,1.3113897,0.06447382,-0.107120514,0.11168444,1.4209462,0.14451355,0.5461146,1.176012,0.0042448244,-0.06341692,-0.7396388,1.503126,0.7906035
-0.1,0.1,0.7,0.0,-0.5235987755982988,0,0.43917546,1.3125813,0.06428238,-0.10946024,0.12173579,1.4031881,0.074222706,-0.43539554,1.1684492,0.17296745,-0.08368318,0.063283406,1.2074955,0.31146133
-0.1,0.1,0.7,0.0,-0.5235987755982988,0,0.44728997,1.309665,0.06242276,-0.106742546,0.13668598,1.4091473,0.015103416,1.6115826,1.3007065,-0.3052477,-0.14086387,0.17732172,1.2889977,0.115328014
-0.1,0.1,0.7,0.0,-0.5235987755982988,0,0.4266675,1.3082327,0.071242034,-0.098677166,0.12710375,1.4115506,0.10336753,0.23168863,1.2738657,0.11872285,0.002875034,-0.22703391,1.216303,0.3367811
-0.1,0.1,0.7,0.0,-0.5235987755982988,0,0.44582915,1.3085626,0.06505615,-0.10425641,0.12962106,1.4174327,0.06504534,0.9202844,1.2176645,-0.22756377,0.005231071,0.20569871,1.2887796,0.29055628
-0.1,0.1,0.7,0.0,-0.5235987755982988,0,0.4442871,1.3100055,0.070253864,-0.10619599,0.12341939,1.4109198,0.08552034,0.3776087,1.4190658,0.11373903,-0.1309495,-0.038571637,1.3218505,0.82959783
-0.1,0.1,0.7,0.0,-0.5235987755982988,0,0.44842726,1.3098946,0.06649521,-0.106975354,0.12343945,1.4193121,0.045882892,0.42014536,1.3398114,0.11041209,-0.09028346,-0.39264017,1.278234,0.3046501
-0.1,0.1,0.7,0.0,-0.5235987755982988,0,0.43708584,1.3122083,0.067856,-0.108080044,0.11343264,1.4242578,-0.0019287899,0.2969614,1.3024209,-0.2204239,-0.12555443,0.1516032,1.3434938,0.67578053
-0.1,0.1,0.7,0.0,-0.5235987755982988,0,0.44364536,1.3082502,0.065488555,-0.10332435,0.12933537,1.406815,0.088206016,0.15003927,1.4128462,0.05877085,-0.10023825,-0.09653869,1.1675558,0.6892684
-0.1,0.1,0.7,0.0,-0.5235987755982988,0,0.44148225,1.30497,0.06995618,-0.097017415,0.1254673,1.4080042,-1.07067135e-05,0.77558976,1.428965,0.30978775,-0.1477752,0.07949901,1.296352,0.7098174
-0.1,0.1,0.7,0.0,-0.5235987755982988,0,0.44001433,1.3064377,0.07205992,-0.09913141,0.13442566,1.4065851,0.043380022,0.008408685,1.289771,-0.085890725,0.0447458,0.055051833,1.2398648,0.9230312
-0.1,0.1,0.7,0.0,-0.5235987755982988,0,0.44890913,1.3115268,0.052728973,-0.10904308,0.10936025,1.4149665,0.12879308,-0.21267673,1.2162313,0.28971007,-0.12114531,-0.14420928,1.3634298,0.9946359
-0.1,0.1,0.7,0.0,-0.5235987755982988,0,0.4384774,1.3066106,0.05198062,-0.09988617,0.1269488,1.4089924,0.113962956,0.42297962,1.3149973,0.06106369,-0.03562592,0.052576832,1.2285303,1.0888233
-0.1,0.1,0.7,0.0,-0.5235987755982988,0,0.44487032,1.3118751,0.063548766,-0.10896709,0.13096768,1.4087923,0.12913063,0.4412257,1.1715156,0.08189726,-0.06489109,0.049171455,1.212453,0.5395753
-0.1,0.1,0.7,0.0,-0.5235987755982988,0,0.4427235,1.3137845,0.0601986,-0.11102976,0.1411131,1.4124459,0.070298605,0.5942442,1.3944347,-0.09531542,-0.010194282,0.003314733,1.320511,0.5885193
-0.1,0.1,0.7,0.0,-0.5235987755982988,0,0.44084904,1.299624,0.06669811,-0.08680708,0.14052859,1.4105215,0.12169817,0.5359533,1.2504234,-0.05115123,-0.11516074,0.062478326,1.3471527,1.407804
-0.1,0.1,0.7,0.0,-0.5235987755982988,0,0.44962358,1.3046025,0.055555727,-0.09648942,0.12465916,1.4110374,0.12582627,0.6925532,1.3895689,0.32449526,-0.062308945,0.12132634,1.5041924,0.7040006
-0.1,0.1,0.7,0.0,-0.5235987755982988,0,0.45064554,1.3037591,0.06967807,-0.09440872,0.11803113,1.4259279,0.15812932,1.0348657,1.3600532,0.032004908,-0.109329216,-0.12690721,1.2647905,1.4790823
-0.1,0.1,0.7,0.0,-0.5235987755982988,0,0.44574943,1.303421,0.05656149,-0.09408208,0.1311104,1.4116424,0.1030438,0.25215882,1.483643,0.4568882,-0.056080796,0.2951194,1.2507081,1.2510227
-0.1,0.1,0.7,0.0,-0.5235987755982988,0,0.43899083,1.3108782,0.060427323,-0.10534791,0.13090275,1.4053084,0.048942376,0.8350364,1.1602696,0.10626728,-0.04403617,-0.26171213,1.3529257,1.1893533
-0.1,0.1,0.7,0.0,-0.5235987755982988,0,0.43610245,1.3099478,0.06318959,-0.10267569,0.11655741,1.4141827,0.038537197,0.48079276,1.2117085,0.1305298,-0.06479062,-0.48685482,1.2314504,0.8583955
-0.1,0.1,0.7,0.0,-0.5235987755982988,0,0.44119912,1.309805,0.0689437,-0.103658624,0.14421858,1.4214551,0.048957948,0.4648739,1.2501477,-0.13603929,-0.03988106,-0.36671075,1.221112,0.7839907
-0.1,0.1,0.7,0.0,-0.5235987755982988,0,0.44931507,1.3090694,0.061897255,-0.10468603,0.12980363,1.4129364,0.101019606,1.1446749,1.3201683,-0.12486049,-0.15132317,0.053267233,1.3155602,1.7489451
-0.1,0.1,0.7,0.0,-0.5235987755982988,0,0.4458657,1.311112,0.06757067,-0.1064847,0.14928706,1.4199394,0.10844313,0.90539247,1.3821439,-0.05828883,-0.0037934473,-0.223126,1.1670681,0.14982252
-0.1,0.1,0.7,0.0,-0.5235987755982988,0,0.44324067,1.309262,0.07425142,-0.10301575,0.12867965,1.4144528,0.107561596,1.0136547,1.328597,0.16318949,0.017113984,0.08099442,1.1923138,0.91858083
-0.1,0.1,0.7,0.0,-0.5235987755982988,0,0.44567248,1.3126899,0.06871504,-0.10931712,0.107332334,1.4119172,0.07571145,1.1002415,1.2392586,0.15016413,-0.16138029,0.027298732,1.3125232,0.757094
-0.1,0.1,0.7,0.0,-0.5235987755982988,0,0.44369856,1.3089696,0.061530538,-0.10238101,0.12525366,1.4175348,0.117195815,0.7973927,1.4546701,0.2365875,-0.094969645,-0.16615412,1.3157479,0.14005242
-0.1,0.1,0.7,0.0,-0.5235987755982988,0,0.45142174,1.3100767,0.06407902,-0.10644707,0.11469747,1.4174061,0.10953365,0.99860704,1.3537129,0.011038991,-0.07941166,-0.18137333,1.2118379,0.5339663
-0.1,0.1,0.7,0.0,-0.5235987755982988,0,0.43545514,1.3112323,0.058591764,-0.10420055,0.116565526,1.4178884,0.0487571,0.87611943,1.4313309,0.21755272,-0.058995448,-0.17376111,1.2947912,0.82222563
-0.1,0.1,0.7,0.0,-0.5235987755982988,0,0.44743228,1.307383,0.058123436,-0.1013611,0.11152748,1.4236928,0.025988257,1.1084146,1.2181841,-0.02038464,-0.056196366,-0.13137077,1.2101234,1.0263681
-0.1,0.1,0.7,0.0,-0.5235987755982988,0,0.43492976,1.3086935,0.0661601,-0.1004952,0.1112427,1.4190592,0.037659973,0.7166887,1.2129185,-0.09308566,-0.028334396,-0.24178901,1.2622641,0.42517936
-0.1,0.1,0.7,0.0,-0.5235987755982988,0,0.44936562,1.3046386,0.051911436,-0.096851975,0.15618734,1.4116125,0.092517726,0.7819332,1.1746323,0.30740717,-0.09655422,-0.29124427,1.2813365,0.35314015
-0.1,0.1,0.7,0.0,-0.5235987755982988,0,0.44431415,1.3092945,0.06326701,-0.1039045,0.13722803,1.4170507,0.12083472,0.9355166,1.2744142,-0.07991042,-0.05516821,0.0635324,1.2753752,0.77361906
-0.1,0.1,0.7,0.0,-0.5235987755982988,0,0.44442308,1.3128582,0.058962796,-0.10844993,0.1264995,1.4210727,0.1272593,1.2795315,1.3153511,0.30834413,-0.00013647106,0.16792108,1.3254535,0.6239316
-0.1,0.1,0.7,0.0,-0.5235987755982988,0,0.4491119,1.3087,0.0616353,-0.10255586,0.121077895,1.4229167,0.11814702,0.8400473,1.452252,0.08259789,-0.055312682,-0.16148882,1.3478764,0.28868487
-0.1,0.1,0.7,0.0,-0.5235987755982988,0,0.4411079,1.3077921,0.068146266,-0.100468166,0.1438865,1.4078866,0.14396048,1.0516869,1.389095,0.0769798,-0.10416041,0.0116924755,1.2960362,0.3051465
-0.1,0.1,0.7,0.0,-0.5235987755982988,0,0.44609612,1.310796,0.062317234,-0.10583689,0.123483025,1.4136256,0.06580098,0.9910373,1.1529107,0.033598002,-0.072249375,0.16978662,1.3332627,0.76899517
-0.1,0.1,0.7,0.0,-0.5235987755982988,0,0.44534123,1.3085088,0.056096837,-0.1022825,0.123109,1.4144657,0.07439712,0.31513757,1.2258756,0.05566902,-0.046895098,0.16854616,1.1933677,0.4613252
-0.1,0.1,0.7,0.0,-0.5235987755982988,0,0.44818363,1.3089908,0.057012707,-0.1029426,0.097912185,1.4149717,0.13386093,1.0599197,1.4417541,-0.36070982,-0.09311132,0.03975233,1.319223,0.42879328
-0.1,0.1,0.7,0.0,-0.5235987755982988,0,0.4403911,1.3121605,0.06136423,-0.10644298,0.11792168,1.4142337,0.15292332,1.0372145,1.3195392,0.0033146509,-0.1499017,-0.37033534,1.365976,0.28147623
-0.1,0.1,0.7,0.0,-0.5235987755982988,0,0.44623557,1.307075,0.05189272,-0.0995718,0.13653263,1.4149941,0.028691873,0.18930799,1.2152447,0.35629788,-0.082278766,-0.32802656,1.3000889,0.3917822
-0.1,0.1,0.7,0.0,-0.5235987755982988,0,0.45027652,1.3080721,0.060605604,-0.102261625,0.12635358,1.4225246,0.061871238,1.0475351,1.3021643,0.25006065,-0.08729668,0.19265532,1.3475299,0.15200086
-0.1,0.1,0.7,0.0,-0.5235987755982988,0,0.44045153,1.3064249,0.071934626,-0.09748523,0.10384377,1.4139626,0.103306994,0.23017198,1.2585993,0.12875216,-0.07650298,0.020458695,1.1993024,0.5469121
-0.1,0.1,0.7,0.0,-0.5235987755982988,0,0.43314964,1.3088448,0.060391888,-0.09938199,0.14831625,1.4176738,0.036460165,0.42248493,1.3415102,-0.16421305,-0.10574471,0.061886746,1.0886664,0.027647743
-0.1,0.1,0.7,0.0,-0.5235987755982988,0,0.4435168,1.305478,0.05674376,-0.09702952,0.102755964,1.4125321,0.0631496,0.81262296,1.2418482,0.07261675,-0.056098625,-0.053602356,1.3752,0.9493966
-0.1,0.1,0.7,0.0,-0.5235987755982988,0,0.43597054,1.3080528,0.058043994,-0.09877229,0.10791598,1.4205477,0.08813613,0.94939023,1.3315713,0.3732438,-0.045533955,-0.03715249,1.2067286,0.72672623
-0.1,0.1,0.7,0.0,-0.5235987755982988,0,0.4442503,1.3080695,0.05055114,-0.100893445,0.14494413,1.4164975,0.13028328,0.7885039,1.1619843,0.0032354568,-0.12717381,-0.20276308,1.2765518,1.1016407
-0.1,0.1,0.7,0.0,-0.5235987755982988,0,0.44538385,1.308473,0.06711374,-0.10139861,0.13213648,1.4121395,0.0428752,0.8584684,1.3377551,0.12063906,-0.07921107,-0.2072692,1.2175041,0.46194032
-0.1,0.1,0.7,0.0,-0.5235987755982988,0,0.44634837,1.3073335,0.061583012,-0.099923134,0.128622,1.4183825,0.07258655,0.84970266,1.3386918,0.13933538,-0.037803743,-0.090200275,1.2971778,0.6912843
-0.1,0.1,0.7,0.0,-0.5235987755982988,0,0.44594637,1.3075159,0.06219169,-0.10013813,0.15063591,1.4029144,0.0893974,0.98676276,1.2224871,0.047486644,-0.11536603,0.022483421,1.3696251,0.6522564
-0.1,0.1,0.7,0.0,-0.5235987755982988,0,0.43483275,1.3014168,0.07314703,-0.10134081,0.14425117,1.4232674,0.08610579,0.8667411,1.2449678,-0.08930006,0.022706993,-0.2974362,1.3700176,0.20675735
-0.1,0.1,0.7,0.0,-0.5235987755982988,0,0.43562877,1.3022279,0.07137249,-0.099095315,0.13838242,1.4096065,0.027131,0.9647659,1.1584115,0.44289687,-0.17809452,-0.46574175,1.2166611,1.1846918
-0.1,0.1,0.7,0.0,-0.5235987755982988,0,0.43957812,1.3066431,0.0712621,-0.10962638,0.12734444,1.4177334,0.10033167,1.5888767,1.2669573,-0.023616053,-0.03235106,0.020625005,1.3410892,0.2797736
-0.1,0.1,0.7,0.0,-0.5235987755982988,0,0.4459767,1.297705,0.07274887,-0.093842745,0.12976795,1.4088647,0.0750968,-0.34799305,1.3436781,-0.10670486,-0.021991378,0.07280507,1.3265015,1.0616769
-0.1,0.1,0.7,0.0,-0.5235987755982988,0,0.43530634,1.3029157,0.06171456,-0.100442044,0.1197517,1.4205419,0.13843289,1.1837078,1.320569,0.07818068,-0.08751648,-0.072505355,1.2965868,1.1550398
-0.1,0.1,0.7,0.0,-0.5235987755982988,0,0.44380426,1.3038464,0.0618273,-0.101824954,0.122803636,1.4138389,0.06750287,0.8890309,1.3428441,0.07780743,-0.09701337,0.103060305,1.3000226,1.1984996
-0.1,0.1,0.7,0.0,-0.5235987755982988,0,0.4466505,1.3060246,0.073287174,-0.10565411,0.15516213,1.4218329,0.084949344,0.677219,1.297228,0.01009907,-0.0149187,-0.30735376,1.2993337,0.3495864
-0.1,0.1,0.7,0.0,-0.5235987755982988,0,0.43926552,1.2979972,0.06271693,-0.088666074,0.12079267,1.4112364,0.07825558,0.5994774,1.444876,0.13488522,-0.08749395,-0.013341754,1.3464843,0.63373524
-0.1,0.1,0.7,0.0,-0.5235987755982988,0,0.43680376,1.3055315,0.05553946,-0.10031879,0.14154957,1.4199982,0.0883667,0.55768263,1.276556,0.29492864,-0.09876227,0.3101939,1.3041314,0.6700399
-0.1,0.1,0.7,0.0,-0.5235987755982988,0,0.43451104,1.3044442,0.060758192,-0.09671208,0.10031036,1.4152968,0.10181621,0.7868062,1.2526046,0.13512865,-0.073257886,-0.19920568,1.2620239,0.70925546
-0.1,0.1,0.7,0.0,-0.5235987755982988,0,0.44171616,1.3105314,0.05992345,-0.120388836,0.13973047,1.4205287,0.095956,1.2445905,1.2067428,-0.14648572,-0.059386197,0.06997637,1.1126305,0.7742242
-0.1,0.1,0.7,0.0,-0.5235987755982988,0,0.4412393,1.3051989,0.07432859,-0.11196666,0.12607226,1.4123682,0.03906558,0.5894916,1.1938306,0.051829953,-0.053645745,-0.22897486,1.1851026,0.9399685
-0.1,0.1,0.7,0.0,-0.5235987755982988,0,0.43990234,1.3054003,0.059353698,-0.11026987,0.117737085,1.422848,0.12903063,0.34734797,1.1848315,-0.032988105,-0.13523452,-0.37366942,1.3321767,1.2872796
-0.1,0.1,0.7,0.0,-0.5235987755982988,0,0.4421,1.3067261,0.06297117,-0.11234562,0.13570449,1.4053757,0.11859984,0.50918376,1.2584639,-0.11629504,-0.033098157,-0.070681766,1.2255344,0.6086901
-0.1,0.1,0.7,0.0,-0.5235987755982988,0,0.43329954,1.2975233,0.057712685,-0.095547184,0.12495166,1.4139615,0.15464295,0.077874534,1.3209246,-0.13219905,-0.058857944,-0.36482045,1.2619888,0.73812646
-0.1,0.1,0.7,0.0,-0.5235987755982988,0,0.4439118,1.3081955,0.069046445,-0.11457183,0.12787598,1.4194983,0.021435525,1.2784345,1.2147316,0.082155176,-0.05898391,0.03273059,1.3098671,0.66349655
-0.1,0.1,0.7,0.0,-0.5235987755982988,0,0.44422033,1.3024113,0.0625335,-0.10569273,0.12961039,1.4251524,-0.0010553146,0.7390125,1.2465916,0.09986789,-0.10418778,0.11723792,1.2969979,0.37887695
-0.1,0.1,0.7,0.0,-0.5235987755982988,0,0.45692602,1.3011065,0.059012834,-0.1038434,0.1258308,1.4174002,0.10096171,0.5111976,1.2839724,-0.04974687,-0.047437895,0.035502244,1.3735138,0.5415565
-0.1,0.1,0.7,0.0,-0.5235987755982988,0,0.44224042,1.307904,0.061806243,-0.11148419,0.15250756,1.4092479,0.06863465,0.6310765,1.309346,-0.21328601,-0.12914015,-0.4347591,1.3792343,0.8268124
-0.1,0.1,0.7,0.0,-0.5235987755982988,0,0.44251677,1.3067057,0.075010985,-0.111570835,0.11182187,1.4121996,0.053918157,0.22536375,1.3954192,-0.26382756,-0.0055799196,-0.15753528,1.3503119,1.0445384
-0.1,0.1,0.7,0.0,-0.5235987755982988,0,0.44106585,1.3002322,0.057785217,-0.09839139,0.12544431,1.4197955,0.18514714,0.12064995,1.2349741,0.32014364,-0.025481155,-0.19767918,1.2685306,0.86276597
-0.1,0.1,0.7,0.0,-0.5235987755982988,0,0.44721416,1.3136296,0.07842655,-0.12103617,0.122024715,1.4156731,0.12786637,0.017782612,1.2411411,-0.13942814,-0.09922958,-0.28288415,1.4034795,0.7181696
-0.1,0.1,0.7,0.0,-0.5235987755982988,0,0.44512722,1.3117445,0.066054106,-0.11700412,0.12580661,1.4047338,-0.02238222,0.958969,1.3594438,0.084114164,-0.054886505,-0.1371066,1.2781539,1.1913265
-0.1,0.1,0.7,0.0,-0.5235987755982988,0,0.44499567,1.3082113,0.065764435,-0.10943589,0.13783573,1.4212093,0.0963563,0.28933778,1.3291372,0.27910286,-0.0020008374,-0.30011624,1.3143264,0.62104166
-0.1,0.1,0.7,0.0,-0.5235987755982988,0,0.44667482,1.3041475,0.06480254,-0.10217865,0.1318403,1.421408,0.111548066,-0.7811143,1.2463814,-0.26257437,-0.028854104,-0.11613972,1.2385528,1.5143481
-0.1,0.1,0.7,0.0,-0.5235987755982988,0,0.43817022,1.3059492,0.06449893,-0.10203508,0.097395815,1.4111364,0.15481654,1.1254172,1.3755893,0.23769218,0.0041593974,0.12892367,1.2841439,0.5150794
-0.1,0.1,0.7,0.0,-0.5235987755982988,0,0.44483024,1.3093781,0.054939803,-0.10783849,0.13651799,1.4055661,0.16509777,1.2537063,1.1958076,0.07478567,-0.022678867,-0.106528156,1.3016497,0.44203573
-0.1,0.1,0.7,0.0,-0.5235987755982988,0,0.43834078,1.3084682,0.07484951,-0.10479544,0.118243866,1.4107592,0.05491989,1.3769333,1.1872829,-0.0042543863,-0.07680159,-0.31015754,1.3207412,1.2066367
-0.1,0.1,0.7,0.0,-0.5235987755982988,0,0.44380894,1.3131771,0.072646916,-0.11206647,0.12498616,1.4176773,0.15666278,0.65719104,1.3693103,0.17482409,-0.13450116,-0.20161499,1.3725755,0.4488
-0.1,0.1,0.7,0.0,-0.5235987755982988,0,0.4364709,1.311626,0.054483876,-0.10685819,0.13403521,1.4069277,-0.031714235,1.0083306,1.3319714,0.17233156,-0.057665803,-0.24523751,1.4439378,0.29662198
-0.1,0.1,0.7,0.0,-0.5235987755982988,0,0.44364464,1.3108038,0.060323775,-0.10791628,0.12352187,1.4066925,0.119924515,0.52430916,1.3496481,-0.26175565,-0.11486955,-0.010016171,1.2454602,1.1321107
-0.1,0.1,0.7,0.0,-0.5235987755982988,0,0.43535015,1.30826,0.06812307,-0.09897617,0.11486194,1.4135063,0.0074419975,0.35649997,1.28956,0.20879158,0.078441665,-0.21974881,1.2790798,0.8388186
-0.1,0.1,0.7,0.0,-0.5235987755982988,0,0.43943867,1.3081999,0.06820678,-0.100641206,0.13433714,1.4152722,-0.011711024,0.5240884,1.319189,0.37619296,-0.08176564,-0.17045368,1.3895241,1.1573899
-0.1,0.1,0.7,0.0,-0.5235987755982988,0,0.44156173,1.310188,0.072115816,-0.11342362,0.11779499,1.4203722,0.16330202,0.74851125,1.5102388,0.035226375,-0.10083788,-0.20190798,1.2680999,0.5686171
-0.1,0.1,0.7,0.0,-0.5235987755982988,0,0.44713297,1.3023372,0.066169865,-0.103772126,0.12792271,1.4139825,0.058670774,0.7974671,1.3046641,-0.09483613,-0.09645043,-0.39963055,1.2923961,0.94590026
-0.1,0.1,0.7,0.0,-0.5235987755982988,0,0.44255766,1.3065372,0.058990926,-0.1033327,0.11107695,1.4159515,0.046062563,0.34107232,1.3345205,-0.052411698,-0.02565383,0.2273801,1.4024556,0.5807887
