sanky1234/BimanualDexCatch/isaacgymenvs/cem_results/football_pose_-0.1_-0.1_1.2999999999999998_0.5235987755982988_0.5235987755982988_0_2025-05-25.csv
x,y,z,roll,pitch,yaw,robot1/joint1,robot1/joint2,robot1/joint3,robot1/joint4,robot1/joint5,robot1/joint6,robot1/joint7,robot2/joint1,robot2/joint2,robot2/joint3,robot2/joint4,robot2/joint5,robot2/joint6,robot2/joint7
-0.1,-0.1,1.2999999999999998,0.5235987755982988,0.5235987755982988,0,0.07496385,-0.8487443,1.8704209,0.6392733,0.025555115,0.67395073,1.0601553,0.0910786,1.2535921,0.14495724,-0.067656,-0.046113953,1.2916471,-0.05934951
-0.1,-0.1,1.2999999999999998,0.5235987755982988,0.5235987755982988,0,0.07345354,-0.84797263,1.8714381,0.63939303,0.026874043,0.6988624,-0.89603686,0.08930094,1.4344355,-0.19251661,-0.112933174,-0.03548158,1.248353,1.4950353
-0.1,-0.1,1.2999999999999998,0.5235987755982988,0.5235987755982988,0,0.0755678,-0.84801,1.8698423,0.6392739,0.031530578,0.68210995,-0.12742375,0.09408542,1.3432405,-0.13589498,-0.027885485,-0.27385837,1.2407281,0.8508637
-0.1,-0.1,1.2999999999999998,0.5235987755982988,0.5235987755982988,0,0.07583248,-0.848348,1.8687167,0.6403222,0.025899697,0.68511814,-0.77546984,0.09425484,1.3211638,-0.11458176,-0.03101431,-0.1885468,1.2333919,0.49697074
-0.1,-0.1,1.2999999999999998,0.5235987755982988,0.5235987755982988,0,0.07512862,-0.8488712,1.8687075,0.64187145,0.02105275,0.63339293,-1.1781596,0.0950462,1.3543493,-0.023954727,-0.007543074,-0.06395293,1.2106941,0.15047686
-0.1,-0.1,1.2999999999999998,0.5235987755982988,0.5235987755982988,0,0.07673318,-0.846788,1.8712711,0.641586,0.029390274,0.6682327,-0.3422911,0.089694776,1.2689204,-0.011870576,-0.0072593107,-0.019035809,1.2184412,0.113535464
-0.1,-0.1,1.2999999999999998,0.5235987755982988,0.5235987755982988,0,0.07659331,-0.8488497,1.8688943,0.6389951,0.023383884,0.59904265,-0.016487628,0.08878912,1.2622993,-0.08946894,-0.030255796,-0.09471664,1.2614362,0.8877621
-0.1,-0.1,1.2999999999999998,0.5235987755982988,0.5235987755982988,0,0.07589845,-0.84659624,1.8705605,0.6415751,0.015312775,0.66055936,0.033401437,0.09354258,1.2837739,-0.109964,0.0119344685,0.23151912,1.169969,0.65377486
-0.1,-0.1,1.2999999999999998,0.5235987755982988,0.5235987755982988,0,0.07652392,-0.84838337,1.8697135,0.6397982,0.019546995,0.61276895,0.37741178,0.09172487,1.2575063,0.11341472,-0.082763776,0.048927777,1.1294913,0.46329498
-0.1,-0.1,1.2999999999999998,0.5235987755982988,0.5235987755982988,0,0.07536673,-0.847207,1.8726444,0.63991547,0.020745238,0.6338701,-0.12299528,0.09114039,1.2583328,0.26120874,-0.040538087,-0.042386536,1.2639432,1.0446049
-0.1,-0.1,1.2999999999999998,0.5235987755982988,0.5235987755982988,0,0.07539896,-0.8478198,1.870579,0.6388972,0.019996129,0.6903327,0.27281436,0.09266848,1.2452096,-0.039205126,-0.06310643,-0.105990365,1.2018214,0.11754828
-0.1,-0.1,1.2999999999999998,0.5235987755982988,0.5235987755982988,0,0.07592397,-0.8481488,1.8685607,0.64188963,0.012118273,0.69030803,0.22379343,0.08763907,1.2613751,-0.122479826,-0.071830586,-0.04646929,1.1992588,-0.025351075
-0.1,-0.1,1.2999999999999998,0.5235987755982988,0.5235987755982988,0,0.07668899,-0.847783,1.8709023,0.64117026,0.027128544,0.6360413,0.92486525,0.09703293,1.222661,-0.19957025,-0.049469907,0.06303565,1.1891364,0.17092049
-0.1,-0.1,1.2999999999999998,0.5235987755982988,0.5235987755982988,0,0.076281056,-0.8483084,1.8703467,0.6410437,0.02016205,0.6836094,0.25935417,0.090191774,1.3234602,0.01608844,0.012456444,-0.09597076,1.253407,1.4678748
-0.1,-0.1,1.2999999999999998,0.5235987755982988,0.5235987755982988,0,0.07591207,-0.84710723,1.8687834,0.640323,0.025116934,0.6571044,0.14933047,0.09242127,1.2416372,0.0627794,-0.0926715,-0.18142271,1.3032941,0.9912504
-0.1,-0.1,1.2999999999999998,0.5235987755982988,0.5235987755982988,0,0.07552146,-0.8477773,1.868875,0.64118236,0.025126537,0.6345055,0.686986,0.092879705,1.3038676,-0.1451417,-0.01593029,0.07670146,1.2491574,0.17953894
-0.1,-0.1,1.2999999999999998,0.5235987755982988,0.5235987755982988,0,0.07586833,-0.8487094,1.8697556,0.6408849,0.020181812,0.62319475,-0.07293458,0.09267369,1.2805756,-0.02727338,-0.03765797,-0.2321476,1.3055058,0.5648449
-0.1,-0.1,1.2999999999999998,0.5235987755982988,0.5235987755982988,0,0.077731915,-0.8480464,1.8696415,0.64157397,0.020073384,0.6602897,0.7187309,0.09276439,1.3161479,-0.033177998,-0.12624694,0.1856147,1.2070738,0.8384435
-0.1,-0.1,1.2999999999999998,0.5235987755982988,0.5235987755982988,0,0.075104676,-0.8491214,1.8681078,0.6395913,0.024254763,0.6788884,0.11933317,0.08997164,1.2823689,-0.0133952815,0.007496143,-0.05938709,1.1997509,0.9508049
-0.1,-0.1,1.2999999999999998,0.5235987755982988,0.5235987755982988,0,0.075684175,-0.8481481,1.8700913,0.64029056,0.018173637,0.6814311,-0.82434,0.09148322,1.2977941,-0.11887128,0.015128925,-0.35458955,1.2869883,0.42441627
-0.1,-0.1,1.2999999999999998,0.5235987755982988,0.5235987755982988,0,0.076702446,-0.8488789,1.8688822,0.6403441,0.021299114,0.648006,-0.5383402,0.090430394,1.2187203,-0.089066446,-0.028702624,0.069277585,1.2286073,0.69255114
-0.1,-0.1,1.2999999999999998,0.5235987755982988,0.5235987755982988,0,0.07701669,-0.8481835,1.8695107,0.6391019,0.019688286,0.64928997,0.6883871,0.092228174,1.2911574,-0.082981095,-0.10267544,0.11211067,1.2615616,0.89888513
-0.1,-0.1,1.2999999999999998,0.5235987755982988,0.5235987755982988,0,0.0752904,-0.8472972,1.8702009,0.6408107,0.023890924,0.7016995,0.6982111,0.09161168,1.3109909,-0.09564713,-0.024606412,-0.14910577,1.2198101,0.48770407
-0.1,-0.1,1.2999999999999998,0.5235987755982988,0.5235987755982988,0,0.07483061,-0.8477874,1.8697113,0.6401536,0.019174961,0.69927144,-1.4025198,0.09002568,1.294315,0.020142997,-0.0076874755,-0.0031696567,1.2513998,0.8504234
-0.1,-0.1,1.2999999999999998,0.5235987755982988,0.5235987755982988,0,0.07486906,-0.8474792,1.8705028,0.6404646,0.014433859,0.65327805,-0.0010689957,0.09470874,1.3683715,-0.044155,-0.08497635,-0.013970431,1.1334126,0.036691844
-0.1,-0.1,1.2999999999999998,0.5235987755982988,0.5235987755982988,0,0.07474316,-0.84743035,1.8704103,0.64060956,0.030300133,0.69916886,1.2303002,0.09439063,1.2252054,-0.03433157,-0.060129974,0.120907836,1.306817,0.7461462
-0.1,-0.1,1.2999999999999998,0.5235987755982988,0.5235987755982988,0,0.0771967,-0.84715277,1.8706665,0.63918555,0.024324754,0.72050387,-0.29929414,0.09089731,1.3198559,-0.0041730236,-0.101724446,0.23076177,1.2381234,0.81510293
-0.1,-0.1,1.2999999999999998,0.5235987755982988,0.5235987755982988,0,0.07684527,-0.84803987,1.871455,0.64205277,0.016516771,0.64120615,0.26452988,0.087009035,1.3019942,-0.18420458,-0.10978924,-0.10742466,1.3359209,0.8189267
-0.1,-0.1,1.2999999999999998,0.5235987755982988,0.5235987755982988,0,0.076505,-0.8475117,1.8723689,0.6406022,0.025661781,0.6977203,1.7478262,0.090288885,1.2385263,-0.12995945,-0.048636775,-0.101134166,1.2588714,0.050036777
-0.1,-0.1,1.2999999999999998,0.5235987755982988,0.5235987755982988,0,0.07456005,-0.8486874,1.8705138,0.64121866,0.022815038,0.687735,-1.7132849,0.08924847,1.2892793,-0.16327876,-0.03710257,-0.010351381,1.2083364,1.2641221
-0.1,-0.1,1.2999999999999998,0.5235987755982988,0.5235987755982988,0,0.075114734,-0.8492604,1.8683493,0.6408697,0.02680463,0.66951364,-0.6020346,0.09173615,1.3078347,-0.29889458,-0.04442451,-0.26396695,1.2010608,0.022803886
-0.1,-0.1,1.2999999999999998,0.5235987755982988,0.5235987755982988,0,0.07615835,-0.848653,1.8704574,0.63871175,0.028331442,0.6696858,1.9283428,0.09029073,1.2835586,0.09681967,-0.08728584,0.20414099,1.2299559,1.3113664
-0.1,-0.1,1.2999999999999998,0.5235987755982988,0.5235987755982988,0,0.0741969,-0.84717065,1.8722132,0.63984126,0.026701152,0.69539106,-0.49237463,0.09045331,1.3925062,0.038592547,0.004353836,-0.03238676,1.2596598,-0.2027953
-0.1,-0.1,1.2999999999999998,0.5235987755982988,0.5235987755982988,0,0.07527794,-0.8480049,1.8711356,0.6400925,0.015261156,0.68662435,-0.20380051,0.089811906,1.2943276,-0.0020868394,-0.0066804728,-0.14127281,1.2446324,0.28760353
-0.1,-0.1,1.2999999999999998,0.5235987755982988,0.5235987755982988,0,0.07500154,-0.847689,1.8688189,0.64054126,0.02379528,0.722154,0.38901886,0.09133745,1.3389888,0.04698677,-0.018623207,-0.121354684,1.174115,-0.14300762
-0.1,-0.1,1.2999999999999998,0.5235987755982988,0.5235987755982988,0,0.07552841,-0.8482082,1.8715549,0.640017,0.019569816,0.65072745,-0.54546773,0.09626047,1.2492356,0.1740814,-0.10595769,-0.32286063,1.2541869,0.75907224
-0.1,-0.1,1.2999999999999998,0.5235987755982988,0.5235987755982988,0,0.0734202,-0.8493651,1.8711915,0.6401812,0.022987248,0.65733945,-0.5524183,0.09322539,1.3342438,0.11337211,-0.023883717,-0.053351194,1.2929723,1.0393893
-0.1,-0.1,1.2999999999999998,0.5235987755982988,0.5235987755982988,0,0.07408652,-0.84761614,1.8717983,0.6381796,0.019471541,0.63594,-0.19758067,0.09135048,1.3622537,-0.116966866,-0.004944202,0.12082941,1.2649976,0.033586975
-0.1,-0.1,1.2999999999999998,0.5235987755982988,0.5235987755982988,0,0.075040594,-0.84829444,1.8688477,0.640295,0.019776218,0.6501005,1.3705682,0.089586176,1.2713025,0.09522314,-0.041085217,0.18558942,1.2269025,0.63430285
-0.1,-0.1,1.2999999999999998,0.5235987755982988,0.5235987755982988,0,0.07718495,-0.8477159,1.8704983,0.63938034,0.022179384,0.653163,-1.2692904,0.086813755,1.3413635,-0.20702113,-0.08702412,-0.28314996,1.1794269,0.968968
-0.1,-0.1,1.2999999999999998,0.5235987755982988,0.5235987755982988,0,0.07690569,-0.84814256,1.8721983,0.6396679,0.028009363,0.6921585,-0.70493376,0.08876604,1.319622,0.01749354,-0.09334932,0.020901753,1.2220515,0.56429553
-0.1,-0.1,1.2999999999999998,0.5235987755982988,0.5235987755982988,0,0.07610884,-0.84880954,1.870525,0.6400908,0.024383089,0.71831715,-1.291773,0.08884264,1.3270793,-0.35714304,-0.08759693,0.019699095,1.0705339,0.66169983
-0.1,-0.1,1.2999999999999998,0.5235987755982988,0.5235987755982988,0,0.076762035,-0.847007,1.8718975,0.6402582,0.027735757,0.65228486,0.4250499,0.09297579,1.3516293,-0.09751259,-0.08856281,-0.09570923,1.1734325,0.38195747
-0.1,-0.1,1.2999999999999998,0.5235987755982988,0.5235987755982988,0,0.07675908,-0.84654444,1.8726628,0.6423928,0.030480258,0.64196783,-1.630842,0.09044347,1.284131,0.04941497,-0.045632597,0.054842606,1.2090206,0.9642097
-0.1,-0.1,1.2999999999999998,0.5235987755982988,0.5235987755982988,0,0.075231984,-0.8475661,1.8710728,0.63968396,0.024839053,0.65249217,0.20767236,0.09227906,1.2970868,-0.16112718,-0.025478777,0.011786834,1.2603184,0.86361134
-0.1,-0.1,1.2999999999999998,0.5235987755982988,0.5235987755982988,0,0.07517238,-0.8467574,1.8697504,0.6404704,0.02100804,0.66647047,1.6343626,0.09022191,1.357711,-0.08221539,-0.06399852,-0.07175312,1.2536718,0.3870559
-0.1,-0.1,1.2999999999999998,0.5235987755982988,0.5235987755982988,0,0.07429653,-0.84666085,1.8717262,0.63963836,0.02795119,0.6820372,1.574208,0.08794878,1.2780674,-0.057133712,-0.06956172,-0.081990115,1.2381743,0.50195634
-0.1,-0.1,1.2999999999999998,0.5235987755982988,0.5235987755982988,0,0.07627118,-0.84848803,1.8699514,0.6385661,0.035847273,0.6827904,1.3698999,0.09083349,1.2634131,-0.10936768,-0.07456826,-0.26774737,1.2615969,0.60914004
-0.1,-0.1,1.2999999999999998,0.5235987755982988,0.5235987755982988,0,0.07731805,-0.8482615,1.8715329,0.6399936,0.013391655,0.6590365,0.67801386,0.09138896,1.3334991,-0.03462519,-0.050108038,-0.22120935,1.3775524,0.30278352
-0.1,-0.1,1.2999999999999998,0.5235987755982988,0.5235987755982988,0,0.07611303,-0.8483894,1.8705772,0.6406443,0.022331666,0.6790776,0.4080785,0.09100374,1.2040168,-0.13891758,-0.043157093,0.11849439,1.2762645,0.34068426
-0.1,-0.1,1.2999999999999998,0.5235987755982988,0.5235987755982988,0,0.07657753,-0.84763116,1.8692472,0.64153206,0.020551251,0.6598886,-0.10417584,0.09079776,1.2517157,-0.0730643,-0.06949592,-0.24156493,1.1507403,1.0920677
-0.1,-0.1,1.2999999999999998,0.5235987755982988,0.5235987755982988,0,0.07744513,-0.8477189,1.8699151,0.63867134,0.013969339,0.6749964,0.27088383,0.09434034,1.2638743,-0.07350448,0.0009198129,-0.008263039,1.157289,0.4654735
-0.1,-0.1,1.2999999999999998,0.5235987755982988,0.5235987755982988,0,0.07597492,-0.8489929,1.8703505,0.6391843,0.021725502,0.67940617,-0.56312054,0.0906212,1.285074,0.08691468,-0.024766266,-0.038259752,1.3395052,0.72010654
-0.1,-0.1,1.2999999999999998,0.5235987755982988,0.5235987755982988,0,0.07451305,-0.84770393,1.8710957,0.63974214,0.01328209,0.69581616,0.33620578,0.08982051,1.2796668,-0.0043292004,-0.036321934,-0.10427604,1.3433504,0.7978692
-0.1,-0.1,1.2999999999999998,0.5235987755982988,0.5235987755982988,0,0.07571142,-0.8482783,1.8696148,0.6402826,0.029164676,0.652424,0.19267075,0.08866181,1.3079023,-0.09762989,-0.08142426,-0.30822188,1.3104823,0.033316433
-0.1,-0.1,1.2999999999999998,0.5235987755982988,0.5235987755982988,0,0.0747456,-0.84834224,1.8694813,0.63942736,0.023329942,0.6669667,-0.9908487,0.09011599,1.315863,0.03262124,-0.03672828,-0.050994836,1.2224599,-0.84921
-0.1,-0.1,1.2999999999999998,0.5235987755982988,0.5235987755982988,0,0.07666532,-0.8477612,1.8697963,0.63970476,0.024693549,0.68505746,-0.2952083,0.08624322,1.3176732,-0.13802415,-0.021234497,0.029166337,1.2603878,-0.15706448
-0.1,-0.1,1.2999999999999998,0.5235987755982988,0.5235987755982988,0,0.07829687,-0.8473451,1.8712735,0.64008886,0.019273866,0.6647473,-0.83449334,0.087017514,1.3070413,0.015374284,-0.060980074,0.18004033,1.313756,0.81357116
-0.1,-0.1,1.2999999999999998,0.5235987755982988,0.5235987755982988,0,0.076032236,-0.8465827,1.8709179,0.64100635,0.011923783,0.7121841,-0.49024177,0.08596031,1.28319,-0.076806515,-0.08844328,-0.2195751,1.2738878,0.726037
-0.1,-0.1,1.2999999999999998,0.5235987755982988,0.5235987755982988,0,0.075587876,-0.84668744,1.8720484,0.64122236,0.024807159,0.66089016,0.4512307,0.09121287,1.3397603,-0.027331306,-0.046762202,-0.20389827,1.3052099,-0.19055758
-0.1,-0.1,1.2999999999999998,0.5235987755982988,0.5235987755982988,0,0.07687487,-0.84822327,1.8695036,0.6400811,0.022318605,0.6789758,-0.86231804,0.09300322,1.3146927,0.23710924,-0.018210392,-0.06774083,1.1480807,0.77855057
-0.1,-0.1,1.2999999999999998,0.5235987755982988,0.5235987755982988,0,0.07284595,-0.8474943,1.870184,0.64049953,0.018777074,0.70918137,0.92416626,0.09263345,1.3338252,-0.1541877,-0.041004956,0.05280392,1.2626414,0.2712657
-0.1,-0.1,1.2999999999999998,0.5235987755982988,0.5235987755982988,0,0.07443983,-0.84866524,1.8695178,0.6398954,0.019095737,0.63177323,-2.0184515,0.09066829,1.311352,0.062004797,-0.012040224,-0.061343145,1.3261222,-0.52237993
-0.1,-0.1,1.2999999999999998,0.5235987755982988,0.5235987755982988,0,0.075326145,-0.84741104,1.8711636,0.6398405,0.017766496,0.68574333,2.613764,0.09559013,1.3395395,-0.10565484,-0.15523873,0.12808155,1.2001857,0.9526247
-0.1,-0.1,1.2999999999999998,0.5235987755982988,0.5235987755982988,0,0.07468773,-0.8480502,1.870083,0.6401358,0.022918826,0.67994934,1.8903396,0.08915791,1.2865461,0.048459042,-0.043110285,-0.21574374,1.2638221,0.44881386
-0.1,-0.1,1.2999999999999998,0.5235987755982988,0.5235987755982988,0,0.076538935,-0.8479422,1.8695533,0.63986653,0.026970482,0.63979465,-0.8275238,0.093873695,1.270613,0.034104,-0.0074217357,0.10442062,1.2171273,0.7257431
-0.1,-0.1,1.2999999999999998,0.5235987755982988,0.5235987755982988,0,0.07665046,-0.84855425,1.8738669,0.64056957,0.024637695,0.65737367,-0.43025744,0.095187016,1.2581428,0.12566498,-0.00324771,0.109013155,1.2794899,0.6398044
-0.1,-0.1,1.2999999999999998,0.5235987755982988,0.5235987755982988,0,0.075714566,-0.8479556,1.8709916,0.64169943,0.019257434,0.66533864,-1.1313821,0.0936425,1.3993233,-0.14677931,-0.06609935,0.04503011,1.1644235,-0.17556775
-0.1,-0.1,1.2999999999999998,0.5235987755982988,0.5235987755982988,0,0.07720008,-0.8473648,1.8710276,0.64010954,0.03108169,0.68556285,-1.5276827,0.09063394,1.2952963,-0.08478305,-0.05665829,0.046448383,1.3648875,0.4902013
-0.1,-0.1,1.2999999999999998,0.5235987755982988,0.5235987755982988,0,0.075767,-0.84793335,1.8721958,0.64049107,0.027811708,0.65283614,0.26590678,0.09143549,1.2993541,0.053127754,-0.0057905572,-0.021110104,1.2506192,0.6637681
-0.1,-0.1,1.2999999999999998,0.5235987755982988,0.5235987755982988,0,0.076209314,-0.8486429,1.8693315,0.63946813,0.021859515,0.6780244,-0.17098454,0.09242784,1.2483721,-0.17148937,-0.06352729,-0.10010943,1.2297754,0.45399144
-0.1,-0.1,1.2999999999999998,0.5235987755982988,0.5235987755982988,0,0.07590471,-0.8472566,1.8716242,0.6410884,0.017079756,0.66119057,-0.7579625,0.09119305,1.1786364,-0.18257649,-0.0942735,0.16753684,1.1188902,0.48056698
-0.1,-0.1,1.2999999999999998,0.5235987755982988,0.5235987755982988,0,0.07482065,-0.84681106,1.8710555,0.6399119,0.01853674,0.66218734,-0.5344875,0.092335686,1.2670498,-0.20908378,-0.04444681,0.13963404,1.1347979,0.51430094
-0.1,-0.1,1.2999999999999998,0.5235987755982988,0.5235987755982988,0,0.076939434,-0.84833133,1.8714479,0.64055914,0.024571804,0.68772864,-1.8650913,0.09022675,1.2505057,-0.18661198,-0.007243161,0.044867057,1.3652527,1.2969555
-0.1,-0.1,1.2999999999999998,0.5235987755982988,0.5235987755982988,0,0.07684068,-0.8484017,1.8712782,0.64089584,0.017170941,0.6829304,2.4655252,0.08759712,1.358737,0.031510692,-0.044051196,-0.007173269,1.2226774,-0.24394432
-0.1,-0.1,1.2999999999999998,0.5235987755982988,0.5235987755982988,0,0.077084094,-0.84807944,1.8716401,0.64087117,0.023865279,0.67557037,0.14314444,0.091564044,1.3074527,-0.21528822,-0.049045257,-0.01943163,1.1729472,0.8663131
-0.1,-0.1,1.2999999999999998,0.5235987755982988,0.5235987755982988,0,0.07362846,-0.8481579,1.8715771,0.64060265,0.014781367,0.65050596,-0.5808258,0.09504874,1.2866298,-0.11918969,-0.06088929,-0.13019176,1.1322918,0.5974203
-0.1,-0.1,1.2999999999999998,0.5235987755982988,0.5235987755982988,0,0.07734742,-0.8482133,1.8699899,0.63965636,0.01114715,0.6608108,-0.13742301,0.09007389,1.2947356,-0.00832218,-0.0063017295,-0.19494018,1.217807,0.09776126
-0.1,-0.1,1.2999999999999998,0.5235987755982988,0.5235987755982988,0,0.075349905,-0.84766537,1.8727851,0.6409465,0.027565273,0.7021042,-0.08451949,0.09011724,1.3071849,0.029156372,-0.03800085,0.020160917,1.1112039,1.7283291
-0.1,-0.1,1.2999999999999998,0.5235987755982988,0.5235987755982988,0,0.07816087,-0.8470867,1.8712548,0.6402773,0.03042798,0.68717086,1.318175,0.08905252,1.325691,-0.14932214,-0.007959549,0.005861484,1.2070619,1.1879551
-0.1,-0.1,1.2999999999999998,0.5235987755982988,0.5235987755982988,0,0.07490869,-0.84809947,1.8700045,0.6401804,0.016456066,0.62994283,-0.6357607,0.09091879,1.3085052,-0.17279437,-0.0876521,-0.1662209,1.2222513,0.3428487
-0.1,-0.1,1.2999999999999998,0.5235987755982988,0.5235987755982988,0,0.07727338,-0.8482224,1.8703383,0.64058214,0.019317282,0.67971385,-1.4255776,0.09134351,1.2987173,0.058267184,0.002841113,-0.16894048,1.3333135,1.0483476
-0.1,-0.1,1.2999999999999998,0.5235987755982988,0.5235987755982988,0,0.07702422,-0.8469883,1.8692373,0.64076453,0.010716913,0.66493887,-1.8225132,0.090895556,1.2735349,-0.26545683,-0.025151147,-0.19215572,1.0307146,0.23562233
-0.1,-0.1,1.2999999999999998,0.5235987755982988,0.5235987755982988,0,0.07658813,-0.8479346,1.8709389,0.6402364,0.026888523,0.6989306,-2.9938307,0.09022023,1.3020777,0.011879747,-0.08089926,-0.12684877,1.2866603,0.53727484
-0.1,-0.1,1.2999999999999998,0.5235987755982988,0.5235987755982988,0,0.075176276,-0.8475225,1.8705709,0.6410347,0.021845164,0.6562433,-1.8198949,0.092585966,1.363599,-0.21902964,-0.07121567,0.0024654695,1.3577679,0.21956646
-0.1,-0.1,1.2999999999999998,0.5235987755982988,0.5235987755982988,0,0.076932505,-0.8473147,1.8713546,0.6398934,0.025630288,0.683586,-0.52908987,0.08926414,1.2849255,0.12143279,-0.1452966,-0.081137896,1.1788538,0.6909529
-0.1,-0.1,1.2999999999999998,0.5235987755982988,0.5235987755982988,0,0.0749819,-0.84790653,1.8705472,0.64074904,0.023616867,0.6841471,0.7505342,0.08911622,1.2347581,-0.22780585,-0.01669998,-0.1294754,1.2288016,0.36683732
-0.1,-0.1,1.2999999999999998,0.5235987755982988,0.5235987755982988,0,0.074852034,-0.8473069,1.8698868,0.64202565,0.01504378,0.6971042,-0.5808423,0.091859914,1.3610685,-0.11918512,-0.07387709,-0.056170598,1.2693356,0.34634975
-0.1,-0.1,1.2999999999999998,0.5235987755982988,0.5235987755982988,0,0.076732874,-0.84770733,1.8696706,0.64020824,0.025484001,0.6850995,0.5530789,0.09248405,1.3125353,-0.09372369,-0.057553247,-0.3442424,1.1471387,0.036239624
-0.1,-0.1,1.2999999999999998,0.5235987755982988,0.5235987755982988,0,0.07679358,-0.84785396,1.8706316,0.64002067,0.023915228,0.64952415,-1.5384309,0.09059075,1.3144877,0.13610476,-0.04099579,-0.27204263,1.2256074,0.6960471
-0.1,-0.1,1.2999999999999998,0.5235987755982988,0.5235987755982988,0,0.07757823,-0.8476369,1.868428,0.6403595,0.026751472,0.6514494,-1.3371235,0.09565786,1.2358155,0.10270275,-0.09951166,0.15767173,1.2784747,0.8661952
-0.1,-0.1,1.2999999999999998,0.5235987755982988,0.5235987755982988,0,0.07574182,-0.84966874,1.8678558,0.6412748,0.027669752,0.6535239,-0.5444339,0.090886086,1.2988417,-0.23887795,-0.08520643,-0.1261625,1.3326564,0.47961456
-0.1,-0.1,1.2999999999999998,0.5235987755982988,0.5235987755982988,0,0.077073954,-0.8494151,1.8708477,0.64176726,0.027536534,0.64316493,-0.06818299,0.09373785,1.3107011,-0.04362889,-0.0606753,-0.17830428,1.2439256,0.9275051
-0.1,-0.1,1.2999999999999998,0.5235987755982988,0.5235987755982988,0,0.07657168,-0.84725493,1.871355,0.6396568,0.02418352,0.64405894,-0.5506415,0.09494345,1.3245505,-0.012281176,-0.044483252,-0.06683324,1.2167096,0.20071277
-0.1,-0.1,1.2999999999999998,0.5235987755982988,0.5235987755982988,0,0.07490535,-0.84895223,1.8692323,0.63959545,0.030042138,0.702199,-1.8797519,0.09034236,1.2551447,0.034853622,-0.022433618,0.013323951,1.2404026,1.2712518
-0.1,-0.1,1.2999999999999998,0.5235987755982988,0.5235987755982988,0,0.07635177,-0.8469584,1.8713483,0.6403491,0.02776667,0.70382476,-0.36294487,0.09086522,1.3010721,0.017474296,-0.06811131,0.067769215,1.2351245,0.6770755
-0.1,-0.1,1.2999999999999998,0.5235987755982988,0.5235987755982988,0,0.07589035,-0.8476932,1.8704493,0.6401294,0.011556834,0.6942087,-1.4708956,0.088169254,1.3059103,0.017797919,-0.06727401,-0.044563167,1.2436163,0.45829222
-0.1,-0.1,1.2999999999999998,0.5235987755982988,0.5235987755982988,0,0.07429377,-0.8482666,1.869188,0.640868,0.02636852,0.71131706,-1.4252723,0.089358404,1.2968745,0.11835138,-0.072163574,-0.09610738,1.2254503,0.76712537
-0.1,-0.1,1.2999999999999998,0.5235987755982988,0.5235987755982988,0,0.07474132,-0.847476,1.8709624,0.6412332,0.025368355,0.6658417,0.31234664,0.09389836,1.3414042,-0.030943949,-0.034388956,0.09465828,1.1898044,0.5953502
-0.1,-0.1,1.2999999999999998,0.5235987755982988,0.5235987755982988,0,0.07483672,-0.84675,1.8720886,0.63983625,0.01548357,0.686852,-1.7054906,0.08881986,1.2432697,-0.035644848,-0.09623494,-0.047672257,1.325953,0.62230706
-0.1,-0.1,1.2999999999999998,0.5235987755982988,0.5235987755982988,0,0.075785466,-0.84813535,1.870322,0.6389613,0.030316185,0.69330585,-0.027239742,0.09128522,1.3497176,0.081376135,-0.06568825,-0.12441425,1.2475934,0.28048268
-0.1,-0.1,1.2999999999999998,0.5235987755982988,0.5235987755982988,0,0.07549875,-0.8482453,1.8721335,0.6393229,0.021974713,0.6980505,-1.054736,0.089988224,1.2143477,-0.06104584,-0.067248955,-0.045178737,1.2837324,0.12744348
-0.1,-0.1,1.2999999999999998,0.5235987755982988,0.5235987755982988,0,0.07645059,-0.8468563,1.8691207,0.64143467,0.02498548,0.6677689,-0.24842246,0.09012165,1.3114767,-0.12905179,-0.0978221,0.028359314,1.300014,0.32109505
-0.1,-0.1,1.2999999999999998,0.5235987755982988,0.5235987755982988,0,0.07665724,-0.8480982,1.8689904,0.6404124,0.032228913,0.6918309,-0.974842,0.09193992,1.2844646,-0.12881497,-0.02016838,0.007182459,1.1928254,0.68235433
-0.1,-0.1,1.2999999999999998,0.5235987755982988,0.5235987755982988,0,0.07462494,-0.84906965,1.8703606,0.6401038,0.017895164,0.6917493,-1.6944824,0.09639615,1.1744088,-0.06678862,-0.08920213,-0.048298102,1.089566,0.5456731
-0.1,-0.1,1.2999999999999998,0.5235987755982988,0.5235987755982988,0,0.075312346,-0.8494617,1.8709047,0.640087,0.025250107,0.65197885,-2.084435,0.09325774,1.3011975,-0.0043978104,0.00045177265,0.23396693,1.2630895,0.6154873
-0.1,-0.1,1.2999999999999998,0.5235987755982988,0.5235987755982988,0,0.075546175,-0.8483745,1.8680786,0.64088994,0.02554716,0.7160857,1.0118545,0.09045076,1.3575889,-0.082427226,-0.07879274,0.033643052,1.1175249,0.92612153
-0.1,-0.1,1.2999999999999998,0.5235987755982988,0.5235987755982988,0,0.07549518,-0.8489136,1.8707277,0.6414561,0.037329495,0.66129774,0.06917821,0.089386895,1.2719339,-0.0009532952,0.012415053,-0.034825794,1.1891866,0.49531233
-0.1,-0.1,1.2999999999999998,0.5235987755982988,0.5235987755982988,0,0.076743565,-0.84766954,1.8714024,0.64167756,0.021761278,0.67695093,-0.2497271,0.093059756,1.329717,0.09159327,-0.09723506,-0.033399634,1.3170389,0.13493642
-0.1,-0.1,1.2999999999999998,0.5235987755982988,0.5235987755982988,0,0.07811972,-0.8475939,1.8706024,0.64119226,0.02328285,0.70172364,1.0875779,0.091732845,1.299107,-0.16697267,0.02954012,0.003725492,1.2290124,1.2695302
-0.1,-0.1,1.2999999999999998,0.5235987755982988,0.5235987755982988,0,0.07531471,-0.84767455,1.8721615,0.6407765,0.018733477,0.66877395,0.18368958,0.09473517,1.3001174,-0.065827064,-0.065450914,0.10388109,1.3131692,0.96176153
-0.1,-0.1,1.2999999999999998,0.5235987755982988,0.5235987755982988,0,0.07666057,-0.8472599,1.8703839,0.63895583,0.011883247,0.67822534,-1.6408987,0.096034616,1.3239734,-0.0039931685,-0.08846468,-0.061826136,1.271436,0.77161855
-0.1,-0.1,1.2999999999999998,0.5235987755982988,0.5235987755982988,0,0.07863381,-0.84782046,1.8705056,0.6401125,0.016416214,0.69238293,0.5281545,0.09229353,1.2914934,-0.17421126,-0.0035886953,-0.010043095,1.2338482,0.19758469
-0.1,-0.1,1.2999999999999998,0.5235987755982988,0.5235987755982988,0,0.07834771,-0.8468617,1.8702004,0.6403946,0.027191814,0.67653817,-1.2540053,0.09108136,1.2976332,-0.1777666,-0.066862255,0.2945602,1.3122662,0.41090474
-0.1,-0.1,1.2999999999999998,0.5235987755982988,0.5235987755982988,0,0.07686179,-0.84811026,1.8713474,0.64066416,0.019268462,0.6383825,-0.052754194,0.08592895,1.2558011,-0.1562295,-0.0065143877,-0.0053518335,1.2818009,0.8618398
-0.1,-0.1,1.2999999999999998,0.5235987755982988,0.5235987755982988,0,0.07467037,-0.84827644,1.8688248,0.639916,0.017127154,0.6757729,-0.7843256,0.09270325,1.3639731,-0.27383384,-0.0003818042,0.12572302,1.2713438,0.24623859
-0.1,-0.1,1.2999999999999998,0.5235987755982988,0.5235987755982988,0,0.07445183,-0.8475424,1.8708762,0.63995355,0.022582132,0.6664198,0.16911398,0.08790244,1.357006,0.048392314,-0.08998972,-0.093272075,1.3037827,0.7374444
-0.1,-0.1,1.2999999999999998,0.5235987755982988,0.5235987755982988,0,0.077180825,-0.84869003,1.8718967,0.6398631,0.03176864,0.68638843,0.9636751,0.09320634,1.2324303,-0.17315759,-0.035314612,0.13812701,1.2769966,0.041536104
-0.1,-0.1,1.2999999999999998,0.5235987755982988,0.5235987755982988,0,0.075356655,-0.8484009,1.8701617,0.6406804,0.017064473,0.6667746,0.06970623,0.09169165,1.3201327,-0.19917296,-0.06772342,-0.002656522,1.3246739,-0.4507572
-0.1,-0.1,1.2999999999999998,0.5235987755982988,0.5235987755982988,0,0.0751486,-0.8481057,1.8710389,0.64039886,0.02269762,0.7077518,-0.037325393,0.09416832,1.3101069,-0.0042663924,-0.10203051,0.24441656,1.1621301,0.2174155
-0.1,-0.1,1.2999999999999998,0.5235987755982988,0.5235987755982988,0,0.07490429,-0.8481743,1.8706511,0.64149004,0.028964601,0.7144869,0.5024714,0.08992452,1.3304639,-0.13102175,-0.06866777,0.008626102,1.2112496,-0.18719703
-0.1,-0.1,1.2999999999999998,0.5235987755982988,0.5235987755982988,0,0.07738984,-0.84808165,1.8685664,0.64158994,0.027831651,0.6397339,-0.1823098,0.08830423,1.3183044,0.08650222,-0.070389785,0.27693182,1.273535,0.61448056
-0.1,-0.1,1.2999999999999998,0.5235987755982988,0.5235987755982988,0,0.07657062,-0.84760326,1.8693748,0.6410871,0.019242506,0.6543222,1.0458279,0.09207639,1.2972398,-0.11909395,0.010094206,-0.1369286,1.2151518,0.37229112
-0.1,-0.1,1.2999999999999998,0.5235987755982988,0.5235987755982988,0,0.07465658,-0.84860677,1.8707021,0.6408331,0.022915334,0.6812168,0.037972,0.09143853,1.2691205,-0.053910922,-0.034072444,-0.061642382,1.1519291,0.30663866
-0.1,-0.1,1.2999999999999998,0.5235987755982988,0.5235987755982988,0,0.07599098,-0.8485279,1.8699216,0.63882434,0.02278822,0.7032614,1.5884225,0.092542365,1.3132571,-0.19901313,-0.027783427,-0.17743924,1.2741044,0.45596874
-0.1,-0.1,1.2999999999999998,0.5235987755982988,0.5235987755982988,0,0.0775668,-0.84838754,1.8724875,0.6402821,0.026136696,0.67689496,0.3790234,0.088540934,1.241865,0.10194401,-0.025384119,-0.06830081,1.2776877,0.094612785
-0.1,-0.1,1.2999999999999998,0.5235987755982988,0.5235987755982988,0,0.07597446,-0.8472476,1.8714608,0.6409066,0.026917761,0.7156989,-0.9546471,0.09640048,1.2963988,-0.21868663,-0.10092331,-0.110510856,1.165022,0.15957117
-0.1,-0.1,1.2999999999999998,0.5235987755982988,0.5235987755982988,0,0.0762998,-0.8475016,1.8704995,0.64064735,0.02727814,0.6623138,0.07457092,0.09048213,1.3055305,0.043655533,-0.056696072,-0.18283711,1.2596673,-0.47272947
-0.1,-0.1,1.2999999999999998,0.5235987755982988,0.5235987755982988,0,0.07668735,-0.84885895,1.8693938,0.6400464,0.019292468,0.6221603,1.2243816,0.0849533,1.2798988,-0.15966195,-0.044784985,-0.0013334405,1.303685,-0.39539784
-0.1,-0.1,1.2999999999999998,0.5235987755982988,0.5235987755982988,0,0.074963816,-0.84812486,1.8703465,0.6405186,0.02390148,0.6879142,-0.6507536,0.090373926,1.2726436,-0.099440634,-0.046577994,0.1037644,1.3265178,0.59684885
-0.1,-0.1,1.2999999999999998,0.5235987755982988,0.5235987755982988,0,0.076713815,-0.8478897,1.8706477,0.64036125,0.02418823,0.6435767,0.3680938,0.09392793,1.2424158,-0.08576157,-0.045368593,0.14705285,1.1153485,0.64743847
-0.1,-0.1,1.2999999999999998,0.5235987755982988,0.5235987755982988,0,0.07522806,-0.8483393,1.8723983,0.6396054,0.0135615505,0.7013782,1.3860605,0.08984099,1.2811093,-0.14985362,-0.02475898,0.029962724,1.3152994,0.20043486
-0.1,-0.1,1.2999999999999998,0.5235987755982988,0.5235987755982988,0,0.07464541,-0.8481379,1.8702271,0.6404839,0.024217263,0.69184875,-0.4285721,0.09096127,1.2482488,-0.15576752,-0.05389897,0.12070971,1.1374463,0.90278596
-0.1,-0.1,1.2999999999999998,0.5235987755982988,0.5235987755982988,0,0.076287046,-0.8467483,1.8725008,0.6405504,0.028123137,0.70960987,-0.37441674,0.0905647,1.2709373,-0.0596558,-0.061211832,-0.019778214,1.2398678,0.940108
-0.1,-0.1,1.2999999999999998,0.5235987755982988,0.5235987755982988,0,0.07682771,-0.84705275,1.8702304,0.64152026,0.012511401,0.66576624,-0.8661962,0.0891083,1.2820671,-0.23502383,-0.09070508,-0.107880734,1.2154301,0.94421005
-0.1,-0.1,1.2999999999999998,0.5235987755982988,0.5235987755982988,0,0.07580364,-0.847327,1.8707219,0.64014757,0.012695967,0.6515729,-0.26308653,0.0883532,1.28645,-0.08014088,-0.024949493,-0.11647806,1.1432694,1.6098442
-0.1,-0.1,1.2999999999999998,0.5235987755982988,0.5235987755982988,0,0.07626824,-0.84818727,1.8736138,0.64075553,0.02174097,0.6953656,0.0837583,0.09160292,1.2735524,0.1508015,-0.10351682,-0.23328276,1.3461883,1.0768527
-0.1,-0.1,1.2999999999999998,0.5235987755982988,0.5235987755982988,0,0.076525055,-0.848271,1.8694401,0.6410848,0.026113078,0.653427,-0.95285493,0.09139897,1.364588,0.0005639988,-0.051169913,0.06373992,1.3375757,1.223049
-0.1,-0.1,1.2999999999999998,0.5235987755982988,0.5235987755982988,0,0.07411087,-0.84792465,1.8705827,0.6408349,0.018994423,0.6713071,0.08801416,0.088090345,1.2567538,0.09301054,-0.14307316,0.06794042,1.3197213,-0.21589352
-0.1,-0.1,1.2999999999999998,0.5235987755982988,0.5235987755982988,0,0.0772227,-0.84730405,1.8718997,0.6402963,0.031660758,0.7043228,0.70108217,0.08906588,1.3399597,0.0033662005,-0.09654212,-0.08484506,1.3101082,0.59631425
-0.1,-0.1,1.2999999999999998,0.5235987755982988,0.5235987755982988,0,0.075402394,-0.84817564,1.8706429,0.6405203,0.024681205,0.6546426,-0.24663568,0.089605674,1.3188484,-0.11438413,-0.020923328,0.17482412,1.2717654,0.4916216
-0.1,-0.1,1.2999999999999998,0.5235987755982988,0.5235987755982988,0,0.07570828,-0.84731287,1.8688492,0.64108753,0.020084923,0.66775167,0.2266845,0.08984259,1.2797124,0.004500925,-0.104384184,0.060609315,1.2415,1.253781
-0.1,-0.1,1.2999999999999998,0.5235987755982988,0.5235987755982988,0,0.076467074,-0.8493989,1.8711046,0.6406692,0.021591503,0.66673833,1.1748219,0.088791095,1.3174454,0.016142903,-0.10271698,-0.05302424,1.2943949,0.91663736
-0.1,-0.1,1.2999999999999998,0.5235987755982988,0.5235987755982988,0,0.07482087,-0.8481657,1.8732115,0.641205,0.024395334,0.7068699,0.5737102,0.0927672,1.2864838,0.2626253,-0.060683306,-0.019790415,1.2763886,0.43967935
-0.1,-0.1,1.2999999999999998,0.5235987755982988,0.5235987755982988,0,0.077338405,-0.84822655,1.8695117,0.6395587,0.016620401,0.65320235,0.9845326,0.09478966,1.2334515,-0.18089557,-0.09587884,0.1686199,1.1571343,0.6321482
-0.1,-0.1,1.2999999999999998,0.5235987755982988,0.5235987755982988,0,0.07629884,-0.8486464,1.8718048,0.64050007,0.0280668,0.66726136,-0.5992293,0.090603314,1.315243,-0.10861722,-0.08716771,0.25571,1.3243998,0.38657987
-0.1,-0.1,1.2999999999999998,0.5235987755982988,0.5235987755982988,0,0.07535619,-0.8483762,1.8715191,0.64010036,0.02277933,0.69837284,-1.6158055,0.091302425,1.2053492,0.032201536,-0.056145284,-0.002676613,1.3592924,0.87695754
-0.1,-0.1,1.2999999999999998,0.5235987755982988,0.5235987755982988,0,0.07558007,-0.8484342,1.8689141,0.64102113,0.02196166,0.65724576,0.10268741,0.09511909,1.32385,0.035357013,-0.056509573,-0.20738858,1.3108945,0.16250436
-0.1,-0.1,1.2999999999999998,0.5235987755982988,0.5235987755982988,0,0.074783154,-0.84830093,1.8694022,0.6414154,0.01434687,0.7029066,-0.18913323,0.09400516,1.3003345,0.059954386,-0.011803383,0.08160822,1.3183049,0.34328222
-0.1,-0.1,1.2999999999999998,0.5235987755982988,0.5235987755982988,0,0.07601936,-0.8480479,1.8703547,0.6400047,0.018340655,0.6655668,2.1955638,0.09672924,1.2544899,-0.092983454,-0.030096777,-0.030227134,1.2688311,0.7293752
-0.1,-0.1,1.2999999999999998,0.5235987755982988,0.5235987755982988,0,0.07665113,-0.8479465,1.8712556,0.64067197,0.019950597,0.6949368,-0.44810915,0.08978831,1.2829887,0.047773156,-0.060988586,-0.006992938,1.2944378,1.7158018
-0.1,-0.1,1.2999999999999998,0.5235987755982988,0.5235987755982988,0,0.07459401,-0.8493813,1.8702327,0.6407509,0.03173544,0.7095864,0.9564963,0.0885328,1.2861031,0.04560215,-0.007892548,0.13847777,1.206652,0.4410075
-0.1,-0.1,1.2999999999999998,0.5235987755982988,0.5235987755982988,0,0.07501312,-0.84857756,1.8693823,0.640616,0.027548688,0.6643543,1.134092,0.08579887,1.2220181,-0.12574445,-0.12248053,-0.115511864,1.1483091,1.1242684
-0.1,-0.1,1.2999999999999998,0.5235987755982988,0.5235987755982988,0,0.07637899,-0.84767556,1.8696108,0.6404298,0.030770797,0.6960825,0.5688155,0.090332076,1.2665682,-0.102347836,0.008103715,-0.101747155,1.2365791,0.56683445
-0.1,-0.1,1.2999999999999998,0.5235987755982988,0.5235987755982988,0,0.07437834,-0.8479426,1.8698512,0.6402564,0.01596163,0.697739,0.69843376,0.0918677,1.2958021,0.060928695,-0.077659756,-0.09884114,1.2828038,0.49546236
-0.1,-0.1,1.2999999999999998,0.5235987755982988,0.5235987755982988,0,0.07547735,-0.84800726,1.8678827,0.6411853,0.018358333,0.6879144,-0.20886175,0.09133,1.3201374,0.10060238,-0.08720747,0.1027661,1.1638776,0.98393357
-0.1,-0.1,1.2999999999999998,0.5235987755982988,0.5235987755982988,0,0.07562506,-0.8487756,1.8709003,0.64063483,0.022270544,0.70469475,-1.0973028,0.09085437,1.3285319,0.047704164,-0.084384404,-0.034894865,1.1676886,0.31457046
-0.1,-0.1,1.2999999999999998,0.5235987755982988,0.5235987755982988,0,0.076495804,-0.84798324,1.8702985,0.64014876,0.03043831,0.69204575,0.06384788,0.09196183,1.2418987,-0.07838978,-0.067461275,0.09505383,1.2444125,1.2344927
-0.1,-0.1,1.2999999999999998,0.5235987755982988,0.5235987755982988,0,0.074877456,-0.8477834,1.8727202,0.6398081,0.024809645,0.6535918,0.52873236,0.09338784,1.3127941,0.05807644,-0.015821015,0.20419134,1.1359268,-0.034312397
-0.1,-0.1,1.2999999999999998,0.5235987755982988,0.5235987755982988,0,0.07503188,-0.8473642,1.8742981,0.63994503,0.027084693,0.67257816,1.7509964,0.09287727,1.2512612,-0.02245274,-0.043492176,-0.1527798,1.216368,-0.0009030599
-0.1,-0.1,1.2999999999999998,0.5235987755982988,0.5235987755982988,0,0.07646106,-0.84728473,1.8716143,0.6394533,0.028308006,0.6656113,0.4023642,0.096659936,1.2768604,-0.099089034,-0.10452136,0.042854037,1.3154097,-0.28146896
-0.1,-0.1,1.2999999999999998,0.5235987755982988,0.5235987755982988,0,0.07619752,-0.84849155,1.8706095,0.6398949,0.03284473,0.68086624,0.0025599904,0.09160625,1.3210307,0.04174515,0.025870549,-0.17938036,1.2778034,0.5831522
-0.1,-0.1,1.2999999999999998,0.5235987755982988,0.5235987755982988,0,0.07371574,-0.84857684,1.8716137,0.6396063,0.023440916,0.69367546,-0.46053767,0.0915498,1.3021088,-0.19661337,-0.10391069,0.016910588,1.1916302,-0.25334916
-0.1,-0.1,1.2999999999999998,0.5235987755982988,0.5235987755982988,0,0.07501743,-0.8496861,1.8730713,0.63950604,0.01838094,0.67795736,-0.40986532,0.09116941,1.3012542,-0.2161378,-0.0469932,0.108375795,1.2866573,0.6233762
-0.1,-0.1,1.2999999999999998,0.5235987755982988,0.5235987755982988,0,0.07757186,-0.84829986,1.8705826,0.63972044,0.023542931,0.68105555,-0.774754,0.09257941,1.3209717,-0.3538939,-0.108142234,-0.03550251,1.1304651,0.054313224
-0.1,-0.1,1.2999999999999998,0.5235987755982988,0.5235987755982988,0,0.07592367,-0.8479211,1.8715107,0.63987786,0.023985254,0.6523756,-2.3382332,0.09694498,1.279532,-0.35480502,-0.01802462,-0.039839398,1.269909,0.9538371
-0.1,-0.1,1.2999999999999998,0.5235987755982988,0.5235987755982988,0,0.07588689,-0.847863,1.8705591,0.6403043,0.021909209,0.6933485,-1.9994265,0.087430716,1.2844782,-0.11805788,-0.05096038,-0.029284688,1.2523336,1.023808
-0.1,-0.1,1.2999999999999998,0.5235987755982988,0.5235987755982988,0,0.075093485,-0.8473742,1.8718976,0.64095426,0.014581214,0.6784745,0.32630816,0.08756392,1.2870293,0.12567566,-0.03744508,0.050711725,1.2129685,1.2836202
-0.1,-0.1,1.2999999999999998,0.5235987755982988,0.5235987755982988,0,0.07718258,-0.84819806,1.86973,0.6390606,0.0225839,0.6908446,-1.5908402,0.09039131,1.2839841,-0.07251965,-0.07247627,-0.14454603,1.3192965,0.54406565
-0.1,-0.1,1.2999999999999998,0.5235987755982988,0.5235987755982988,0,0.07475546,-0.8478836,1.8714906,0.64028645,0.021360198,0.70548797,0.7154811,0.089882985,1.2667818,-0.032503515,-0.07074305,0.20537217,1.2261654,1.7314202
-0.1,-0.1,1.2999999999999998,0.5235987755982988,0.5235987755982988,0,0.07574171,-0.84756994,1.8715241,0.6406946,0.024244187,0.6479109,-0.6819232,0.095115654,1.2630484,0.19307812,-0.0043298383,-0.0946121,1.241367,1.20874
-0.1,-0.1,1.2999999999999998,0.5235987755982988,0.5235987755982988,0,0.07538234,-0.8479605,1.8716089,0.63976884,0.021817997,0.6571139,-0.5718504,0.09032519,1.3035969,0.029707316,0.018873658,-0.1190767,1.2369878,1.2847528
-0.1,-0.1,1.2999999999999998,0.5235987755982988,0.5235987755982988,0,0.07479869,-0.8485001,1.870673,0.64099544,0.023908593,0.6793809,0.5195829,0.089331314,1.3020334,-0.043525588,-0.060518242,-0.084988445,1.1376473,0.7411165
-0.1,-0.1,1.2999999999999998,0.5235987755982988,0.5235987755982988,0,0.075796776,-0.84761727,1.8704684,0.640168,0.022646239,0.6888417,0.9186898,0.09336867,1.2488375,0.026647802,-0.0574462,-0.0010427685,1.2756778,0.11805076
-0.1,-0.1,1.2999999999999998,0.5235987755982988,0.5235987755982988,0,0.0776594,-0.8476295,1.8692691,0.640433,0.020998776,0.65161914,-0.087818846,0.08787967,1.2171474,-0.10361042,-0.0790265,-0.23315021,1.2479342,0.515931
-0.1,-0.1,1.2999999999999998,0.5235987755982988,0.5235987755982988,0,0.076974064,-0.8480197,1.8715726,0.6399622,0.019217351,0.6574017,-0.0055275992,0.092058346,1.2754576,0.07107048,-0.0940218,-0.040084492,1.2709806,0.2002879
-0.1,-0.1,1.2999999999999998,0.5235987755982988,0.5235987755982988,0,0.0768937,-0.84784347,1.8717254,0.6409493,0.019941162,0.715052,1.0829967,0.08880478,1.2567545,-0.173492,-0.04929853,-0.038511056,1.2897382,0.6895593
-0.1,-0.1,1.2999999999999998,0.5235987755982988,0.5235987755982988,0,0.076758705,-0.8481237,1.8702364,0.6403733,0.030227957,0.6499933,-0.53460115,0.08937097,1.3433343,-0.033007663,-0.023196183,-0.052953757,1.2473031,0.98872113
-0.1,-0.1,1.2999999999999998,0.5235987755982988,0.5235987755982988,0,0.07458972,-0.84681857,1.872611,0.6417406,0.021834118,0.67789304,1.471031,0.08927478,1.2912161,-0.03395238,-0.032283,0.061533973,1.3322577,0.22036725
-0.1,-0.1,1.2999999999999998,0.5235987755982988,0.5235987755982988,0,0.076619014,-0.848246,1.8694483,0.6408541,0.021205828,0.6661268,0.10294699,0.08997085,1.3237528,0.05377222,-0.017308166,0.13116612,1.2688053,0.7089667
-0.1,-0.1,1.2999999999999998,0.5235987755982988,0.5235987755982988,0,0.07642165,-0.8479068,1.8683181,0.64221287,0.025391957,0.67358917,-1.0978639,0.089771524,1.3673614,-0.20028043,-0.0054121185,-0.13365646,1.178736,0.18689857
-0.1,-0.1,1.2999999999999998,0.5235987755982988,0.5235987755982988,0,0.07630886,-0.84728646,1.8690524,0.6420924,0.018516632,0.7100627,-0.051530793,0.0918085,1.3127679,-0.0330426,-0.020955782,-0.287715,1.2352468,0.8930783
-0.1,-0.1,1.2999999999999998,0.5235987755982988,0.5235987755982988,0,0.075962454,-0.8479521,1.8708149,0.64048064,0.026012184,0.6608899,0.13451101,0.09096257,1.2756339,-0.23625198,-0.007647184,-0.14837077,1.2261323,0.9302001
-0.1,-0.1,1.2999999999999998,0.5235987755982988,0.5235987755982988,0,0.078436896,-0.84654003,1.871303,0.64208376,0.021256907,0.6547264,0.20407847,0.09154402,1.2983952,-0.089008056,-0.09387357,-0.16984962,1.2338406,0.6795265
-0.1,-0.1,1.2999999999999998,0.5235987755982988,0.5235987755982988,0,0.07664853,-0.8470439,1.8701756,0.64179105,0.012001271,0.6749617,1.8316778,0.090016864,1.2418791,-0.045371275,-0.093640566,-0.016717354,1.1687833,0.54578507
-0.1,-0.1,1.2999999999999998,0.5235987755982988,0.5235987755982988,0,0.075649045,-0.8475731,1.8709781,0.64102125,0.018857742,0.69733584,1.0821954,0.09346418,1.3097073,0.12916414,-0.08721307,-0.26039878,1.1986887,1.0205283
-0.1,-0.1,1.2999999999999998,0.5235987755982988,0.5235987755982988,0,0.07754819,-0.8488384,1.8702829,0.64054257,0.027470851,0.6493692,0.30074626,0.090139225,1.3358929,0.19589649,-0.016403144,0.0037779144,1.1850246,0.58322597
-0.1,-0.1,1.2999999999999998,0.5235987755982988,0.5235987755982988,0,0.07613102,-0.84909606,1.8693453,0.63939804,0.015904678,0.6641313,-2.9930875,0.09336581,1.2393616,0.062978245,-0.07822718,0.026486414,1.2590613,-0.3386101
-0.1,-0.1,1.2999999999999998,0.5235987755982988,0.5235987755982988,0,0.07528659,-0.84834707,1.871785,0.63979095,0.022768449,0.6929761,0.5339769,0.08813239,1.2678024,-0.12402838,-0.0048318156,0.028790543,1.2392647,0.54607046
-0.1,-0.1,1.2999999999999998,0.5235987755982988,0.5235987755982988,0,0.07604991,-0.8477575,1.8714173,0.64036524,0.034580056,0.67820036,-0.028216217,0.089864455,1.3422815,-0.22149092,-0.0628958,-0.07614428,1.2660389,0.4483558
-0.1,-0.1,1.2999999999999998,0.5235987755982988,0.5235987755982988,0,0.07975376,-0.8481285,1.8718134,0.6394655,0.033100862,0.633091,-0.3254276,0.09022696,1.2880899,0.017136225,-0.04528125,-0.034754686,1.2275891,1.1323828
-0.1,-0.1,1.2999999999999998,0.5235987755982988,0.5235987755982988,0,0.07429607,-0.8484792,1.8701818,0.64089304,0.016479775,0.6770432,-0.5745875,0.08919406,1.277254,-0.18657896,-0.04503432,-0.07334304,1.1782837,0.44467986
-0.1,-0.1,1.2999999999999998,0.5235987755982988,0.5235987755982988,0,0.07660567,-0.8480402,1.8701017,0.64023656,0.023375811,0.6969716,0.9598169,0.09412444,1.2944311,-0.09768445,-0.02816034,0.022918608,1.3356534,0.61346906
-0.1,-0.1,1.2999999999999998,0.5235987755982988,0.5235987755982988,0,0.075592786,-0.8472739,1.8707048,0.63992345,0.009860475,0.674993,0.8884497,0.09095793,1.2375288,0.020242603,0.017342044,0.18835406,1.2975944,0.5918945
-0.1,-0.1,1.2999999999999998,0.5235987755982988,0.5235987755982988,0,0.07754467,-0.84830207,1.8713967,0.64032453,0.024764102,0.6420361,1.353701,0.09188416,1.3349686,0.028190061,-0.062040314,0.056919087,1.2945212,0.15113625
-0.1,-0.1,1.2999999999999998,0.5235987755982988,0.5235987755982988,0,0.07538594,-0.8480642,1.8702896,0.6402995,0.024906935,0.6955905,0.07733622,0.08972939,1.3491672,-0.1957747,-0.07564127,-0.17945682,1.251403,0.51221275
-0.1,-0.1,1.2999999999999998,0.5235987755982988,0.5235987755982988,0,0.075998336,-0.8490648,1.8687128,0.6397214,0.023407089,0.6745101,-0.8543609,0.09041479,1.3191559,-0.08403275,-0.05139896,-0.013800803,1.3058515,-0.22378147
-0.1,-0.1,1.2999999999999998,0.5235987755982988,0.5235987755982988,0,0.076550655,-0.84808564,1.8713117,0.640615,0.01716571,0.66133726,0.2369483,0.094135806,1.2750413,0.1844412,0.02527942,0.012738542,1.2378459,1.1064581
-0.1,-0.1,1.2999999999999998,0.5235987755982988,0.5235987755982988,0,0.0772977,-0.8472071,1.8707594,0.64113593,0.029311119,0.6479342,0.627648,0.087073125,1.3500662,0.0358313,-0.12071631,0.021474848,1.1264507,0.29078886
-0.1,-0.1,1.2999999999999998,0.5235987755982988,0.5235987755982988,0,0.076085314,-0.84789884,1.8709389,0.6399811,0.015328261,0.6651269,-1.0771389,0.09318606,1.3174028,0.052338917,-0.04649994,0.16914941,1.294365,1.4283625
-0.1,-0.1,1.2999999999999998,0.5235987755982988,0.5235987755982988,0,0.0768229,-0.84830457,1.8696625,0.6411354,0.02392038,0.6613179,0.79333407,0.08865612,1.2985967,-0.17951666,-0.058928095,-0.0042227358,1.1724554,1.1034471
-0.1,-0.1,1.2999999999999998,0.5235987755982988,0.5235987755982988,0,0.07596552,-0.8487685,1.8692816,0.64054215,0.029143209,0.673989,1.4186734,0.08997211,1.2885009,0.008296742,-0.048852555,0.019654129,1.123956,-0.38791245
-0.1,-0.1,1.2999999999999998,0.5235987755982988,0.5235987755982988,0,0.076012336,-0.84879297,1.8698182,0.64001596,0.023694484,0.6821222,-0.14989632,0.089640066,1.3682907,-0.20092407,0.0045747445,0.05548834,1.1401736,0.48089188
-0.1,-0.1,1.2999999999999998,0.5235987755982988,0.5235987755982988,0,0.076658115,-0.8482467,1.8693562,0.64040726,0.018388644,0.67253965,-0.4134141,0.09078274,1.2541295,-0.056352966,-0.10058336,-0.008373439,1.2730293,0.46468928
-0.1,-0.1,1.2999999999999998,0.5235987755982988,0.5235987755982988,0,0.075671256,-0.848195,1.8715695,0.6407177,0.035099734,0.65429986,-1.5844692,0.08763666,1.3320785,-0.041294213,-0.038656723,0.03909147,1.2158183,2.1266263
-0.1,-0.1,1.2999999999999998,0.5235987755982988,0.5235987755982988,0,0.075746834,-0.8473565,1.8705207,0.6414526,0.0224051,0.6718717,-0.20237772,0.091064826,1.2712235,-0.022838665,-0.10361206,-0.018271858,1.1538045,1.0301152
-0.1,-0.1,1.2999999999999998,0.5235987755982988,0.5235987755982988,0,0.076349095,-0.8485051,1.8710647,0.639765,0.020623982,0.6768086,0.5067267,0.092532374,1.28577,-0.04950974,-0.022455562,0.055765565,1.2607375,0.72277826
-0.1,-0.1,1.2999999999999998,0.5235987755982988,0.5235987755982988,0,0.076751806,-0.8479215,1.8714672,0.6407399,0.028054822,0.7150532,0.7629231,0.09355658,1.3426187,0.023704156,0.016539939,-0.06098858,1.3155129,-0.07635686
-0.1,-0.1,1.2999999999999998,0.5235987755982988,0.5235987755982988,0,0.075353615,-0.8482581,1.8705096,0.6400005,0.021640098,0.69544625,1.3112253,0.08942712,1.3001791,-0.08509067,-0.0799547,0.029334953,1.3079636,0.7930334
-0.1,-0.1,1.2999999999999998,0.5235987755982988,0.5235987755982988,0,0.07570238,-0.84807104,1.8696072,0.640495,0.0153052965,0.6704558,0.004157548,0.08735893,1.3526032,-0.10259741,-0.033984166,-0.03734934,1.2661543,0.63936883
-0.1,-0.1,1.2999999999999998,0.5235987755982988,0.5235987755982988,0,0.07582258,-0.8487865,1.8705229,0.6408945,0.017826384,0.66398275,-0.3000797,0.08817542,1.2713705,-0.054955885,-0.09969543,-0.03258623,1.2667409,0.58445954
-0.1,-0.1,1.2999999999999998,0.5235987755982988,0.5235987755982988,0,0.0773107,-0.8483029,1.8717533,0.6401855,0.019733485,0.6609668,-0.37137458,0.08844951,1.3198714,0.066041365,-0.010704589,0.069822416,1.1890018,-0.034710843
-0.1,-0.1,1.2999999999999998,0.5235987755982988,0.5235987755982988,0,0.073646486,-0.8490599,1.8716466,0.6396781,0.022517527,0.7043459,-0.54332143,0.08883481,1.3826461,0.18857105,-0.05796759,-0.20067056,1.1248097,0.7714869
-0.1,-0.1,1.2999999999999998,0.5235987755982988,0.5235987755982988,0,0.07389808,-0.84818655,1.870719,0.6412733,0.02048482,0.6973924,-0.027659075,0.087683186,1.3217151,0.028921217,-0.057402194,-0.0025836737,1.3931435,0.31639844
-0.1,-0.1,1.2999999999999998,0.5235987755982988,0.5235987755982988,0,0.07462637,-0.84832287,1.8707688,0.63998294,0.021680845,0.6743892,0.09049662,0.092994206,1.286382,-0.012232993,-0.07578131,0.04765896,1.2495828,0.8007004
-0.1,-0.1,1.2999999999999998,0.5235987755982988,0.5235987755982988,0,0.0773121,-0.8472354,1.8703679,0.6409962,0.02907144,0.67820734,-0.93490964,0.089846246,1.3223352,-0.1550637,-0.055795323,0.12686406,1.2425742,-0.26106924
-0.1,-0.1,1.2999999999999998,0.5235987755982988,0.5235987755982988,0,0.07637075,-0.8477126,1.8697912,0.6415325,0.024593994,0.66411114,1.2015928,0.091640584,1.2928687,-0.21584095,0.00245034,-0.17855914,1.2899268,0.15256502
-0.1,-0.1,1.2999999999999998,0.5235987755982988,0.5235987755982988,0,0.07696836,-0.8489209,1.8695837,0.639606,0.03056755,0.69542795,-0.9909358,0.09190888,1.2919481,-0.12314369,-0.029736755,-0.05022413,1.2240413,0.7857104
-0.1,-0.1,1.2999999999999998,0.5235987755982988,0.5235987755982988,0,0.07665085,-0.8480896,1.8717483,0.64017236,0.028229637,0.69641894,-0.054581612,0.095433675,1.3143506,-0.23277326,-0.09628064,-0.111889906,1.1644965,1.164819
-0.1,-0.1,1.2999999999999998,0.5235987755982988,0.5235987755982988,0,0.077704705,-0.84744537,1.870182,0.6406637,0.015703725,0.66099787,0.7399744,0.09473455,1.2886741,0.026932716,-0.103911325,-0.095735036,1.3393484,0.5138553
-0.1,-0.1,1.2999999999999998,0.5235987755982988,0.5235987755982988,0,0.07446673,-0.84897053,1.8720657,0.6394703,0.022498744,0.66305804,1.2724168,0.09129392,1.2978281,-0.023424827,-0.063501514,-0.13066068,1.267336,0.9039607
-0.1,-0.1,1.2999999999999998,0.5235987755982988,0.5235987755982988,0,0.07695044,-0.84792167,1.8704718,0.6406858,0.01939923,0.68972653,-0.43608046,0.08758381,1.2710339,0.12653902,-0.09851022,0.079560354,1.2498423,1.4642495
-0.1,-0.1,1.2999999999999998,0.5235987755982988,0.5235987755982988,0,0.07684673,-0.8474488,1.8710302,0.6406063,0.021072809,0.6737817,-0.06667693,0.08845669,1.3190465,0.059944313,-0.106656834,0.24642006,1.2398388,0.6781023
-0.1,-0.1,1.2999999999999998,0.5235987755982988,0.5235987755982988,0,0.07653936,-0.848385,1.8709024,0.64015675,0.027037509,0.6617216,-0.5580184,0.09501055,1.3380926,0.027711503,-0.03855203,0.044590596,1.3516916,0.8162739
-0.1,-0.1,1.2999999999999998,0.5235987755982988,0.5235987755982988,0,0.076130606,-0.848454,1.8711922,0.63981014,0.02466449,0.66403586,0.35618782,0.090581,1.2760204,0.1460528,-0.07190025,-0.13660546,1.2616537,0.57289845
-0.1,-0.1,1.2999999999999998,0.5235987755982988,0.5235987755982988,0,0.07703321,-0.84816635,1.8716167,0.64083457,0.019754047,0.6698893,-0.6947069,0.09414078,1.2962335,-0.12062487,-0.12443847,-0.097332746,1.2565926,0.18164001
-0.1,-0.1,1.2999999999999998,0.5235987755982988,0.5235987755982988,0,0.07655555,-0.8484637,1.8706887,0.6398575,0.024289744,0.6797051,0.011963697,0.08879143,1.2708386,0.048012402,0.010799078,0.06805912,1.1586255,0.5336841
-0.1,-0.1,1.2999999999999998,0.5235987755982988,0.5235987755982988,0,0.077659205,-0.8475233,1.8722345,0.6394523,0.023762804,0.646223,0.13652682,0.0952136,1.3191385,-0.06412249,-0.079099685,-0.05401121,1.2173512,0.51837707
-0.1,-0.1,1.2999999999999998,0.5235987755982988,0.5235987755982988,0,0.07572973,-0.848563,1.8701074,0.6399829,0.02009977,0.70173603,-0.77092814,0.09163264,1.3233887,0.029494623,-0.04745035,-0.12231855,1.2690718,0.60411227
-0.1,-0.1,1.2999999999999998,0.5235987755982988,0.5235987755982988,0,0.07582604,-0.8480346,1.8711734,0.6403362,0.02786285,0.68737924,-0.13827229,0.09388982,1.2707431,-0.023809915,-0.016348097,5.787678e-05,1.2900758,0.28173807
-0.1,-0.1,1.2999999999999998,0.5235987755982988,0.5235987755982988,0,0.07684836,-0.84759533,1.8698581,0.64204514,0.03383745,0.6768102,-0.25879693,0.089358866,1.3156108,0.008224625,-0.1317515,0.104088165,1.2394136,0.6861368
-0.1,-0.1,1.2999999999999998,0.5235987755982988,0.5235987755982988,0,0.077163726,-0.848125,1.8696108,0.64033437,0.014719638,0.6736134,-0.5523119,0.08669401,1.3135809,-0.0021031469,-0.10625707,-0.10521521,1.2459692,-0.32554486
-0.1,-0.1,1.2999999999999998,0.5235987755982988,0.5235987755982988,0,0.07629591,-0.84826446,1.8710861,0.6397726,0.020633163,0.6738411,1.6519947,0.09136146,1.3312042,-0.17319599,-0.06388792,0.011842177,1.1737772,0.548538
-0.1,-0.1,1.2999999999999998,0.5235987755982988,0.5235987755982988,0,0.07521795,-0.84860843,1.8714536,0.6406621,0.030780967,0.66913515,-0.5262045,0.091729224,1.3306408,-0.19609992,-0.09552569,-0.05642709,1.2988858,-0.22895767
-0.1,-0.1,1.2999999999999998,0.5235987755982988,0.5235987755982988,0,0.07880895,-0.84762543,1.8697525,0.6410092,0.024805857,0.6752561,-1.2353598,0.09012766,1.2572149,0.08443095,-0.057078406,0.011060097,1.184618,0.9248271
-0.1,-0.1,1.2999999999999998,0.5235987755982988,0.5235987755982988,0,0.07767013,-0.84784436,1.8725047,0.63966876,0.028913327,0.67668325,0.29222533,0.08762026,1.3411367,-0.12476962,-0.036970284,0.08345899,1.2618034,-0.6667917
-0.1,-0.1,1.2999999999999998,0.5235987755982988,0.5235987755982988,0,0.0754999,-0.8493231,1.8700669,0.6412953,0.023140384,0.6794905,0.2545006,0.092721604,1.3017912,-0.0743364,-0.051249366,-0.09421924,1.2334816,1.1153064
-0.1,-0.1,1.2999999999999998,0.5235987755982988,0.5235987755982988,0,0.07541643,-0.8469864,1.8706088,0.6404163,0.023704635,0.69184357,0.099452995,0.08768349,1.291462,-0.00095233554,0.0035685222,-0.091334365,1.25757,0.6712589
-0.1,-0.1,1.2999999999999998,0.5235987755982988,0.5235987755982988,0,0.07402512,-0.84875965,1.8715852,0.6408374,0.01983741,0.6511172,0.21794418,0.09197662,1.4009353,0.38777775,-0.054684713,0.07516597,1.2440497,0.7047207
-0.1,-0.1,1.2999999999999998,0.5235987755982988,0.5235987755982988,0,0.07693024,-0.84846675,1.8691677,0.6410089,0.025107883,0.64902365,-1.4353908,0.09127126,1.3139266,-0.16142887,-0.08170163,-0.07295752,1.0930089,0.5358631
-0.1,-0.1,1.2999999999999998,0.5235987755982988,0.5235987755982988,0,0.07649456,-0.8489811,1.8714465,0.64165694,0.02279512,0.63917106,0.8982608,0.089900136,1.296323,-0.13105212,-0.1117283,-0.25696063,1.278198,0.21573867
-0.1,-0.1,1.2999999999999998,0.5235987755982988,0.5235987755982988,0,0.075726435,-0.84750867,1.8705364,0.64082956,0.021611255,0.6480229,-0.22585101,0.090927415,1.3160769,0.01873328,-0.032094352,-0.07296995,1.0878286,0.596189
-0.1,-0.1,1.2999999999999998,0.5235987755982988,0.5235987755982988,0,0.07495855,-0.847904,1.8711119,0.64113337,0.031189434,0.6448689,-0.5257545,0.091870114,1.2332592,-0.057128683,-0.0059406925,-0.15210044,1.1329486,1.4527564
-0.1,-0.1,1.2999999999999998,0.5235987755982988,0.5235987755982988,0,0.07543683,-0.84793335,1.8711495,0.63970464,0.020894844,0.63628906,-0.41117698,0.09147155,1.2454427,-0.17622338,0.014413725,-0.048355278,1.1536632,0.27784866
-0.1,-0.1,1.2999999999999998,0.5235987755982988,0.5235987755982988,0,0.0743617,-0.8478735,1.8705506,0.64102703,0.02143731,0.6779645,-0.14138484,0.0927123,1.2957033,0.04734665,-0.07223018,-0.17678657,1.1764859,0.53542256
-0.1,-0.1,1.2999999999999998,0.5235987755982988,0.5235987755982988,0,0.07652244,-0.8479149,1.870994,0.6413086,0.027714713,0.6330425,-0.47151777,0.09126692,1.2954537,-0.03160306,-0.083585635,0.051838446,1.1681294,0.07477939
-0.1,-0.1,1.2999999999999998,0.5235987755982988,0.5235987755982988,0,0.075355,-0.8475997,1.8699893,0.64073944,0.025690148,0.6493999,-0.52869654,0.09389225,1.3422414,0.06940583,-0.1125788,0.05840798,1.3168191,0.33785146
-0.1,-0.1,1.2999999999999998,0.5235987755982988,0.5235987755982988,0,0.0776535,-0.8478951,1.8698455,0.6414684,0.026222419,0.68236816,0.72769994,0.0904741,1.3477929,-0.11232102,-0.049239706,-0.27929696,1.2385749,0.44976225
-0.1,-0.1,1.2999999999999998,0.5235987755982988,0.5235987755982988,0,0.07786676,-0.84646887,1.8681828,0.6413293,0.021751631,0.6450796,-0.29395252,0.09365314,1.2460409,0.025028368,-0.08632224,0.033794045,1.2191637,0.8754896
-0.1,-0.1,1.2999999999999998,0.5235987755982988,0.5235987755982988,0,0.07609519,-0.84789824,1.869591,0.64101577,0.025977315,0.650847,-0.7483459,0.09197474,1.3244841,-0.23000008,-0.09241901,-0.13107881,1.1748765,0.25807166
-0.1,-0.1,1.2999999999999998,0.5235987755982988,0.5235987755982988,0,0.07699856,-0.8488377,1.8695039,0.64053947,0.023007141,0.69836974,-2.4942782,0.08992158,1.2407926,-0.18348022,-0.084817365,-0.24763681,1.309877,1.0176927
-0.1,-0.1,1.2999999999999998,0.5235987755982988,0.5235987755982988,0,0.07559391,-0.8492068,1.8706495,0.64206463,0.016817769,0.68347734,-0.11943211,0.09117685,1.3204215,0.11711504,-0.009425561,0.026390499,1.163971,0.33852237
-0.1,-0.1,1.2999999999999998,0.5235987755982988,0.5235987755982988,0,0.07452959,-0.8480586,1.8730646,0.64114976,0.037615012,0.66747487,0.39808604,0.08780095,1.291209,-0.18445738,-0.051186517,-0.04795687,1.3049622,0.6226534
-0.1,-0.1,1.2999999999999998,0.5235987755982988,0.5235987755982988,0,0.07735308,-0.84758896,1.8704942,0.6421438,0.030153912,0.6388131,1.1172705,0.094757125,1.2713012,-0.08061813,-0.046309542,-0.057371553,1.1784614,0.8972747
-0.1,-0.1,1.2999999999999998,0.5235987755982988,0.5235987755982988,0,0.074613914,-0.8471732,1.8702435,0.6402564,0.028386233,0.66264415,1.1800598,0.09180725,1.3229889,-0.073512934,-0.091267884,-0.15953533,1.1663365,1.0625632
-0.1,-0.1,1.2999999999999998,0.5235987755982988,0.5235987755982988,0,0.07567212,-0.8471421,1.8722231,0.6399519,0.035145238,0.67264134,0.50448793,0.091306165,1.2434456,-0.02440923,-0.051408894,-0.17241155,1.332815,0.37762725
