sanky1234/BimanualDexCatch/isaacgymenvs/cem_results/football_pose_0.1_0.0_0.9999999999999999_-0.5235987755982988_0.5235987755982988_0_2025-05-26.csv
x,y,z,roll,pitch,yaw,robot1/joint1,robot1/joint2,robot1/joint3,robot1/joint4,robot1/joint5,robot1/joint6,robot1/joint7,robot2/joint1,robot2/joint2,robot2/joint3,robot2/joint4,robot2/joint5,robot2/joint6,robot2/joint7
0.1,0.0,0.9999999999999999,-0.5235987755982988,0.5235987755982988,0,-0.21740125,1.1168287,-0.74977255,0.8080787,-0.72443354,0.5355344,-1.9775609,1.0567657,1.0665421,0.58966255,0.12085872,0.053409975,1.2158641,0.12172648
0.1,0.0,0.9999999999999999,-0.5235987755982988,0.5235987755982988,0,-0.21995969,1.1201242,-0.7507046,0.8080375,-0.7241326,0.5349976,-1.9629891,1.0981956,1.1625155,0.5030656,0.12721744,0.09844283,1.2021704,-0.09966335
0.1,0.0,0.9999999999999999,-0.5235987755982988,0.5235987755982988,0,-0.21834989,1.1179144,-0.7514604,0.80783176,-0.72557926,0.53477216,-1.9746277,0.9539333,1.1283301,0.6019856,0.11800165,0.008643046,1.2409374,0.05471085
0.1,0.0,0.9999999999999999,-0.5235987755982988,0.5235987755982988,0,-0.21710292,1.1171066,-0.75008434,0.8079239,-0.7242557,0.5369843,-1.9626973,1.100131,1.1679827,0.67111576,0.10945073,0.023049228,1.225042,0.15923357
0.1,0.0,0.9999999999999999,-0.5235987755982988,0.5235987755982988,0,-0.2208371,1.1175209,-0.7506415,0.8087227,-0.72678566,0.5323668,-1.9669077,0.9822899,1.1360893,0.63966393,0.105277285,0.05718661,1.199024,0.0056717996
0.1,0.0,0.9999999999999999,-0.5235987755982988,0.5235987755982988,0,-0.22059223,1.118432,-0.75117075,0.8084787,-0.72643757,0.5332583,-1.9609417,1.0137316,1.1135125,0.68254757,0.09476194,-0.008929456,1.2044495,0.046400867
0.1,0.0,0.9999999999999999,-0.5235987755982988,0.5235987755982988,0,-0.21971643,1.1176308,-0.7506592,0.8081667,-0.7242151,0.53591186,-1.9619428,1.0196667,1.0938815,0.5699874,0.11886315,0.10633848,1.236077,0.10748921
0.1,0.0,0.9999999999999999,-0.5235987755982988,0.5235987755982988,0,-0.21895549,1.1186935,-0.7501091,0.8078605,-0.72503096,0.5346043,-1.9673605,1.004552,1.0904528,0.5498338,0.10506246,0.12726699,1.2524158,0.3781305
0.1,0.0,0.9999999999999999,-0.5235987755982988,0.5235987755982988,0,-0.21896063,1.1174951,-0.7506645,0.8081954,-0.72374845,0.53271526,-1.9581887,1.0392793,1.1558493,0.56905323,0.08956406,-0.012969241,1.2448139,0.013742028
0.1,0.0,0.9999999999999999,-0.5235987755982988,0.5235987755982988,0,-0.21789913,1.1166689,-0.7507215,0.80826575,-0.7243608,0.533407,-1.9751983,1.1189541,1.0973185,0.5455751,0.08962424,0.10149628,1.2525994,0.16372919
0.1,0.0,0.9999999999999999,-0.5235987755982988,0.5235987755982988,0,-0.21908489,1.1201637,-0.75028896,0.80733174,-0.7228445,0.5331485,-1.9605246,1.0288007,1.1666645,0.56180406,0.12644826,0.061230086,1.2049193,0.24760672
0.1,0.0,0.9999999999999999,-0.5235987755982988,0.5235987755982988,0,-0.21913616,1.1177093,-0.7514077,0.8078133,-0.7224412,0.5325515,-1.9596195,1.1057339,1.1130648,0.5361703,0.08907196,0.08236516,1.221584,0.2248077
0.1,0.0,0.9999999999999999,-0.5235987755982988,0.5235987755982988,0,-0.21824814,1.1206778,-0.7493221,0.8078673,-0.72796035,0.53510994,-1.962834,1.020849,1.1146643,0.58621716,0.108907364,0.08441401,1.1917655,0.098962516
0.1,0.0,0.9999999999999999,-0.5235987755982988,0.5235987755982988,0,-0.21888573,1.1175442,-0.7514762,0.8070571,-0.723411,0.53398293,-1.9632157,1.0524049,1.0827906,0.5809345,0.105610624,-0.041675434,1.2118851,0.09551721
0.1,0.0,0.9999999999999999,-0.5235987755982988,0.5235987755982988,0,-0.21863419,1.1182222,-0.7489542,0.80799705,-0.7221686,0.53519833,-1.9737297,1.0793058,1.1460122,0.6123788,0.10835687,0.025243834,1.1961459,0.19251148
0.1,0.0,0.9999999999999999,-0.5235987755982988,0.5235987755982988,0,-0.21941827,1.118548,-0.7500086,0.80820644,-0.7273413,0.5324967,-1.9640561,0.99566096,1.1010118,0.61394554,0.114423394,0.08382085,1.2005899,0.25001353
0.1,0.0,0.9999999999999999,-0.5235987755982988,0.5235987755982988,0,-0.21736114,1.1178234,-0.7505264,0.8080462,-0.7262965,0.5342799,-1.9702214,1.0499302,1.1235585,0.566061,0.10538915,0.14536762,1.189381,0.27741385
0.1,0.0,0.9999999999999999,-0.5235987755982988,0.5235987755982988,0,-0.21758124,1.1185536,-0.74906516,0.8074668,-0.7233223,0.5336662,-1.9672247,1.0572499,1.0673658,0.640411,0.09540953,-0.06782495,1.2247556,0.21583468
0.1,0.0,0.9999999999999999,-0.5235987755982988,0.5235987755982988,0,-0.21721442,1.1193731,-0.7506801,0.8079875,-0.72553766,0.5336866,-1.9534159,1.0790157,1.146156,0.5966675,0.10413865,0.04567536,1.2073596,0.11895344
0.1,0.0,0.9999999999999999,-0.5235987755982988,0.5235987755982988,0,-0.21780097,1.1185325,-0.75079495,0.80814093,-0.72724265,0.53641194,-1.9687381,1.0682243,1.1428822,0.538787,0.08823074,0.094078854,1.223649,0.10469859
0.1,0.0,0.9999999999999999,-0.5235987755982988,0.5235987755982988,0,-0.21829882,1.1176763,-0.75002533,0.80747163,-0.72359157,0.5337034,-1.962698,1.1011984,1.16712,0.646007,0.118280865,0.09900576,1.2258953,0.22544384
0.1,0.0,0.9999999999999999,-0.5235987755982988,0.5235987755982988,0,-0.2202209,1.1184667,-0.74974066,0.8078656,-0.72468674,0.5363639,-1.9617932,0.97747546,1.1317378,0.597616,0.101583086,0.14774238,1.2092363,0.05346121
0.1,0.0,0.9999999999999999,-0.5235987755982988,0.5235987755982988,0,-0.21893324,1.1195273,-0.7513607,0.8080227,-0.7246391,0.53231823,-1.9720175,1.0303223,1.0875354,0.56894636,0.11734724,0.01928764,1.2271781,0.11667878
0.1,0.0,0.9999999999999999,-0.5235987755982988,0.5235987755982988,0,-0.2191057,1.1157391,-0.75014544,0.80791533,-0.72560585,0.5344345,-1.9652715,1.0232633,1.157632,0.57580364,0.10315549,0.0696078,1.2184377,0.20076764
0.1,0.0,0.9999999999999999,-0.5235987755982988,0.5235987755982988,0,-0.22006947,1.1195285,-0.74952143,0.8076618,-0.7255445,0.53508,-1.9693373,1.0415838,1.1565883,0.5920252,0.08744143,0.02351353,1.223229,0.158472
0.1,0.0,0.9999999999999999,-0.5235987755982988,0.5235987755982988,0,-0.2182842,1.1209714,-0.75126165,0.8076038,-0.72625065,0.53512514,-1.9706535,1.0929908,1.1777807,0.6131629,0.10374643,-0.00889324,1.1987393,0.25543356
0.1,0.0,0.9999999999999999,-0.5235987755982988,0.5235987755982988,0,-0.21881154,1.1175637,-0.7497447,0.80770546,-0.7256023,0.5364094,-1.9660048,0.91903174,1.1064539,0.6181189,0.11749163,0.040499493,1.2234553,0.30460298
0.1,0.0,0.9999999999999999,-0.5235987755982988,0.5235987755982988,0,-0.21964097,1.1190015,-0.75203514,0.8081148,-0.72645795,0.5321219,-1.9610629,1.0631182,1.1674974,0.52404374,0.104325846,0.15642662,1.2118669,0.16420738
0.1,0.0,0.9999999999999999,-0.5235987755982988,0.5235987755982988,0,-0.21990791,1.1191478,-0.75029856,0.8075614,-0.72449386,0.53584737,-1.9730891,0.9643431,1.1499243,0.61735964,0.10872016,0.031677555,1.2142171,0.13291058
0.1,0.0,0.9999999999999999,-0.5235987755982988,0.5235987755982988,0,-0.21961205,1.1187738,-0.75073916,0.8075548,-0.72529763,0.53540635,-1.9740472,1.0493155,1.1504331,0.5763436,0.14462596,0.013629279,1.1765031,0.27872163
0.1,0.0,0.9999999999999999,-0.5235987755982988,0.5235987755982988,0,-0.22064818,1.1184884,-0.7510239,0.80824745,-0.72762156,0.53482646,-1.9695466,1.0392998,1.1138786,0.5912965,0.11027722,0.071613126,1.1973425,0.17324494
0.1,0.0,0.9999999999999999,-0.5235987755982988,0.5235987755982988,0,-0.21838482,1.118218,-0.7506035,0.80799174,-0.7226622,0.53473943,-1.959221,0.98179024,1.1116284,0.5865987,0.11643733,0.043997638,1.2147908,0.06543181
0.1,0.0,0.9999999999999999,-0.5235987755982988,0.5235987755982988,0,-0.2202937,1.1182156,-0.749945,0.807725,-0.7291955,0.53459877,-1.9742188,0.99158865,1.1796341,0.5972196,0.09723333,0.10184795,1.2212214,0.32883573
0.1,0.0,0.9999999999999999,-0.5235987755982988,0.5235987755982988,0,-0.21878506,1.1169078,-0.7510211,0.8076583,-0.7247589,0.533466,-1.9642837,1.0555292,1.0879003,0.6190927,0.07462148,-0.06104087,1.2532929,0.38304526
0.1,0.0,0.9999999999999999,-0.5235987755982988,0.5235987755982988,0,-0.21877328,1.1180243,-0.75141823,0.8080146,-0.7254516,0.535892,-1.9666208,1.0499591,1.1538382,0.49624443,0.10332508,0.19349828,1.213216,-0.027301658
0.1,0.0,0.9999999999999999,-0.5235987755982988,0.5235987755982988,0,-0.21893834,1.1194587,-0.75050616,0.8077264,-0.72222877,0.5354044,-1.972728,0.99576527,1.1694725,0.60961986,0.120634116,0.07649621,1.2274532,0.15569898
0.1,0.0,0.9999999999999999,-0.5235987755982988,0.5235987755982988,0,-0.2206737,1.1173086,-0.75062454,0.80825126,-0.7266493,0.53591454,-1.9650693,0.9891209,1.1349826,0.55425614,0.09168855,0.13329527,1.2356654,0.22857732
0.1,0.0,0.9999999999999999,-0.5235987755982988,0.5235987755982988,0,-0.21781781,1.1174493,-0.7507029,0.8081012,-0.7253505,0.5355018,-1.9705049,1.0123763,1.1381441,0.61866385,0.09082649,0.035765387,1.2208048,0.10721307
0.1,0.0,0.9999999999999999,-0.5235987755982988,0.5235987755982988,0,-0.2192412,1.1196791,-0.75117934,0.80798423,-0.7237328,0.5376983,-1.9628584,1.0606163,1.1411202,0.56210726,0.08846344,0.09358882,1.2166386,0.05975233
0.1,0.0,0.9999999999999999,-0.5235987755982988,0.5235987755982988,0,-0.21842323,1.1169566,-0.7509297,0.8078241,-0.7237729,0.53367877,-1.9796331,1.0953134,1.0990847,0.55979043,0.11138524,0.03200608,1.2109712,0.3146815
0.1,0.0,0.9999999999999999,-0.5235987755982988,0.5235987755982988,0,-0.22103998,1.1185232,-0.7501784,0.8071732,-0.7288245,0.53616416,-1.9653721,1.0370109,1.1732491,0.5609025,0.10898101,0.09286502,1.199093,0.201655
0.1,0.0,0.9999999999999999,-0.5235987755982988,0.5235987755982988,0,-0.21758051,1.1163112,-0.7504594,0.8083051,-0.72635144,0.53600955,-1.9800923,1.0802468,1.125321,0.63779676,0.112789944,-0.07810831,1.1941315,0.31504452
0.1,0.0,0.9999999999999999,-0.5235987755982988,0.5235987755982988,0,-0.21883139,1.1189363,-0.75005525,0.8076048,-0.7253494,0.5341784,-1.9651359,1.0334244,1.1064278,0.5885822,0.10295756,0.09212892,1.2189349,0.31308737
0.1,0.0,0.9999999999999999,-0.5235987755982988,0.5235987755982988,0,-0.21860527,1.1180832,-0.7500892,0.8073602,-0.7255596,0.5337345,-1.9623945,1.1869638,1.1099294,0.59559697,0.10799888,0.09075645,1.234738,0.08393058
0.1,0.0,0.9999999999999999,-0.5235987755982988,0.5235987755982988,0,-0.21947086,1.1177212,-0.749876,0.80812424,-0.72240776,0.53775567,-1.9747163,0.9792595,1.1201009,0.6308659,0.090865746,-0.026778935,1.2322557,0.093429
0.1,0.0,0.9999999999999999,-0.5235987755982988,0.5235987755982988,0,-0.21911891,1.1162262,-0.7517227,0.8077345,-0.7235288,0.53201926,-1.974504,1.0077174,1.1645201,0.5689879,0.119400404,0.13313746,1.1818061,0.4104049
0.1,0.0,0.9999999999999999,-0.5235987755982988,0.5235987755982988,0,-0.21913354,1.1175542,-0.75012374,0.808337,-0.72400194,0.53492767,-1.966897,0.9828546,1.1691763,0.63754296,0.093343996,0.015732188,1.2148192,0.028781915
0.1,0.0,0.9999999999999999,-0.5235987755982988,0.5235987755982988,0,-0.2183371,1.1182038,-0.7506572,0.8080301,-0.7254786,0.5337778,-1.9679613,1.0117083,1.0907813,0.55035305,0.11469473,0.03297835,1.236455,0.22905694
0.1,0.0,0.9999999999999999,-0.5235987755982988,0.5235987755982988,0,-0.21899834,1.1172043,-0.7504651,0.80826306,-0.7251329,0.5357302,-1.9702829,1.0586064,1.1814325,0.621025,0.11079723,-0.02876732,1.2083415,0.24875464
0.1,0.0,0.9999999999999999,-0.5235987755982988,0.5235987755982988,0,-0.21916096,1.1195279,-0.7510625,0.8080707,-0.72407746,0.53329366,-1.9708498,0.99546754,1.1367552,0.6008429,0.1308609,0.08313214,1.2348068,0.099542335
0.1,0.0,0.9999999999999999,-0.5235987755982988,0.5235987755982988,0,-0.2194602,1.118913,-0.7517566,0.8074627,-0.723862,0.5326668,-1.97093,1.051366,1.1772858,0.55158585,0.12226955,0.052491125,1.2122179,0.083560005
0.1,0.0,0.9999999999999999,-0.5235987755982988,0.5235987755982988,0,-0.21806006,1.1173617,-0.7494604,0.80775255,-0.72333664,0.53263324,-1.9740475,0.9184719,1.184054,0.57882184,0.11015779,0.029631246,1.2382262,0.22960931
0.1,0.0,0.9999999999999999,-0.5235987755982988,0.5235987755982988,0,-0.21856347,1.116999,-0.7516243,0.8076336,-0.72593313,0.53270704,-1.962546,0.9985569,1.174844,0.56591225,0.09517489,0.113247186,1.2145004,0.3718164
0.1,0.0,0.9999999999999999,-0.5235987755982988,0.5235987755982988,0,-0.21918523,1.1171203,-0.74946564,0.8079904,-0.72348654,0.53296417,-1.9758433,1.0263883,1.1235576,0.58708215,0.08326818,0.037718754,1.205069,0.2190171
0.1,0.0,0.9999999999999999,-0.5235987755982988,0.5235987755982988,0,-0.2182551,1.1183137,-0.7516882,0.8081418,-0.7242509,0.53711224,-1.9648336,1.0953536,1.1022993,0.53130025,0.119049676,0.014034324,1.2145984,-0.06581607
0.1,0.0,0.9999999999999999,-0.5235987755982988,0.5235987755982988,0,-0.21868026,1.1197182,-0.75054353,0.8081769,-0.72285193,0.5331133,-1.9665478,0.88049304,1.1317482,0.60580903,0.11287325,0.08660098,1.2476857,0.312469
0.1,0.0,0.9999999999999999,-0.5235987755982988,0.5235987755982988,0,-0.21833763,1.1169333,-0.7505674,0.8081031,-0.72492987,0.5365405,-1.9707214,0.97473884,1.1290667,0.5381502,0.10345996,0.12135799,1.2373767,0.19194329
0.1,0.0,0.9999999999999999,-0.5235987755982988,0.5235987755982988,0,-0.21854793,1.1186522,-0.750557,0.8079039,-0.72546697,0.53572315,-1.9744325,1.0081257,1.1333528,0.5968973,0.11062745,-0.012022495,1.221389,0.2843318
0.1,0.0,0.9999999999999999,-0.5235987755982988,0.5235987755982988,0,-0.21829307,1.118373,-0.75078106,0.8078425,-0.72668344,0.5353928,-1.972628,1.0116916,1.1593374,0.62213445,0.113964565,-0.10883604,1.2256082,0.15899274
0.1,0.0,0.9999999999999999,-0.5235987755982988,0.5235987755982988,0,-0.21856701,1.1182116,-0.7487051,0.8077433,-0.725425,0.5358913,-1.9678459,0.99507105,1.1500477,0.64732194,0.105488434,0.0152597865,1.2162403,0.18461284
0.1,0.0,0.9999999999999999,-0.5235987755982988,0.5235987755982988,0,-0.21758536,1.1185362,-0.74998885,0.80799425,-0.7245066,0.5365204,-1.9719762,1.1408032,1.1029732,0.5046218,0.1023392,-0.0125801265,1.2306316,0.12408268
0.1,0.0,0.9999999999999999,-0.5235987755982988,0.5235987755982988,0,-0.21840751,1.1167934,-0.7517165,0.808173,-0.72665805,0.5358046,-1.9646361,1.0658867,1.0690392,0.5434772,0.11226653,-0.0055805673,1.2198802,0.17308132
0.1,0.0,0.9999999999999999,-0.5235987755982988,0.5235987755982988,0,-0.21715316,1.1188191,-0.7502693,0.80798244,-0.7214271,0.53116745,-1.9696083,1.0262692,1.1737599,0.5569314,0.10016687,0.05554892,1.2066885,0.17259146
0.1,0.0,0.9999999999999999,-0.5235987755982988,0.5235987755982988,0,-0.21934927,1.1171329,-0.7498716,0.8081726,-0.72573906,0.5342915,-1.9669176,0.95593673,1.1586964,0.629146,0.118648395,0.003082723,1.1866161,0.22678
0.1,0.0,0.9999999999999999,-0.5235987755982988,0.5235987755982988,0,-0.21973757,1.1187959,-0.74965876,0.80785364,-0.7245241,0.5350462,-1.9647804,1.0760931,1.199784,0.6029375,0.096937366,0.018098637,1.2041547,0.45213428
0.1,0.0,0.9999999999999999,-0.5235987755982988,0.5235987755982988,0,-0.21728224,1.1183559,-0.75278616,0.8077408,-0.72152257,0.5370393,-1.9658767,1.0406054,1.122528,0.6112871,0.108112745,0.040842365,1.2079293,0.16315328
0.1,0.0,0.9999999999999999,-0.5235987755982988,0.5235987755982988,0,-0.2179917,1.1182249,-0.7497404,0.80845016,-0.7254053,0.53507155,-1.980381,1.0375139,1.1675011,0.5538826,0.10011628,0.12763427,1.2173434,0.35546505
0.1,0.0,0.9999999999999999,-0.5235987755982988,0.5235987755982988,0,-0.22023094,1.1177646,-0.7501852,0.80764955,-0.7282352,0.535321,-1.9651778,1.0583216,1.1373235,0.5197468,0.09278699,0.019252555,1.2341905,0.14100742
0.1,0.0,0.9999999999999999,-0.5235987755982988,0.5235987755982988,0,-0.21807879,1.1193264,-0.7497006,0.8086991,-0.72499985,0.53421366,-1.9750392,1.019259,1.09343,0.5346797,0.121855065,0.036097553,1.2199773,0.086752184
0.1,0.0,0.9999999999999999,-0.5235987755982988,0.5235987755982988,0,-0.21909352,1.118289,-0.7510886,0.8077842,-0.72631955,0.53799766,-1.9623023,1.02572,1.1215931,0.60378224,0.120247975,0.014328262,1.2305579,-0.018528655
0.1,0.0,0.9999999999999999,-0.5235987755982988,0.5235987755982988,0,-0.21800849,1.1181381,-0.75075454,0.80783075,-0.7255646,0.53272086,-1.9634144,1.012736,1.1483474,0.4953257,0.10676337,0.070362695,1.2420704,0.2240496
0.1,0.0,0.9999999999999999,-0.5235987755982988,0.5235987755982988,0,-0.21952431,1.1188029,-0.75026834,0.80754656,-0.7247821,0.5356892,-1.9631407,1.0748553,1.098737,0.53432643,0.11676677,-0.054158285,1.22561,0.09750647
0.1,0.0,0.9999999999999999,-0.5235987755982988,0.5235987755982988,0,-0.21771732,1.1180115,-0.75096136,0.8079578,-0.72773623,0.5382748,-1.9635428,1.0401502,1.1578296,0.5889163,0.11808465,0.04436154,1.2111663,0.18080126
0.1,0.0,0.9999999999999999,-0.5235987755982988,0.5235987755982988,0,-0.21790826,1.1188328,-0.7506219,0.80828595,-0.7241744,0.53331864,-1.9677526,1.0012959,1.1817319,0.49389514,0.0905583,0.09366355,1.2445024,0.2528666
0.1,0.0,0.9999999999999999,-0.5235987755982988,0.5235987755982988,0,-0.21865827,1.1202861,-0.7505954,0.8079197,-0.7226382,0.5338143,-1.9724232,1.0398413,1.1116097,0.5725718,0.07522259,0.013756948,1.2394733,0.18265562
0.1,0.0,0.9999999999999999,-0.5235987755982988,0.5235987755982988,0,-0.22023042,1.1176885,-0.74960154,0.80839217,-0.72730196,0.5355294,-1.9651965,1.1025128,1.169939,0.61106473,0.10797848,-0.030502414,1.2113957,0.3533592
0.1,0.0,0.9999999999999999,-0.5235987755982988,0.5235987755982988,0,-0.2180175,1.1192144,-0.749475,0.808631,-0.72617584,0.53626084,-1.9704249,1.0233008,1.1397932,0.5373376,0.100521035,0.03752223,1.2268138,0.20239651
0.1,0.0,0.9999999999999999,-0.5235987755982988,0.5235987755982988,0,-0.2199261,1.1163027,-0.7495011,0.807994,-0.7237899,0.53618634,-1.9678321,1.0126565,1.1491035,0.5956736,0.103231855,0.09937824,1.2518514,0.24732104
0.1,0.0,0.9999999999999999,-0.5235987755982988,0.5235987755982988,0,-0.2199917,1.1171201,-0.75070053,0.80825895,-0.7228289,0.5353951,-1.9665126,1.0077487,1.1394871,0.59232354,0.12470778,-0.05327449,1.2170874,0.31479022
0.1,0.0,0.9999999999999999,-0.5235987755982988,0.5235987755982988,0,-0.2199245,1.1190996,-0.75214,0.8077593,-0.72464675,0.53732455,-1.9786308,1.0149971,1.1836433,0.5926526,0.10173931,-0.055713326,1.2483128,0.1577339
0.1,0.0,0.9999999999999999,-0.5235987755982988,0.5235987755982988,0,-0.21903723,1.1177256,-0.7506266,0.8077661,-0.72487617,0.5376565,-1.9621502,1.0183175,1.1402996,0.62781596,0.09452243,-0.024165299,1.1998501,0.2226164
0.1,0.0,0.9999999999999999,-0.5235987755982988,0.5235987755982988,0,-0.2200629,1.118321,-0.7506751,0.8081117,-0.7259888,0.5358777,-1.9666595,1.042734,1.1874306,0.5993425,0.107590005,0.0153554985,1.1995692,0.44549394
0.1,0.0,0.9999999999999999,-0.5235987755982988,0.5235987755982988,0,-0.2187768,1.1190166,-0.7507092,0.8071182,-0.7258428,0.535325,-1.9738661,1.1153914,1.1680027,0.5024206,0.10606177,0.15706758,1.2259722,0.14192556
0.1,0.0,0.9999999999999999,-0.5235987755982988,0.5235987755982988,0,-0.21826951,1.1181991,-0.7510756,0.80806345,-0.7221981,0.5368151,-1.9668002,1.0526499,1.1436696,0.53053904,0.1079457,0.09991284,1.1815107,0.052504428
0.1,0.0,0.9999999999999999,-0.5235987755982988,0.5235987755982988,0,-0.2185578,1.1155996,-0.750512,0.80813396,-0.72324216,0.5346307,-1.9606402,1.1109952,1.1034213,0.5284207,0.10552078,0.12680553,1.2267891,0.12594426
0.1,0.0,0.9999999999999999,-0.5235987755982988,0.5235987755982988,0,-0.21890508,1.1191761,-0.75023574,0.8082995,-0.72394246,0.53669614,-1.9732769,1.0717174,1.1228465,0.51558876,0.11437935,0.03306311,1.2137748,0.20521851
0.1,0.0,0.9999999999999999,-0.5235987755982988,0.5235987755982988,0,-0.2185987,1.117874,-0.7510864,0.8080523,-0.7250731,0.53784686,-1.9535797,1.0907147,1.1638188,0.6213784,0.097770415,0.007817405,1.2221689,0.46939644
0.1,0.0,0.9999999999999999,-0.5235987755982988,0.5235987755982988,0,-0.22018696,1.1194702,-0.7512077,0.80772805,-0.7258487,0.5357633,-1.9704285,0.9448145,1.2056944,0.586479,0.10752878,-0.029176852,1.2114714,0.076719336
0.1,0.0,0.9999999999999999,-0.5235987755982988,0.5235987755982988,0,-0.21971136,1.1186976,-0.75131196,0.8078814,-0.7232711,0.53633165,-1.9688402,1.0294781,1.1458316,0.56343263,0.100477785,-0.028598407,1.2179255,0.15340698
0.1,0.0,0.9999999999999999,-0.5235987755982988,0.5235987755982988,0,-0.21820451,1.1198676,-0.7517188,0.80855185,-0.7245156,0.5356974,-1.9688357,0.999287,1.2028105,0.522633,0.113705754,0.028574543,1.2275386,0.23261552
0.1,0.0,0.9999999999999999,-0.5235987755982988,0.5235987755982988,0,-0.21825154,1.1179262,-0.75093573,0.8082973,-0.7283926,0.53451246,-1.9690679,1.1208733,1.1109053,0.56999224,0.102378845,0.09595645,1.2092277,0.49449307
0.1,0.0,0.9999999999999999,-0.5235987755982988,0.5235987755982988,0,-0.21955879,1.1205274,-0.7501524,0.80838966,-0.7251123,0.537798,-1.9712499,0.9995813,1.0766125,0.58282673,0.11693397,-0.03624249,1.2254795,0.391865
0.1,0.0,0.9999999999999999,-0.5235987755982988,0.5235987755982988,0,-0.22088133,1.1177361,-0.7510741,0.80813116,-0.72404504,0.53473526,-1.964271,0.9710496,1.1511085,0.56024826,0.11261842,0.07083758,1.2083864,0.061199035
0.1,0.0,0.9999999999999999,-0.5235987755982988,0.5235987755982988,0,-0.2173581,1.1185597,-0.7494803,0.8079204,-0.7243202,0.5363102,-1.9667065,1.0236284,1.1362022,0.58553845,0.11017827,0.110594325,1.2192749,0.171062
0.1,0.0,0.9999999999999999,-0.5235987755982988,0.5235987755982988,0,-0.21887085,1.1189463,-0.7496395,0.8078496,-0.72540253,0.5344604,-1.9557602,1.1168674,1.167172,0.594682,0.109102145,0.049769998,1.2416005,0.38024548
0.1,0.0,0.9999999999999999,-0.5235987755982988,0.5235987755982988,0,-0.21983255,1.1205678,-0.7510884,0.80748916,-0.72669464,0.5379962,-1.9695404,1.0683135,1.136547,0.59697294,0.11714476,0.15318137,1.2582419,0.24138409
0.1,0.0,0.9999999999999999,-0.5235987755982988,0.5235987755982988,0,-0.21952602,1.1156886,-0.75180566,0.8075872,-0.7234214,0.5359665,-1.9632138,1.0686829,1.1843513,0.6109556,0.09794021,0.08579237,1.22639,0.013002781
0.1,0.0,0.9999999999999999,-0.5235987755982988,0.5235987755982988,0,-0.2185074,1.1175652,-0.7511251,0.80786544,-0.7256786,0.5355029,-1.97449,1.01635,1.1584125,0.6155523,0.112001866,0.069514304,1.1923991,0.03788694
0.1,0.0,0.9999999999999999,-0.5235987755982988,0.5235987755982988,0,-0.21936573,1.1170528,-0.7499228,0.8078699,-0.72437465,0.5352912,-1.967178,1.0459408,1.1814504,0.6179032,0.1094208,0.081141986,1.2190995,0.22832692
0.1,0.0,0.9999999999999999,-0.5235987755982988,0.5235987755982988,0,-0.21764393,1.1182635,-0.7509616,0.80836326,-0.7232331,0.5352514,-1.9728235,0.97818303,1.1422597,0.60747015,0.12647513,0.1193334,1.2416966,0.3088397
0.1,0.0,0.9999999999999999,-0.5235987755982988,0.5235987755982988,0,-0.21933852,1.1187794,-0.7501088,0.80758536,-0.7246783,0.5347936,-1.9767836,1.0388796,1.1189765,0.5075502,0.11697353,0.10096884,1.2510701,0.083967276
0.1,0.0,0.9999999999999999,-0.5235987755982988,0.5235987755982988,0,-0.2174861,1.1189623,-0.7503079,0.8084177,-0.72497076,0.53509796,-1.9758786,0.99893737,1.2105397,0.66327447,0.09051809,0.029708922,1.2324029,0.066443615
0.1,0.0,0.9999999999999999,-0.5235987755982988,0.5235987755982988,0,-0.21823193,1.1171843,-0.7496476,0.8079079,-0.72177356,0.53366506,-1.9746866,1.1031003,1.1191092,0.5536767,0.1147031,0.045039084,1.2249509,0.08424035
0.1,0.0,0.9999999999999999,-0.5235987755982988,0.5235987755982988,0,-0.2185336,1.1161375,-0.75021464,0.80764407,-0.7253009,0.5338763,-1.968867,0.956885,1.1542673,0.68753004,0.12596984,-0.063562445,1.2230288,0.089447334
0.1,0.0,0.9999999999999999,-0.5235987755982988,0.5235987755982988,0,-0.21923228,1.1184915,-0.75078,0.8079931,-0.72277343,0.537473,-1.9679221,1.038038,1.1629797,0.6111827,0.111932516,0.034043986,1.2474569,0.4004067
0.1,0.0,0.9999999999999999,-0.5235987755982988,0.5235987755982988,0,-0.21701626,1.1172818,-0.7512616,0.8080109,-0.7257812,0.53357977,-1.9706545,1.1410221,1.0788009,0.6019332,0.11816902,0.03982023,1.2481105,0.22915605
0.1,0.0,0.9999999999999999,-0.5235987755982988,0.5235987755982988,0,-0.21809039,1.1175239,-0.74963605,0.80851495,-0.72304374,0.53499895,-1.9604158,1.1530385,1.1062824,0.57677746,0.12285699,0.018810742,1.2062819,0.26909426
0.1,0.0,0.9999999999999999,-0.5235987755982988,0.5235987755982988,0,-0.21918505,1.1177245,-0.75089616,0.80794805,-0.7239627,0.5368288,-1.9642497,1.0932666,1.1417544,0.6013265,0.10598955,0.05387886,1.2257018,0.17699552
0.1,0.0,0.9999999999999999,-0.5235987755982988,0.5235987755982988,0,-0.21773599,1.1185561,-0.75095254,0.807944,-0.72498125,0.5354895,-1.9627603,1.0782481,1.1285652,0.5516131,0.117925115,0.10056205,1.2361331,0.10939759
0.1,0.0,0.9999999999999999,-0.5235987755982988,0.5235987755982988,0,-0.21837197,1.1179577,-0.7521371,0.8085915,-0.7262904,0.5345769,-1.9637063,1.0283979,1.1630359,0.60172695,0.101987556,0.052821994,1.2244307,0.029167883
0.1,0.0,0.9999999999999999,-0.5235987755982988,0.5235987755982988,0,-0.22006577,1.1171682,-0.7500058,0.8078474,-0.72403383,0.53426605,-1.9605433,1.053833,1.0860666,0.5196594,0.10084007,0.1489126,1.2427619,-0.1088435
0.1,0.0,0.9999999999999999,-0.5235987755982988,0.5235987755982988,0,-0.21744512,1.1185946,-0.75148475,0.8083815,-0.72170967,0.5353625,-1.960197,1.025658,1.1754556,0.60521615,0.098630376,0.13685931,1.2247137,0.20913823
0.1,0.0,0.9999999999999999,-0.5235987755982988,0.5235987755982988,0,-0.21951047,1.119875,-0.75128734,0.8077111,-0.72625285,0.5382889,-1.9668674,1.0286529,1.149618,0.60797554,0.09249147,0.11915756,1.2311016,0.0780646
0.1,0.0,0.9999999999999999,-0.5235987755982988,0.5235987755982988,0,-0.21942003,1.1168684,-0.7495434,0.8079863,-0.72595775,0.53435844,-1.9661807,1.0628177,1.1486242,0.6233566,0.105945654,0.12626849,1.1918584,0.31392393
0.1,0.0,0.9999999999999999,-0.5235987755982988,0.5235987755982988,0,-0.21864137,1.1187037,-0.75055414,0.80830586,-0.7271208,0.538068,-1.9696394,1.0252254,1.076958,0.5778061,0.11405483,0.25816286,1.2134572,0.28291637
0.1,0.0,0.9999999999999999,-0.5235987755982988,0.5235987755982988,0,-0.2183355,1.1172011,-0.75048625,0.8078748,-0.7248274,0.53512484,-1.968673,1.087274,1.1690233,0.62061805,0.09367435,0.12293163,1.1968274,0.2842595
0.1,0.0,0.9999999999999999,-0.5235987755982988,0.5235987755982988,0,-0.21657969,1.1186699,-0.74959314,0.80759144,-0.7242799,0.53658324,-1.9672391,1.070027,1.1388072,0.65947145,0.08529213,0.03127662,1.2242403,0.094249904
0.1,0.0,0.9999999999999999,-0.5235987755982988,0.5235987755982988,0,-0.21907227,1.1167673,-0.7511243,0.8080565,-0.7222373,0.5367575,-1.9673933,1.098427,1.2267017,0.6395849,0.10061726,-0.0059693772,1.2137467,0.38289583
0.1,0.0,0.9999999999999999,-0.5235987755982988,0.5235987755982988,0,-0.21761084,1.119206,-0.75152224,0.80792594,-0.7266189,0.5383091,-1.9710357,1.0112522,1.1080391,0.618315,0.10838386,0.08239281,1.2350246,0.045798495
0.1,0.0,0.9999999999999999,-0.5235987755982988,0.5235987755982988,0,-0.21660921,1.1194767,-0.75168,0.8087301,-0.72624594,0.5349963,-1.9693503,1.062475,1.1494825,0.6802883,0.099799655,0.008031172,1.2155706,0.30693528
0.1,0.0,0.9999999999999999,-0.5235987755982988,0.5235987755982988,0,-0.21816911,1.1171155,-0.7492353,0.8074052,-0.7259619,0.53423464,-1.9622822,1.0843703,1.0767851,0.6052381,0.10948987,0.10984104,1.2169333,0.29035053
0.1,0.0,0.9999999999999999,-0.5235987755982988,0.5235987755982988,0,-0.22027266,1.1191338,-0.7518577,0.8073633,-0.7234013,0.53415626,-1.9726319,1.013584,1.1818354,0.6058773,0.10382359,0.13391604,1.2318558,0.19146737
0.1,0.0,0.9999999999999999,-0.5235987755982988,0.5235987755982988,0,-0.21971063,1.117609,-0.7485934,0.8078252,-0.7256178,0.5329257,-1.9711679,1.0804782,1.1186937,0.6542544,0.1086867,0.048350118,1.1767706,0.09640688
0.1,0.0,0.9999999999999999,-0.5235987755982988,0.5235987755982988,0,-0.21850817,1.1193402,-0.7498282,0.80814373,-0.72519827,0.536922,-1.9656379,1.0176787,1.1125091,0.613217,0.11094958,0.12512065,1.2150661,0.24322963
0.1,0.0,0.9999999999999999,-0.5235987755982988,0.5235987755982988,0,-0.21820974,1.1188871,-0.75029594,0.8077694,-0.7250027,0.53313804,-1.9561827,1.0998707,1.1271526,0.6411511,0.09806506,0.031287167,1.2202774,0.33061397
0.1,0.0,0.9999999999999999,-0.5235987755982988,0.5235987755982988,0,-0.21984376,1.1195376,-0.75128603,0.8079356,-0.7261198,0.5349061,-1.9713526,1.0539846,1.1299232,0.5751475,0.11048806,0.14705862,1.2245427,0.03416976
0.1,0.0,0.9999999999999999,-0.5235987755982988,0.5235987755982988,0,-0.21940528,1.1186928,-0.7506466,0.80783623,-0.7246635,0.5372705,-1.964856,1.137405,1.0769011,0.5620787,0.096666336,0.16349351,1.2114897,0.10374681
0.1,0.0,0.9999999999999999,-0.5235987755982988,0.5235987755982988,0,-0.21782328,1.1181482,-0.7506042,0.80758417,-0.7286701,0.5336553,-1.9704919,1.0776316,1.1899569,0.6329908,0.11062378,0.04183333,1.2026596,0.3149909
0.1,0.0,0.9999999999999999,-0.5235987755982988,0.5235987755982988,0,-0.21881105,1.1179062,-0.7493456,0.80868375,-0.72497493,0.53338087,-1.9741614,1.0018421,1.1483741,0.73563,0.106854334,-0.025505736,1.2063192,0.16189004
0.1,0.0,0.9999999999999999,-0.5235987755982988,0.5235987755982988,0,-0.21847683,1.1205732,-0.7497077,0.8086392,-0.7245439,0.53426987,-1.9606311,1.0219266,1.1100521,0.65449196,0.116270125,0.09804155,1.1964318,0.16863945
0.1,0.0,0.9999999999999999,-0.5235987755982988,0.5235987755982988,0,-0.22085235,1.1170306,-0.7511682,0.8080632,-0.7246551,0.5335983,-1.9661082,1.1154121,1.1002895,0.6313932,0.09720184,0.049506646,1.2080553,0.2964985
0.1,0.0,0.9999999999999999,-0.5235987755982988,0.5235987755982988,0,-0.21750547,1.1168114,-0.7514699,0.80813754,-0.7244916,0.53552157,-1.9670782,1.1019188,1.1190277,0.64559776,0.09801303,-0.04323994,1.2341477,0.11351262
0.1,0.0,0.9999999999999999,-0.5235987755982988,0.5235987755982988,0,-0.2192271,1.1165683,-0.7497038,0.8083309,-0.72742134,0.53768337,-1.966613,1.0391026,1.2257384,0.6702032,0.105898716,0.07248456,1.1886135,0.3409728
0.1,0.0,0.9999999999999999,-0.5235987755982988,0.5235987755982988,0,-0.21955465,1.1178625,-0.7494909,0.80805725,-0.72549546,0.53670734,-1.974997,1.081422,1.1065006,0.60500103,0.10399644,0.0917905,1.2166663,0.08168854
0.1,0.0,0.9999999999999999,-0.5235987755982988,0.5235987755982988,0,-0.21835348,1.1165361,-0.74982435,0.8075077,-0.7245006,0.53289783,-1.9671139,1.0395942,1.0378385,0.65356165,0.11603805,0.10650515,1.2245156,0.21771204
0.1,0.0,0.9999999999999999,-0.5235987755982988,0.5235987755982988,0,-0.21811266,1.1186657,-0.7516538,0.80865294,-0.7264661,0.53545225,-1.9665467,1.0804349,1.0691708,0.60130125,0.11347246,0.105856195,1.221434,0.08607326
0.1,0.0,0.9999999999999999,-0.5235987755982988,0.5235987755982988,0,-0.21987712,1.1185737,-0.75153834,0.80825484,-0.7255711,0.53660893,-1.9711,0.9748204,1.151346,0.65176,0.099525236,0.047495984,1.243062,0.03392359
0.1,0.0,0.9999999999999999,-0.5235987755982988,0.5235987755982988,0,-0.2182332,1.1192824,-0.7501727,0.8082401,-0.7249688,0.5351675,-1.9700117,1.032612,1.111292,0.5971465,0.10587634,0.1252096,1.2273105,-0.04927914
0.1,0.0,0.9999999999999999,-0.5235987755982988,0.5235987755982988,0,-0.21843147,1.1161149,-0.75000656,0.8086071,-0.7255386,0.5358165,-1.9740434,1.0727758,1.1638193,0.6589284,0.0918627,0.07544251,1.2032351,0.29769358
0.1,0.0,0.9999999999999999,-0.5235987755982988,0.5235987755982988,0,-0.21918683,1.1168857,-0.74980456,0.80776644,-0.72580487,0.53345835,-1.9649743,1.0982718,1.0570987,0.5591145,0.11476374,0.11923341,1.2198375,-0.03104395
0.1,0.0,0.9999999999999999,-0.5235987755982988,0.5235987755982988,0,-0.21850112,1.1171538,-0.7506662,0.80780566,-0.7275201,0.5361196,-1.9700929,1.0426712,1.1567615,0.57160354,0.10240662,0.1504519,1.2466847,0.08734219
0.1,0.0,0.9999999999999999,-0.5235987755982988,0.5235987755982988,0,-0.21886285,1.1184024,-0.7507233,0.80812734,-0.7236608,0.5373141,-1.9685148,1.035301,1.1544793,0.6717,0.108564675,0.06661655,1.1968333,0.047658633
0.1,0.0,0.9999999999999999,-0.5235987755982988,0.5235987755982988,0,-0.21759793,1.1179897,-0.7509514,0.80748606,-0.7265401,0.53637296,-1.9724952,1.0632246,1.0762117,0.6682102,0.10425033,0.026115766,1.2480521,0.3758721
0.1,0.0,0.9999999999999999,-0.5235987755982988,0.5235987755982988,0,-0.21956684,1.1187541,-0.7488383,0.80812806,-0.72583836,0.53206366,-1.9632007,0.8869714,1.1707667,0.6937584,0.1239768,0.10906856,1.2366153,0.19928458
0.1,0.0,0.9999999999999999,-0.5235987755982988,0.5235987755982988,0,-0.21837479,1.1190748,-0.7501284,0.80815816,-0.7271211,0.53777057,-1.9670942,1.0443953,1.1036973,0.6068413,0.12289376,0.108286925,1.2142632,0.015656156
0.1,0.0,0.9999999999999999,-0.5235987755982988,0.5235987755982988,0,-0.21946736,1.1180387,-0.7505372,0.807956,-0.71968925,0.53389317,-1.9646007,1.0964214,1.1175685,0.64461905,0.10029368,0.078503795,1.2125883,0.08249305
0.1,0.0,0.9999999999999999,-0.5235987755982988,0.5235987755982988,0,-0.21927977,1.1181653,-0.7502855,0.807987,-0.7224819,0.5355702,-1.9694875,1.069163,1.2227803,0.6620218,0.096143134,0.09287787,1.197349,0.32430112
0.1,0.0,0.9999999999999999,-0.5235987755982988,0.5235987755982988,0,-0.2200027,1.1190412,-0.749491,0.80845153,-0.72471833,0.53413266,-1.9681621,1.0786457,1.1301848,0.59664065,0.100852914,0.041600887,1.2226169,0.076577954
0.1,0.0,0.9999999999999999,-0.5235987755982988,0.5235987755982988,0,-0.21911421,1.1175562,-0.7495723,0.808171,-0.7232059,0.53195167,-1.968418,0.9807687,1.1304058,0.6224886,0.11660226,0.08965271,1.2539111,0.13590296
0.1,0.0,0.9999999999999999,-0.5235987755982988,0.5235987755982988,0,-0.21851918,1.1171018,-0.7504277,0.8076024,-0.725554,0.5356683,-1.9682484,1.0135925,1.1465882,0.7182291,0.11201969,0.06285779,1.2004609,0.010502463
0.1,0.0,0.9999999999999999,-0.5235987755982988,0.5235987755982988,0,-0.21967274,1.1187882,-0.7510596,0.80823565,-0.72319406,0.5334364,-1.9683037,1.1363219,1.1885278,0.66040415,0.117341004,-0.05690254,1.2045783,0.3287622
0.1,0.0,0.9999999999999999,-0.5235987755982988,0.5235987755982988,0,-0.21865328,1.1155121,-0.75104064,0.8080365,-0.7256996,0.5370421,-1.9763659,1.0800848,1.158423,0.6000676,0.12368742,0.022356385,1.2172035,0.014305414
0.1,0.0,0.9999999999999999,-0.5235987755982988,0.5235987755982988,0,-0.21927942,1.1186254,-0.7498112,0.8079202,-0.7236755,0.5367619,-1.9669386,1.0469844,1.1169083,0.606843,0.09514885,0.12197376,1.2446741,0.08901489
0.1,0.0,0.9999999999999999,-0.5235987755982988,0.5235987755982988,0,-0.21909606,1.1161345,-0.7520111,0.8082323,-0.72559494,0.5367443,-1.9625722,1.0777773,1.1560606,0.6400261,0.12156584,-0.0082277395,1.210069,0.04957733
0.1,0.0,0.9999999999999999,-0.5235987755982988,0.5235987755982988,0,-0.2190635,1.1180301,-0.749787,0.8086282,-0.7278916,0.53556883,-1.9649372,1.0579046,1.1563954,0.60056305,0.11987846,0.06161402,1.2246188,-0.006636846
0.1,0.0,0.9999999999999999,-0.5235987755982988,0.5235987755982988,0,-0.2184991,1.1180125,-0.7516889,0.8081713,-0.7278702,0.53315395,-1.9555374,1.0855434,1.0882838,0.5970715,0.10531111,0.12439642,1.2343078,0.10162812
0.1,0.0,0.9999999999999999,-0.5235987755982988,0.5235987755982988,0,-0.21866184,1.1179605,-0.7507042,0.8079856,-0.7245621,0.5348092,-1.9689007,1.0430332,1.1722385,0.6490751,0.13391142,-0.0052823867,1.2024163,0.11968258
0.1,0.0,0.9999999999999999,-0.5235987755982988,0.5235987755982988,0,-0.21884337,1.1157345,-0.751281,0.8079322,-0.72499675,0.53530955,-1.9685787,1.1292623,1.1107849,0.5582587,0.12011051,0.12395808,1.1814531,0.06419789
0.1,0.0,0.9999999999999999,-0.5235987755982988,0.5235987755982988,0,-0.21903218,1.117262,-0.7504853,0.8076188,-0.7245893,0.53442615,-1.9619554,1.0150726,1.1347432,0.59651995,0.11940228,0.2127429,1.2359056,0.16148603
0.1,0.0,0.9999999999999999,-0.5235987755982988,0.5235987755982988,0,-0.21789901,1.118012,-0.7499225,0.8071168,-0.72773314,0.5372223,-1.9637951,1.1028069,1.1596106,0.5915319,0.09774486,0.1802421,1.2282374,0.1886301
0.1,0.0,0.9999999999999999,-0.5235987755982988,0.5235987755982988,0,-0.21959773,1.1182047,-0.7499849,0.8082806,-0.7226226,0.53366524,-1.9678061,1.1074611,1.1112094,0.62535644,0.09274304,0.097477056,1.2276192,0.07371849
0.1,0.0,0.9999999999999999,-0.5235987755982988,0.5235987755982988,0,-0.21766716,1.1185333,-0.7514542,0.8082672,-0.7252523,0.53746766,-1.9715791,1.0270807,1.1722177,0.6903574,0.092203304,0.008518028,1.2314214,-0.013303992
0.1,0.0,0.9999999999999999,-0.5235987755982988,0.5235987755982988,0,-0.21715681,1.1160935,-0.7493177,0.8079555,-0.7257093,0.53415483,-1.9603722,1.1137328,1.0498506,0.57315516,0.122600734,0.14983128,1.2243382,0.048233956
0.1,0.0,0.9999999999999999,-0.5235987755982988,0.5235987755982988,0,-0.2194898,1.1197768,-0.75089,0.8081922,-0.72150266,0.5339043,-1.9708176,1.1869429,1.0875586,0.5774754,0.099767394,0.037340045,1.2140439,0.22134179
0.1,0.0,0.9999999999999999,-0.5235987755982988,0.5235987755982988,0,-0.21789874,1.1182758,-0.7510269,0.80818856,-0.7243277,0.5355463,-1.9661546,1.082639,1.1526725,0.6420254,0.12256276,0.04330952,1.195681,0.030435165
0.1,0.0,0.9999999999999999,-0.5235987755982988,0.5235987755982988,0,-0.21930823,1.116181,-0.74926287,0.80797213,-0.7257382,0.53778714,-1.9660208,1.0428895,1.1857142,0.6255394,0.11652327,0.12826283,1.214171,0.24811107
0.1,0.0,0.9999999999999999,-0.5235987755982988,0.5235987755982988,0,-0.21765178,1.1178839,-0.7503391,0.8078235,-0.7232905,0.534544,-1.9617858,1.0916028,1.1735485,0.58781415,0.11473982,0.11814688,1.2332417,0.25724882
0.1,0.0,0.9999999999999999,-0.5235987755982988,0.5235987755982988,0,-0.21938685,1.1178267,-0.7497197,0.8074115,-0.72786576,0.535556,-1.9618924,1.0658228,1.1486578,0.63698155,0.111948594,0.059532993,1.2003055,-0.120793864
0.1,0.0,0.9999999999999999,-0.5235987755982988,0.5235987755982988,0,-0.21830967,1.1188173,-0.7514471,0.80805415,-0.72250223,0.535262,-1.9644333,1.0312572,1.0891035,0.61369395,0.1230952,0.06381827,1.2155678,-0.13682894
0.1,0.0,0.9999999999999999,-0.5235987755982988,0.5235987755982988,0,-0.21710347,1.1186361,-0.75148267,0.8082151,-0.72469795,0.533742,-1.9692843,1.0514318,1.1084228,0.6373113,0.10574457,0.054539695,1.2485471,0.16399021
0.1,0.0,0.9999999999999999,-0.5235987755982988,0.5235987755982988,0,-0.21829915,1.1179612,-0.7504478,0.8073409,-0.72406524,0.5340518,-1.9750323,1.1600856,1.144079,0.54102266,0.10692103,0.18246874,1.2303535,0.16670525
0.1,0.0,0.9999999999999999,-0.5235987755982988,0.5235987755982988,0,-0.2196001,1.1188548,-0.7520732,0.8078288,-0.72613776,0.53720456,-1.9760593,1.0897024,1.138314,0.6433064,0.1079103,0.022741657,1.2194427,-0.005908143
0.1,0.0,0.9999999999999999,-0.5235987755982988,0.5235987755982988,0,-0.2180748,1.119166,-0.7509753,0.8078329,-0.7235653,0.5329336,-1.9622165,1.1515547,1.1300695,0.6300131,0.1129532,0.11058983,1.1823916,0.0940822
0.1,0.0,0.9999999999999999,-0.5235987755982988,0.5235987755982988,0,-0.21939576,1.1180143,-0.74932534,0.8082406,-0.72636133,0.53482926,-1.9644113,1.068594,1.1520703,0.6227549,0.09770163,0.08469364,1.196023,0.040170386
0.1,0.0,0.9999999999999999,-0.5235987755982988,0.5235987755982988,0,-0.21945748,1.1145763,-0.75065756,0.8072951,-0.7253736,0.5325837,-1.9621298,1.1239835,1.1627377,0.6326528,0.10097224,-0.04158914,1.2228528,-0.13704103
0.1,0.0,0.9999999999999999,-0.5235987755982988,0.5235987755982988,0,-0.21849065,1.1198422,-0.7505964,0.8081477,-0.7258387,0.5349509,-1.9831469,1.0880154,1.1328561,0.59141463,0.11431987,0.10284021,1.2382711,0.06918147
0.1,0.0,0.9999999999999999,-0.5235987755982988,0.5235987755982988,0,-0.21764754,1.1172671,-0.75033903,0.80755967,-0.72421426,0.5345735,-1.9592372,1.0476241,1.1482518,0.63608766,0.09390264,0.037659306,1.2071838,0.08407337
0.1,0.0,0.9999999999999999,-0.5235987755982988,0.5235987755982988,0,-0.21925677,1.1181238,-0.7509504,0.80854607,-0.7268319,0.53624874,-1.9592811,1.0943798,1.1176895,0.6159027,0.1282255,0.11360688,1.205024,0.036571957
0.1,0.0,0.9999999999999999,-0.5235987755982988,0.5235987755982988,0,-0.21913424,1.1176136,-0.75112754,0.8080863,-0.72173387,0.53564703,-1.9687811,1.0891533,1.1592003,0.58940774,0.10098888,0.15861684,1.226036,-0.11640903
0.1,0.0,0.9999999999999999,-0.5235987755982988,0.5235987755982988,0,-0.21895261,1.1201762,-0.7499631,0.8080819,-0.72840214,0.53721285,-1.9628227,1.1206614,1.1185547,0.5840243,0.1297365,0.05049616,1.2203496,-0.020994475
0.1,0.0,0.9999999999999999,-0.5235987755982988,0.5235987755982988,0,-0.21995494,1.1148143,-0.7489536,0.80815595,-0.72400546,0.5335529,-1.967626,1.1554645,1.1015443,0.61689544,0.09911645,0.063692436,1.2399659,0.39406413
0.1,0.0,0.9999999999999999,-0.5235987755982988,0.5235987755982988,0,-0.21954906,1.1170039,-0.7507647,0.8082638,-0.7247756,0.5345396,-1.9708486,1.0779443,1.1861386,0.6467838,0.08410262,0.011179965,1.2087251,0.11347625
0.1,0.0,0.9999999999999999,-0.5235987755982988,0.5235987755982988,0,-0.21856825,1.1211404,-0.7487136,0.8078933,-0.7270948,0.5345473,-1.9676123,1.0088236,1.1436263,0.6247848,0.11919136,0.12705708,1.245768,0.031429023
0.1,0.0,0.9999999999999999,-0.5235987755982988,0.5235987755982988,0,-0.21838216,1.1179056,-0.7506021,0.8075012,-0.7229415,0.5353494,-1.9695128,1.072629,1.1902517,0.6059074,0.12878844,0.122984886,1.214818,0.12506521
0.1,0.0,0.9999999999999999,-0.5235987755982988,0.5235987755982988,0,-0.21861975,1.1180283,-0.75270385,0.80812955,-0.72367644,0.53623956,-1.9754727,1.0540351,1.0745523,0.56376773,0.12554085,0.1650032,1.2076395,0.16098362
0.1,0.0,0.9999999999999999,-0.5235987755982988,0.5235987755982988,0,-0.21901919,1.1167276,-0.7499016,0.807799,-0.7238275,0.5362802,-1.9624907,1.0568659,1.0877304,0.5111909,0.11786334,0.06268437,1.2534015,0.3286616
0.1,0.0,0.9999999999999999,-0.5235987755982988,0.5235987755982988,0,-0.22125067,1.1198922,-0.7487738,0.80757755,-0.7242564,0.53845906,-1.9675857,1.0935113,1.1616641,0.5154718,0.10942622,0.218585,1.1905155,-0.15842493
0.1,0.0,0.9999999999999999,-0.5235987755982988,0.5235987755982988,0,-0.2187127,1.1185176,-0.75166386,0.807499,-0.72582275,0.53294766,-1.9660254,1.052696,1.1556326,0.6951492,0.10508753,0.041169792,1.2275792,0.173563
0.1,0.0,0.9999999999999999,-0.5235987755982988,0.5235987755982988,0,-0.21958831,1.1179571,-0.7486529,0.80764854,-0.72579765,0.53689677,-1.9625261,1.1508945,1.1194835,0.58393437,0.12250949,0.050522074,1.2258718,0.04164132
0.1,0.0,0.9999999999999999,-0.5235987755982988,0.5235987755982988,0,-0.21845834,1.1159625,-0.7510997,0.80810755,-0.7258478,0.53382266,-1.9552684,1.0491527,1.1607177,0.59934175,0.106077135,0.11254479,1.1794173,0.07791311
0.1,0.0,0.9999999999999999,-0.5235987755982988,0.5235987755982988,0,-0.2202424,1.116875,-0.7502536,0.80768126,-0.72460246,0.5350628,-1.9671993,1.0545549,1.1237763,0.5896518,0.1147169,0.04277065,1.2288284,0.11468672
0.1,0.0,0.9999999999999999,-0.5235987755982988,0.5235987755982988,0,-0.21824272,1.1178834,-0.7518783,0.80823874,-0.72500145,0.53402686,-1.9642435,1.0882936,1.142186,0.65784097,0.088834815,-0.054553714,1.2053236,0.16438866
0.1,0.0,0.9999999999999999,-0.5235987755982988,0.5235987755982988,0,-0.21943344,1.1185673,-0.75016063,0.8081725,-0.72801876,0.5333713,-1.9695584,1.0117705,1.1516175,0.5437615,0.12059072,0.14153346,1.2321914,0.27460375
0.1,0.0,0.9999999999999999,-0.5235987755982988,0.5235987755982988,0,-0.21901222,1.1185504,-0.75111043,0.80840933,-0.72603595,0.53447276,-1.9560112,0.96487117,1.1702118,0.59256655,0.098763585,0.09026798,1.2565347,0.10103152
0.1,0.0,0.9999999999999999,-0.5235987755982988,0.5235987755982988,0,-0.21861939,1.118889,-0.7507577,0.808852,-0.7228572,0.53795266,-1.968797,1.0322534,1.1374893,0.5427998,0.08467245,0.14342348,1.2690462,0.12790534
0.1,0.0,0.9999999999999999,-0.5235987755982988,0.5235987755982988,0,-0.21817039,1.1185336,-0.7505908,0.8075291,-0.7240765,0.53588563,-1.9695185,1.0646375,1.1398157,0.5988253,0.09906779,0.046150338,1.2044268,0.14020006
0.1,0.0,0.9999999999999999,-0.5235987755982988,0.5235987755982988,0,-0.21810348,1.1191648,-0.7512583,0.8082199,-0.7247366,0.5342878,-1.9686377,0.97798467,1.1444076,0.57407504,0.12588498,0.16648917,1.2216868,0.0562114
0.1,0.0,0.9999999999999999,-0.5235987755982988,0.5235987755982988,0,-0.21819958,1.1175717,-0.7495377,0.8074823,-0.72634304,0.53642064,-1.9668366,1.0447838,1.1444594,0.5829112,0.10287511,0.02192229,1.2473265,0.2683441
0.1,0.0,0.9999999999999999,-0.5235987755982988,0.5235987755982988,0,-0.21801746,1.1187941,-0.7516706,0.807859,-0.72548324,0.5331278,-1.9608084,1.106371,1.0906491,0.6290592,0.11540255,0.071228206,1.2127484,0.19202371
0.1,0.0,0.9999999999999999,-0.5235987755982988,0.5235987755982988,0,-0.21839277,1.1173551,-0.7502859,0.8078583,-0.72491795,0.53576994,-1.9667361,1.0859575,1.1765025,0.5721185,0.093066305,0.033878773,1.2465383,0.39972052
0.1,0.0,0.9999999999999999,-0.5235987755982988,0.5235987755982988,0,-0.21767637,1.1171882,-0.75063664,0.80776006,-0.72596323,0.5367101,-1.9683509,1.0043473,1.1507467,0.60587794,0.10791006,-0.02991728,1.243271,0.1637366
0.1,0.0,0.9999999999999999,-0.5235987755982988,0.5235987755982988,0,-0.2194783,1.1188077,-0.7503427,0.80854297,-0.72521937,0.53616226,-1.9625221,1.0662829,1.1275707,0.59388,0.119862475,0.004026879,1.2272662,0.3961144
0.1,0.0,0.9999999999999999,-0.5235987755982988,0.5235987755982988,0,-0.21779516,1.1169987,-0.7508984,0.80810237,-0.7225982,0.53530514,-1.9727551,1.0209353,1.1833477,0.61177063,0.12189165,0.02326189,1.2104818,0.27999783
0.1,0.0,0.9999999999999999,-0.5235987755982988,0.5235987755982988,0,-0.22029187,1.118155,-0.7494722,0.8080145,-0.7236537,0.53370064,-1.9678178,1.1053797,1.124498,0.5701689,0.081518695,0.035756376,1.2192811,0.14414313
0.1,0.0,0.9999999999999999,-0.5235987755982988,0.5235987755982988,0,-0.21937956,1.119261,-0.74999434,0.8078112,-0.72490764,0.5335402,-1.9668231,1.0145646,1.160219,0.5710849,0.101448365,0.081271194,1.2170408,0.22791775
0.1,0.0,0.9999999999999999,-0.5235987755982988,0.5235987755982988,0,-0.21879056,1.1170683,-0.7500271,0.8080126,-0.7232112,0.53519416,-1.9625595,1.1085827,1.1924706,0.6065393,0.10340691,-0.08319363,1.2150313,0.2761069
0.1,0.0,0.9999999999999999,-0.5235987755982988,0.5235987755982988,0,-0.2176324,1.1182685,-0.74930483,0.8083095,-0.7259836,0.5348278,-1.9647999,1.1273376,1.1231937,0.527617,0.08728433,0.050592948,1.2397397,0.22388855
0.1,0.0,0.9999999999999999,-0.5235987755982988,0.5235987755982988,0,-0.21872203,1.1180297,-0.7500871,0.80766773,-0.723581,0.5351452,-1.9736404,1.0599587,1.1268919,0.54919106,0.12364818,0.028233672,1.2158525,0.06770114
0.1,0.0,0.9999999999999999,-0.5235987755982988,0.5235987755982988,0,-0.22014557,1.1200442,-0.7495184,0.80765873,-0.7244947,0.53363407,-1.9706429,1.0330721,1.1772302,0.60414356,0.11515799,0.008968775,1.216798,0.4125177
0.1,0.0,0.9999999999999999,-0.5235987755982988,0.5235987755982988,0,-0.21865322,1.1173469,-0.7497726,0.80831295,-0.7246248,0.5347336,-1.9612154,1.138568,1.1269702,0.62152886,0.098642714,-0.052569363,1.2245647,0.26728973
0.1,0.0,0.9999999999999999,-0.5235987755982988,0.5235987755982988,0,-0.21789606,1.1189497,-0.75041294,0.8082984,-0.7248922,0.53747517,-1.9648007,1.1448709,1.0504687,0.5487928,0.11982781,-0.0062934803,1.2331403,0.42246056
0.1,0.0,0.9999999999999999,-0.5235987755982988,0.5235987755982988,0,-0.21893713,1.1171263,-0.7517985,0.8079607,-0.7268023,0.5342994,-1.9585251,1.0477619,1.1367106,0.5345011,0.12533185,0.09166399,1.2134359,0.25721672
0.1,0.0,0.9999999999999999,-0.5235987755982988,0.5235987755982988,0,-0.21831359,1.1192119,-0.74969095,0.80803,-0.7262105,0.5334948,-1.9600722,1.0011566,1.1267388,0.5697597,0.11520899,0.14185147,1.2027606,0.18413152
0.1,0.0,0.9999999999999999,-0.5235987755982988,0.5235987755982988,0,-0.21790592,1.1176825,-0.7510777,0.80705816,-0.72270876,0.53420836,-1.9595848,1.0387565,1.1503369,0.6268368,0.099749364,0.00900503,1.2072641,0.18641433
0.1,0.0,0.9999999999999999,-0.5235987755982988,0.5235987755982988,0,-0.21889403,1.1185132,-0.75051016,0.80695117,-0.72342485,0.53564733,-1.962487,1.0751976,1.1271683,0.59065413,0.09535591,0.08501288,1.2032579,0.2579959
0.1,0.0,0.9999999999999999,-0.5235987755982988,0.5235987755982988,0,-0.21729563,1.1174634,-0.7496494,0.80768067,-0.7253809,0.5362085,-1.9675136,1.0360315,1.1661712,0.57211083,0.12562864,0.092305645,1.2043394,0.1966586
0.1,0.0,0.9999999999999999,-0.5235987755982988,0.5235987755982988,0,-0.2182715,1.1156641,-0.7508611,0.8087317,-0.72538555,0.5338172,-1.9671217,0.9900521,1.1321594,0.5827958,0.123970814,0.10548839,1.2235035,0.35263157
0.1,0.0,0.9999999999999999,-0.5235987755982988,0.5235987755982988,0,-0.2196642,1.1173962,-0.7506201,0.8080202,-0.7265604,0.53471273,-1.9692585,1.0510509,1.1238176,0.6182159,0.09972564,0.09859203,1.180275,0.12983505
0.1,0.0,0.9999999999999999,-0.5235987755982988,0.5235987755982988,0,-0.2195554,1.1185662,-0.75047624,0.808132,-0.7236691,0.5335449,-1.9757851,1.0278414,1.2088517,0.5768192,0.13223232,0.030710485,1.2211823,0.3560703
0.1,0.0,0.9999999999999999,-0.5235987755982988,0.5235987755982988,0,-0.21937822,1.1183661,-0.75066566,0.8081464,-0.72634566,0.535542,-1.9719374,1.0311717,1.1562138,0.59035254,0.07863777,0.09129787,1.2221346,0.12274276
0.1,0.0,0.9999999999999999,-0.5235987755982988,0.5235987755982988,0,-0.21940295,1.116994,-0.7487395,0.80794317,-0.7250241,0.535729,-1.9702429,1.0801939,1.1227677,0.5855626,0.10749269,0.029798234,1.2119352,0.25028166
0.1,0.0,0.9999999999999999,-0.5235987755982988,0.5235987755982988,0,-0.2173102,1.1180035,-0.75110215,0.8080207,-0.7241424,0.53489625,-1.9709098,0.9942887,1.1576513,0.635849,0.116580345,-0.010930027,1.2006651,0.11424202
0.1,0.0,0.9999999999999999,-0.5235987755982988,0.5235987755982988,0,-0.21859562,1.1179442,-0.75141376,0.80744267,-0.7271584,0.535627,-1.9731003,1.109361,1.0803815,0.57082206,0.10542577,-0.054220624,1.233747,0.12840655
0.1,0.0,0.9999999999999999,-0.5235987755982988,0.5235987755982988,0,-0.21961148,1.1178263,-0.749654,0.8077914,-0.7257693,0.5389071,-1.9534651,1.0491824,1.1554937,0.57372224,0.07836584,0.10664427,1.217767,0.121049285
0.1,0.0,0.9999999999999999,-0.5235987755982988,0.5235987755982988,0,-0.21777248,1.1179937,-0.7497642,0.8081695,-0.72743857,0.53564006,-1.9696262,1.0192761,1.1507576,0.6261348,0.113175765,0.020819837,1.1863716,0.11573331
0.1,0.0,0.9999999999999999,-0.5235987755982988,0.5235987755982988,0,-0.2190699,1.1179316,-0.7502719,0.8079797,-0.72397596,0.53656864,-1.9672836,1.1856849,1.115194,0.5555598,0.11346304,-0.013772159,1.1912599,0.25107118
0.1,0.0,0.9999999999999999,-0.5235987755982988,0.5235987755982988,0,-0.21960898,1.1173095,-0.7503803,0.80807793,-0.72271055,0.5338897,-1.9651849,0.9768248,1.1959604,0.68056226,0.09285749,0.05022701,1.2221085,0.23182984
0.1,0.0,0.9999999999999999,-0.5235987755982988,0.5235987755982988,0,-0.21993722,1.1174554,-0.75108683,0.8083772,-0.72551095,0.5339452,-1.9662935,1.0014908,1.1754794,0.62956834,0.10474249,0.097554184,1.2009238,0.17727952
0.1,0.0,0.9999999999999999,-0.5235987755982988,0.5235987755982988,0,-0.21898809,1.1177,-0.7519056,0.80777675,-0.7244392,0.53671616,-1.97605,1.0642551,1.1501073,0.55517334,0.09757656,0.14080125,1.2071187,0.1329211
0.1,0.0,0.9999999999999999,-0.5235987755982988,0.5235987755982988,0,-0.21793374,1.1189148,-0.7494311,0.808026,-0.72545934,0.53584504,-1.9643457,0.92892236,1.1987637,0.68849504,0.10389522,-0.0046259277,1.2019434,0.09110128
0.1,0.0,0.9999999999999999,-0.5235987755982988,0.5235987755982988,0,-0.21918313,1.1189524,-0.75000083,0.807949,-0.72252,0.53494036,-1.9622697,1.0150045,1.1779428,0.6128118,0.119525835,0.023842184,1.208707,0.2779821
0.1,0.0,0.9999999999999999,-0.5235987755982988,0.5235987755982988,0,-0.21814796,1.1187407,-0.7511565,0.8083135,-0.7267828,0.5355057,-1.9600368,1.0475868,1.1095271,0.5806062,0.12563452,0.078377925,1.2182889,0.18285736
0.1,0.0,0.9999999999999999,-0.5235987755982988,0.5235987755982988,0,-0.21975112,1.1156645,-0.75112563,0.807558,-0.72551286,0.53499824,-1.9624239,1.0710402,1.0860969,0.5584791,0.11375685,0.0016244199,1.2108994,0.39378184
0.1,0.0,0.9999999999999999,-0.5235987755982988,0.5235987755982988,0,-0.21913666,1.1172415,-0.75071317,0.8079056,-0.7261046,0.5348541,-1.9639122,1.1653966,1.1268197,0.55713415,0.11658781,0.03964434,1.1843524,0.3027853
0.1,0.0,0.9999999999999999,-0.5235987755982988,0.5235987755982988,0,-0.22033493,1.1186503,-0.7493701,0.80799663,-0.7258928,0.536001,-1.9666831,1.0856982,1.1227634,0.5569072,0.10877152,0.07578303,1.2335657,0.22659783
0.1,0.0,0.9999999999999999,-0.5235987755982988,0.5235987755982988,0,-0.21825077,1.1170087,-0.750678,0.80812716,-0.72506833,0.53526896,-1.9658889,1.0322253,1.151675,0.5338684,0.10063061,0.08324278,1.2092421,0.26919553
0.1,0.0,0.9999999999999999,-0.5235987755982988,0.5235987755982988,0,-0.22074603,1.1190587,-0.7506011,0.80831057,-0.7260199,0.53463614,-1.9654795,1.039107,1.1634926,0.5517687,0.11953135,0.050362352,1.2192534,0.45699456
0.1,0.0,0.9999999999999999,-0.5235987755982988,0.5235987755982988,0,-0.21745029,1.1193863,-0.7503057,0.80810136,-0.7262175,0.5354026,-1.9758546,1.094811,1.1358299,0.5333353,0.099269494,-0.03441651,1.2282772,0.3162293
0.1,0.0,0.9999999999999999,-0.5235987755982988,0.5235987755982988,0,-0.21937601,1.1182036,-0.7505189,0.8082445,-0.72768044,0.5362339,-1.9711908,0.97581244,1.1627188,0.5679097,0.09905369,0.0570124,1.2551645,0.32797495
0.1,0.0,0.9999999999999999,-0.5235987755982988,0.5235987755982988,0,-0.21834594,1.1176945,-0.7497748,0.80795777,-0.7228285,0.5338261,-1.9626734,1.0017527,1.1238494,0.53141165,0.12481753,0.020835076,1.2199967,0.4925253
0.1,0.0,0.9999999999999999,-0.5235987755982988,0.5235987755982988,0,-0.219617,1.1179098,-0.7501643,0.8078812,-0.7274934,0.53323615,-1.9603988,1.0111768,1.1409839,0.60902196,0.10952896,0.10630232,1.2285463,0.34105244
0.1,0.0,0.9999999999999999,-0.5235987755982988,0.5235987755982988,0,-0.21957944,1.1179872,-0.75064176,0.80838734,-0.72384965,0.53160447,-1.9618443,1.038339,1.107076,0.5472101,0.12131213,0.06870237,1.2056181,0.25631067
0.1,0.0,0.9999999999999999,-0.5235987755982988,0.5235987755982988,0,-0.22077467,1.117342,-0.7510058,0.80837005,-0.72449243,0.53373975,-1.9657025,1.0727756,1.1244577,0.56704515,0.11198882,-0.00869471,1.2185394,0.27017865
0.1,0.0,0.9999999999999999,-0.5235987755982988,0.5235987755982988,0,-0.22027728,1.1166507,-0.7514365,0.8080586,-0.72417396,0.53441864,-1.9630069,1.0147382,1.0671183,0.5501595,0.11394021,0.035600945,1.2193713,0.35811558
0.1,0.0,0.9999999999999999,-0.5235987755982988,0.5235987755982988,0,-0.2193361,1.1174337,-0.7508165,0.8083635,-0.7258939,0.5361421,-1.9606463,1.0196624,1.1354003,0.55324644,0.11469649,0.062179722,1.2052064,0.23710904
0.1,0.0,0.9999999999999999,-0.5235987755982988,0.5235987755982988,0,-0.21809764,1.1210167,-0.74858636,0.8079194,-0.7228698,0.53526485,-1.9609162,1.0721819,1.1125497,0.55900455,0.10425641,0.06274848,1.1803567,0.19625233
0.1,0.0,0.9999999999999999,-0.5235987755982988,0.5235987755982988,0,-0.21922694,1.1198428,-0.751806,0.80772007,-0.72671753,0.5354746,-1.9718088,1.0137975,1.1627058,0.56819373,0.07731258,0.09865847,1.2113591,0.1914617
0.1,0.0,0.9999999999999999,-0.5235987755982988,0.5235987755982988,0,-0.21977839,1.1193378,-0.75072265,0.8078443,-0.722866,0.53796893,-1.9685758,1.048599,1.170304,0.5606091,0.0835054,0.07255441,1.2138427,0.28666407
0.1,0.0,0.9999999999999999,-0.5235987755982988,0.5235987755982988,0,-0.21949147,1.1169575,-0.7512806,0.80797774,-0.72198486,0.537936,-1.9628317,1.1544696,1.1386496,0.6047467,0.103586525,-0.009173541,1.2156982,0.27144772
0.1,0.0,0.9999999999999999,-0.5235987755982988,0.5235987755982988,0,-0.21866323,1.1187023,-0.7513235,0.8078845,-0.7256936,0.535342,-1.9736171,0.94567144,1.0729241,0.61379343,0.12170478,0.10781618,1.2460365,0.06163985
0.1,0.0,0.9999999999999999,-0.5235987755982988,0.5235987755982988,0,-0.21812831,1.1182988,-0.7517342,0.80820715,-0.72656566,0.53454363,-1.9679514,1.0923513,1.0910922,0.5790927,0.09441158,-0.017705807,1.2221612,0.039458755
0.1,0.0,0.9999999999999999,-0.5235987755982988,0.5235987755982988,0,-0.21887618,1.1196562,-0.7515942,0.8081797,-0.7273486,0.53467506,-1.9739231,1.1440775,1.103897,0.48974758,0.10251049,0.11806305,1.202281,0.104701355
0.1,0.0,0.9999999999999999,-0.5235987755982988,0.5235987755982988,0,-0.21825701,1.116378,-0.7497704,0.8082684,-0.7255894,0.5358644,-1.9593065,1.0569041,1.1441052,0.55886817,0.086007535,0.004561625,1.2335364,0.025199544
0.1,0.0,0.9999999999999999,-0.5235987755982988,0.5235987755982988,0,-0.21897943,1.1186754,-0.7522183,0.80819285,-0.7247995,0.5365416,-1.9655486,1.072883,1.1243875,0.5674063,0.10149585,-0.08419246,1.2258193,0.26141387
0.1,0.0,0.9999999999999999,-0.5235987755982988,0.5235987755982988,0,-0.21752673,1.11869,-0.751067,0.80731034,-0.72255135,0.53464305,-1.9693168,1.012702,1.0559492,0.6399531,0.116029926,0.07151347,1.2114298,0.105019234
0.1,0.0,0.9999999999999999,-0.5235987755982988,0.5235987755982988,0,-0.21838886,1.1173651,-0.75115484,0.8076141,-0.72686327,0.5357225,-1.9602616,1.0199162,1.0810511,0.6186371,0.10854793,0.097131416,1.2196879,0.114816085
