sanky1234/BimanualDexCatch/isaacgymenvs/cem_results/football_pose_-0.1_0.0_1.4999999999999998_-0.5235987755982988_0.0_0_2025-05-25.csv
x,y,z,roll,pitch,yaw,robot1/joint1,robot1/joint2,robot1/joint3,robot1/joint4,robot1/joint5,robot1/joint6,robot1/joint7,robot2/joint1,robot2/joint2,robot2/joint3,robot2/joint4,robot2/joint5,robot2/joint6,robot2/joint7
-0.1,0.0,1.4999999999999998,-0.5235987755982988,0.0,0,-0.62660956,-1.3418808,0.90578485,-0.10277246,0.2478931,1.0285002,1.1772751,-0.08327341,-0.8384863,-0.12706493,0.07503425,0.043267734,1.0527103,0.71231735
-0.1,0.0,1.4999999999999998,-0.5235987755982988,0.0,0,-0.6266966,-1.3420097,0.90529907,-0.103000216,0.23290811,1.0840408,0.45011932,-0.08264431,-0.8385174,-0.09281562,0.091623895,0.048967533,1.0658091,0.8822993
-0.1,0.0,1.4999999999999998,-0.5235987755982988,0.0,0,-0.62673783,-1.3418698,0.906093,-0.094220676,0.18931879,1.0069878,1.413873,-0.08335248,-0.83838147,-0.13927244,0.072205596,0.06895881,1.1929662,1.2911819
-0.1,0.0,1.4999999999999998,-0.5235987755982988,0.0,0,-0.62693113,-1.3419408,0.9047424,-0.10279128,0.24803028,1.0308243,1.18136,-0.084108844,-0.83864003,-0.14438072,0.07426035,0.017325284,1.0578831,0.83937
-0.1,0.0,1.4999999999999998,-0.5235987755982988,0.0,0,-0.6270084,-1.3421323,0.90575516,-0.1014158,0.2018877,1.0539973,1.1745597,-0.08349953,-0.8381659,-0.12468144,0.07842741,0.046690226,1.1253456,1.1625683
-0.1,0.0,1.4999999999999998,-0.5235987755982988,0.0,0,-0.62700737,-1.3420054,0.9049141,-0.10666882,0.25423735,1.0665816,-0.18999164,-0.083627544,-0.8385202,-0.1433049,0.058878545,0.06458982,1.0961993,0.79019696
-0.1,0.0,1.4999999999999998,-0.5235987755982988,0.0,0,-0.6268144,-1.3418702,0.9050878,-0.10190951,0.20310341,1.0434297,0.3822089,-0.083641924,-0.8385401,-0.11772288,0.066533566,-0.105282016,1.0614287,1.2596833
-0.1,0.0,1.4999999999999998,-0.5235987755982988,0.0,0,-0.6267075,-1.3419384,0.90560704,-0.10293136,0.26001164,1.0567291,-0.019733647,-0.08268612,-0.8383063,-0.15189232,0.050598428,0.114751376,0.9834032,1.2020694
-0.1,0.0,1.4999999999999998,-0.5235987755982988,0.0,0,-0.6268444,-1.341992,0.9053848,-0.099342026,0.2717043,1.0520611,0.77547115,-0.08350113,-0.83869135,-0.16153172,0.03469349,-0.15206233,1.1125181,0.5937505
-0.1,0.0,1.4999999999999998,-0.5235987755982988,0.0,0,-0.6269261,-1.3419803,0.90466446,-0.101365015,0.2658423,1.060914,-0.28966293,-0.08391868,-0.83853465,-0.11839574,0.072007075,0.09781867,1.1144513,0.73154193
-0.1,0.0,1.4999999999999998,-0.5235987755982988,0.0,0,-0.6269467,-1.342039,0.90535146,-0.0887889,0.29197592,1.0397526,-0.16116792,-0.0832924,-0.8386044,-0.13567963,0.061753154,0.11882051,1.1575478,1.2342564
-0.1,0.0,1.4999999999999998,-0.5235987755982988,0.0,0,-0.6268136,-1.3417714,0.90521485,-0.106760174,0.19789183,1.0260549,-1.067175,-0.083435856,-0.8384801,-0.13587461,0.07061887,-0.065411076,1.0117224,1.4452131
-0.1,0.0,1.4999999999999998,-0.5235987755982988,0.0,0,-0.62700063,-1.3419924,0.9049321,-0.106300846,0.29852805,1.0166477,1.2211479,-0.08376245,-0.8384433,-0.0963014,0.09206848,-0.10497694,1.0486238,0.51090103
-0.1,0.0,1.4999999999999998,-0.5235987755982988,0.0,0,-0.6269459,-1.3418769,0.9048299,-0.10116733,0.27503988,1.0437783,-0.6171793,-0.083378725,-0.8387418,-0.15844432,0.069755666,0.08694099,1.1230983,1.6420875
-0.1,0.0,1.4999999999999998,-0.5235987755982988,0.0,0,-0.626936,-1.3419012,0.90512794,-0.093232594,0.23851465,1.0261865,0.37500525,-0.08370862,-0.83881193,-0.103450716,0.10614556,0.13240391,1.1121533,0.86239976
-0.1,0.0,1.4999999999999998,-0.5235987755982988,0.0,0,-0.62684584,-1.3419882,0.9050125,-0.0994277,0.2720635,1.030763,-0.578858,-0.083118774,-0.8381963,-0.07324399,0.07307191,-0.057605658,1.1116023,1.3005471
-0.1,0.0,1.4999999999999998,-0.5235987755982988,0.0,0,-0.62694114,-1.3419039,0.9055623,-0.0966448,0.29307944,1.0513898,-0.06273349,-0.08363236,-0.83883107,-0.114291735,0.06035284,0.05029386,1.1751026,1.3312377
-0.1,0.0,1.4999999999999998,-0.5235987755982988,0.0,0,-0.6271704,-1.3419647,0.9045587,-0.104516104,0.27714822,1.0794188,0.24370794,-0.08308885,-0.83847594,-0.10755064,0.07976422,0.13133492,1.0553204,1.6391255
-0.1,0.0,1.4999999999999998,-0.5235987755982988,0.0,0,-0.626976,-1.3419288,0.9048033,-0.10070345,0.21539769,1.0888269,-0.35120243,-0.08401932,-0.8388303,-0.094425626,0.019056601,-0.04849934,1.0255859,0.98515165
-0.1,0.0,1.4999999999999998,-0.5235987755982988,0.0,0,-0.6268426,-1.3419341,0.90527606,-0.09640947,0.2563486,1.0166034,-0.9111181,-0.083372004,-0.83857936,-0.14789413,0.06147808,0.09511324,1.0118011,1.0304891
-0.1,0.0,1.4999999999999998,-0.5235987755982988,0.0,0,-0.6268648,-1.3420554,0.9056555,-0.1093327,0.18222341,1.0534607,1.1766559,-0.08349301,-0.8382226,-0.106356114,0.06563339,0.11722996,1.1470503,0.43627104
-0.1,0.0,1.4999999999999998,-0.5235987755982988,0.0,0,-0.626843,-1.3419617,0.9052299,-0.10025037,0.29550478,0.98556006,0.15057613,-0.0832213,-0.83847964,-0.063096344,0.09202266,0.082232766,1.075139,0.4810618
-0.1,0.0,1.4999999999999998,-0.5235987755982988,0.0,0,-0.62689155,-1.342024,0.90516764,-0.09827726,0.27658883,1.1072162,-0.46705264,-0.08455091,-0.83857375,-0.13269764,0.08878494,-0.10826423,1.0844706,1.2807386
-0.1,0.0,1.4999999999999998,-0.5235987755982988,0.0,0,-0.62667686,-1.341774,0.90490687,-0.09612102,0.24926813,1.0617247,-1.1389419,-0.08320553,-0.8386221,-0.040584795,0.03674547,0.14839785,1.0140171,0.73242795
-0.1,0.0,1.4999999999999998,-0.5235987755982988,0.0,0,-0.6272292,-1.3418943,0.9055209,-0.10586586,0.2872019,0.9939611,-0.8357681,-0.083418526,-0.8386229,-0.1198111,0.051001713,-0.038955588,1.0610106,0.8604773
-0.1,0.0,1.4999999999999998,-0.5235987755982988,0.0,0,-0.6270434,-1.341977,0.9054256,-0.10322319,0.24430247,1.0585,-0.46497175,-0.084084414,-0.83850116,-0.13192058,0.07379719,-0.10918493,1.1374475,1.1011583
-0.1,0.0,1.4999999999999998,-0.5235987755982988,0.0,0,-0.6268794,-1.3419223,0.9046435,-0.09809474,0.28253123,1.0249066,-0.6681288,-0.082634374,-0.83831674,-0.11523309,0.028200865,-0.01703128,1.1224868,1.2096428
-0.1,0.0,1.4999999999999998,-0.5235987755982988,0.0,0,-0.6271161,-1.3419912,0.9055906,-0.11231614,0.21625735,1.0396323,0.025936479,-0.084117256,-0.83864766,-0.1283228,0.06976383,-0.14990446,1.1769801,0.75629324
-0.1,0.0,1.4999999999999998,-0.5235987755982988,0.0,0,-0.6271118,-1.3420428,0.90490633,-0.085957825,0.24152513,1.059143,-0.51752496,-0.08391266,-0.838099,-0.089380324,0.047300924,0.05798847,1.0821921,1.5468935
-0.1,0.0,1.4999999999999998,-0.5235987755982988,0.0,0,-0.62676847,-1.3419273,0.90539366,-0.10302959,0.2522678,1.0640941,0.17263973,-0.0835836,-0.8387731,-0.10724389,0.049648818,-0.03779848,1.0339195,0.60060084
-0.1,0.0,1.4999999999999998,-0.5235987755982988,0.0,0,-0.62665516,-1.3419309,0.90523595,-0.10064879,0.32062054,1.0155784,0.10094355,-0.08331078,-0.8385973,-0.13069287,0.09534149,0.049539648,1.0556933,0.8982425
-0.1,0.0,1.4999999999999998,-0.5235987755982988,0.0,0,-0.62663835,-1.3420168,0.9053454,-0.10466045,0.24591072,1.0603245,0.9494309,-0.082427025,-0.83810085,-0.09379596,0.047447,-0.014010895,1.1055883,1.337543
-0.1,0.0,1.4999999999999998,-0.5235987755982988,0.0,0,-0.6268593,-1.3418192,0.90552616,-0.10813979,0.27083173,1.0649527,0.6043511,-0.08307677,-0.83870256,-0.08983848,0.08726306,-0.07651462,1.0491142,1.0586648
-0.1,0.0,1.4999999999999998,-0.5235987755982988,0.0,0,-0.62693,-1.3418082,0.9045068,-0.114209756,0.26742744,1.0621681,0.068934225,-0.08259954,-0.83843684,-0.11797376,0.05186807,0.09137044,1.0640624,0.50959957
-0.1,0.0,1.4999999999999998,-0.5235987755982988,0.0,0,-0.62685347,-1.3418859,0.9050878,-0.103423305,0.2298446,1.0149442,-0.51287353,-0.08336975,-0.8388172,-0.088484816,0.064079195,0.13100857,1.1383696,0.8616813
-0.1,0.0,1.4999999999999998,-0.5235987755982988,0.0,0,-0.62682295,-1.3420198,0.90558445,-0.09584659,0.2827488,1.025153,1.2632899,-0.0842815,-0.8388112,-0.12438987,0.07263681,0.21858859,1.1560175,1.0218482
-0.1,0.0,1.4999999999999998,-0.5235987755982988,0.0,0,-0.6268236,-1.3418834,0.9057006,-0.09815825,0.22305837,1.0271734,-1.7053846,-0.083266534,-0.8387053,-0.14125393,0.087074496,0.08575365,1.0575637,1.1555539
-0.1,0.0,1.4999999999999998,-0.5235987755982988,0.0,0,-0.626731,-1.3418571,0.9055981,-0.0915154,0.28365493,1.084333,-0.72731215,-0.08394951,-0.83875775,-0.10723142,0.07574607,0.13166341,1.1111168,0.583709
-0.1,0.0,1.4999999999999998,-0.5235987755982988,0.0,0,-0.62714636,-1.3419316,0.90592164,-0.096616335,0.2294014,1.0750251,-0.52278405,-0.08373879,-0.8388074,-0.09316665,0.061127003,-0.05108151,1.0863907,0.98064744
-0.1,0.0,1.4999999999999998,-0.5235987755982988,0.0,0,-0.6267385,-1.3419545,0.9050545,-0.10297396,0.2917176,1.0574754,0.055487584,-0.083538674,-0.8387663,-0.09567457,0.08264283,0.21531333,1.1353304,0.9239802
-0.1,0.0,1.4999999999999998,-0.5235987755982988,0.0,0,-0.6268775,-1.3419977,0.9058281,-0.10041018,0.2633161,1.0527003,-1.4782019,-0.08399997,-0.8383237,-0.1388909,0.049328707,-0.08818169,1.1192961,0.82278323
-0.1,0.0,1.4999999999999998,-0.5235987755982988,0.0,0,-0.6270079,-1.3418881,0.90547025,-0.0956885,0.26564893,1.041103,-0.31336188,-0.08341639,-0.8383261,-0.10784211,0.062073357,0.005421455,1.1284326,1.0232095
-0.1,0.0,1.4999999999999998,-0.5235987755982988,0.0,0,-0.6269372,-1.3420882,0.90514636,-0.10660154,0.23918092,1.0582495,0.7171002,-0.08380029,-0.83844066,-0.10322435,0.045273136,0.08234335,1.1235626,0.48362723
-0.1,0.0,1.4999999999999998,-0.5235987755982988,0.0,0,-0.62677515,-1.3419317,0.90539557,-0.1024418,0.24699691,1.0228598,-0.53859746,-0.08455349,-0.83896595,-0.07873263,0.106122635,0.0077627543,1.1044385,1.2523268
-0.1,0.0,1.4999999999999998,-0.5235987755982988,0.0,0,-0.6267269,-1.3418912,0.9053077,-0.094746344,0.30994686,1.0163714,1.6171753,-0.08334017,-0.8385096,-0.11780005,0.0220301,-0.19807458,1.1748706,1.1657109
-0.1,0.0,1.4999999999999998,-0.5235987755982988,0.0,0,-0.6269916,-1.3419197,0.9053024,-0.1046386,0.23670413,1.0272453,0.53349316,-0.083855934,-0.83861196,-0.12806396,0.07473166,-0.15494393,1.1208053,0.71204096
-0.1,0.0,1.4999999999999998,-0.5235987755982988,0.0,0,-0.62699586,-1.3418869,0.9056755,-0.096242435,0.33194283,1.0277526,0.6139902,-0.083507955,-0.8387535,-0.10535042,0.0849702,-0.025987344,1.1148167,0.3777563
-0.1,0.0,1.4999999999999998,-0.5235987755982988,0.0,0,-0.6268887,-1.3418274,0.9056974,-0.097521394,0.28214878,1.0040689,0.2280371,-0.08353771,-0.8388468,-0.07064172,0.09025256,-0.175538,1.0679715,1.2627692
-0.1,0.0,1.4999999999999998,-0.5235987755982988,0.0,0,-0.6266354,-1.3419896,0.904764,-0.09638814,0.21750177,1.0426213,-0.62938046,-0.08374901,-0.8385713,-0.11559979,0.06832148,0.017285993,1.1447829,1.4639035
-0.1,0.0,1.4999999999999998,-0.5235987755982988,0.0,0,-0.6267412,-1.342207,0.9052267,-0.091547124,0.30259475,1.086395,0.0044027274,-0.08308255,-0.8389055,-0.08668847,0.061709758,0.022358788,1.0593461,0.8171406
-0.1,0.0,1.4999999999999998,-0.5235987755982988,0.0,0,-0.6266985,-1.3420153,0.90553296,-0.094522454,0.30670348,1.0694635,-0.6714834,-0.08285011,-0.8385909,-0.09730402,0.05666187,0.014502992,1.1191219,0.9069546
-0.1,0.0,1.4999999999999998,-0.5235987755982988,0.0,0,-0.62665004,-1.3420204,0.9051728,-0.09616498,0.28676048,1.0870827,-0.26306668,-0.08323956,-0.83818614,-0.16951706,0.09093663,0.18539156,1.1154993,0.9252352
-0.1,0.0,1.4999999999999998,-0.5235987755982988,0.0,0,-0.62690306,-1.3419964,0.9060408,-0.10655047,0.24432735,1.0407143,-0.20310724,-0.08342386,-0.8384002,-0.12599874,0.056008663,0.048526105,1.0687777,1.2712965
-0.1,0.0,1.4999999999999998,-0.5235987755982988,0.0,0,-0.62676847,-1.3418671,0.9056012,-0.095941834,0.25906554,1.0638847,0.36038613,-0.0831162,-0.83820343,-0.12915656,0.09140462,0.09944884,1.14984,0.35279113
-0.1,0.0,1.4999999999999998,-0.5235987755982988,0.0,0,-0.6269566,-1.341882,0.9053437,-0.09774132,0.2506166,1.0204575,0.0980388,-0.08360855,-0.83885264,-0.1109196,0.08040794,0.035657674,1.1538361,1.0685854
-0.1,0.0,1.4999999999999998,-0.5235987755982988,0.0,0,-0.62680924,-1.3419297,0.90546715,-0.09347035,0.3211351,1.0562426,-0.9765957,-0.083855934,-0.8384463,-0.14375754,0.056391057,0.027635694,0.97318226,1.0244682
-0.1,0.0,1.4999999999999998,-0.5235987755982988,0.0,0,-0.6266928,-1.3420519,0.9057157,-0.09179024,0.2478591,1.0509053,1.3403591,-0.08383369,-0.838485,-0.13992965,0.10446679,-0.077349715,1.080239,0.80865544
-0.1,0.0,1.4999999999999998,-0.5235987755982988,0.0,0,-0.62673587,-1.3419591,0.90568656,-0.11120662,0.23166189,1.0305493,-0.41388676,-0.083188005,-0.8387943,-0.06921063,0.11637625,0.034451507,1.1252185,1.2214595
-0.1,0.0,1.4999999999999998,-0.5235987755982988,0.0,0,-0.62724113,-1.3420674,0.90612465,-0.10370668,0.2980342,1.0424025,-0.45249164,-0.08402591,-0.838638,-0.116958976,0.0897819,-0.04787598,1.0908201,0.8570171
-0.1,0.0,1.4999999999999998,-0.5235987755982988,0.0,0,-0.6268674,-1.3418459,0.90591365,-0.098446324,0.22980966,1.0450794,0.99279505,-0.08374178,-0.83844715,-0.12654047,0.07998413,0.008321534,1.116438,0.782326
-0.1,0.0,1.4999999999999998,-0.5235987755982988,0.0,0,-0.62701255,-1.3419129,0.9054991,-0.10275187,0.24435264,1.029886,0.8035258,-0.08344552,-0.8388214,-0.11157346,0.101754256,0.022293558,1.0859231,0.733829
-0.1,0.0,1.4999999999999998,-0.5235987755982988,0.0,0,-0.6269551,-1.3419132,0.9052069,-0.11277048,0.24027766,1.0386707,-0.78044385,-0.08418423,-0.8388818,-0.108991355,0.09848942,0.0529977,1.1094553,1.326762
-0.1,0.0,1.4999999999999998,-0.5235987755982988,0.0,0,-0.6270003,-1.3419421,0.90513736,-0.102351695,0.31766424,1.0508549,0.4291279,-0.084496334,-0.8387348,-0.09678452,0.07321794,-0.057608876,0.9701437,0.69900376
-0.1,0.0,1.4999999999999998,-0.5235987755982988,0.0,0,-0.62678397,-1.3420465,0.9063443,-0.09962161,0.26571405,1.0742276,1.1173803,-0.08339059,-0.8384445,-0.1311528,0.063412786,-0.00059615314,1.0613403,1.0643276
-0.1,0.0,1.4999999999999998,-0.5235987755982988,0.0,0,-0.6270934,-1.3419287,0.9040939,-0.10960895,0.26765114,1.0637041,-0.29638568,-0.08366564,-0.8386884,-0.106530905,0.07239535,0.11653639,1.1464877,0.80569714
-0.1,0.0,1.4999999999999998,-0.5235987755982988,0.0,0,-0.62679183,-1.3420318,0.90540594,-0.09640068,0.26306725,1.0629588,-0.5258512,-0.084379345,-0.83857775,-0.10878618,0.038625382,-0.07686283,1.1057062,0.98834085
-0.1,0.0,1.4999999999999998,-0.5235987755982988,0.0,0,-0.6266737,-1.3419245,0.9046737,-0.10194158,0.25751927,1.0130441,0.21612222,-0.083963454,-0.8384969,-0.098463595,0.024168795,-0.053233854,1.0724115,1.1967471
-0.1,0.0,1.4999999999999998,-0.5235987755982988,0.0,0,-0.62717974,-1.342056,0.905235,-0.10496267,0.2543171,1.063504,-0.070261806,-0.08338547,-0.8385492,-0.09791234,0.09654835,-0.099441126,1.1133003,1.5602369
-0.1,0.0,1.4999999999999998,-0.5235987755982988,0.0,0,-0.62706435,-1.3418015,0.90510166,-0.09087595,0.26449212,0.98998284,0.18274666,-0.08288403,-0.83820146,-0.13740325,0.04905006,-0.049213674,1.0816154,1.2057256
-0.1,0.0,1.4999999999999998,-0.5235987755982988,0.0,0,-0.62715334,-1.3417379,0.9052555,-0.103703395,0.26233545,1.0517889,1.6230224,-0.08330905,-0.838728,-0.08448365,0.07313047,-0.046895623,1.1509929,0.86916935
-0.1,0.0,1.4999999999999998,-0.5235987755982988,0.0,0,-0.62669724,-1.3419547,0.90500087,-0.102355994,0.3256874,1.0578271,1.1942272,-0.08294882,-0.8385195,-0.077659704,0.064908326,0.057128042,1.0771451,0.9195293
-0.1,0.0,1.4999999999999998,-0.5235987755982988,0.0,0,-0.6269212,-1.3418943,0.9046843,-0.09795052,0.2896321,1.0383947,0.32539928,-0.08390624,-0.8384621,-0.099235155,0.050443802,-0.02856172,1.1061461,1.3970405
-0.1,0.0,1.4999999999999998,-0.5235987755982988,0.0,0,-0.62653154,-1.3419657,0.90512246,-0.097499736,0.23095542,1.0626137,-0.08945655,-0.083564,-0.8387096,-0.08957934,0.059464667,-0.01976729,1.1014849,1.3813996
-0.1,0.0,1.4999999999999998,-0.5235987755982988,0.0,0,-0.6269374,-1.3420876,0.90532345,-0.10054577,0.27299368,1.0835934,0.258352,-0.08332039,-0.8388821,-0.08153278,0.07023246,0.08262222,1.134586,0.5959654
-0.1,0.0,1.4999999999999998,-0.5235987755982988,0.0,0,-0.6268867,-1.3418919,0.90499705,-0.099084325,0.29492486,1.0416685,0.09566001,-0.083233796,-0.8385884,-0.1753268,0.07141763,-0.033983078,1.1076732,0.88705236
-0.1,0.0,1.4999999999999998,-0.5235987755982988,0.0,0,-0.62684786,-1.341846,0.9058212,-0.10039522,0.31676236,1.0533172,0.29062873,-0.082967915,-0.8387079,-0.14253363,0.08184654,0.0350135,1.067402,0.7087123
-0.1,0.0,1.4999999999999998,-0.5235987755982988,0.0,0,-0.6271234,-1.3420267,0.9059761,-0.105689146,0.24966897,1.0349773,-0.5317144,-0.08393681,-0.83898824,-0.054243196,0.06720396,-0.016716337,1.0779029,0.6767974
-0.1,0.0,1.4999999999999998,-0.5235987755982988,0.0,0,-0.626976,-1.341983,0.9052679,-0.100043096,0.2747464,1.1096171,0.71365106,-0.08293307,-0.83864087,-0.14701955,0.10537249,0.101437174,1.0770559,0.87429035
-0.1,0.0,1.4999999999999998,-0.5235987755982988,0.0,0,-0.6267356,-1.341888,0.9050475,-0.09879163,0.2617898,1.0454288,0.012469812,-0.083774574,-0.8389408,-0.12243928,0.0606531,0.0721959,1.11054,0.6657818
-0.1,0.0,1.4999999999999998,-0.5235987755982988,0.0,0,-0.6267687,-1.3418723,0.90508294,-0.11079624,0.23348148,1.0405812,-0.2819946,-0.08323868,-0.83860904,-0.12466736,0.04966324,0.10723679,1.095342,0.64895827
-0.1,0.0,1.4999999999999998,-0.5235987755982988,0.0,0,-0.6268962,-1.341991,0.9054255,-0.10225766,0.26705056,1.0501901,-0.20351015,-0.08378404,-0.8385683,-0.10915318,0.10009198,0.05565966,0.99087274,1.6049474
-0.1,0.0,1.4999999999999998,-0.5235987755982988,0.0,0,-0.62685734,-1.3418655,0.9062118,-0.100415304,0.22525321,1.0122225,-1.1142588,-0.08356952,-0.8388283,-0.10427092,0.06478789,0.004550117,1.1474696,0.95562756
-0.1,0.0,1.4999999999999998,-0.5235987755982988,0.0,0,-0.62702996,-1.3419862,0.9051715,-0.09950857,0.23801914,1.0596635,1.7146375,-0.08326719,-0.83854115,-0.1363089,0.07579078,-0.047140896,1.0403911,0.45668152
-0.1,0.0,1.4999999999999998,-0.5235987755982988,0.0,0,-0.6266395,-1.3420616,0.90594304,-0.09981813,0.25194386,1.0705568,-0.31119937,-0.08309296,-0.8386964,-0.108236454,0.09383539,0.030277131,1.1114842,1.2330624
-0.1,0.0,1.4999999999999998,-0.5235987755982988,0.0,0,-0.6270531,-1.3419065,0.9051048,-0.11365331,0.23376004,1.0513104,0.032774795,-0.082954615,-0.83870965,-0.052629966,0.05372637,-0.070783004,1.1226282,1.0357162
-0.1,0.0,1.4999999999999998,-0.5235987755982988,0.0,0,-0.62688714,-1.3421258,0.90517807,-0.10205441,0.25877756,1.0921361,1.1011028,-0.08370629,-0.8384377,-0.12859786,0.04115796,-0.050271526,1.1740882,0.8914563
-0.1,0.0,1.4999999999999998,-0.5235987755982988,0.0,0,-0.6268913,-1.3419491,0.9056716,-0.11426803,0.24770421,1.0775707,0.80341876,-0.084359385,-0.8387851,-0.12531526,0.06328349,-0.12721176,1.1107925,0.74722004
-0.1,0.0,1.4999999999999998,-0.5235987755982988,0.0,0,-0.6274162,-1.3418081,0.9054346,-0.1001773,0.27492616,1.0763186,0.50865287,-0.083179824,-0.83846503,-0.090238184,0.065497026,-0.14300326,1.0653263,0.9375357
-0.1,0.0,1.4999999999999998,-0.5235987755982988,0.0,0,-0.62691474,-1.3419876,0.90546197,-0.10046941,0.26822025,1.0462034,0.65322316,-0.08307044,-0.8385438,-0.10759489,0.07753274,0.13932924,1.0375448,1.0633352
-0.1,0.0,1.4999999999999998,-0.5235987755982988,0.0,0,-0.6268919,-1.3418055,0.90577114,-0.1049183,0.2571261,0.9945376,-0.6366118,-0.0842245,-0.8386523,-0.13340184,0.07366047,-0.019702103,1.0684919,0.8519869
-0.1,0.0,1.4999999999999998,-0.5235987755982988,0.0,0,-0.62678564,-1.3419938,0.9051202,-0.10028507,0.27412882,1.0342388,0.4141534,-0.0829074,-0.83878094,-0.07271228,0.04925436,-0.12521577,1.0713122,0.5227819
-0.1,0.0,1.4999999999999998,-0.5235987755982988,0.0,0,-0.6267367,-1.3419621,0.9052104,-0.100053765,0.2604723,1.0884545,1.0007937,-0.08306457,-0.83855754,-0.11284034,0.047918115,0.09147528,1.144431,1.0325137
-0.1,0.0,1.4999999999999998,-0.5235987755982988,0.0,0,-0.62671083,-1.3419131,0.90531665,-0.10458957,0.18602332,1.0515515,-0.21226135,-0.08344131,-0.8388332,-0.18479978,0.048597816,-0.069794826,1.0645317,1.4493109
-0.1,0.0,1.4999999999999998,-0.5235987755982988,0.0,0,-0.6270215,-1.3419687,0.9046608,-0.09907081,0.280995,1.0137002,0.34224626,-0.083779745,-0.83882296,-0.11804129,0.051254895,-0.05245321,1.1024059,0.9303843
-0.1,0.0,1.4999999999999998,-0.5235987755982988,0.0,0,-0.6267691,-1.342062,0.9053601,-0.08602422,0.26450953,1.032457,-0.5329466,-0.08343274,-0.83834094,-0.113321275,0.074732386,-0.15429665,1.0566404,0.37300345
-0.1,0.0,1.4999999999999998,-0.5235987755982988,0.0,0,-0.62674963,-1.3419377,0.9055124,-0.104376264,0.23606943,1.0652775,0.1021361,-0.08268608,-0.8385021,-0.16326985,0.084470965,0.0673676,1.0977749,1.2670518
-0.1,0.0,1.4999999999999998,-0.5235987755982988,0.0,0,-0.62701875,-1.3419279,0.9046517,-0.1070836,0.27712476,1.0779655,-0.22197601,-0.083652854,-0.8384136,-0.12377106,0.074273944,-0.21693352,1.0901836,0.9086595
-0.1,0.0,1.4999999999999998,-0.5235987755982988,0.0,0,-0.6267498,-1.3418001,0.90475416,-0.11130802,0.20062405,1.0287131,-0.7934647,-0.08276901,-0.838607,-0.15564553,0.06474078,-0.04070691,1.0509502,0.8592031
-0.1,0.0,1.4999999999999998,-0.5235987755982988,0.0,0,-0.6268879,-1.3420515,0.9059979,-0.111777835,0.23045886,1.0188824,-0.54102856,-0.08316329,-0.83858025,-0.10996519,0.03865736,-0.10700967,1.089094,0.9903004
-0.1,0.0,1.4999999999999998,-0.5235987755982988,0.0,0,-0.62702477,-1.3418784,0.9050318,-0.10469336,0.24995597,1.0663801,1.6858304,-0.08413083,-0.8386445,-0.1345826,0.037510823,-0.1093189,1.0909724,0.96320313
-0.1,0.0,1.4999999999999998,-0.5235987755982988,0.0,0,-0.62677,-1.341977,0.9056751,-0.10794359,0.19679767,1.0459156,0.60287213,-0.08327566,-0.8385193,-0.12751237,0.060944665,-0.13248548,1.0508852,0.46072206
-0.1,0.0,1.4999999999999998,-0.5235987755982988,0.0,0,-0.6266448,-1.3418711,0.9047406,-0.10411559,0.23439607,1.0651307,-0.1242155,-0.084550865,-0.83874315,-0.05114794,0.011783002,-0.10125944,1.0874485,1.0595475
-0.1,0.0,1.4999999999999998,-0.5235987755982988,0.0,0,-0.6269752,-1.3418629,0.9046774,-0.09579844,0.2755424,1.0542669,-0.63378114,-0.084051155,-0.8386295,-0.14333338,0.04736588,0.03636666,1.0750041,0.7607218
-0.1,0.0,1.4999999999999998,-0.5235987755982988,0.0,0,-0.6268006,-1.3418139,0.90494674,-0.097789735,0.27741826,1.0479788,0.47076085,-0.08332267,-0.83877987,-0.11132157,0.04835647,0.037136026,1.0763534,1.2792087
-0.1,0.0,1.4999999999999998,-0.5235987755982988,0.0,0,-0.62671417,-1.3418065,0.9053214,-0.100772984,0.25141928,1.0904,-0.31304553,-0.08241234,-0.8382742,-0.15178974,0.038922343,-0.03386948,1.0872915,0.10100479
-0.1,0.0,1.4999999999999998,-0.5235987755982988,0.0,0,-0.6270169,-1.3419925,0.90557534,-0.09253371,0.25199232,1.0363331,0.42743516,-0.08381117,-0.8389193,-0.15406904,0.061017014,-0.11111211,1.1040704,1.1878604
-0.1,0.0,1.4999999999999998,-0.5235987755982988,0.0,0,-0.6266597,-1.3418899,0.9045421,-0.09968353,0.18647957,1.0034184,-0.88788307,-0.0830264,-0.8386848,-0.13844183,0.048842974,-0.16660821,1.1319294,1.5166976
-0.1,0.0,1.4999999999999998,-0.5235987755982988,0.0,0,-0.6268931,-1.3419857,0.90516967,-0.108235314,0.23301436,1.0647187,0.6367368,-0.08313114,-0.83844733,-0.11694467,0.06461856,0.07181276,1.0503505,0.8874459
-0.1,0.0,1.4999999999999998,-0.5235987755982988,0.0,0,-0.62707317,-1.3420858,0.90501446,-0.10013891,0.27269673,1.1367446,-0.021712774,-0.083344854,-0.8386062,-0.06408684,0.072907306,0.09278566,1.027467,0.42923194
-0.1,0.0,1.4999999999999998,-0.5235987755982988,0.0,0,-0.6268778,-1.3418375,0.90545946,-0.09355425,0.27070045,1.0685041,1.2221664,-0.083539516,-0.8384537,-0.13375996,0.060978383,-0.043728784,1.0742968,1.5472243
-0.1,0.0,1.4999999999999998,-0.5235987755982988,0.0,0,-0.6269134,-1.3419532,0.9065193,-0.10141564,0.2395467,1.061222,-0.18721415,-0.08364509,-0.8384334,-0.11720757,0.072789066,-0.004057454,1.0730535,0.47749108
-0.1,0.0,1.4999999999999998,-0.5235987755982988,0.0,0,-0.62680054,-1.3418366,0.9046101,-0.10847462,0.25253958,1.0336536,0.77117884,-0.08418076,-0.8388284,-0.09929421,0.07604353,0.09941783,1.0811542,1.4784615
-0.1,0.0,1.4999999999999998,-0.5235987755982988,0.0,0,-0.6271044,-1.3419989,0.9058154,-0.10294767,0.30000958,1.0665178,0.010154855,-0.08367065,-0.8386644,-0.14214572,0.09004939,0.13055404,1.0814482,0.9199343
-0.1,0.0,1.4999999999999998,-0.5235987755982988,0.0,0,-0.6266643,-1.3418941,0.9046862,-0.10755445,0.22456098,1.0671787,-0.13659619,-0.08330026,-0.8387225,-0.14106892,0.07261952,-0.1091577,1.0488077,1.2054664
-0.1,0.0,1.4999999999999998,-0.5235987755982988,0.0,0,-0.62660533,-1.3418971,0.905421,-0.09461175,0.307939,1.0342776,0.35482052,-0.08344378,-0.83876926,-0.0673838,0.024785973,-0.023016667,1.0793774,0.78034073
-0.1,0.0,1.4999999999999998,-0.5235987755982988,0.0,0,-0.62690675,-1.3419205,0.90546954,-0.09417804,0.21777368,1.031086,-0.05176843,-0.08244562,-0.83856773,-0.09953449,0.0979658,0.048174467,1.120397,0.43863413
-0.1,0.0,1.4999999999999998,-0.5235987755982988,0.0,0,-0.62680435,-1.3418217,0.90503144,-0.107743084,0.28194568,1.084659,0.0034034061,-0.08399097,-0.8386204,-0.1138893,0.06543076,0.15476297,1.0166794,0.8815526
-0.1,0.0,1.4999999999999998,-0.5235987755982988,0.0,0,-0.62653655,-1.341997,0.90549433,-0.1046286,0.2431685,1.0551808,0.68356735,-0.083628275,-0.83865905,-0.08170165,0.057164922,-0.1621783,1.0792716,0.26317626
-0.1,0.0,1.4999999999999998,-0.5235987755982988,0.0,0,-0.6267104,-1.3418903,0.9053161,-0.0946309,0.26271403,1.0336206,0.7257677,-0.084535226,-0.83895725,-0.09609941,0.03364316,-0.109008305,1.0831387,1.4817635
-0.1,0.0,1.4999999999999998,-0.5235987755982988,0.0,0,-0.62708074,-1.3418165,0.9052636,-0.0988208,0.27578074,1.0437106,0.68057907,-0.082972884,-0.8385919,-0.12049737,0.058457516,-0.03425368,1.1366141,0.471125
-0.1,0.0,1.4999999999999998,-0.5235987755982988,0.0,0,-0.62685597,-1.3418229,0.9057785,-0.10118528,0.3039089,1.0426848,-0.098552376,-0.083323546,-0.8389905,-0.08562277,0.048558153,0.05279521,1.1585224,0.7385151
-0.1,0.0,1.4999999999999998,-0.5235987755982988,0.0,0,-0.62705016,-1.3420209,0.9053958,-0.09265593,0.27044183,1.0428804,-0.08446358,-0.08303724,-0.8385867,-0.13135315,0.09512347,-0.039308786,1.0593209,1.4602154
-0.1,0.0,1.4999999999999998,-0.5235987755982988,0.0,0,-0.62679607,-1.3420371,0.9051413,-0.10202807,0.2018199,1.0481217,-0.8022244,-0.08329454,-0.8385482,-0.110505566,0.06927921,0.07602281,1.0521027,1.0721978
-0.1,0.0,1.4999999999999998,-0.5235987755982988,0.0,0,-0.62672406,-1.3417825,0.9049889,-0.10330126,0.30861685,1.0600079,0.98241717,-0.082524985,-0.83891654,-0.12373199,0.047201928,0.083332725,1.0878415,1.3413078
-0.1,0.0,1.4999999999999998,-0.5235987755982988,0.0,0,-0.62701833,-1.3417836,0.90497816,-0.1071406,0.22396831,1.0109732,-0.5694631,-0.083848506,-0.83918893,-0.101836234,0.048457123,0.14685123,1.0689663,0.82990086
-0.1,0.0,1.4999999999999998,-0.5235987755982988,0.0,0,-0.6267542,-1.3420514,0.9043061,-0.10875399,0.2743012,1.0592883,0.27483356,-0.08377063,-0.83862966,-0.078608215,0.06956142,0.16526191,1.0794649,1.1505328
-0.1,0.0,1.4999999999999998,-0.5235987755982988,0.0,0,-0.6267941,-1.342075,0.90542835,-0.097215176,0.24363278,1.0367378,-1.1105419,-0.08346237,-0.8382927,-0.10904311,0.07148523,0.0995068,1.0945389,1.4248846
-0.1,0.0,1.4999999999999998,-0.5235987755982988,0.0,0,-0.62704986,-1.3418729,0.9056982,-0.10349534,0.27608845,1.0282434,0.78700316,-0.08328366,-0.8390204,-0.107760884,0.058031138,-0.023577455,1.1217325,1.8599868
-0.1,0.0,1.4999999999999998,-0.5235987755982988,0.0,0,-0.62677634,-1.3420335,0.9058339,-0.10120784,0.2595335,1.0569212,-0.5203756,-0.08275809,-0.83834285,-0.13255043,0.069341265,0.10371722,1.0352826,0.7790652
-0.1,0.0,1.4999999999999998,-0.5235987755982988,0.0,0,-0.62683755,-1.3421111,0.9050413,-0.10032455,0.292251,1.0741136,1.3355578,-0.08288562,-0.83832645,-0.05929136,0.07681079,0.008464474,1.1562552,0.78199285
-0.1,0.0,1.4999999999999998,-0.5235987755982988,0.0,0,-0.627025,-1.3418454,0.9052036,-0.10335871,0.28553537,1.055431,0.5295623,-0.084344484,-0.83890307,-0.09925431,0.052483037,-0.03671137,1.0806452,1.1019086
-0.1,0.0,1.4999999999999998,-0.5235987755982988,0.0,0,-0.62677187,-1.3419905,0.9053808,-0.09342232,0.24738057,1.0310228,0.022269385,-0.084273525,-0.8386605,-0.10674089,0.048018105,-0.057190336,1.0545938,0.69504106
-0.1,0.0,1.4999999999999998,-0.5235987755982988,0.0,0,-0.6268828,-1.3418728,0.90593684,-0.105095275,0.2464658,1.0790302,1.2409009,-0.08363627,-0.83858144,-0.056990817,0.034881175,-0.0978499,1.0679293,1.1220121
-0.1,0.0,1.4999999999999998,-0.5235987755982988,0.0,0,-0.62675893,-1.3417811,0.9049748,-0.097034134,0.28726166,1.0465345,-0.44772762,-0.08317227,-0.8388758,-0.12457076,0.1029678,0.05337718,1.0738547,0.8022625
-0.1,0.0,1.4999999999999998,-0.5235987755982988,0.0,0,-0.62670827,-1.3418018,0.9050998,-0.092824444,0.25841132,1.0222299,0.2529515,-0.08271803,-0.83860046,-0.15732037,0.04814096,0.07635562,1.034121,1.4338784
-0.1,0.0,1.4999999999999998,-0.5235987755982988,0.0,0,-0.627062,-1.3418247,0.90634924,-0.101667754,0.26791653,1.0667518,-0.21697779,-0.08367308,-0.83869517,-0.06462339,0.035914555,0.05936243,1.1686401,0.40380952
-0.1,0.0,1.4999999999999998,-0.5235987755982988,0.0,0,-0.6267986,-1.3419193,0.9055914,-0.11202558,0.23294823,1.0612676,0.42791063,-0.08337234,-0.83893895,-0.12462128,0.07101169,-0.059532166,1.0655091,1.078185
-0.1,0.0,1.4999999999999998,-0.5235987755982988,0.0,0,-0.62670296,-1.3419434,0.9047453,-0.10287112,0.24278915,1.0764143,-0.42004982,-0.08343204,-0.8386636,-0.035989255,0.09734558,-0.094978675,1.1018816,1.3475562
-0.1,0.0,1.4999999999999998,-0.5235987755982988,0.0,0,-0.62686354,-1.3418993,0.9045655,-0.11382944,0.2005375,1.0627264,-0.80909735,-0.08193499,-0.8385099,-0.07660484,0.09126717,0.06442834,0.9698679,1.1592115
-0.1,0.0,1.4999999999999998,-0.5235987755982988,0.0,0,-0.6266678,-1.3419533,0.9053996,-0.09514816,0.30220425,1.068674,0.40224597,-0.08340873,-0.8385762,-0.15360303,0.022746446,0.002434448,1.0387332,0.89678085
-0.1,0.0,1.4999999999999998,-0.5235987755982988,0.0,0,-0.6267743,-1.342045,0.90543586,-0.10357218,0.20872569,1.071942,0.03900852,-0.08351262,-0.83866227,-0.0651643,0.07479131,0.030906899,1.1368716,0.79127365
-0.1,0.0,1.4999999999999998,-0.5235987755982988,0.0,0,-0.62687737,-1.3420436,0.9053056,-0.10968455,0.22751735,1.0311888,0.2952736,-0.08262741,-0.83852637,-0.122624,0.08791192,0.037085935,1.0902957,1.5331947
-0.1,0.0,1.4999999999999998,-0.5235987755982988,0.0,0,-0.62702024,-1.3420069,0.90570295,-0.098219335,0.30142835,1.1064541,-0.55395174,-0.08262425,-0.83849114,-0.12495708,0.092436135,0.16647203,1.0327092,0.7006674
-0.1,0.0,1.4999999999999998,-0.5235987755982988,0.0,0,-0.6270796,-1.3420088,0.9051963,-0.10350162,0.25177428,1.0048646,-0.23740087,-0.082867004,-0.83884627,-0.12759171,0.07155138,0.088643424,1.1608216,0.28054655
-0.1,0.0,1.4999999999999998,-0.5235987755982988,0.0,0,-0.62675506,-1.3418869,0.90454054,-0.10271191,0.27950323,1.0408148,-0.46036428,-0.08287969,-0.8387702,-0.067979254,0.07205159,-0.17708239,1.0278336,1.1209097
-0.1,0.0,1.4999999999999998,-0.5235987755982988,0.0,0,-0.6269145,-1.342028,0.9047136,-0.10047909,0.28434226,1.045753,1.7134105,-0.082737565,-0.8384776,-0.14921309,0.052297354,-0.13140519,1.1059538,1.0791248
-0.1,0.0,1.4999999999999998,-0.5235987755982988,0.0,0,-0.6270654,-1.3419874,0.9052449,-0.09599019,0.28996727,1.0637208,0.10591396,-0.082648225,-0.838618,-0.15442392,0.08385285,-0.10460529,1.0554384,0.5349728
-0.1,0.0,1.4999999999999998,-0.5235987755982988,0.0,0,-0.6266753,-1.3419051,0.90522295,-0.09923646,0.26900014,1.0711653,1.0376847,-0.083772115,-0.8390114,-0.07111095,0.07448499,0.013768841,1.0194778,0.87036693
-0.1,0.0,1.4999999999999998,-0.5235987755982988,0.0,0,-0.6268651,-1.3419989,0.9047762,-0.10293437,0.29209948,1.0397189,0.38114417,-0.0829118,-0.83862364,-0.10846757,0.101910375,-0.020732904,1.1326374,0.4142954
-0.1,0.0,1.4999999999999998,-0.5235987755982988,0.0,0,-0.6268161,-1.3419213,0.90446764,-0.09856027,0.2953244,1.0298821,0.34577283,-0.08280995,-0.83835876,-0.1144497,0.1126154,0.041289926,1.1346227,0.80125856
-0.1,0.0,1.4999999999999998,-0.5235987755982988,0.0,0,-0.6267838,-1.3419795,0.9053625,-0.097438075,0.2926469,1.0499791,0.6843502,-0.08301229,-0.8388928,-0.07838307,0.102611996,-0.016859338,1.0330195,0.62859005
-0.1,0.0,1.4999999999999998,-0.5235987755982988,0.0,0,-0.6268613,-1.3419917,0.90539134,-0.10481981,0.22736646,1.0538994,0.8407985,-0.082790166,-0.8386888,-0.14728175,0.0823789,-0.13424662,1.111129,0.4092288
-0.1,0.0,1.4999999999999998,-0.5235987755982988,0.0,0,-0.62696457,-1.3421059,0.9049923,-0.09492237,0.26849225,1.0431068,0.9441018,-0.08315982,-0.83837146,-0.14425422,0.073815994,0.008356681,1.0494976,0.69468176
-0.1,0.0,1.4999999999999998,-0.5235987755982988,0.0,0,-0.62692726,-1.3420244,0.9049383,-0.09924916,0.24629223,1.0286267,-0.39468426,-0.08354473,-0.8385986,-0.086733826,0.07303164,0.07040166,1.0986191,0.99911696
-0.1,0.0,1.4999999999999998,-0.5235987755982988,0.0,0,-0.62690324,-1.3421363,0.9054041,-0.102262475,0.2593914,0.99725187,0.8596477,-0.08189192,-0.83862084,-0.11189381,0.05974065,0.11392492,1.1097436,1.110625
-0.1,0.0,1.4999999999999998,-0.5235987755982988,0.0,0,-0.6267375,-1.3417835,0.9051694,-0.109478034,0.25981525,1.048477,1.141424,-0.083059035,-0.83874047,-0.07579642,0.06306998,0.01786085,1.1018348,0.8231618
-0.1,0.0,1.4999999999999998,-0.5235987755982988,0.0,0,-0.6269268,-1.3419263,0.9044841,-0.11704896,0.24587606,1.0690273,1.0085267,-0.082959406,-0.8389066,-0.10552998,0.08116828,0.104899615,1.0584906,1.284192
-0.1,0.0,1.4999999999999998,-0.5235987755982988,0.0,0,-0.62676126,-1.3419482,0.9046958,-0.10353668,0.27075568,1.0678383,0.9392319,-0.08201287,-0.83852214,-0.12909265,0.07731526,0.13368927,1.1219835,0.6652752
-0.1,0.0,1.4999999999999998,-0.5235987755982988,0.0,0,-0.62706614,-1.3418962,0.9056629,-0.104749285,0.23608598,1.0068277,-0.36880183,-0.082378194,-0.8383814,-0.09347203,0.098665975,-0.2688967,1.1314223,0.95094216
-0.1,0.0,1.4999999999999998,-0.5235987755982988,0.0,0,-0.6267403,-1.3420112,0.90476835,-0.09831386,0.3120048,1.0664623,1.2879354,-0.08359772,-0.8388534,-0.13333301,0.05350147,-0.11442068,1.126952,1.2736734
-0.1,0.0,1.4999999999999998,-0.5235987755982988,0.0,0,-0.6269523,-1.3419915,0.9061928,-0.09263862,0.2781753,1.0277178,0.5656756,-0.08240244,-0.8383749,-0.09917212,0.07893894,-0.22536778,1.031628,1.102595
-0.1,0.0,1.4999999999999998,-0.5235987755982988,0.0,0,-0.6269262,-1.3420023,0.9055109,-0.09689017,0.28392765,1.0645325,0.107222155,-0.083067045,-0.83866996,-0.10292746,0.0520074,0.053713825,1.1193775,0.6704415
-0.1,0.0,1.4999999999999998,-0.5235987755982988,0.0,0,-0.62682456,-1.3420696,0.90609944,-0.10341228,0.23961455,1.0819345,-0.2521634,-0.08416543,-0.8389996,-0.11741541,0.100121886,-0.04023867,1.1421869,0.7514506
-0.1,0.0,1.4999999999999998,-0.5235987755982988,0.0,0,-0.62667805,-1.3419138,0.90492684,-0.103697665,0.24108033,1.0234002,1.2742865,-0.082111344,-0.8386008,-0.10208728,0.029932637,-0.027563067,1.0339483,0.5516268
-0.1,0.0,1.4999999999999998,-0.5235987755982988,0.0,0,-0.6268241,-1.3420099,0.9063169,-0.10120365,0.2523042,1.0381069,0.44336063,-0.08317388,-0.83871984,-0.13020422,0.1091892,0.056693535,1.060195,0.43094438
-0.1,0.0,1.4999999999999998,-0.5235987755982988,0.0,0,-0.6266527,-1.3419917,0.9054012,-0.10260211,0.32037172,1.0266031,-0.2783047,-0.083146974,-0.83867997,-0.16312443,0.053094342,-0.13827024,1.1567427,1.077488
-0.1,0.0,1.4999999999999998,-0.5235987755982988,0.0,0,-0.62696433,-1.3419664,0.9059268,-0.10392027,0.27873766,1.072549,0.3648401,-0.08195371,-0.8386992,-0.16379821,0.06269016,-0.074196406,0.9961755,0.7665986
-0.1,0.0,1.4999999999999998,-0.5235987755982988,0.0,0,-0.6267605,-1.3420357,0.9054516,-0.10083262,0.33284894,1.011935,2.6478322,-0.08300382,-0.83835477,-0.087394916,0.069101796,0.045854874,1.0909054,0.5824192
-0.1,0.0,1.4999999999999998,-0.5235987755982988,0.0,0,-0.6270583,-1.3419392,0.9048612,-0.106454425,0.3392009,1.0948218,-0.13063458,-0.08265943,-0.8385981,-0.11111628,0.073825926,-0.06618919,1.1959101,1.3393371
-0.1,0.0,1.4999999999999998,-0.5235987755982988,0.0,0,-0.6270348,-1.3420491,0.90524083,-0.0984834,0.29181963,1.0114819,-0.32574347,-0.08312839,-0.83885366,-0.11137529,0.079781845,0.010051451,1.0894213,0.58934087
-0.1,0.0,1.4999999999999998,-0.5235987755982988,0.0,0,-0.6268961,-1.3420851,0.9051983,-0.09816276,0.30763787,0.99167526,0.013502142,-0.08293468,-0.83825755,-0.1322866,0.050112527,-0.1043517,1.1235275,1.394694
-0.1,0.0,1.4999999999999998,-0.5235987755982988,0.0,0,-0.62659633,-1.3419923,0.9057522,-0.099967055,0.25607294,1.0158129,-0.083441965,-0.083382435,-0.8388969,-0.13234559,0.07064505,-0.163423,1.0829753,1.0934612
-0.1,0.0,1.4999999999999998,-0.5235987755982988,0.0,0,-0.6267719,-1.342,0.90571624,-0.09820548,0.24465905,1.0436867,0.20074075,-0.083499745,-0.8387272,-0.121839926,0.0567294,0.097565226,1.0676492,0.861359
-0.1,0.0,1.4999999999999998,-0.5235987755982988,0.0,0,-0.6267403,-1.341993,0.9048209,-0.10868527,0.31629965,1.0994848,0.33807728,-0.08249964,-0.83894444,-0.15570615,0.04198102,-0.021219619,1.0733758,0.85334927
-0.1,0.0,1.4999999999999998,-0.5235987755982988,0.0,0,-0.6268504,-1.3418524,0.9055826,-0.11227543,0.2603922,1.0363027,-0.26168332,-0.0830634,-0.83878213,-0.108589076,0.07204353,0.039197728,1.065957,1.2864381
-0.1,0.0,1.4999999999999998,-0.5235987755982988,0.0,0,-0.62670046,-1.3418635,0.905146,-0.11036573,0.29118472,1.0700219,-0.14178494,-0.08316459,-0.8388605,-0.17121562,0.057938766,-0.14051147,1.1137401,1.4312484
-0.1,0.0,1.4999999999999998,-0.5235987755982988,0.0,0,-0.6269861,-1.3419465,0.90529406,-0.10877663,0.30116495,0.99253863,0.5219059,-0.08288358,-0.8385667,-0.06500046,0.08800208,-0.1278002,1.0351812,0.6061063
-0.1,0.0,1.4999999999999998,-0.5235987755982988,0.0,0,-0.6267509,-1.341953,0.9052425,-0.102697104,0.24935602,1.0215709,-0.093939394,-0.0830694,-0.83864385,-0.100677446,0.06059983,-0.12238191,1.0823935,0.59500337
-0.1,0.0,1.4999999999999998,-0.5235987755982988,0.0,0,-0.626795,-1.3420283,0.9058424,-0.101474956,0.33456263,1.0537561,-0.29702944,-0.08357285,-0.8386276,-0.12073384,0.081301,-0.06366826,1.0455401,1.6466776
-0.1,0.0,1.4999999999999998,-0.5235987755982988,0.0,0,-0.6269744,-1.3419039,0.9059809,-0.09025038,0.29395998,1.043309,0.36879918,-0.08265131,-0.83893204,-0.12669982,0.08726132,0.058975957,1.1104729,0.65361863
-0.1,0.0,1.4999999999999998,-0.5235987755982988,0.0,0,-0.6268835,-1.3417944,0.9053682,-0.09779573,0.28319487,1.0140114,-0.10827261,-0.08224011,-0.83862525,-0.0905823,0.049332667,-0.04361727,1.0906903,1.048048
-0.1,0.0,1.4999999999999998,-0.5235987755982988,0.0,0,-0.62668324,-1.3420495,0.9049778,-0.10218534,0.27738702,1.0380075,0.09401446,-0.08204974,-0.83862275,-0.124520406,0.08641365,0.0047831885,1.0324513,0.16330315
-0.1,0.0,1.4999999999999998,-0.5235987755982988,0.0,0,-0.62713563,-1.3420329,0.9056477,-0.1074602,0.29981434,1.04413,-0.68116933,-0.08272275,-0.83832365,-0.10540867,0.093499556,-0.048021067,1.1030321,0.57985973
-0.1,0.0,1.4999999999999998,-0.5235987755982988,0.0,0,-0.62669224,-1.341819,0.9053185,-0.10538087,0.20584369,1.0625434,-0.22104096,-0.083918594,-0.8388199,-0.06819663,0.04953899,-0.011760603,1.1638503,0.8105791
-0.1,0.0,1.4999999999999998,-0.5235987755982988,0.0,0,-0.62707615,-1.3421724,0.90478766,-0.106003925,0.2969017,1.0496081,-1.5487982,-0.08399561,-0.8386514,-0.10684202,0.06663336,-0.0462753,1.1309236,0.85954565
-0.1,0.0,1.4999999999999998,-0.5235987755982988,0.0,0,-0.6265697,-1.3419017,0.9048327,-0.11847575,0.25569627,1.038268,-0.36462387,-0.082839236,-0.8385993,-0.08794792,0.052338723,0.012640442,1.2043287,0.64367545
-0.1,0.0,1.4999999999999998,-0.5235987755982988,0.0,0,-0.62700546,-1.3419292,0.90517944,-0.10988599,0.24523802,1.041768,-0.55823517,-0.08225133,-0.83853394,-0.13017328,0.073393986,-0.18739346,1.0544623,1.2738593
-0.1,0.0,1.4999999999999998,-0.5235987755982988,0.0,0,-0.62684894,-1.3420174,0.90576726,-0.10989428,0.28726166,0.9981174,-0.62824756,-0.08318344,-0.8387761,-0.08863928,0.08437961,-0.05095552,1.0498126,0.20749442
-0.1,0.0,1.4999999999999998,-0.5235987755982988,0.0,0,-0.62679565,-1.3419878,0.90505666,-0.09567959,0.29867387,1.038354,0.64029354,-0.082933076,-0.8390968,-0.12525432,0.08566832,0.1573199,1.1788925,0.9652032
-0.1,0.0,1.4999999999999998,-0.5235987755982988,0.0,0,-0.6268544,-1.3418686,0.90548223,-0.10651923,0.28273085,1.0541668,1.3225627,-0.08263664,-0.8390656,-0.07598779,0.061711162,0.06115594,1.0822866,0.6406723
-0.1,0.0,1.4999999999999998,-0.5235987755982988,0.0,0,-0.6271645,-1.3420036,0.9051436,-0.10914049,0.33682454,1.0695968,0.8694043,-0.0820643,-0.83849967,-0.16642332,0.053838376,0.18494147,1.1062849,1.5074313
-0.1,0.0,1.4999999999999998,-0.5235987755982988,0.0,0,-0.6270558,-1.3418027,0.9060543,-0.10829914,0.25670224,1.0589142,0.07746419,-0.082674615,-0.8390856,-0.11315611,0.05942673,0.05718453,1.0542763,0.7713998
-0.1,0.0,1.4999999999999998,-0.5235987755982988,0.0,0,-0.62673986,-1.3418988,0.9053802,-0.10036427,0.27510345,1.0633565,0.1567876,-0.082197405,-0.83851385,-0.17388247,0.06538314,-0.027044237,1.0778778,1.1829748
-0.1,0.0,1.4999999999999998,-0.5235987755982988,0.0,0,-0.626745,-1.3419831,0.90440255,-0.0970592,0.27046543,0.9937201,-0.17456995,-0.083232544,-0.83910686,-0.12162862,0.0647186,0.0066307206,1.1659735,0.923532
-0.1,0.0,1.4999999999999998,-0.5235987755982988,0.0,0,-0.62690043,-1.3419849,0.9056198,-0.10844127,0.2610099,1.0074972,-0.100251295,-0.082756974,-0.8391029,-0.08528678,0.07594636,0.0049564284,1.1174759,0.8952636
-0.1,0.0,1.4999999999999998,-0.5235987755982988,0.0,0,-0.6266937,-1.3420185,0.905605,-0.104332976,0.25923908,1.0040288,0.13210277,-0.082579,-0.8385438,-0.12608102,0.07544468,-0.009382959,1.0803605,1.0915799
-0.1,0.0,1.4999999999999998,-0.5235987755982988,0.0,0,-0.62679124,-1.341888,0.90567094,-0.0960553,0.34405118,1.0503486,-0.17518713,-0.08330791,-0.83886653,-0.047895577,0.06175582,-0.083065294,0.98636484,0.9776569
-0.1,0.0,1.4999999999999998,-0.5235987755982988,0.0,0,-0.62678504,-1.3420098,0.90528154,-0.10378115,0.28315464,1.0684388,0.7945666,-0.083104424,-0.8386211,-0.119847246,0.08713204,0.10101742,1.0144327,1.4504741
-0.1,0.0,1.4999999999999998,-0.5235987755982988,0.0,0,-0.6268675,-1.3420696,0.90377927,-0.109455206,0.2931774,1.0638413,0.2070244,-0.083659016,-0.83870155,-0.13734867,0.06866271,-0.0017571794,1.144596,0.6602206
-0.1,0.0,1.4999999999999998,-0.5235987755982988,0.0,0,-0.62692994,-1.3418844,0.9060997,-0.10716789,0.2343857,1.0528039,0.07683436,-0.082455814,-0.83880866,-0.110468715,0.09592986,0.14145182,1.0319146,1.0311292
-0.1,0.0,1.4999999999999998,-0.5235987755982988,0.0,0,-0.6269884,-1.3421508,0.90525746,-0.11076948,0.22884178,1.0932236,0.02910208,-0.083576985,-0.8389723,-0.13166574,0.049123764,-0.1156469,1.1142212,1.1665184
-0.1,0.0,1.4999999999999998,-0.5235987755982988,0.0,0,-0.6267013,-1.3420256,0.9055009,-0.100147136,0.3441169,1.0826608,0.109420724,-0.0827992,-0.83860075,-0.13592273,0.04620572,0.06184413,1.0540991,0.9137613
-0.1,0.0,1.4999999999999998,-0.5235987755982988,0.0,0,-0.6266146,-1.3418217,0.90444505,-0.10359541,0.25793058,0.9957096,-0.74031276,-0.08307866,-0.83888733,-0.07645343,0.08142689,-0.14955938,1.060385,0.8539228
-0.1,0.0,1.4999999999999998,-0.5235987755982988,0.0,0,-0.62687594,-1.3420135,0.9053535,-0.11059341,0.29048014,1.0633117,-0.066868894,-0.08241552,-0.8389063,-0.10749763,0.02493,-0.0068498845,1.1020285,1.3049735
-0.1,0.0,1.4999999999999998,-0.5235987755982988,0.0,0,-0.6268396,-1.3419442,0.9057562,-0.10525687,0.28141516,1.031087,-0.050095465,-0.08213408,-0.8386089,-0.11150843,0.062356897,0.05173388,1.1203523,0.8127272
-0.1,0.0,1.4999999999999998,-0.5235987755982988,0.0,0,-0.6267412,-1.3420287,0.90490776,-0.10362638,0.31354684,1.0256748,0.29461902,-0.083083995,-0.83878076,-0.108657524,0.08989355,0.01647874,1.1078347,1.0834422
-0.1,0.0,1.4999999999999998,-0.5235987755982988,0.0,0,-0.6267019,-1.3419346,0.9057934,-0.09322864,0.28464115,1.0267044,1.347718,-0.08285844,-0.8386034,-0.11678818,0.050507694,-0.059917,1.1497666,0.983986
-0.1,0.0,1.4999999999999998,-0.5235987755982988,0.0,0,-0.626764,-1.3419989,0.9050427,-0.11750737,0.3145549,1.0703614,0.0011090635,-0.08327761,-0.83882916,-0.12691148,0.063453354,0.14436904,1.132649,0.26603186
-0.1,0.0,1.4999999999999998,-0.5235987755982988,0.0,0,-0.62704444,-1.3419224,0.9046388,-0.10874526,0.26621088,1.0795647,0.44796538,-0.08298916,-0.8389963,-0.13108234,0.07495657,0.0033540356,1.1035242,1.2723825
-0.1,0.0,1.4999999999999998,-0.5235987755982988,0.0,0,-0.62676406,-1.3419002,0.90560895,-0.107084475,0.27683023,1.0368853,0.9015082,-0.08385134,-0.83840597,-0.12900305,0.066895716,0.0015658233,1.032369,1.2071909
-0.1,0.0,1.4999999999999998,-0.5235987755982988,0.0,0,-0.6270896,-1.3419764,0.9055295,-0.10011157,0.21321204,0.99774057,0.46430653,-0.08359902,-0.8388706,-0.13855416,0.075771056,-0.091653645,1.1195766,0.73036444
-0.1,0.0,1.4999999999999998,-0.5235987755982988,0.0,0,-0.62692785,-1.3420478,0.9056751,-0.098032676,0.3012396,1.0733751,0.64475,-0.082587525,-0.83863896,-0.09558778,0.07770216,-0.047292054,1.1079072,1.4511392
-0.1,0.0,1.4999999999999998,-0.5235987755982988,0.0,0,-0.62670183,-1.3417317,0.90525925,-0.10617194,0.26596949,1.0535315,-1.0616802,-0.08249552,-0.8384708,-0.118193336,0.07754009,-0.009983768,1.0199149,0.80918485
-0.1,0.0,1.4999999999999998,-0.5235987755982988,0.0,0,-0.62694377,-1.3418654,0.90537244,-0.10523343,0.28521556,1.0342388,0.24524347,-0.08322327,-0.8386472,-0.15682024,0.11949502,0.11164491,1.0582821,1.3988665
-0.1,0.0,1.4999999999999998,-0.5235987755982988,0.0,0,-0.6267912,-1.3419169,0.90468305,-0.10231438,0.21972115,0.98204935,-0.0030133012,-0.08277741,-0.8381776,-0.09959982,0.08994278,0.061210513,1.0957437,1.1468521
-0.1,0.0,1.4999999999999998,-0.5235987755982988,0.0,0,-0.6267515,-1.3417822,0.9054056,-0.095685534,0.2642278,1.0076951,0.13746254,-0.084078625,-0.83842903,-0.14531572,0.07723917,-0.025702285,0.999142,0.07239836
-0.1,0.0,1.4999999999999998,-0.5235987755982988,0.0,0,-0.627263,-1.3420696,0.9057283,-0.10213249,0.2808518,1.0406712,0.11835477,-0.08468282,-0.83832276,-0.113401845,0.050662827,-0.0761532,1.0975916,1.0868657
-0.1,0.0,1.4999999999999998,-0.5235987755982988,0.0,0,-0.62708855,-1.3418627,0.9063841,-0.109304786,0.26782286,1.0370241,0.40110055,-0.082665466,-0.83815616,-0.14608875,0.069406144,-0.13357337,1.0403109,0.9556372
-0.1,0.0,1.4999999999999998,-0.5235987755982988,0.0,0,-0.6270796,-1.3420544,0.90543646,-0.094276555,0.26792887,1.0598997,0.17338869,-0.084032334,-0.83862084,-0.12618122,0.03207117,0.057396486,1.0550481,0.86309004
-0.1,0.0,1.4999999999999998,-0.5235987755982988,0.0,0,-0.62677866,-1.3420037,0.9053484,-0.096377596,0.30116996,1.0580541,1.7862327,-0.08391709,-0.8383287,-0.12561876,0.09425147,0.10552836,1.0874852,0.6442329
-0.1,0.0,1.4999999999999998,-0.5235987755982988,0.0,0,-0.62693495,-1.3417999,0.9048163,-0.10817379,0.33328432,1.0389488,-0.7870345,-0.08304782,-0.83847904,-0.108596124,0.10171219,-0.09753646,1.087914,0.680848
-0.1,0.0,1.4999999999999998,-0.5235987755982988,0.0,0,-0.62691224,-1.3418056,0.9045668,-0.1136399,0.24930972,1.0123869,-0.12065694,-0.08305874,-0.8382797,-0.04468748,0.04235163,0.14132978,1.0672917,0.8319474
-0.1,0.0,1.4999999999999998,-0.5235987755982988,0.0,0,-0.6269526,-1.3419456,0.9059395,-0.10620866,0.320051,0.9827927,0.5013096,-0.08377933,-0.83845913,-0.09869111,0.089966156,0.13487026,1.1117812,0.6463658
-0.1,0.0,1.4999999999999998,-0.5235987755982988,0.0,0,-0.6269554,-1.341846,0.90513587,-0.108408935,0.31832093,1.0324526,0.05470562,-0.083126545,-0.8386829,-0.14235342,0.072883114,0.03790687,1.1197312,1.1553115
-0.1,0.0,1.4999999999999998,-0.5235987755982988,0.0,0,-0.6267672,-1.3419386,0.90527236,-0.09171831,0.29172102,1.0403079,0.01814513,-0.08342613,-0.8385665,-0.12768802,0.09455216,-0.030791162,1.0656627,1.494907
-0.1,0.0,1.4999999999999998,-0.5235987755982988,0.0,0,-0.6266824,-1.3419442,0.90496355,-0.098127574,0.3173882,1.0151728,-0.18899241,-0.08345377,-0.8386039,-0.13313535,0.0818282,0.017946638,1.1301899,0.35457578
-0.1,0.0,1.4999999999999998,-0.5235987755982988,0.0,0,-0.6268684,-1.3418117,0.9045981,-0.11641874,0.29858288,1.0758301,-0.80909157,-0.083460815,-0.83876985,-0.13473496,0.08814287,-0.091328785,1.1166277,1.6564331
-0.1,0.0,1.4999999999999998,-0.5235987755982988,0.0,0,-0.6269325,-1.3418764,0.90594876,-0.10116649,0.33116704,1.011495,-0.23560576,-0.08459298,-0.8386218,-0.12912479,0.101245515,0.002256128,1.0842278,1.2413185
-0.1,0.0,1.4999999999999998,-0.5235987755982988,0.0,0,-0.6268285,-1.3418719,0.90526366,-0.110183425,0.2696569,1.0617379,-0.29457593,-0.084387094,-0.8384459,-0.12752531,0.08511845,0.09604201,1.0776161,1.3364252
-0.1,0.0,1.4999999999999998,-0.5235987755982988,0.0,0,-0.6267485,-1.3418512,0.9053143,-0.10676883,0.32470074,1.0366513,1.0767709,-0.08328328,-0.8387851,-0.090291835,0.029356923,0.0065809307,1.0854862,0.7061178
-0.1,0.0,1.4999999999999998,-0.5235987755982988,0.0,0,-0.62672216,-1.3419223,0.9048646,-0.09708268,0.27747706,1.0939963,-0.3249186,-0.08426675,-0.8385881,-0.14500909,0.027877096,0.014829287,1.128428,1.337076
-0.1,0.0,1.4999999999999998,-0.5235987755982988,0.0,0,-0.62662417,-1.3417974,0.9053464,-0.09615655,0.22051293,1.1306096,0.101297475,-0.08251861,-0.83864874,-0.11324759,0.049738042,-0.1680616,1.095608,1.0538894
-0.1,0.0,1.4999999999999998,-0.5235987755982988,0.0,0,-0.62681365,-1.3419231,0.9042752,-0.101392746,0.28053537,1.0822278,0.82815856,-0.084037155,-0.8386308,-0.117586575,0.093436226,0.070104636,1.0871551,1.4497848
-0.1,0.0,1.4999999999999998,-0.5235987755982988,0.0,0,-0.62702096,-1.3420589,0.90496504,-0.09854967,0.25726062,1.0235592,-1.3563464,-0.08371783,-0.83843416,-0.09704758,0.069224656,-0.022639534,1.120335,0.4779342
-0.1,0.0,1.4999999999999998,-0.5235987755982988,0.0,0,-0.6268413,-1.3419213,0.9046403,-0.105062954,0.3117743,1.0487868,0.03940352,-0.08332181,-0.8385904,-0.10295545,0.08639917,0.05487291,1.0498499,0.5069128
-0.1,0.0,1.4999999999999998,-0.5235987755982988,0.0,0,-0.62696797,-1.3419535,0.904997,-0.097590245,0.21964931,0.9867175,1.43953,-0.08286496,-0.838311,-0.1308834,0.06832496,-0.0009903968,0.9913012,0.82459646
-0.1,0.0,1.4999999999999998,-0.5235987755982988,0.0,0,-0.62667984,-1.3420616,0.9051245,-0.10461345,0.23213755,1.0108172,0.009560398,-0.08386526,-0.8384612,-0.17337497,0.07410241,-0.1488503,1.0995926,0.5918102
-0.1,0.0,1.4999999999999998,-0.5235987755982988,0.0,0,-0.6268341,-1.34187,0.9047938,-0.10356666,0.27667916,1.025887,0.16555081,-0.08342244,-0.8388918,-0.09876557,0.09196306,-0.019429008,1.0957872,1.4446787
-0.1,0.0,1.4999999999999998,-0.5235987755982988,0.0,0,-0.6269174,-1.3421016,0.90643376,-0.10284909,0.25172213,1.0550345,0.18280452,-0.08277779,-0.8386516,-0.12655449,0.070247926,-0.16122459,1.1255479,1.549559
-0.1,0.0,1.4999999999999998,-0.5235987755982988,0.0,0,-0.6268624,-1.3418887,0.90479094,-0.10164995,0.22109795,1.0578378,0.6045284,-0.08332636,-0.83836055,-0.09167269,0.06833114,-0.16111632,1.066879,0.79755867
-0.1,0.0,1.4999999999999998,-0.5235987755982988,0.0,0,-0.6269482,-1.3419094,0.9053468,-0.09911176,0.24597149,1.0301298,0.4974081,-0.083453655,-0.8387631,-0.10185761,0.059289787,0.027473085,1.0515414,1.2170058
-0.1,0.0,1.4999999999999998,-0.5235987755982988,0.0,0,-0.6268896,-1.3419728,0.9052847,-0.10313046,0.24753551,1.0500199,0.79025954,-0.08344963,-0.8387299,-0.1321628,0.0918494,0.04705157,1.1385593,1.2773083
-0.1,0.0,1.4999999999999998,-0.5235987755982988,0.0,0,-0.62693393,-1.3418888,0.90576506,-0.09473682,0.22780734,1.0852339,-0.46435532,-0.083100304,-0.83884466,-0.07453577,0.054233894,-0.08082661,1.1156875,0.09052912
-0.1,0.0,1.4999999999999998,-0.5235987755982988,0.0,0,-0.6267169,-1.3420277,0.90522116,-0.104573056,0.2690425,1.071834,0.4427562,-0.084899694,-0.8386854,-0.08940969,0.084673755,-0.11467722,1.1209339,0.59551036
-0.1,0.0,1.4999999999999998,-0.5235987755982988,0.0,0,-0.6266125,-1.3420455,0.9061277,-0.102167465,0.19790086,1.0355785,0.680934,-0.08358659,-0.838706,-0.1092727,0.037221458,0.034728877,1.0801628,1.0010456
-0.1,0.0,1.4999999999999998,-0.5235987755982988,0.0,0,-0.62709403,-1.3418968,0.90549904,-0.09232249,0.27265865,1.0817027,-0.9350288,-0.08395078,-0.8387946,-0.12848395,0.07151721,-0.25215185,1.0646975,0.67883515
-0.1,0.0,1.4999999999999998,-0.5235987755982988,0.0,0,-0.62666774,-1.3419876,0.90492684,-0.108305626,0.21541934,1.0618367,-0.10369943,-0.0825764,-0.8387326,-0.07535505,0.0766885,-0.055778656,1.1344433,0.74465215
-0.1,0.0,1.4999999999999998,-0.5235987755982988,0.0,0,-0.6267941,-1.3418504,0.905034,-0.091545425,0.26620382,1.0542158,0.60764754,-0.082724385,-0.83843666,-0.13672292,0.07989714,0.031259164,1.0579749,1.3434876
-0.1,0.0,1.4999999999999998,-0.5235987755982988,0.0,0,-0.62684596,-1.3419447,0.9045922,-0.102994986,0.24204291,1.0388906,0.09805996,-0.0829985,-0.83869314,-0.1510693,0.05878841,0.08724221,1.0521545,1.0894362
-0.1,0.0,1.4999999999999998,-0.5235987755982988,0.0,0,-0.6267515,-1.3418903,0.90539646,-0.10827444,0.29927474,1.0823299,0.2866881,-0.08274054,-0.8384051,-0.12718102,0.06539028,0.07112779,1.1227688,0.9992849
-0.1,0.0,1.4999999999999998,-0.5235987755982988,0.0,0,-0.62664354,-1.3421249,0.90513337,-0.10316932,0.20456636,1.0308306,0.86181766,-0.0833595,-0.83858824,-0.08810357,0.0546774,-0.042339794,1.0877551,0.81766176
-0.1,0.0,1.4999999999999998,-0.5235987755982988,0.0,0,-0.62690717,-1.3420042,0.90543556,-0.1026149,0.24474464,1.02333,0.012417123,-0.08300951,-0.8390877,-0.12530357,0.059078418,0.031565167,1.0730948,0.9365062
-0.1,0.0,1.4999999999999998,-0.5235987755982988,0.0,0,-0.62668234,-1.3420676,0.90543956,-0.115519196,0.28447297,1.0736113,-0.32938465,-0.08373287,-0.8388596,-0.09413993,0.026081692,-0.059015483,1.1494796,0.67099667
-0.1,0.0,1.4999999999999998,-0.5235987755982988,0.0,0,-0.6268625,-1.3419073,0.9053364,-0.09799166,0.2361557,1.0341032,-0.07474295,-0.08419115,-0.838947,-0.13284026,0.02787858,-0.0011071598,1.0939269,0.7743283
-0.1,0.0,1.4999999999999998,-0.5235987755982988,0.0,0,-0.626966,-1.3421038,0.9045313,-0.100064665,0.23396301,0.98799235,0.33381653,-0.08318171,-0.8385214,-0.12878992,0.08689682,0.048153978,1.0580348,0.2794324
-0.1,0.0,1.4999999999999998,-0.5235987755982988,0.0,0,-0.62682843,-1.3418032,0.90610164,-0.1010242,0.2900365,1.0307826,0.85313326,-0.08249076,-0.8385794,-0.11620822,0.11403121,0.1994094,1.0674628,1.4820929
