sanky1234/BimanualDexCatch/isaacgymenvs/cem_results/football_pose_0.0_0.1_0.9999999999999999_0.0_0.5235987755982988_0_2025-05-26.csv
x,y,z,roll,pitch,yaw,robot1/joint1,robot1/joint2,robot1/joint3,robot1/joint4,robot1/joint5,robot1/joint6,robot1/joint7,robot2/joint1,robot2/joint2,robot2/joint3,robot2/joint4,robot2/joint5,robot2/joint6,robot2/joint7
0.0,0.1,0.9999999999999999,0.0,0.5235987755982988,0,0.06473807,-0.45579898,-0.12041272,0.088140026,-0.034856737,1.4100977,0.3138832,0.78401154,-1.7924893,-0.024270836,-0.08015587,0.02880581,1.2722659,0.56583434
0.0,0.1,0.9999999999999999,0.0,0.5235987755982988,0,0.06458414,-0.45610625,-0.11068664,0.10728706,0.11580368,1.3773353,-0.18808353,0.7873428,-1.7946479,-0.02495838,-0.07121291,0.09349064,1.1898068,-0.07545724
0.0,0.1,0.9999999999999999,0.0,0.5235987755982988,0,0.064587414,-0.4560228,-0.1108334,0.13518931,0.07332248,1.4098052,-0.128017,0.78690624,-1.7898334,-0.015211868,-0.09910427,0.06871328,1.2461659,0.7921913
0.0,0.1,0.9999999999999999,0.0,0.5235987755982988,0,0.064605474,-0.45600662,-0.11891936,0.14355196,0.061288845,1.483847,0.4245428,0.7850822,-1.7962213,-0.019831875,-0.0746617,0.064024694,1.2272965,1.1937871
0.0,0.1,0.9999999999999999,0.0,0.5235987755982988,0,0.064414255,-0.45578158,-0.11823865,0.108120695,-0.027550936,1.4352242,-0.2268342,0.7836719,-1.7960721,-0.018934662,-0.07291021,-0.04662041,1.2857654,-0.02237085
0.0,0.1,0.9999999999999999,0.0,0.5235987755982988,0,0.064575024,-0.4560111,-0.12243111,0.09111178,-0.0119918985,1.3230335,0.42640072,0.78615177,-1.7905843,-0.016567307,-0.058651894,0.04274112,1.3087704,-0.62273467
0.0,0.1,0.9999999999999999,0.0,0.5235987755982988,0,0.06444582,-0.4559601,-0.119679816,0.12761152,0.019424837,1.4119797,0.40373644,0.7888394,-1.7936441,-0.02628108,-0.062263563,0.062452413,1.2829205,1.1833855
0.0,0.1,0.9999999999999999,0.0,0.5235987755982988,0,0.06471766,-0.45581216,-0.1214158,0.12173026,0.045158897,1.4333789,0.16286552,0.7843666,-1.7903385,-0.037801392,-0.070720166,0.027567502,1.1783153,1.2440637
0.0,0.1,0.9999999999999999,0.0,0.5235987755982988,0,0.064497,-0.45605108,-0.12534203,0.10147229,0.07538138,1.388872,0.5536411,0.7860563,-1.7992631,-0.025793727,-0.07555411,-0.015569727,1.2071091,-0.025162507
0.0,0.1,0.9999999999999999,0.0,0.5235987755982988,0,0.064648665,-0.45603713,-0.11640944,0.09449841,0.06909965,1.4173402,-0.25369003,0.7887604,-1.7878673,-0.031157011,-0.09683802,0.055466536,1.3437753,-0.20521031
0.0,0.1,0.9999999999999999,0.0,0.5235987755982988,0,0.06461472,-0.45582223,-0.114514984,0.10480599,0.05879281,1.3578895,1.011193,0.7849482,-1.7907727,-0.02082,-0.07666569,-0.009176863,1.2611694,-1.2308234
0.0,0.1,0.9999999999999999,0.0,0.5235987755982988,0,0.06424388,-0.4556586,-0.11262721,0.08710191,0.062089067,1.362801,1.0226009,0.78624636,-1.7907716,-0.019268166,-0.090365134,0.072659224,1.2452472,0.93398494
0.0,0.1,0.9999999999999999,0.0,0.5235987755982988,0,0.06465343,-0.4557201,-0.12007938,0.12339628,-0.03013305,1.3404584,0.75868785,0.7868248,-1.796317,-0.030874088,-0.09274038,0.1812002,1.2964907,0.28420797
0.0,0.1,0.9999999999999999,0.0,0.5235987755982988,0,0.0645817,-0.4557331,-0.11340574,0.09981463,0.03586658,1.379638,0.68988335,0.7866037,-1.7990439,-0.027693175,-0.061782002,0.0030800763,1.27115,1.5377153
0.0,0.1,0.9999999999999999,0.0,0.5235987755982988,0,0.064797305,-0.45623022,-0.12164119,0.12022786,0.0763621,1.3591374,0.8467437,0.786358,-1.7930851,-0.02785793,-0.08761943,0.14896725,1.2724823,0.81982785
0.0,0.1,0.9999999999999999,0.0,0.5235987755982988,0,0.064413786,-0.4559147,-0.11615382,0.12426487,0.14177,1.3961811,0.2057079,0.7850844,-1.7922398,-0.019782433,-0.06568372,0.06736789,1.2609316,0.059313636
0.0,0.1,0.9999999999999999,0.0,0.5235987755982988,0,0.06411478,-0.456277,-0.11250433,0.12265443,0.052250057,1.3604146,0.0032723057,0.78557676,-1.7918338,-0.026769338,-0.07444328,-0.11653263,1.1928172,0.040867917
0.0,0.1,0.9999999999999999,0.0,0.5235987755982988,0,0.064599104,-0.45603693,-0.11360892,0.12138688,0.1243255,1.415189,0.23005103,0.78541285,-1.7906023,-0.017266966,-0.065190166,-0.024616098,1.209668,0.88920486
0.0,0.1,0.9999999999999999,0.0,0.5235987755982988,0,0.0643517,-0.4557741,-0.122255586,0.0895288,-0.075388,1.4479634,0.0069998614,0.7857874,-1.7908915,-0.01654578,-0.06455807,0.043967538,1.2379222,-0.6867365
0.0,0.1,0.9999999999999999,0.0,0.5235987755982988,0,0.06499765,-0.45558715,-0.114038624,0.08881895,0.08113818,1.4112229,0.47769147,0.7856633,-1.790944,-0.011400998,-0.092052266,0.017201046,1.1980776,-0.3372013
0.0,0.1,0.9999999999999999,0.0,0.5235987755982988,0,0.064826466,-0.4558442,-0.12000614,0.11655482,-0.049852204,1.3721725,0.3577905,0.78725886,-1.7906407,-0.02456978,-0.084165946,0.06875925,1.2398922,-0.8115338
0.0,0.1,0.9999999999999999,0.0,0.5235987755982988,0,0.06487604,-0.45616192,-0.11503255,0.11703545,0.107022464,1.4281977,0.64704233,0.7851593,-1.7911513,-0.02329973,-0.07480323,0.11556983,1.2204636,0.8318413
0.0,0.1,0.9999999999999999,0.0,0.5235987755982988,0,0.06424508,-0.45575577,-0.1241966,0.12473695,0.06877044,1.3158487,0.34515712,0.7867515,-1.7946234,-0.013727085,-0.07103511,0.035642534,1.2397114,-1.886894
0.0,0.1,0.9999999999999999,0.0,0.5235987755982988,0,0.06429809,-0.4557314,-0.121027805,0.102538146,0.017318431,1.4402525,-0.1195465,0.78842676,-1.7983127,-0.03925507,-0.07753258,0.07893661,1.2613214,-0.16116092
0.0,0.1,0.9999999999999999,0.0,0.5235987755982988,0,0.06439772,-0.4560691,-0.11721313,0.10322613,0.10640903,1.3741705,0.58741844,0.7867122,-1.7917441,-0.026752748,-0.08070125,-0.10361566,1.2804514,-0.9090127
0.0,0.1,0.9999999999999999,0.0,0.5235987755982988,0,0.064678535,-0.45589927,-0.11904928,0.11784689,0.1450637,1.357001,0.28715515,0.7869746,-1.7961065,-0.017048644,-0.0580039,-0.0425454,1.2319353,-2.435149
0.0,0.1,0.9999999999999999,0.0,0.5235987755982988,0,0.06461812,-0.4559398,-0.117662914,0.11223228,0.19151449,1.4108555,0.46031404,0.7855106,-1.7980138,-0.022014765,-0.053595345,-0.0010705952,1.2608678,1.0746502
0.0,0.1,0.9999999999999999,0.0,0.5235987755982988,0,0.06468161,-0.45611313,-0.11777894,0.12093922,-0.02655821,1.4197165,0.040251415,0.78403175,-1.7970724,-0.02696568,-0.086345635,0.1464867,1.2610065,0.6673916
0.0,0.1,0.9999999999999999,0.0,0.5235987755982988,0,0.064283654,-0.45581183,-0.11619011,0.11616205,0.038582027,1.406377,0.7488392,0.7886123,-1.7958724,-0.0347315,-0.12171914,0.039793454,1.3023182,0.13417526
0.0,0.1,0.9999999999999999,0.0,0.5235987755982988,0,0.06408032,-0.45592713,-0.1118545,0.09860945,0.049394045,1.4163141,0.10037867,0.7849259,-1.7913411,-0.012979065,-0.078771725,-0.011266524,1.2860029,-0.1409647
0.0,0.1,0.9999999999999999,0.0,0.5235987755982988,0,0.064945385,-0.45592093,-0.114191465,0.09829267,0.15941596,1.3444884,0.037292425,0.7866889,-1.7923604,-0.021251872,-0.06205751,-0.110993825,1.2459586,-0.15503986
0.0,0.1,0.9999999999999999,0.0,0.5235987755982988,0,0.064773954,-0.45583838,-0.12620157,0.10748409,0.045524586,1.340101,0.37268382,0.78724784,-1.7892374,-0.024869546,-0.08774094,0.023364242,1.268353,1.6621876
0.0,0.1,0.9999999999999999,0.0,0.5235987755982988,0,0.06509785,-0.45589587,-0.1173806,0.091612734,0.019913642,1.3906614,0.04777753,0.7823259,-1.7934523,-0.020396184,-0.08443046,0.016256897,1.2282659,-1.2395527
0.0,0.1,0.9999999999999999,0.0,0.5235987755982988,0,0.06442193,-0.4557644,-0.11212179,0.11204969,0.015464349,1.4103608,0.03379695,0.78264004,-1.7926563,-0.015891759,-0.085701145,0.038798098,1.2326843,-0.9241323
0.0,0.1,0.9999999999999999,0.0,0.5235987755982988,0,0.064752184,-0.45569536,-0.12198426,0.106782325,0.033175237,1.3886374,0.6130121,0.7825449,-1.792425,-0.0235597,-0.08837872,0.07441786,1.1790332,-0.5282395
0.0,0.1,0.9999999999999999,0.0,0.5235987755982988,0,0.06458188,-0.4557134,-0.11716271,0.10316319,-0.0803573,1.375858,-0.0054954295,0.7847759,-1.7869635,-0.010400135,-0.05715383,0.05939368,1.229574,0.5933161
0.0,0.1,0.9999999999999999,0.0,0.5235987755982988,0,0.064938515,-0.45599395,-0.102686875,0.1087083,-0.080063805,1.419854,0.35564286,0.7863867,-1.7922496,-0.029786428,-0.090806246,0.04726173,1.3262428,-0.7916536
0.0,0.1,0.9999999999999999,0.0,0.5235987755982988,0,0.06481762,-0.4557821,-0.121587366,0.085984685,0.124444686,1.3502891,0.09946161,0.78277767,-1.7889161,-0.015636638,-0.06821263,-0.20378046,1.286662,0.014467873
0.0,0.1,0.9999999999999999,0.0,0.5235987755982988,0,0.06421144,-0.4557409,-0.11902645,0.11406475,-0.03628245,1.3979156,0.75911343,0.78691024,-1.7956345,-0.022076184,-0.07267414,0.044126038,1.1793047,1.7359847
0.0,0.1,0.9999999999999999,0.0,0.5235987755982988,0,0.064511694,-0.45607203,-0.106191866,0.112558894,0.09154348,1.3099966,0.15357351,0.7887822,-1.7974094,-0.028314693,-0.065076865,0.117552444,1.2333084,0.79312146
0.0,0.1,0.9999999999999999,0.0,0.5235987755982988,0,0.064671256,-0.45606217,-0.12087508,0.11846876,0.120359525,1.3788236,-0.088953406,0.78711224,-1.7924578,-0.024574347,-0.07952901,0.06384718,1.228531,1.6660907
0.0,0.1,0.9999999999999999,0.0,0.5235987755982988,0,0.06469601,-0.4558312,-0.11980477,0.120286115,0.038550373,1.4010946,-0.10672011,0.78650993,-1.7915937,-0.011692213,-0.041879248,0.040832423,1.2648714,-0.35283965
0.0,0.1,0.9999999999999999,0.0,0.5235987755982988,0,0.06427251,-0.45584357,-0.1147388,0.118856706,-0.015602379,1.439749,0.61999506,0.78594476,-1.7930193,-0.03546219,-0.07263807,0.115402445,1.2685717,-2.2298865
0.0,0.1,0.9999999999999999,0.0,0.5235987755982988,0,0.06454014,-0.45590818,-0.11618334,0.1260648,-0.020652104,1.4297541,-0.29964694,0.7894775,-1.7919554,-0.021332534,-0.09991831,0.05441285,1.2320104,0.8856761
0.0,0.1,0.9999999999999999,0.0,0.5235987755982988,0,0.0642544,-0.45577508,-0.12006972,0.09891595,-0.026158014,1.4214202,-0.39248824,0.78611004,-1.7900202,-0.031703785,-0.045947872,0.113756336,1.1330311,-0.5192387
0.0,0.1,0.9999999999999999,0.0,0.5235987755982988,0,0.06463052,-0.4556971,-0.11801047,0.09937133,0.03935854,1.3793538,-0.10137634,0.78636605,-1.792325,-0.026449047,-0.067523204,0.040056996,1.2305053,1.4229742
0.0,0.1,0.9999999999999999,0.0,0.5235987755982988,0,0.06400397,-0.45577824,-0.11682367,0.10744068,-0.025970293,1.3981469,0.35134035,0.78742874,-1.7909795,-0.02543624,-0.06394284,0.078730255,1.2344464,0.59607023
0.0,0.1,0.9999999999999999,0.0,0.5235987755982988,0,0.06395685,-0.45593414,-0.11209927,0.10192164,0.051385053,1.3454776,0.08516468,0.7869491,-1.7912347,-0.018171532,-0.10411211,-0.06781109,1.241789,0.49846908
0.0,0.1,0.9999999999999999,0.0,0.5235987755982988,0,0.06463031,-0.45590782,-0.116092235,0.10846629,0.00233593,1.3979439,0.26281998,0.78441703,-1.7935598,-0.031799734,-0.061593514,-0.01015208,1.2833205,-0.15982959
0.0,0.1,0.9999999999999999,0.0,0.5235987755982988,0,0.064865045,-0.45583573,-0.102203265,0.07163999,0.08709673,1.4743704,0.7247496,0.78685343,-1.7934439,-0.017923577,-0.10153971,0.0074138218,1.2612021,0.6849343
0.0,0.1,0.9999999999999999,0.0,0.5235987755982988,0,0.06462292,-0.45603922,-0.113186814,0.1015602,0.15188292,1.4629942,0.7804414,0.7829586,-1.7876471,-0.02243159,-0.0762578,-0.01608721,1.2842964,0.4823682
0.0,0.1,0.9999999999999999,0.0,0.5235987755982988,0,0.06434934,-0.4560024,-0.12127534,0.12821892,0.019488096,1.4126241,-0.0331674,0.7846032,-1.7917888,-0.027771078,-0.07997279,0.09209553,1.2796721,1.699671
0.0,0.1,0.9999999999999999,0.0,0.5235987755982988,0,0.06482794,-0.4556269,-0.10835296,0.08942938,0.08995986,1.368667,0.25077754,0.7863595,-1.7942607,-0.01421122,-0.056087505,0.17588271,1.31892,0.19276862
0.0,0.1,0.9999999999999999,0.0,0.5235987755982988,0,0.06489766,-0.45603463,-0.116940096,0.10569259,0.08020221,1.4226196,0.75806254,0.7855323,-1.7883269,-0.017769188,-0.055133894,0.015670193,1.2362586,0.82368886
0.0,0.1,0.9999999999999999,0.0,0.5235987755982988,0,0.06432371,-0.45596936,-0.11737388,0.12061162,0.08728009,1.391947,0.39364064,0.78470683,-1.789095,-0.01948386,-0.0768023,0.06136726,1.2854785,0.54381514
0.0,0.1,0.9999999999999999,0.0,0.5235987755982988,0,0.06468469,-0.45595783,-0.11683072,0.10939361,-0.047868017,1.4832292,0.08918864,0.7817933,-1.7953693,-0.018163681,-0.055897746,0.039280035,1.3072473,1.4014319
0.0,0.1,0.9999999999999999,0.0,0.5235987755982988,0,0.06443591,-0.4558429,-0.12374898,0.13293183,0.019124363,1.4195532,0.8219977,0.78740084,-1.7951187,-0.02577465,-0.08705903,0.090931214,1.2590389,0.35499758
0.0,0.1,0.9999999999999999,0.0,0.5235987755982988,0,0.064661585,-0.45570034,-0.11482498,0.118018895,0.096949086,1.3817347,0.72496265,0.78549176,-1.7932879,-0.025366427,-0.07392653,-0.06788375,1.2813709,1.8027496
0.0,0.1,0.9999999999999999,0.0,0.5235987755982988,0,0.064524926,-0.45597762,-0.11557248,0.106353,0.13549916,1.4326358,-0.24491602,0.788473,-1.796428,-0.021810008,-0.0852189,0.03980645,1.2565824,-0.7956869
0.0,0.1,0.9999999999999999,0.0,0.5235987755982988,0,0.06488529,-0.45576265,-0.1129113,0.10892353,0.12952416,1.3628027,0.7006521,0.78467745,-1.7945883,-0.029826764,-0.043028865,0.13891746,1.2197049,-0.9312237
0.0,0.1,0.9999999999999999,0.0,0.5235987755982988,0,0.064841256,-0.4560727,-0.11950158,0.11267964,0.19944829,1.3984628,0.1606734,0.7832688,-1.791631,-0.007929372,-0.056502335,-0.07584546,1.1942288,-0.7749804
0.0,0.1,0.9999999999999999,0.0,0.5235987755982988,0,0.064722046,-0.45588177,-0.11871403,0.10781207,0.06700387,1.3987185,0.7016885,0.78829515,-1.7889649,-0.015559821,-0.086587854,-0.002894063,1.1435039,-0.017393865
0.0,0.1,0.9999999999999999,0.0,0.5235987755982988,0,0.06444759,-0.45570472,-0.11271133,0.10874963,0.15659148,1.380317,0.38585013,0.78534496,-1.7940313,-0.024543207,-0.055092845,-0.043581408,1.2846398,0.47724697
0.0,0.1,0.9999999999999999,0.0,0.5235987755982988,0,0.065094404,-0.45561174,-0.12022765,0.09740885,-0.048505064,1.4200958,0.31970155,0.78696495,-1.7931988,-0.012213364,-0.0711248,-0.03673344,1.2858748,1.3725659
0.0,0.1,0.9999999999999999,0.0,0.5235987755982988,0,0.06484997,-0.4557945,-0.11384447,0.097531445,-0.02421122,1.370619,0.57817394,0.7856942,-1.796749,-0.020747093,-0.072309725,0.09287956,1.2786852,1.6228237
0.0,0.1,0.9999999999999999,0.0,0.5235987755982988,0,0.0643582,-0.45597005,-0.106033795,0.119937025,-0.024919929,1.4104632,0.32700542,0.787996,-1.7922645,-0.026422653,-0.07373923,-0.096087866,1.2467833,0.26768017
0.0,0.1,0.9999999999999999,0.0,0.5235987755982988,0,0.064839974,-0.45578113,-0.107417375,0.104267605,0.025341865,1.383636,-0.86736935,0.7887447,-1.7936765,-0.016989369,-0.0825117,0.059248596,1.2632215,2.4593418
0.0,0.1,0.9999999999999999,0.0,0.5235987755982988,0,0.06456635,-0.4558646,-0.12451633,0.1117066,0.04995187,1.439328,0.5800573,0.7871244,-1.7903361,-0.03403851,-0.091060095,0.052321,1.2355905,1.0257015
0.0,0.1,0.9999999999999999,0.0,0.5235987755982988,0,0.06434346,-0.45593995,-0.115062036,0.109441236,-0.034947004,1.3536085,-0.4031256,0.7865931,-1.7954117,-0.014267861,-0.06727331,0.13902122,1.276886,-0.08976345
0.0,0.1,0.9999999999999999,0.0,0.5235987755982988,0,0.06486314,-0.4560924,-0.113150924,0.11074041,0.21925677,1.3877742,0.27360958,0.78746694,-1.7908845,-0.01653366,-0.07591378,0.065375626,1.2748401,0.19953223
0.0,0.1,0.9999999999999999,0.0,0.5235987755982988,0,0.06457864,-0.45590112,-0.11425607,0.12327844,0.075142555,1.4144536,0.7793181,0.7863384,-1.7900404,-0.025328917,-0.056695826,0.04589473,1.2964386,-0.067336716
0.0,0.1,0.9999999999999999,0.0,0.5235987755982988,0,0.06472499,-0.45584136,-0.12319245,0.096215226,0.15294963,1.3787614,0.17597131,0.7889874,-1.7920128,-0.03383967,-0.05658719,-0.07701619,1.1978042,-1.1240493
0.0,0.1,0.9999999999999999,0.0,0.5235987755982988,0,0.06436054,-0.45589015,-0.11473211,0.11224702,0.04091801,1.363858,-0.07341869,0.783766,-1.7934378,-0.027561126,-0.09755996,0.11093139,1.1791301,-1.6842706
0.0,0.1,0.9999999999999999,0.0,0.5235987755982988,0,0.064348735,-0.45558164,-0.11166824,0.09243457,0.06516359,1.3867315,0.97463953,0.7829231,-1.7944001,-0.012893334,-0.05762109,-0.016538326,1.2261868,0.17621107
0.0,0.1,0.9999999999999999,0.0,0.5235987755982988,0,0.06446327,-0.455904,-0.11555647,0.12328134,-0.0023945465,1.4572551,0.03307391,0.7844099,-1.7947747,-0.021465123,-0.085057884,0.06616498,1.2661054,-1.2688073
0.0,0.1,0.9999999999999999,0.0,0.5235987755982988,0,0.06496286,-0.4558934,-0.1123078,0.10135262,0.17642117,1.3753747,0.20467246,0.782983,-1.7925508,-0.027033856,-0.07627291,-0.091497496,1.222073,-2.1323378
0.0,0.1,0.9999999999999999,0.0,0.5235987755982988,0,0.06468939,-0.45600528,-0.12360611,0.09820028,-0.034077134,1.3987817,0.23446073,0.7861495,-1.7881402,-0.016147785,-0.07484277,0.04436392,1.2419931,1.4234926
0.0,0.1,0.9999999999999999,0.0,0.5235987755982988,0,0.06433787,-0.45589572,-0.11077879,0.12523386,-0.004659137,1.3553292,0.5092262,0.78917277,-1.7992293,-0.02175297,-0.04621401,0.10364227,1.2432514,-0.16579439
0.0,0.1,0.9999999999999999,0.0,0.5235987755982988,0,0.0644194,-0.45564416,-0.12132676,0.106075175,-0.01901075,1.393466,0.1305011,0.7869578,-1.7937905,-0.023272816,-0.09046196,-0.0069592204,1.3071451,0.52228725
0.0,0.1,0.9999999999999999,0.0,0.5235987755982988,0,0.065067075,-0.45602196,-0.11986879,0.11721376,0.04941046,1.4246418,0.5203876,0.7866036,-1.7937152,-0.0131240515,-0.08145513,0.11935254,1.2799021,0.94564694
0.0,0.1,0.9999999999999999,0.0,0.5235987755982988,0,0.06451351,-0.45596713,-0.1109102,0.094562344,0.07104232,1.3866234,0.4900703,0.78871024,-1.7909204,-0.031020558,-0.102471225,0.07258943,1.3445191,-2.1391885
0.0,0.1,0.9999999999999999,0.0,0.5235987755982988,0,0.06470099,-0.45578325,-0.11118416,0.09384097,-0.10184215,1.3742778,0.5741133,0.789813,-1.7972841,-0.017743455,-0.069455706,-0.099621214,1.192572,-1.0417084
0.0,0.1,0.9999999999999999,0.0,0.5235987755982988,0,0.06478403,-0.45568818,-0.11303135,0.11607597,0.16065064,1.3774796,0.09208554,0.78653693,-1.7892767,-0.02208752,-0.08900771,0.038407035,1.2152537,2.6486442
0.0,0.1,0.9999999999999999,0.0,0.5235987755982988,0,0.06453801,-0.4558621,-0.119295254,0.1111981,0.13300245,1.3531044,0.42963198,0.78768903,-1.7919389,-0.02535173,-0.07320954,-0.08482528,1.2177883,0.89654756
0.0,0.1,0.9999999999999999,0.0,0.5235987755982988,0,0.06475845,-0.45557705,-0.1109173,0.0965807,0.034272496,1.3953209,0.69309294,0.78443366,-1.7934977,-0.028076382,-0.07925277,0.08134278,1.2357118,0.03779494
0.0,0.1,0.9999999999999999,0.0,0.5235987755982988,0,0.064408906,-0.45573008,-0.1105158,0.1188282,-0.017914658,1.4158554,0.17672522,0.78283167,-1.7926328,-0.01670842,-0.07162395,-0.07561131,1.2670851,-1.7311963
0.0,0.1,0.9999999999999999,0.0,0.5235987755982988,0,0.06466797,-0.45579833,-0.11549829,0.122307725,-0.012483502,1.3845719,0.22023539,0.786744,-1.7921093,-0.014718939,-0.061881844,0.09151964,1.2141972,-0.081428714
0.0,0.1,0.9999999999999999,0.0,0.5235987755982988,0,0.065016665,-0.45601037,-0.11581532,0.111870736,-0.07824657,1.4419717,0.20777602,0.78736943,-1.7955272,-0.028562132,-0.08296023,0.122123964,1.2642424,-1.7437768
0.0,0.1,0.9999999999999999,0.0,0.5235987755982988,0,0.064470075,-0.4559995,-0.10823518,0.12390817,0.11070335,1.3420917,1.3587202,0.7848563,-1.7949133,-0.023174781,-0.10494977,-0.08971415,1.2477472,-1.0870183
0.0,0.1,0.9999999999999999,0.0,0.5235987755982988,0,0.06454144,-0.45609233,-0.11327064,0.10665313,0.17929302,1.4227995,0.5771679,0.78693944,-1.7928042,-0.021863386,-0.056351453,0.06543604,1.2339474,0.8849059
0.0,0.1,0.9999999999999999,0.0,0.5235987755982988,0,0.06490853,-0.4556443,-0.12538664,0.12635426,0.07413505,1.4831622,0.2607124,0.7872775,-1.7920759,-0.022938952,-0.049723588,0.0662829,1.1862584,0.03828248
0.0,0.1,0.9999999999999999,0.0,0.5235987755982988,0,0.06487701,-0.45593345,-0.124538146,0.10223367,0.052181546,1.418994,0.4188693,0.7852128,-1.793484,-0.013160562,-0.063077316,-0.07680142,1.2619812,-0.15819402
0.0,0.1,0.9999999999999999,0.0,0.5235987755982988,0,0.06460544,-0.4556079,-0.11614113,0.110143185,0.033466402,1.4120222,0.77518654,0.783629,-1.7952785,-0.029403275,-0.06990869,-0.058558274,1.2174621,0.18536282
0.0,0.1,0.9999999999999999,0.0,0.5235987755982988,0,0.06453543,-0.4559713,-0.112897344,0.13239959,0.08802467,1.403411,-0.07284005,0.78913325,-1.7936168,-0.019305626,-0.070943825,-0.008165982,1.2722929,-0.9521082
0.0,0.1,0.9999999999999999,0.0,0.5235987755982988,0,0.064820126,-0.4560367,-0.11127308,0.11957892,-0.008773735,1.4434574,0.3437679,0.78895825,-1.7942197,-0.031413417,-0.07633824,0.046089288,1.2612569,-0.6638233
0.0,0.1,0.9999999999999999,0.0,0.5235987755982988,0,0.064577535,-0.45612088,-0.1251748,0.12686253,0.034420885,1.4743061,-0.08445721,0.7832231,-1.7952452,-0.024694666,-0.07426215,-0.045946404,1.2678515,0.29631743
0.0,0.1,0.9999999999999999,0.0,0.5235987755982988,0,0.06428924,-0.4559254,-0.11651844,0.103144474,0.041844465,1.370409,0.20144784,0.78712136,-1.7896184,-0.02124493,-0.09414943,-0.07163971,1.267479,0.70455843
0.0,0.1,0.9999999999999999,0.0,0.5235987755982988,0,0.06512905,-0.45597187,-0.11943085,0.124470554,0.08345637,1.456518,0.41912398,0.78726524,-1.7918717,-0.017586797,-0.089230634,0.028572707,1.280557,-1.3715265
0.0,0.1,0.9999999999999999,0.0,0.5235987755982988,0,0.06468099,-0.4557261,-0.11276307,0.12684159,0.016229808,1.4097598,0.07760145,0.7861474,-1.7987299,-0.032609608,-0.08702732,0.06360805,1.1503334,0.25438225
0.0,0.1,0.9999999999999999,0.0,0.5235987755982988,0,0.064850256,-0.45573846,-0.1251035,0.12035502,0.12966947,1.3639435,0.64014477,0.7887285,-1.7949963,-0.015238604,-0.09776369,0.069065206,1.2987207,-2.1947112
0.0,0.1,0.9999999999999999,0.0,0.5235987755982988,0,0.06469067,-0.45598942,-0.12696652,0.12236333,0.12066065,1.4142404,1.2160496,0.78682506,-1.7936867,-0.015416784,-0.10391099,0.08627862,1.2360965,1.116862
0.0,0.1,0.9999999999999999,0.0,0.5235987755982988,0,0.06474724,-0.4555547,-0.11890925,0.09713781,0.1498893,1.4277937,0.46000406,0.784665,-1.7934664,-0.024997804,-0.05738999,0.055882685,1.2345624,0.12952565
0.0,0.1,0.9999999999999999,0.0,0.5235987755982988,0,0.064749666,-0.45582414,-0.110417254,0.104002014,0.25392023,1.3699111,0.66615003,0.7855467,-1.796035,-0.018552272,-0.11739524,-0.1715545,1.2031761,2.646975
0.0,0.1,0.9999999999999999,0.0,0.5235987755982988,0,0.06471849,-0.4556533,-0.12127249,0.08949072,0.10173305,1.3511127,0.5354676,0.78378206,-1.7968862,-0.020658568,-0.057887394,0.025447397,1.2321514,-0.46659184
0.0,0.1,0.9999999999999999,0.0,0.5235987755982988,0,0.06474407,-0.4557766,-0.11150546,0.11589674,-0.03350412,1.3511597,0.17625181,0.7839172,-1.7916892,-0.017049061,-0.06713351,0.073430166,1.2654265,1.396982
0.0,0.1,0.9999999999999999,0.0,0.5235987755982988,0,0.0645219,-0.45578027,-0.10739292,0.12012593,0.23305105,1.5011027,0.36184883,0.78921145,-1.7916518,-0.024567513,-0.07558011,0.13088065,1.2763574,-0.29562193
0.0,0.1,0.9999999999999999,0.0,0.5235987755982988,0,0.06497783,-0.4559509,-0.11072914,0.111466974,0.11582396,1.4142851,0.27587444,0.7875929,-1.7905155,-0.008409174,-0.058561135,0.09835406,1.2467762,-0.5409527
0.0,0.1,0.9999999999999999,0.0,0.5235987755982988,0,0.064415716,-0.45593044,-0.12170163,0.11675414,0.17482185,1.3618729,0.9962558,0.7853217,-1.7915517,-0.01427795,-0.076251455,0.100786485,1.2094507,0.19525051
0.0,0.1,0.9999999999999999,0.0,0.5235987755982988,0,0.065039724,-0.45563668,-0.12292627,0.08590163,0.0792715,1.3546784,0.1773984,0.7872008,-1.7895232,-0.02252184,-0.056245595,0.014777917,1.2779412,0.27299747
0.0,0.1,0.9999999999999999,0.0,0.5235987755982988,0,0.065017805,-0.45588973,-0.11257441,0.09985939,0.11712675,1.4322958,0.41509444,0.78764814,-1.7909607,-0.023641963,-0.073177576,0.0645713,1.2591254,1.0364054
0.0,0.1,0.9999999999999999,0.0,0.5235987755982988,0,0.064940535,-0.45591095,-0.11383715,0.11549511,0.018323563,1.3755357,0.73382163,0.7862026,-1.7938485,-0.027761623,-0.08589423,0.10186811,1.2699597,1.4446105
0.0,0.1,0.9999999999999999,0.0,0.5235987755982988,0,0.06513472,-0.45603037,-0.12525599,0.13310155,-0.019278316,1.3826488,0.890616,0.7862025,-1.7945905,-0.009488993,-0.06047409,-0.008992494,1.1978648,-0.22954771
0.0,0.1,0.9999999999999999,0.0,0.5235987755982988,0,0.06506357,-0.45576593,-0.11802178,0.12875484,0.1264848,1.3672416,1.2561316,0.7859197,-1.7963928,-0.016666945,-0.09199823,-0.097114116,1.2688509,0.21733591
0.0,0.1,0.9999999999999999,0.0,0.5235987755982988,0,0.0646334,-0.4558841,-0.109373145,0.1118918,0.107984476,1.409439,-0.23277117,0.78679246,-1.7898456,-0.036270194,-0.07704055,0.015252725,1.248725,2.7217367
0.0,0.1,0.9999999999999999,0.0,0.5235987755982988,0,0.065474145,-0.4557543,-0.12131572,0.10976031,-0.09106726,1.4353313,0.094149776,0.7825633,-1.7912133,-0.024194151,-0.047109693,0.03269315,1.3389148,-0.74143577
0.0,0.1,0.9999999999999999,0.0,0.5235987755982988,0,0.064746,-0.45589295,-0.12545586,0.1186533,0.22044614,1.3979627,0.93068707,0.7871187,-1.7933351,-0.02488111,-0.07326511,0.044142198,1.2770563,0.13864635
0.0,0.1,0.9999999999999999,0.0,0.5235987755982988,0,0.064592175,-0.45575264,-0.11426179,0.11932136,0.16940425,1.428899,0.13885641,0.7860109,-1.7962822,-0.027122628,-0.070025,-0.047946934,1.2646027,1.5958797
0.0,0.1,0.9999999999999999,0.0,0.5235987755982988,0,0.064733125,-0.45578712,-0.1155653,0.10106186,0.06514376,1.4679046,0.45797008,0.7849369,-1.7937406,-0.020275598,-0.046499923,0.15804648,1.2464257,0.8844136
0.0,0.1,0.9999999999999999,0.0,0.5235987755982988,0,0.06495393,-0.45589206,-0.1201456,0.106118426,0.04912411,1.3523138,-0.17905803,0.78164744,-1.7889962,-0.027367312,-0.07174242,0.060663883,1.2346884,0.49260375
0.0,0.1,0.9999999999999999,0.0,0.5235987755982988,0,0.064321734,-0.45603082,-0.121798,0.11911582,0.031140676,1.4365253,0.012291955,0.7839621,-1.7954296,-0.03594799,-0.09210037,0.089107715,1.3282623,-0.92371076
0.0,0.1,0.9999999999999999,0.0,0.5235987755982988,0,0.0649202,-0.45582417,-0.119287536,0.10906497,-0.015297649,1.414507,1.3115735,0.7871114,-1.7941027,-0.026549373,-0.06826124,0.031006193,1.3671211,0.7922315
0.0,0.1,0.9999999999999999,0.0,0.5235987755982988,0,0.064754955,-0.4559816,-0.117126815,0.10796789,0.026097454,1.4431835,-0.23927672,0.7834736,-1.795294,-0.022009782,-0.079098225,-0.10676739,1.2616835,-0.3719616
0.0,0.1,0.9999999999999999,0.0,0.5235987755982988,0,0.064560354,-0.45593557,-0.12270529,0.12171416,0.05152526,1.3536654,0.47444266,0.78798956,-1.7930689,-0.019714486,-0.06550985,0.101468146,1.3435683,0.58728564
0.0,0.1,0.9999999999999999,0.0,0.5235987755982988,0,0.0648926,-0.45601872,-0.121706955,0.11106528,0.10262763,1.3816403,0.79350394,0.7865519,-1.7905396,-0.017207753,-0.08753251,0.059831094,1.2087848,-0.567967
0.0,0.1,0.9999999999999999,0.0,0.5235987755982988,0,0.06477287,-0.4559779,-0.118603885,0.11500812,0.05201931,1.3897269,0.39524326,0.7882015,-1.7924781,-0.028308406,-0.061819695,0.020099116,1.1783752,-1.8251634
0.0,0.1,0.9999999999999999,0.0,0.5235987755982988,0,0.065183595,-0.45570174,-0.12235483,0.11393143,0.056803793,1.410691,0.27436885,0.786533,-1.7955707,-0.010891911,-0.08318823,-0.029150138,1.2420577,-0.06504686
0.0,0.1,0.9999999999999999,0.0,0.5235987755982988,0,0.06480633,-0.4557906,-0.11069806,0.10859044,0.08543937,1.4522026,-0.16960019,0.78509414,-1.78876,-0.020186704,-0.042695235,0.078715205,1.3400369,0.67490864
0.0,0.1,0.9999999999999999,0.0,0.5235987755982988,0,0.064989045,-0.45601466,-0.12155482,0.12921312,0.022799818,1.472234,0.6573108,0.78369033,-1.7956066,-0.025091385,-0.05384491,0.036053825,1.206706,0.6015688
0.0,0.1,0.9999999999999999,0.0,0.5235987755982988,0,0.06499496,-0.45595533,-0.12147876,0.09824346,0.087404594,1.4474045,0.60385466,0.78833735,-1.7897943,-0.0300107,-0.05873134,0.03583656,1.1837652,0.59914017
0.0,0.1,0.9999999999999999,0.0,0.5235987755982988,0,0.064688526,-0.45585594,-0.11181249,0.113439366,0.098333806,1.3932751,0.5600721,0.7834066,-1.7892417,-0.015442254,-0.08207373,0.0034067028,1.3325161,0.80422556
0.0,0.1,0.9999999999999999,0.0,0.5235987755982988,0,0.0650415,-0.4557138,-0.12465509,0.11559734,0.014644534,1.4229877,0.002492526,0.78771216,-1.7909278,-0.02789669,-0.06835476,-0.024642535,1.2399446,0.73181
0.0,0.1,0.9999999999999999,0.0,0.5235987755982988,0,0.064513095,-0.45579195,-0.11771535,0.13133843,-0.007155856,1.3555293,1.2862709,0.7842295,-1.7913207,-0.018977242,-0.0694906,0.019655233,1.2516047,1.4156516
0.0,0.1,0.9999999999999999,0.0,0.5235987755982988,0,0.065197065,-0.45599917,-0.122567885,0.10526045,0.046622645,1.4409745,1.0931578,0.78682745,-1.7888361,-0.023829425,-0.07343195,-0.06393633,1.258807,-0.63522226
0.0,0.1,0.9999999999999999,0.0,0.5235987755982988,0,0.0650728,-0.4556014,-0.1100081,0.12008834,-0.012171121,1.4040637,0.5127524,0.7838577,-1.791069,-0.02051461,-0.089261405,0.044850625,1.2064861,-1.219126
0.0,0.1,0.9999999999999999,0.0,0.5235987755982988,0,0.06494229,-0.45596555,-0.1143841,0.11776844,0.038563393,1.4518516,0.15909901,0.7861707,-1.7868915,-0.022746352,-0.04251109,-0.077767186,1.3076218,-1.5854627
0.0,0.1,0.9999999999999999,0.0,0.5235987755982988,0,0.06502772,-0.45567247,-0.11447934,0.12042455,0.0058609266,1.3694218,0.16773717,0.7836271,-1.7906913,-0.026571767,-0.05977537,0.12035274,1.2321944,-0.6312242
0.0,0.1,0.9999999999999999,0.0,0.5235987755982988,0,0.065246336,-0.45587343,-0.12113006,0.10456497,0.06904643,1.4438184,0.6885408,0.7828467,-1.7929027,-0.024111118,-0.07717549,0.033693153,1.3455291,-1.3012103
0.0,0.1,0.9999999999999999,0.0,0.5235987755982988,0,0.065310046,-0.45614693,-0.120409265,0.10744173,0.116994135,1.401825,0.49108133,0.7879178,-1.7872102,-0.014152531,-0.07139572,0.086858176,1.2268068,0.6707065
0.0,0.1,0.9999999999999999,0.0,0.5235987755982988,0,0.06484561,-0.45567355,-0.11900373,0.11934101,-0.08293193,1.4356095,0.87534976,0.7881656,-1.7887068,-0.01611816,-0.07191634,-0.052521765,1.2703091,1.0501587
0.0,0.1,0.9999999999999999,0.0,0.5235987755982988,0,0.06480048,-0.45609328,-0.121371575,0.10398344,0.0959474,1.4328077,0.4916936,0.7883136,-1.792005,-0.031319555,-0.07744142,-0.015401256,1.2012389,-0.116216496
0.0,0.1,0.9999999999999999,0.0,0.5235987755982988,0,0.065074906,-0.4559594,-0.11158065,0.10421706,0.027261266,1.3694667,0.3298155,0.7855887,-1.794442,-0.025413029,-0.07689382,0.0090991175,1.2833909,0.12816985
0.0,0.1,0.9999999999999999,0.0,0.5235987755982988,0,0.064629525,-0.45578414,-0.116448626,0.12549533,0.020479374,1.3977236,0.22142072,0.7847606,-1.7897167,-0.026293308,-0.08407548,-0.002504854,1.2517135,1.0348476
0.0,0.1,0.9999999999999999,0.0,0.5235987755982988,0,0.064542904,-0.45589983,-0.12163551,0.10550874,0.13241132,1.3867803,0.9586593,0.78565246,-1.7975845,-0.02078821,-0.07038053,0.10215894,1.2555835,1.3929644
0.0,0.1,0.9999999999999999,0.0,0.5235987755982988,0,0.06510922,-0.45568135,-0.11283946,0.14178547,0.067448385,1.4325143,1.1303124,0.78706306,-1.7918268,-0.026615692,-0.08065857,0.13029782,1.2300805,-0.05831664
0.0,0.1,0.9999999999999999,0.0,0.5235987755982988,0,0.06508183,-0.45590743,-0.11404352,0.12051485,0.13214038,1.3518505,0.48864904,0.78284127,-1.7907649,-0.020885576,-0.105294555,0.05476378,1.2826059,0.5947004
0.0,0.1,0.9999999999999999,0.0,0.5235987755982988,0,0.06529631,-0.45587355,-0.11874848,0.11048542,0.12847562,1.3813065,0.13640401,0.7846485,-1.7916685,-0.037275698,-0.10367556,0.046903845,1.1975145,-0.88991255
0.0,0.1,0.9999999999999999,0.0,0.5235987755982988,0,0.06495071,-0.45588,-0.114789434,0.12924382,-0.047617514,1.4473455,0.9063099,0.7817628,-1.7941784,-0.028706862,-0.090689465,-0.074869454,1.2432027,0.26884145
0.0,0.1,0.9999999999999999,0.0,0.5235987755982988,0,0.06408493,-0.45590758,-0.116950035,0.111136846,0.016557738,1.4772795,0.9285847,0.7867047,-1.7908945,-0.008902555,-0.08371247,0.08360083,1.3104584,-0.44593608
0.0,0.1,0.9999999999999999,0.0,0.5235987755982988,0,0.06405071,-0.45607686,-0.12163955,0.121266834,-0.04269111,1.3931831,0.7742606,0.78933173,-1.7977722,-0.018682059,-0.079138406,0.008884129,1.2352684,0.92159235
0.0,0.1,0.9999999999999999,0.0,0.5235987755982988,0,0.06383416,-0.45559162,-0.12328784,0.10444604,0.007988362,1.4654351,0.33173016,0.7859625,-1.795566,-0.027164852,-0.07551241,0.12125172,1.2190102,0.33488372
0.0,0.1,0.9999999999999999,0.0,0.5235987755982988,0,0.06440218,-0.45600814,-0.11156954,0.10824685,0.040427186,1.3874416,0.22915857,0.78842235,-1.7928808,-0.009091601,-0.040596787,-0.055275496,1.1583056,-1.1736417
0.0,0.1,0.9999999999999999,0.0,0.5235987755982988,0,0.064743854,-0.4560208,-0.11616608,0.10434587,0.041935343,1.3837959,0.2281248,0.7833858,-1.7948792,-0.014870303,-0.071121275,0.15323222,1.2261901,-0.109700866
0.0,0.1,0.9999999999999999,0.0,0.5235987755982988,0,0.06417914,-0.45569682,-0.11771396,0.10828029,0.08708572,1.5093372,0.7235622,0.78645664,-1.7934641,-0.031322353,-0.0708652,-0.038702145,1.2211633,-2.7197754
0.0,0.1,0.9999999999999999,0.0,0.5235987755982988,0,0.064955056,-0.45601556,-0.12452068,0.11160788,-0.121720724,1.353889,-0.16086936,0.78576005,-1.7958663,-0.022722047,-0.08684021,0.050363693,1.2240903,0.17756006
0.0,0.1,0.9999999999999999,0.0,0.5235987755982988,0,0.06450667,-0.45591608,-0.12830344,0.09627635,0.07279085,1.444847,-0.27185196,0.7860311,-1.7932884,-0.015349762,-0.078989886,-0.0051080473,1.2965959,0.30070838
0.0,0.1,0.9999999999999999,0.0,0.5235987755982988,0,0.064331055,-0.4557067,-0.12074693,0.12261108,0.10876356,1.4483132,-0.078114256,0.78550357,-1.7949495,-0.021492941,-0.1018335,0.03027604,1.1915132,0.82592255
0.0,0.1,0.9999999999999999,0.0,0.5235987755982988,0,0.064159654,-0.45580837,-0.12549286,0.12355199,0.004804781,1.3332369,0.36967844,0.78512037,-1.7923601,-0.014577348,-0.051836766,-0.058588833,1.2661201,-0.6249867
0.0,0.1,0.9999999999999999,0.0,0.5235987755982988,0,0.064400375,-0.45590293,-0.115416296,0.07903842,0.022185808,1.3989123,0.8264763,0.78637666,-1.7987645,-0.021420881,-0.07759678,0.031510152,1.1692104,2.447568
0.0,0.1,0.9999999999999999,0.0,0.5235987755982988,0,0.0651039,-0.45570752,-0.12505089,0.112587936,-0.031963408,1.4208165,1.2185658,0.7858366,-1.7895132,-0.017645877,-0.077374436,-0.055791635,1.2292639,1.044981
0.0,0.1,0.9999999999999999,0.0,0.5235987755982988,0,0.0646535,-0.4561183,-0.1139745,0.11751964,-0.018031435,1.4104211,0.40639418,0.7848278,-1.7955651,-0.030750776,-0.0625424,0.026631944,1.2507656,-1.0822194
0.0,0.1,0.9999999999999999,0.0,0.5235987755982988,0,0.06467791,-0.45591936,-0.11537363,0.07983271,0.016326992,1.439378,1.1027453,0.7849019,-1.7949691,-0.024748797,-0.07192973,0.04653588,1.2446399,0.6955272
0.0,0.1,0.9999999999999999,0.0,0.5235987755982988,0,0.06453147,-0.45588136,-0.119814985,0.10184891,0.0984639,1.4003937,-0.49208558,0.7852843,-1.7911081,-0.025165725,-0.087786,-0.026529875,1.2659792,-0.15108156
0.0,0.1,0.9999999999999999,0.0,0.5235987755982988,0,0.06420557,-0.45607692,-0.11916218,0.1282175,-0.038111884,1.4862247,0.5493623,0.7819693,-1.7957896,-0.01851818,-0.08855543,0.07046452,1.3392369,1.1068519
0.0,0.1,0.9999999999999999,0.0,0.5235987755982988,0,0.064817965,-0.45572945,-0.11322977,0.11121271,0.05983521,1.400975,0.39831054,0.7841719,-1.7939771,-0.018124294,-0.095220655,0.1093667,1.3235881,0.40191436
0.0,0.1,0.9999999999999999,0.0,0.5235987755982988,0,0.064605296,-0.4556902,-0.11070101,0.10788825,0.12800968,1.3860075,0.3207247,0.78543097,-1.7952783,-0.030323729,-0.10489989,0.11319089,1.3294909,0.11430779
0.0,0.1,0.9999999999999999,0.0,0.5235987755982988,0,0.06499612,-0.45597917,-0.12132305,0.08929244,-0.030173684,1.3295242,0.94093984,0.7842167,-1.7951298,-0.018595906,-0.088610545,0.021583904,1.2485577,-1.362996
0.0,0.1,0.9999999999999999,0.0,0.5235987755982988,0,0.06477788,-0.45556468,-0.11464941,0.10884672,0.08106857,1.388988,0.7522753,0.7841318,-1.7922701,-0.013729556,-0.08704478,0.16886964,1.2631843,0.16574523
0.0,0.1,0.9999999999999999,0.0,0.5235987755982988,0,0.06442025,-0.45572183,-0.12432585,0.13442186,0.07112989,1.3594246,0.08667339,0.7861253,-1.7952026,-0.025554033,-0.040219903,0.041718118,1.2427498,-0.47403747
0.0,0.1,0.9999999999999999,0.0,0.5235987755982988,0,0.064804226,-0.45581633,-0.12785996,0.10442017,0.15518817,1.4131988,0.31286305,0.7867035,-1.789964,-0.02863511,-0.08900109,-0.028685264,1.1808859,-0.94170725
0.0,0.1,0.9999999999999999,0.0,0.5235987755982988,0,0.06471801,-0.455719,-0.11491187,0.10293583,-0.03631478,1.4206078,0.37512517,0.78874105,-1.7910916,-0.018893735,-0.08338176,0.05659341,1.2417854,0.8764381
0.0,0.1,0.9999999999999999,0.0,0.5235987755982988,0,0.06433978,-0.45604143,-0.11808419,0.11674354,0.07637776,1.3862249,0.84511507,0.7846586,-1.7915385,-0.031157125,-0.08597719,-0.041672874,1.2118441,0.07315277
0.0,0.1,0.9999999999999999,0.0,0.5235987755982988,0,0.06476161,-0.45614496,-0.11249293,0.11804144,0.14866716,1.4518425,-0.21910459,0.7865402,-1.7975804,-0.028271437,-0.03312715,0.061534908,1.2381756,-0.81114835
0.0,0.1,0.9999999999999999,0.0,0.5235987755982988,0,0.06455872,-0.4557883,-0.12465072,0.094649985,0.028186472,1.3307042,0.5155455,0.78726906,-1.7912499,-0.026624309,-0.06286007,0.1790368,1.2055125,-0.1964321
0.0,0.1,0.9999999999999999,0.0,0.5235987755982988,0,0.064831756,-0.45592955,-0.106482424,0.11466088,-0.022182176,1.3962439,0.5038134,0.78696096,-1.7941356,-0.022364458,-0.041451924,-0.04763397,1.2157103,-0.6674586
0.0,0.1,0.9999999999999999,0.0,0.5235987755982988,0,0.06464097,-0.4558878,-0.1259333,0.106985904,0.16637772,1.4051824,0.1969112,0.78592056,-1.7948341,-0.02379948,-0.09565777,0.08644628,1.3782281,1.0406623
0.0,0.1,0.9999999999999999,0.0,0.5235987755982988,0,0.064870276,-0.45588863,-0.117789045,0.120721996,0.038677372,1.4163897,0.68196815,0.7827428,-1.7921301,-0.01823367,-0.12914574,0.04224457,1.2338501,0.94795495
0.0,0.1,0.9999999999999999,0.0,0.5235987755982988,0,0.06481969,-0.45568028,-0.12265057,0.12230618,0.010166857,1.3885913,0.8894265,0.78624165,-1.7915546,-0.012884066,-0.06445508,0.09432482,1.1849655,-1.823158
0.0,0.1,0.9999999999999999,0.0,0.5235987755982988,0,0.06449738,-0.4559169,-0.113134116,0.115957245,0.0079208575,1.3458359,0.3177682,0.78587985,-1.7958536,-0.023922028,-0.046994857,-0.08514416,1.2585158,-0.4166298
0.0,0.1,0.9999999999999999,0.0,0.5235987755982988,0,0.06464439,-0.45585945,-0.11516331,0.12605263,0.043362793,1.4618924,0.45699352,0.7819068,-1.7885582,-0.024226777,-0.048133824,-0.056656085,1.2613517,1.5197216
0.0,0.1,0.9999999999999999,0.0,0.5235987755982988,0,0.06455,-0.45596755,-0.10927209,0.107710764,0.16623062,1.3387579,0.4123269,0.7854314,-1.7882384,-0.01953649,-0.079783194,-0.111332074,1.2318066,1.6987475
0.0,0.1,0.9999999999999999,0.0,0.5235987755982988,0,0.0649024,-0.45589164,-0.11171118,0.11374639,0.058638636,1.3464253,0.2784172,0.7855136,-1.7937427,-0.024344988,-0.10383575,0.099310964,1.2848697,-1.1816244
0.0,0.1,0.9999999999999999,0.0,0.5235987755982988,0,0.064521454,-0.45558622,-0.11939828,0.10914668,0.109563686,1.4003776,0.14082687,0.7854744,-1.7918483,-0.014093712,-0.09520792,0.037873063,1.2347255,-1.6086196
0.0,0.1,0.9999999999999999,0.0,0.5235987755982988,0,0.065068826,-0.45597383,-0.11408213,0.121022694,-0.15754437,1.3953205,0.30705082,0.78572094,-1.7920992,-0.02725134,-0.05580947,-0.022067651,1.2751888,0.38375068
0.0,0.1,0.9999999999999999,0.0,0.5235987755982988,0,0.06472998,-0.4561491,-0.12437975,0.11193876,0.055102915,1.3668385,1.4914312,0.7826662,-1.7979723,-0.031797353,-0.05572588,0.121881455,1.2319722,1.7588882
0.0,0.1,0.9999999999999999,0.0,0.5235987755982988,0,0.064824924,-0.45584837,-0.11843325,0.11014818,0.079320684,1.3763593,0.89107215,0.7837394,-1.7930425,-0.035651732,-0.04519478,0.13717422,1.2447088,0.0070847524
0.0,0.1,0.9999999999999999,0.0,0.5235987755982988,0,0.06421266,-0.4557757,-0.10621342,0.11538151,0.13543771,1.4650747,0.41807294,0.78619283,-1.7930969,-0.02043322,-0.045987833,-0.010853227,1.2395495,0.6709211
0.0,0.1,0.9999999999999999,0.0,0.5235987755982988,0,0.0644263,-0.45600772,-0.13020755,0.1049198,0.075359225,1.4154061,-0.049283907,0.78455323,-1.7945726,-0.025708335,-0.058307715,-0.0058899825,1.2300946,-0.028073302
0.0,0.1,0.9999999999999999,0.0,0.5235987755982988,0,0.06422724,-0.45593685,-0.11971969,0.12152536,0.11443941,1.3396574,0.050976623,0.7874462,-1.7951796,-0.028185977,-0.051238738,0.056120474,1.176217,0.77419865
0.0,0.1,0.9999999999999999,0.0,0.5235987755982988,0,0.06537693,-0.45590132,-0.1068109,0.083614185,-0.036063872,1.3804622,0.53273165,0.78829277,-1.7957705,-0.019839874,-0.06325478,-0.028558219,1.2442948,1.5366604
0.0,0.1,0.9999999999999999,0.0,0.5235987755982988,0,0.06451102,-0.45570388,-0.1185663,0.10852363,0.059747536,1.4540979,1.3036627,0.7853136,-1.7949563,-0.023669768,-0.08087225,-0.018176025,1.242701,-0.28180373
0.0,0.1,0.9999999999999999,0.0,0.5235987755982988,0,0.06503088,-0.45590523,-0.12193845,0.083756536,-0.052118614,1.462406,0.68477064,0.7841882,-1.7963761,-0.02514629,-0.082642555,0.20538433,1.259878,0.12973103
0.0,0.1,0.9999999999999999,0.0,0.5235987755982988,0,0.06478292,-0.4557801,-0.118920095,0.11808915,-0.03522972,1.4181654,0.304583,0.78905886,-1.7902497,-0.027361495,-0.05383526,-0.016366119,1.2801543,0.784517
0.0,0.1,0.9999999999999999,0.0,0.5235987755982988,0,0.0648163,-0.4557271,-0.11752322,0.10530787,0.0093453685,1.3786793,0.51581854,0.7864916,-1.7931489,-0.031230126,-0.06528099,0.12460504,1.2525853,-1.244698
0.0,0.1,0.9999999999999999,0.0,0.5235987755982988,0,0.06445204,-0.45599225,-0.111935005,0.10120367,-0.01863427,1.3276861,0.4963078,0.78394854,-1.7914084,-0.022251565,-0.08959542,-0.02516954,1.2384918,-0.60739785
0.0,0.1,0.9999999999999999,0.0,0.5235987755982988,0,0.064231806,-0.45563298,-0.113318995,0.13715088,-0.0434695,1.4417254,0.27822262,0.7886136,-1.7928475,-0.025270298,-0.088580504,0.22554092,1.310953,-1.1743964
0.0,0.1,0.9999999999999999,0.0,0.5235987755982988,0,0.065138474,-0.45572007,-0.12264926,0.115829915,0.05287601,1.3905245,0.74941623,0.782767,-1.7946411,-0.034498364,-0.053602636,-0.12102735,1.3232595,0.63031054
0.0,0.1,0.9999999999999999,0.0,0.5235987755982988,0,0.06434721,-0.4557172,-0.1131836,0.119501,0.16624895,1.403718,0.40964258,0.7852075,-1.7964894,-0.02597808,-0.09970858,0.042721625,1.2580364,-0.14715786
0.0,0.1,0.9999999999999999,0.0,0.5235987755982988,0,0.06461067,-0.45596933,-0.11333591,0.10294695,0.064483225,1.4214506,0.496046,0.78669065,-1.7930745,-0.025730124,-0.053495336,0.06298926,1.2350749,0.16892384
0.0,0.1,0.9999999999999999,0.0,0.5235987755982988,0,0.064380154,-0.45583442,-0.11564161,0.10381272,0.07570022,1.3473836,-0.06379868,0.7845138,-1.7910626,-0.028717268,-0.06750928,0.049494497,1.2875388,0.29403582
0.0,0.1,0.9999999999999999,0.0,0.5235987755982988,0,0.06467684,-0.45589837,-0.11428433,0.10971696,0.00446465,1.4468436,0.80626535,0.7866062,-1.7952638,-0.023899484,-0.07747335,0.03675606,1.252717,1.1170063
0.0,0.1,0.9999999999999999,0.0,0.5235987755982988,0,0.06438407,-0.45613152,-0.11848645,0.10522506,0.011809893,1.4287407,0.54496384,0.7869069,-1.7911412,-0.02142688,-0.048314277,0.07262732,1.2005019,0.10643871
0.0,0.1,0.9999999999999999,0.0,0.5235987755982988,0,0.0643315,-0.45595512,-0.11350975,0.107420705,0.15005554,1.389184,0.5561474,0.7908319,-1.796267,-0.02642407,-0.07899593,-0.03987883,1.2280972,0.77124226
0.0,0.1,0.9999999999999999,0.0,0.5235987755982988,0,0.06424096,-0.4559732,-0.121023156,0.107071646,0.014863077,1.4081665,0.5937829,0.7859962,-1.7911128,-0.022883907,-0.051007114,0.010066445,1.2571206,-0.80357856
0.0,0.1,0.9999999999999999,0.0,0.5235987755982988,0,0.0642632,-0.45579556,-0.12737712,0.115950584,0.051282767,1.3949555,0.9924711,0.7877428,-1.7871252,-0.011549864,-0.082523115,0.016505096,1.2294605,-1.0226897
0.0,0.1,0.9999999999999999,0.0,0.5235987755982988,0,0.06469396,-0.45567188,-0.11537454,0.14009388,0.024442948,1.4326472,0.992189,0.7842229,-1.7969569,-0.026333299,-0.08316763,0.00931469,1.3219594,-0.9410596
0.0,0.1,0.9999999999999999,0.0,0.5235987755982988,0,0.06500846,-0.4558679,-0.11402522,0.11325205,0.2190133,1.4271115,0.19142602,0.78747797,-1.7979224,-0.027531685,-0.08229676,-0.06950979,1.2522712,0.47652364
0.0,0.1,0.9999999999999999,0.0,0.5235987755982988,0,0.06472152,-0.45579526,-0.11251551,0.13497497,-0.121778384,1.4443605,0.84443563,0.78176093,-1.7894166,-0.015209558,-0.04770412,-0.12882297,1.183757,2.984685
0.0,0.1,0.9999999999999999,0.0,0.5235987755982988,0,0.06435345,-0.45590705,-0.11142146,0.1196166,0.22907947,1.3611295,0.6029482,0.78514177,-1.7921103,-0.020383364,-0.07540755,0.06546984,1.1915668,-0.783213
0.0,0.1,0.9999999999999999,0.0,0.5235987755982988,0,0.06497581,-0.45577934,-0.11390118,0.12359145,0.17062947,1.462837,0.7153503,0.786633,-1.7917016,-0.024418993,-0.10984321,0.09369542,1.2803221,0.8385311
0.0,0.1,0.9999999999999999,0.0,0.5235987755982988,0,0.06520499,-0.45620945,-0.12410096,0.09987271,-0.073256575,1.3596596,-0.074363515,0.78850055,-1.7968544,-0.025607586,-0.064129196,-0.07502945,1.2397465,1.5264299
0.0,0.1,0.9999999999999999,0.0,0.5235987755982988,0,0.06515257,-0.45581847,-0.11825563,0.094609246,0.13214621,1.4181478,0.3406796,0.7859211,-1.790563,-0.031943336,-0.05317775,0.008542395,1.269234,1.1031172
0.0,0.1,0.9999999999999999,0.0,0.5235987755982988,0,0.06479197,-0.45598724,-0.114573635,0.09070779,0.08980188,1.344536,0.1779136,0.78559774,-1.7887837,-0.023022117,-0.09417733,0.04671561,1.2961882,-1.5190797
0.0,0.1,0.9999999999999999,0.0,0.5235987755982988,0,0.06446856,-0.456019,-0.10699423,0.10888569,-0.051781774,1.3457538,0.014738306,0.7893706,-1.7922715,-0.031717394,-0.08817341,0.04704874,1.2887875,-0.21234481
0.0,0.1,0.9999999999999999,0.0,0.5235987755982988,0,0.0648174,-0.45588896,-0.123949446,0.10707123,0.0075587383,1.4136946,0.4576226,0.7853288,-1.791629,-0.02878382,-0.06037372,0.12033265,1.2369316,0.5077588
0.0,0.1,0.9999999999999999,0.0,0.5235987755982988,0,0.0648562,-0.455894,-0.11450921,0.10908579,0.14693736,1.416169,0.31625932,0.783582,-1.7910819,-0.02282339,-0.08280309,0.2799658,1.2676644,0.3429754
0.0,0.1,0.9999999999999999,0.0,0.5235987755982988,0,0.064554825,-0.45595032,-0.11145165,0.1268808,0.06123997,1.4081533,-0.4583982,0.78367263,-1.7922609,-0.025182148,-0.08212532,-0.011035825,1.1822168,0.23713063
0.0,0.1,0.9999999999999999,0.0,0.5235987755982988,0,0.06506209,-0.45607653,-0.12686968,0.11646222,0.06475362,1.4381789,0.17304872,0.7848842,-1.7927177,-0.011399177,-0.08906002,0.011994335,1.2490944,0.52666944
0.0,0.1,0.9999999999999999,0.0,0.5235987755982988,0,0.064668655,-0.4560321,-0.11777643,0.11444058,0.12960477,1.3776938,0.38583758,0.78782505,-1.7958028,-0.022229468,-0.0999629,0.058086365,1.2695707,-0.39094868
0.0,0.1,0.9999999999999999,0.0,0.5235987755982988,0,0.06533663,-0.4557176,-0.11405069,0.1348884,-0.036477737,1.4237317,-0.032218676,0.7810867,-1.7880952,-0.012850857,-0.08033568,-0.00526681,1.2831897,2.252073
0.0,0.1,0.9999999999999999,0.0,0.5235987755982988,0,0.06468613,-0.4560915,-0.120109335,0.105899364,0.1658177,1.3623146,0.14495951,0.78678256,-1.7900887,-0.027048828,-0.08789827,0.06255733,1.2925259,-0.86199284
0.0,0.1,0.9999999999999999,0.0,0.5235987755982988,0,0.06474743,-0.4557722,-0.11395413,0.109827474,0.12014014,1.4266096,0.42736134,0.78615654,-1.7897401,-0.020717874,-0.06295719,-0.12528129,1.2555621,0.5785028
0.0,0.1,0.9999999999999999,0.0,0.5235987755982988,0,0.06454457,-0.45611805,-0.11632982,0.11981281,0.0120589435,1.4383835,0.4705334,0.7855619,-1.7934582,-0.025465354,-0.08714353,0.060558263,1.2130175,1.5701131
0.0,0.1,0.9999999999999999,0.0,0.5235987755982988,0,0.06451595,-0.45578453,-0.12100496,0.08638514,0.051634684,1.4636184,-0.040256575,0.78774166,-1.7927575,-0.02345754,-0.05913534,-0.08889797,1.2764684,0.13320775
0.0,0.1,0.9999999999999999,0.0,0.5235987755982988,0,0.06473427,-0.45589274,-0.118906446,0.10720633,-0.09723786,1.4399405,0.43697944,0.78366345,-1.7902744,-0.015044045,-0.08287835,0.04235655,1.2266842,1.0369592
0.0,0.1,0.9999999999999999,0.0,0.5235987755982988,0,0.06516213,-0.45569497,-0.11293645,0.1340426,0.01552661,1.4290979,-0.16425769,0.7831514,-1.7893122,-0.013411292,-0.06984468,-0.052128613,1.1993426,-1.731395
0.0,0.1,0.9999999999999999,0.0,0.5235987755982988,0,0.06484395,-0.45585066,-0.11714912,0.10760818,0.026893029,1.4303533,1.0394713,0.7881594,-1.7911978,-0.018492324,-0.076793216,0.032279387,1.2707933,0.92927
0.0,0.1,0.9999999999999999,0.0,0.5235987755982988,0,0.06464589,-0.45596296,-0.12029692,0.11926589,0.070350915,1.4305143,0.3711737,0.7866064,-1.7889969,-0.01323794,-0.07331195,-0.0058863456,1.2626878,1.2939327
0.0,0.1,0.9999999999999999,0.0,0.5235987755982988,0,0.06462003,-0.4560405,-0.10634788,0.12845379,0.109026246,1.3904253,0.59873945,0.7861305,-1.789644,-0.0061931633,-0.062734045,0.17058751,1.2426627,0.12522253
0.0,0.1,0.9999999999999999,0.0,0.5235987755982988,0,0.065264314,-0.4557464,-0.1143712,0.09987911,0.15616165,1.3693486,0.43477905,0.7855848,-1.7904037,-0.033966936,-0.080106154,0.13232066,1.2394154,-1.3085724
0.0,0.1,0.9999999999999999,0.0,0.5235987755982988,0,0.06519777,-0.45601162,-0.11909181,0.13253999,0.082705446,1.4236022,-0.47654873,0.78322875,-1.7973864,-0.018208928,-0.05058438,0.13582833,1.2308406,-0.92790586
0.0,0.1,0.9999999999999999,0.0,0.5235987755982988,0,0.065048315,-0.45588684,-0.11121346,0.13146305,0.02428706,1.4237915,-0.447397,0.78490305,-1.7942494,-0.027411265,-0.092336416,-0.09157747,1.2723404,-0.48362714
0.0,0.1,0.9999999999999999,0.0,0.5235987755982988,0,0.06509765,-0.45581067,-0.11929066,0.12530375,0.07945175,1.4166328,-0.26164442,0.7861158,-1.7946297,-0.015593567,-0.08342104,-0.10474951,1.1907774,-0.69982
0.0,0.1,0.9999999999999999,0.0,0.5235987755982988,0,0.0645752,-0.45586905,-0.1119935,0.07967114,0.16863015,1.3856447,0.02726754,0.78537923,-1.7946801,-0.013243372,-0.06323711,-0.11655175,1.2808743,0.79961056
0.0,0.1,0.9999999999999999,0.0,0.5235987755982988,0,0.064691246,-0.45590612,-0.11784552,0.1013114,0.09028211,1.383533,-0.18909824,0.78601444,-1.7943683,-0.0132931,-0.04960622,0.19231792,1.2958581,0.7307844
0.0,0.1,0.9999999999999999,0.0,0.5235987755982988,0,0.06466561,-0.455687,-0.12305188,0.111061655,0.03143247,1.4020765,-0.57752085,0.7845382,-1.789256,-0.022752436,-0.07450181,-0.0480173,1.2621505,0.57847387
0.0,0.1,0.9999999999999999,0.0,0.5235987755982988,0,0.0641288,-0.45595285,-0.12019696,0.12015524,-0.018639283,1.4082351,0.013852137,0.78496635,-1.7937346,-0.029154463,-0.09649515,-0.14468312,1.3075165,-2.3058655
0.0,0.1,0.9999999999999999,0.0,0.5235987755982988,0,0.064008415,-0.45575675,-0.11500074,0.102961324,-0.0046583246,1.4260525,0.032421865,0.7857683,-1.7923015,-0.03630066,-0.0420118,0.0684803,1.3047398,1.1033252
0.0,0.1,0.9999999999999999,0.0,0.5235987755982988,0,0.064018734,-0.4560391,-0.11325593,0.11695838,0.109033614,1.4024075,0.037674893,0.78604245,-1.792876,-0.029577387,-0.06447098,-0.025602832,1.2787601,0.05532379
0.0,0.1,0.9999999999999999,0.0,0.5235987755982988,0,0.06483302,-0.45569348,-0.10836517,0.0772677,-0.087225385,1.3830138,0.061591145,0.7904819,-1.7936457,-0.022315757,-0.060896426,0.094395034,1.2702204,1.9411999
0.0,0.1,0.9999999999999999,0.0,0.5235987755982988,0,0.06484341,-0.4558015,-0.12140306,0.09366904,0.08522035,1.4371587,0.903673,0.78564626,-1.7926923,-0.018312367,-0.051641118,0.11716517,1.2385654,-0.8502395
0.0,0.1,0.9999999999999999,0.0,0.5235987755982988,0,0.06485707,-0.45588797,-0.11891497,0.12401225,0.20784546,1.4296201,0.45096198,0.7862313,-1.7871596,-0.01114082,-0.07535972,0.038353838,1.1872349,1.9398558
0.0,0.1,0.9999999999999999,0.0,0.5235987755982988,0,0.064689554,-0.45578012,-0.11546806,0.11800687,-0.033665486,1.4146441,0.53587925,0.78441954,-1.7893468,-0.022729278,-0.06946429,-0.03089404,1.2515466,0.5983038
0.0,0.1,0.9999999999999999,0.0,0.5235987755982988,0,0.064872794,-0.45613784,-0.1148766,0.13384163,0.09606416,1.3587497,0.6760303,0.78366935,-1.790538,-0.020517034,-0.063153856,-0.029768879,1.2709676,1.0402546
0.0,0.1,0.9999999999999999,0.0,0.5235987755982988,0,0.064313106,-0.4561305,-0.10856607,0.10850053,-0.015366347,1.422372,1.0365616,0.78377026,-1.7907661,-0.014960094,-0.030617936,0.04029507,1.2329788,-1.1187241
0.0,0.1,0.9999999999999999,0.0,0.5235987755982988,0,0.065146506,-0.45574015,-0.12718804,0.092643216,0.047468957,1.3838474,0.58382493,0.7879037,-1.7903577,-0.024768084,-0.078609295,0.085661486,1.253943,-1.4051039
0.0,0.1,0.9999999999999999,0.0,0.5235987755982988,0,0.0645467,-0.45587063,-0.12672436,0.10677331,0.11550844,1.4615877,0.9721664,0.78513026,-1.7907134,-0.015300101,-0.062245775,-0.013343106,1.2779204,-0.8177467
0.0,0.1,0.9999999999999999,0.0,0.5235987755982988,0,0.06491258,-0.45559087,-0.11456334,0.10466687,-0.051328976,1.3934562,-0.28187415,0.7865834,-1.7929264,-0.030878896,-0.061632857,0.12359889,1.2549218,-1.4818703
0.0,0.1,0.9999999999999999,0.0,0.5235987755982988,0,0.06515207,-0.45589137,-0.12794486,0.098022185,0.1967981,1.3821058,0.6815495,0.78513765,-1.7962881,-0.026444294,-0.08788661,0.04389426,1.2260298,-0.29604048
0.0,0.1,0.9999999999999999,0.0,0.5235987755982988,0,0.06472494,-0.45598346,-0.119270906,0.10124121,0.07059563,1.4309223,0.19201446,0.78532815,-1.7932104,-0.008687749,-0.06810475,0.0780241,1.2066916,-1.5588955
0.0,0.1,0.9999999999999999,0.0,0.5235987755982988,0,0.06509128,-0.4558362,-0.112294175,0.099141136,0.08946727,1.4263215,0.76434875,0.7876779,-1.792207,-0.020665621,-0.06199182,0.036436036,1.2167199,1.1816807
0.0,0.1,0.9999999999999999,0.0,0.5235987755982988,0,0.06437489,-0.4559949,-0.11381971,0.13896643,0.08221596,1.4265012,0.92711246,0.78726935,-1.797846,-0.019838022,-0.09412397,0.12651472,1.3249702,-0.5683895
0.0,0.1,0.9999999999999999,0.0,0.5235987755982988,0,0.06465367,-0.45601892,-0.12139032,0.11320235,0.18277642,1.3877534,0.37811977,0.7869719,-1.7919446,-0.024090316,-0.10113622,-0.0085121365,1.2590508,1.136572
0.0,0.1,0.9999999999999999,0.0,0.5235987755982988,0,0.06453778,-0.45573416,-0.11907694,0.10700343,0.037014786,1.393326,-0.48437753,0.7833762,-1.7887361,-0.018368056,-0.087194316,-0.02583156,1.2299819,-1.7202938
0.0,0.1,0.9999999999999999,0.0,0.5235987755982988,0,0.064891025,-0.45580384,-0.117202014,0.107622504,-0.060478874,1.4647983,0.3859761,0.7832502,-1.7944069,-0.009252702,-0.0884075,-0.055473708,1.2591662,-1.1658722
0.0,0.1,0.9999999999999999,0.0,0.5235987755982988,0,0.06506631,-0.45581922,-0.11948001,0.10420794,0.068862066,1.3902518,-0.2739656,0.78569704,-1.7939152,-0.020897761,-0.075338006,0.15231617,1.2858796,-1.7302706
0.0,0.1,0.9999999999999999,0.0,0.5235987755982988,0,0.064817235,-0.45609888,-0.11570172,0.12583199,-0.02089572,1.3683134,0.5824061,0.7862858,-1.7919033,-0.020985113,-0.06757724,0.13481942,1.2566255,-1.1464071
