sanky1234/BimanualDexCatch/isaacgymenvs/cem_results/football_pose_-0.1_0.0_1.0999999999999999_0.5235987755982988_0.0_0_2025-05-25.csv
x,y,z,roll,pitch,yaw,robot1/joint1,robot1/joint2,robot1/joint3,robot1/joint4,robot1/joint5,robot1/joint6,robot1/joint7,robot2/joint1,robot2/joint2,robot2/joint3,robot2/joint4,robot2/joint5,robot2/joint6,robot2/joint7
-0.1,0.0,1.0999999999999999,0.5235987755982988,0.0,0,-0.85733765,-1.4264357,1.1763016,0.0012914233,-0.09181412,1.1766983,0.7553598,1.1551207,-0.95756304,-2.8513336,0.013611451,0.140498,1.1488848,-0.5306083
-0.1,0.0,1.0999999999999999,0.5235987755982988,0.0,0,-0.8573033,-1.4269183,1.1749759,-0.02200684,-0.024704363,1.1955363,-0.49766076,1.1523192,-0.9586869,-2.960107,-0.008124394,0.043437876,1.1342496,0.052474372
-0.1,0.0,1.0999999999999999,0.5235987755982988,0.0,0,-0.8566831,-1.4278712,1.1758075,0.02368336,0.12262665,1.1775905,-0.102256864,1.1544881,-0.9590863,-2.8452933,0.0020438505,0.10591205,1.1770196,-0.9840892
-0.1,0.0,1.0999999999999999,0.5235987755982988,0.0,0,-0.8577288,-1.4264623,1.1756227,-0.08851513,-0.16069396,1.1586244,-0.33156228,1.1530918,-0.95851624,-2.9513607,-0.002646748,0.07029622,1.1655366,-0.24197753
-0.1,0.0,1.0999999999999999,0.5235987755982988,0.0,0,-0.85728073,-1.4277122,1.1764035,0.008673848,0.105621785,1.1548449,-0.11827152,1.1523983,-0.9617116,-2.985731,0.0047987318,0.11378084,1.0838228,-0.18259911
-0.1,0.0,1.0999999999999999,0.5235987755982988,0.0,0,-0.8563817,-1.4260799,1.1755306,-0.010670045,-0.052053895,1.200744,-0.40421075,1.1554751,-0.9613905,-2.9904811,-0.001740875,0.15671368,1.0961101,-0.44621098
-0.1,0.0,1.0999999999999999,0.5235987755982988,0.0,0,-0.8582179,-1.4273053,1.17507,0.0026964115,0.042363245,1.1873716,0.33112004,1.1531019,-0.9589263,-2.8346179,-0.016294606,0.1128228,1.0986404,0.0058594844
-0.1,0.0,1.0999999999999999,0.5235987755982988,0.0,0,-0.8581783,-1.4259198,1.1751026,-0.057613082,-0.1270371,1.1772497,0.14859568,1.1522244,-0.957009,-2.9849927,0.034974486,0.07242012,1.2109321,-0.03997047
-0.1,0.0,1.0999999999999999,0.5235987755982988,0.0,0,-0.85702646,-1.4276614,1.1760361,-0.018056646,-0.024035282,1.1879259,-0.35018072,1.1503329,-0.960764,-2.9018426,-0.02572672,0.009058829,1.1337458,0.100151315
-0.1,0.0,1.0999999999999999,0.5235987755982988,0.0,0,-0.8576867,-1.4261385,1.1752203,-0.058931157,0.24526428,1.1693147,-0.6052669,1.1557673,-0.9601283,-2.7814152,-0.00390727,0.049157288,1.158693,-0.19423094
-0.1,0.0,1.0999999999999999,0.5235987755982988,0.0,0,-0.8572551,-1.4264922,1.1758766,-0.022116605,0.008574178,1.1261129,-0.1257361,1.1553564,-0.95776075,-2.8915367,-0.031424977,-0.03339187,1.1547099,-0.450769
-0.1,0.0,1.0999999999999999,0.5235987755982988,0.0,0,-0.8574936,-1.4271376,1.1763054,-0.029783895,-0.043884087,1.2318635,0.9072454,1.1519523,-0.9562698,-2.8087165,-0.057437457,-0.013117547,1.1788021,0.11200247
-0.1,0.0,1.0999999999999999,0.5235987755982988,0.0,0,-0.85683346,-1.4275548,1.1759257,-0.027247021,-0.05743735,1.118551,-0.4529264,1.1541674,-0.9579075,-2.9164402,-0.032661464,0.07085258,1.1922033,0.91467476
-0.1,0.0,1.0999999999999999,0.5235987755982988,0.0,0,-0.8577134,-1.4262414,1.1764064,-0.036909368,0.0038727694,1.1471509,-0.7127777,1.1522958,-0.96112597,-2.8441355,-0.019971345,0.23409382,1.1309996,-0.39891776
-0.1,0.0,1.0999999999999999,0.5235987755982988,0.0,0,-0.85721886,-1.426318,1.1749874,0.019920569,-0.07596699,1.1258994,-0.8046134,1.1542234,-0.9604983,-2.8421612,-0.03814368,0.05347706,1.1195198,0.10220573
-0.1,0.0,1.0999999999999999,0.5235987755982988,0.0,0,-0.8573669,-1.4274745,1.1760422,-0.02989667,0.04255196,1.0499951,-0.4057676,1.1533834,-0.95863676,-2.9050078,0.06303546,0.16906503,1.2469561,-0.61662585
-0.1,0.0,1.0999999999999999,0.5235987755982988,0.0,0,-0.8578255,-1.4267035,1.1752741,-0.03672492,-0.023257678,1.2191919,-0.4728425,1.1519523,-0.95965755,-2.9582524,0.029524542,0.11142601,1.064015,-0.9910646
-0.1,0.0,1.0999999999999999,0.5235987755982988,0.0,0,-0.85671544,-1.4267027,1.1768186,0.038996197,0.17303063,1.1241547,-0.18049744,1.1531606,-0.9601947,-2.883551,0.026816692,0.024870941,1.2917095,-1.6577858
-0.1,0.0,1.0999999999999999,0.5235987755982988,0.0,0,-0.8570071,-1.4266528,1.1751869,-0.017498704,0.0942015,1.2140421,0.471593,1.1521128,-0.96060425,-2.917083,-0.048118945,0.15800005,1.146897,-0.31856447
-0.1,0.0,1.0999999999999999,0.5235987755982988,0.0,0,-0.8580692,-1.427565,1.1771051,-0.017067242,-0.15286763,1.1309285,-1.3120898,1.1521225,-0.96171427,-2.9183257,0.04836673,-0.08002858,1.1259583,-0.5073977
-0.1,0.0,1.0999999999999999,0.5235987755982988,0.0,0,-0.8572934,-1.4268593,1.1758751,0.008528499,-0.13075688,1.1163032,0.68047965,1.1510229,-0.96106994,-2.9464936,0.0122167505,-0.010303907,1.1378773,-1.2232524
-0.1,0.0,1.0999999999999999,0.5235987755982988,0.0,0,-0.8573505,-1.4262627,1.1758796,-0.06284711,0.21367458,1.093142,1.3903563,1.1549035,-0.958127,-2.8489628,0.011835226,-0.019623509,1.1388097,-0.5948791
-0.1,0.0,1.0999999999999999,0.5235987755982988,0.0,0,-0.85715,-1.4263324,1.1742508,-0.043526538,0.06685478,1.1838807,-0.4928722,1.1527052,-0.95951587,-2.9056613,0.004104225,0.016608654,1.1705203,0.03088597
-0.1,0.0,1.0999999999999999,0.5235987755982988,0.0,0,-0.857044,-1.4264923,1.1753223,-0.11791736,-0.15897729,1.0976322,-0.7555659,1.1518263,-0.95995927,-2.8940969,-0.02426455,0.113857254,1.1210301,-0.045620646
-0.1,0.0,1.0999999999999999,0.5235987755982988,0.0,0,-0.8567796,-1.4256438,1.1760159,-0.078173846,0.034291405,1.2348262,-0.8179337,1.153558,-0.9607433,-2.8212836,-0.0029049527,0.035503134,1.1693873,0.15655753
-0.1,0.0,1.0999999999999999,0.5235987755982988,0.0,0,-0.8575078,-1.4272499,1.176671,-0.048728343,0.05797611,1.0922555,0.16845739,1.153897,-0.9598193,-2.8924563,-0.05125381,0.11171702,1.1539997,-0.24420203
-0.1,0.0,1.0999999999999999,0.5235987755982988,0.0,0,-0.857982,-1.4267182,1.1750227,-0.046963114,-0.1406505,1.2263281,-0.19829014,1.1558775,-0.9602612,-2.8373885,0.025791675,0.22153378,1.1693665,-0.4084696
-0.1,0.0,1.0999999999999999,0.5235987755982988,0.0,0,-0.85820156,-1.4264308,1.1756343,-0.02236159,-0.016154312,1.1701424,0.39469197,1.1542953,-0.96174806,-2.92241,0.0013149003,0.15961364,1.1738373,0.4259871
-0.1,0.0,1.0999999999999999,0.5235987755982988,0.0,0,-0.856101,-1.4255489,1.1754688,-0.0067613716,-0.03296367,1.0850819,0.1714124,1.1556569,-0.95876974,-2.9054298,-0.090188906,-0.104273826,1.1764057,-1.0724062
-0.1,0.0,1.0999999999999999,0.5235987755982988,0.0,0,-0.85758793,-1.4274895,1.1758564,-0.02455124,0.079154104,1.0169197,-0.83896387,1.1503214,-0.9618312,-2.9213202,-0.051890224,-0.029566895,1.224268,-0.39913788
-0.1,0.0,1.0999999999999999,0.5235987755982988,0.0,0,-0.8577921,-1.4272962,1.1766964,-0.06141606,0.1916507,1.2003794,0.15585925,1.1513658,-0.9613078,-2.9195335,-0.023038084,-0.003743391,1.2016567,0.28496343
-0.1,0.0,1.0999999999999999,0.5235987755982988,0.0,0,-0.8577159,-1.4262038,1.1762345,-0.051090665,-0.018842617,1.1419438,-0.19111288,1.1543026,-0.95962334,-2.8789363,0.015631864,0.07514933,1.2302846,-0.0034835318
-0.1,0.0,1.0999999999999999,0.5235987755982988,0.0,0,-0.85626334,-1.4271795,1.1757166,-0.057597637,-0.06540119,1.1333771,0.40360358,1.1538583,-0.9584886,-2.9786572,-0.021350961,0.074390545,1.2272224,-0.073933184
-0.1,0.0,1.0999999999999999,0.5235987755982988,0.0,0,-0.8576455,-1.4271765,1.1751983,-0.075089276,0.018781882,1.1352484,-0.10989406,1.1543618,-0.9596982,-2.825801,-0.08391868,0.050843157,1.1056205,-0.30198386
-0.1,0.0,1.0999999999999999,0.5235987755982988,0.0,0,-0.8564343,-1.4273094,1.175701,-0.035228588,-0.1373189,1.105047,-0.32983106,1.1520768,-0.9570903,-2.873084,-0.008616717,-0.024374215,1.1189287,-0.4482157
-0.1,0.0,1.0999999999999999,0.5235987755982988,0.0,0,-0.8570726,-1.426522,1.1759628,-0.025904981,0.042784736,1.1603458,0.32018057,1.1524923,-0.95745283,-2.9414504,-0.00052430335,0.049644854,1.128772,-1.0202179
-0.1,0.0,1.0999999999999999,0.5235987755982988,0.0,0,-0.8565286,-1.426784,1.1754981,0.072044976,0.05810795,1.1017535,0.3789651,1.1521268,-0.9565886,-2.846572,-0.028422685,0.16938967,1.1169988,-0.52939475
-0.1,0.0,1.0999999999999999,0.5235987755982988,0.0,0,-0.85665077,-1.4276357,1.1762451,0.005285514,0.17853937,1.1588231,-1.1214224,1.1528032,-0.9578762,-2.9913394,0.008213078,-0.036301967,1.1228639,-0.4999795
-0.1,0.0,1.0999999999999999,0.5235987755982988,0.0,0,-0.8571631,-1.4273291,1.1759249,-0.05802593,-0.13227321,1.1906041,-0.5136347,1.151401,-0.95628536,-2.7961645,-0.025729679,-0.02550227,1.0623589,-0.37027586
-0.1,0.0,1.0999999999999999,0.5235987755982988,0.0,0,-0.8567263,-1.427108,1.174598,-0.006314498,-0.008725937,1.2012193,-1.2455178,1.1489537,-0.9603605,-2.8693979,-0.04620617,0.092490345,1.0961381,-0.10092758
-0.1,0.0,1.0999999999999999,0.5235987755982988,0.0,0,-0.85751384,-1.4268526,1.1762229,-0.08816282,-0.06757534,1.2194817,-1.5010613,1.1524231,-0.9583486,-2.848385,0.021104207,-0.019621588,1.109837,-0.6596636
-0.1,0.0,1.0999999999999999,0.5235987755982988,0.0,0,-0.85792166,-1.4273489,1.1747278,-0.00097161334,-0.17318241,1.1693947,-0.9908862,1.1544398,-0.95964533,-2.9043057,0.0053186878,-0.031157965,1.1585984,0.30360177
-0.1,0.0,1.0999999999999999,0.5235987755982988,0.0,0,-0.8568406,-1.4260203,1.1766262,-0.048301887,-0.17868373,1.1743408,-0.29461902,1.1519965,-0.96117395,-2.9587085,-0.036261175,0.011308704,1.1172503,-0.22884043
-0.1,0.0,1.0999999999999999,0.5235987755982988,0.0,0,-0.8570172,-1.4269644,1.1754282,-0.05356754,-0.11716685,1.2229292,-0.0010599414,1.1543381,-0.9593638,-2.8977118,0.014046425,0.032943744,1.1771625,0.3899543
-0.1,0.0,1.0999999999999999,0.5235987755982988,0.0,0,-0.8566665,-1.4269674,1.1760081,-0.0145584615,-0.08872206,1.1792281,0.39455628,1.1519729,-0.96136844,-2.9068263,0.013464842,0.02287212,1.2190931,-0.6239859
-0.1,0.0,1.0999999999999999,0.5235987755982988,0.0,0,-0.85792595,-1.4263223,1.1754177,-0.0059959586,0.094968334,1.2073143,0.26935297,1.1538883,-0.9592465,-2.8649313,-0.07261033,-0.03326001,1.1635805,-0.51138866
-0.1,0.0,1.0999999999999999,0.5235987755982988,0.0,0,-0.857621,-1.4262426,1.1753354,-0.01643406,-0.1531477,1.2126591,-0.5935133,1.1531576,-0.96194226,-2.8169417,-0.033636626,0.009008114,1.233957,-0.044989843
-0.1,0.0,1.0999999999999999,0.5235987755982988,0.0,0,-0.85844874,-1.4268117,1.1751405,0.001509046,0.23204796,1.1988077,-1.0024211,1.15322,-0.96128196,-2.843952,-0.00902795,0.21244757,1.1331909,0.07898776
-0.1,0.0,1.0999999999999999,0.5235987755982988,0.0,0,-0.8578087,-1.4256661,1.1751876,-0.001643796,0.08437103,1.1181935,-0.5887219,1.1541694,-0.96063226,-2.840396,-0.013567646,-0.002382218,1.1618512,-0.57679707
-0.1,0.0,1.0999999999999999,0.5235987755982988,0.0,0,-0.85681635,-1.4265056,1.1750238,-0.035173837,0.12727128,1.1637146,-0.20585683,1.1529402,-0.9573279,-2.9315596,0.03896347,-0.026301201,1.0803027,0.097252995
-0.1,0.0,1.0999999999999999,0.5235987755982988,0.0,0,-0.85731554,-1.4265935,1.176563,-0.0139113255,0.08950363,1.0917411,-0.44174296,1.1534417,-0.9573583,-2.9363394,-0.019792484,0.0802741,1.1565037,-0.1663391
-0.1,0.0,1.0999999999999999,0.5235987755982988,0.0,0,-0.85783654,-1.4268646,1.1752423,-0.043797396,-0.015575035,1.0944302,-0.93904257,1.152204,-0.9599322,-2.8933167,-0.027362602,0.14268209,1.1390469,-0.103132956
-0.1,0.0,1.0999999999999999,0.5235987755982988,0.0,0,-0.8570574,-1.4268914,1.1754451,-0.037786625,-0.03202525,1.197496,-0.23163415,1.1534861,-0.96058655,-3.0039198,-0.001429251,-0.050693907,1.1993171,-0.42524546
-0.1,0.0,1.0999999999999999,0.5235987755982988,0.0,0,-0.857591,-1.4267138,1.1743509,0.013754626,-0.17259316,1.0628483,-0.12218693,1.1540418,-0.9566888,-2.8974385,0.009951239,-0.06418471,1.2460275,-0.50987476
-0.1,0.0,1.0999999999999999,0.5235987755982988,0.0,0,-0.85588306,-1.4267068,1.1754613,-0.042005576,0.092600524,1.137955,-0.46573266,1.1501809,-0.95851165,-3.0948608,-0.065662846,-0.089786,1.1400698,-0.8518955
-0.1,0.0,1.0999999999999999,0.5235987755982988,0.0,0,-0.85676026,-1.4267153,1.1766045,-0.052338883,0.08803272,1.1854738,0.2768677,1.153167,-0.95854825,-2.8399227,0.03834901,0.023313826,1.0595688,-0.02743342
-0.1,0.0,1.0999999999999999,0.5235987755982988,0.0,0,-0.858161,-1.4270587,1.1754117,-0.017978517,0.06903095,1.243784,-1.0758915,1.1531638,-0.9602981,-2.9305174,-0.032853413,-0.019440051,1.2291695,0.14913097
-0.1,0.0,1.0999999999999999,0.5235987755982988,0.0,0,-0.85867167,-1.4272956,1.1756186,-0.046740305,-0.02545234,1.13672,-0.68004864,1.1525352,-0.95911396,-2.8782146,0.002235084,-0.058475353,1.1720947,-0.24450806
-0.1,0.0,1.0999999999999999,0.5235987755982988,0.0,0,-0.85715723,-1.4260874,1.1763866,0.01887855,-0.25059694,1.1877421,-0.12369572,1.153129,-0.9608616,-2.8495705,-0.024821976,-0.0006646925,1.1374834,-0.60079867
-0.1,0.0,1.0999999999999999,0.5235987755982988,0.0,0,-0.8573971,-1.4268031,1.1750829,0.06308568,-0.045098685,1.1988636,0.13362804,1.153394,-0.95797896,-2.8870459,0.02389705,0.07779852,1.1007427,-0.96629924
-0.1,0.0,1.0999999999999999,0.5235987755982988,0.0,0,-0.8575495,-1.427124,1.1746871,-0.01603891,0.0012010972,1.1224322,-0.37489384,1.1545038,-0.9587992,-2.9203112,-0.011408168,0.066508144,1.1463914,-0.3918618
-0.1,0.0,1.0999999999999999,0.5235987755982988,0.0,0,-0.85585254,-1.4269434,1.175462,-0.02804179,0.11877354,1.1602979,0.0644522,1.1552285,-0.9591394,-2.8974257,0.018281298,-0.058547664,1.2120652,-0.551013
-0.1,0.0,1.0999999999999999,0.5235987755982988,0.0,0,-0.85764515,-1.427864,1.1765258,-0.017845554,-0.03038294,1.1706754,-0.535161,1.1550676,-0.95676976,-2.8303711,0.017596945,0.1500997,1.1253314,-0.32383066
-0.1,0.0,1.0999999999999999,0.5235987755982988,0.0,0,-0.85691327,-1.4263984,1.1752723,-0.030360516,-0.14807117,1.2112973,-1.0778416,1.1550549,-0.9570642,-2.9550624,-0.045559853,0.108270206,1.1649749,-0.24359596
-0.1,0.0,1.0999999999999999,0.5235987755982988,0.0,0,-0.8568164,-1.4271095,1.1757084,-0.03439481,0.16169214,1.1474024,-0.47654486,1.1547126,-0.9568792,-2.8227286,0.049303636,0.11142542,1.0744668,0.075770095
-0.1,0.0,1.0999999999999999,0.5235987755982988,0.0,0,-0.85783255,-1.4271613,1.1763686,-0.020382373,0.057091247,1.0181502,-0.9935425,1.1541928,-0.9594422,-2.9159064,-0.00434969,0.14300892,1.1993906,0.36488384
-0.1,0.0,1.0999999999999999,0.5235987755982988,0.0,0,-0.85756725,-1.4269204,1.1751329,-0.05321191,0.07638865,1.1768873,-0.46912494,1.1547077,-0.9586754,-2.8882961,0.022904832,0.16209757,1.1637133,0.391046
-0.1,0.0,1.0999999999999999,0.5235987755982988,0.0,0,-0.8577884,-1.4274366,1.1760383,-0.061350327,-0.02434346,1.1366999,-1.1123098,1.1516064,-0.9591974,-2.9239697,0.0058189104,0.14765503,1.1756432,-0.26973015
-0.1,0.0,1.0999999999999999,0.5235987755982988,0.0,0,-0.8581892,-1.4271538,1.176291,-0.07115505,-0.111891374,1.1705554,0.18122467,1.1500477,-0.9627785,-2.8888373,-0.004654066,0.012777907,1.1776049,-0.012366918
-0.1,0.0,1.0999999999999999,0.5235987755982988,0.0,0,-0.857675,-1.4278084,1.1756876,-0.012280672,-0.08962955,1.1510888,-0.22242256,1.1507192,-0.96084243,-2.9909194,-0.005542896,0.25454843,1.1960815,-0.1998622
-0.1,0.0,1.0999999999999999,0.5235987755982988,0.0,0,-0.8574661,-1.4277941,1.1755457,0.009689469,-0.18963166,1.0920172,0.52655905,1.1532581,-0.9574053,-2.8974755,0.018599266,0.11885286,1.1525496,0.008819536
-0.1,0.0,1.0999999999999999,0.5235987755982988,0.0,0,-0.85803044,-1.4269683,1.1763706,-0.019638475,-0.043434765,1.2059602,1.049623,1.1540071,-0.9580039,-2.983804,-0.017985683,0.011813472,1.1698524,-0.4363085
-0.1,0.0,1.0999999999999999,0.5235987755982988,0.0,0,-0.85773057,-1.4269991,1.1757841,-0.036934726,-0.029134084,1.2647691,-0.109951064,1.1528022,-0.9585311,-2.8731818,-0.040935878,0.048823636,1.2353913,0.19934686
-0.1,0.0,1.0999999999999999,0.5235987755982988,0.0,0,-0.85776657,-1.4265101,1.175544,-0.08859235,-0.22508715,1.20915,-0.2834973,1.1541219,-0.9609283,-2.8819427,-0.0029940952,0.1578942,1.1482786,-0.2881834
-0.1,0.0,1.0999999999999999,0.5235987755982988,0.0,0,-0.8567303,-1.4261034,1.175291,-0.034958404,-0.03739703,1.2306336,0.1938746,1.1523277,-0.95868075,-2.8906739,-0.0059348796,-0.0072202994,1.1303828,-0.8565091
-0.1,0.0,1.0999999999999999,0.5235987755982988,0.0,0,-0.85739505,-1.4265138,1.1752328,-0.04858243,-0.038059905,1.214908,0.26238704,1.155978,-0.95916104,-2.7478592,-0.045656405,0.03595957,1.1984471,-0.5501299
-0.1,0.0,1.0999999999999999,0.5235987755982988,0.0,0,-0.85751474,-1.4268388,1.1762632,0.013033164,-0.09382657,1.1368679,-0.96557766,1.1519454,-0.9603732,-2.7934556,-0.0046751704,0.19375648,1.1755118,-0.5217955
-0.1,0.0,1.0999999999999999,0.5235987755982988,0.0,0,-0.8574603,-1.4257814,1.1756722,-0.030090977,-0.1462179,1.1380697,-0.62439245,1.1528193,-0.9593256,-3.0264473,-0.009542986,-0.017866816,1.1726316,-0.15834166
-0.1,0.0,1.0999999999999999,0.5235987755982988,0.0,0,-0.8567944,-1.4266989,1.1754937,-0.042748,-0.24539061,1.1581548,-0.6356331,1.1516924,-0.95828974,-2.9924932,0.009494919,-0.050368164,1.1814232,-0.4603785
-0.1,0.0,1.0999999999999999,0.5235987755982988,0.0,0,-0.8568668,-1.4256735,1.1745843,-0.0077826004,-0.110449106,1.1654831,0.25585917,1.1540207,-0.9583984,-2.89512,-0.024240473,0.18711548,1.0935345,-0.09730657
-0.1,0.0,1.0999999999999999,0.5235987755982988,0.0,0,-0.8568812,-1.426323,1.1752183,-0.030213417,-0.08023199,1.0616153,-0.007360787,1.1523561,-0.95951957,-2.920406,-0.034602527,0.0018645952,1.10965,-0.8585277
-0.1,0.0,1.0999999999999999,0.5235987755982988,0.0,0,-0.8569587,-1.4268773,1.175922,-0.038482912,-0.029203923,1.2697935,-0.16765527,1.1553973,-0.957556,-2.9723878,-0.029675623,-0.042808175,1.1306998,-0.3547277
-0.1,0.0,1.0999999999999999,0.5235987755982988,0.0,0,-0.8570541,-1.4263753,1.1747802,-0.044310596,0.008979188,1.1575757,-0.58493274,1.1505189,-0.9622075,-2.8786652,-0.001363557,0.029633647,1.1804518,-0.08140253
-0.1,0.0,1.0999999999999999,0.5235987755982988,0.0,0,-0.8578763,-1.4268299,1.1763241,-0.020649802,-0.21520029,1.0944035,-0.046273973,1.1530721,-0.9608515,-2.862284,-0.024443582,-0.04405147,1.1963737,0.03766184
-0.1,0.0,1.0999999999999999,0.5235987755982988,0.0,0,-0.85647875,-1.4260933,1.1753548,-0.016473738,-0.19250019,1.0459181,0.832982,1.1564724,-0.95811266,-2.8689172,-0.017049417,-0.098813556,1.2504591,0.14438061
-0.1,0.0,1.0999999999999999,0.5235987755982988,0.0,0,-0.8570457,-1.4265237,1.1761396,-0.04367823,0.04732087,1.2259374,-0.26727316,1.1511825,-0.958424,-2.8597977,-0.09106015,0.04458543,1.1597924,-0.1166845
-0.1,0.0,1.0999999999999999,0.5235987755982988,0.0,0,-0.8574646,-1.4254009,1.1760713,-0.0848643,-0.086329155,1.1717064,-0.3613207,1.1529104,-0.9613472,-2.8853621,-0.03543713,-0.073867396,1.1608255,0.4420862
-0.1,0.0,1.0999999999999999,0.5235987755982988,0.0,0,-0.85759115,-1.4269832,1.1773212,-0.05991902,0.20269324,1.1952947,0.17535992,1.1524093,-0.9589653,-2.850929,-0.066284664,0.24105613,1.1830564,-0.095807604
-0.1,0.0,1.0999999999999999,0.5235987755982988,0.0,0,-0.8579524,-1.4268275,1.1755061,0.02706282,0.083993495,1.1459711,-0.044721246,1.1528076,-0.9603141,-2.9286485,-0.021040425,-0.012151896,1.1410153,0.6232797
-0.1,0.0,1.0999999999999999,0.5235987755982988,0.0,0,-0.85675716,-1.4258034,1.1751268,-0.029336095,0.1058905,1.2816411,-0.34363553,1.1534201,-0.95907056,-2.8863945,-0.013086939,0.047447823,1.1671717,0.3165319
-0.1,0.0,1.0999999999999999,0.5235987755982988,0.0,0,-0.85758615,-1.4263319,1.1757864,-0.026808573,0.23590915,1.2094398,0.36086404,1.1534522,-0.96065795,-3.0121217,-0.007825144,0.021453643,1.1912915,-1.272292
-0.1,0.0,1.0999999999999999,0.5235987755982988,0.0,0,-0.85719925,-1.426767,1.1766,-0.040753625,0.06344516,1.1240305,-0.72331536,1.1541705,-0.95930684,-3.0194774,0.008936374,-0.048594262,1.1854147,-0.349739
-0.1,0.0,1.0999999999999999,0.5235987755982988,0.0,0,-0.8568259,-1.4262587,1.1747034,-0.056971997,-0.06430755,1.2161157,0.49187076,1.152337,-0.9588887,-2.9158082,-0.040845253,0.06587953,1.2562499,-0.3371692
-0.1,0.0,1.0999999999999999,0.5235987755982988,0.0,0,-0.85714614,-1.4273729,1.176187,-0.060634986,-0.37849066,1.1776386,-1.0283542,1.1508019,-0.95979726,-2.8166728,-0.0085715605,0.046896245,1.1048126,0.17948118
-0.1,0.0,1.0999999999999999,0.5235987755982988,0.0,0,-0.85670483,-1.4268079,1.1750965,-0.033046708,-0.11787633,1.1352489,-1.4630728,1.1519123,-0.95570284,-2.8344436,-0.0021982645,0.12201865,1.1404421,-0.12622786
-0.1,0.0,1.0999999999999999,0.5235987755982988,0.0,0,-0.856911,-1.4271144,1.1762645,-0.08073293,0.018642865,1.1775705,0.40307805,1.1517454,-0.9581054,-2.9523969,-0.0070091253,-0.011288796,1.1882873,0.41054767
-0.1,0.0,1.0999999999999999,0.5235987755982988,0.0,0,-0.85710657,-1.4253958,1.1756301,-0.02242062,-0.123923145,1.1229806,-0.22516157,1.1537924,-0.9590375,-2.9110966,0.0047689164,0.06316632,1.2131139,-0.22858272
-0.1,0.0,1.0999999999999999,0.5235987755982988,0.0,0,-0.8573064,-1.4278493,1.1765596,0.012017012,-0.1278352,1.1699251,-0.8633892,1.1543866,-0.9583547,-2.9000413,0.007937191,-0.008302748,1.1568934,-0.007903375
-0.1,0.0,1.0999999999999999,0.5235987755982988,0.0,0,-0.85793394,-1.4279126,1.1756711,0.007579184,-0.118067,1.186822,-0.8664629,1.1540052,-0.9566009,-2.99688,0.015762307,-0.12632866,1.1688926,-0.27744985
-0.1,0.0,1.0999999999999999,0.5235987755982988,0.0,0,-0.85748,-1.4273678,1.1757386,-0.08200338,-0.05444825,1.2817706,-0.08269955,1.1528937,-0.9586253,-2.8821337,-0.062796235,0.010507779,1.167885,-1.0305839
-0.1,0.0,1.0999999999999999,0.5235987755982988,0.0,0,-0.8566349,-1.427133,1.1753141,-0.028698983,0.110668,1.1553109,-1.0707986,1.1520194,-0.9586497,-3.0100582,0.0027955098,0.12141819,1.2602575,-0.38975185
-0.1,0.0,1.0999999999999999,0.5235987755982988,0.0,0,-0.8570274,-1.4264746,1.1758281,-0.011203995,0.01693196,1.1928742,-0.100046284,1.1520623,-0.9585047,-2.966883,-0.005513862,0.11741195,1.1360959,-0.64968765
-0.1,0.0,1.0999999999999999,0.5235987755982988,0.0,0,-0.85735005,-1.426572,1.1755897,0.0018699361,-0.16182852,1.1412092,-0.019926514,1.1525757,-0.9597203,-2.8986974,-0.011615124,0.16866514,1.1648703,0.10919645
-0.1,0.0,1.0999999999999999,0.5235987755982988,0.0,0,-0.8570912,-1.4262608,1.1738174,-0.020172141,0.13336265,1.1163613,-0.55696607,1.1529629,-0.9586165,-2.8858094,0.029817665,0.34629038,1.1553571,-0.10546776
-0.1,0.0,1.0999999999999999,0.5235987755982988,0.0,0,-0.8569023,-1.4264928,1.1750195,0.03359877,-0.14260991,1.0792464,-0.15357012,1.1530795,-0.95723987,-2.8380675,0.06841889,-0.026600366,1.2688345,0.17748143
-0.1,0.0,1.0999999999999999,0.5235987755982988,0.0,0,-0.8577131,-1.426647,1.1763784,-0.027662769,-0.15802458,1.1522095,0.18521507,1.1511914,-0.96116096,-2.9676774,0.008301797,-0.031562965,1.1318885,-0.88104147
-0.1,0.0,1.0999999999999999,0.5235987755982988,0.0,0,-0.85681367,-1.4266664,1.1763023,0.0017228728,-0.10862039,1.211512,-0.13816312,1.1546936,-0.95804197,-2.7839239,-0.009915418,-0.112261154,1.1857804,0.38094437
-0.1,0.0,1.0999999999999999,0.5235987755982988,0.0,0,-0.8569805,-1.4261734,1.1762851,-0.05805342,0.14135621,1.2215344,-0.49800584,1.1548746,-0.9621797,-2.7931838,0.0009608926,0.075437486,1.1063117,-0.3040394
-0.1,0.0,1.0999999999999999,0.5235987755982988,0.0,0,-0.85683924,-1.4262336,1.1755168,-0.029274687,0.06634683,1.2077595,0.40910235,1.1539934,-0.95826286,-2.7952833,-0.03223466,0.23046774,1.1139058,0.43194127
-0.1,0.0,1.0999999999999999,0.5235987755982988,0.0,0,-0.85780096,-1.4269954,1.1754133,-0.04750876,0.1727625,1.1622534,-0.51224077,1.1546378,-0.958743,-2.862685,-0.027407475,0.08901675,1.134723,-0.15281539
-0.1,0.0,1.0999999999999999,0.5235987755982988,0.0,0,-0.8559881,-1.426594,1.1766193,0.07251592,-0.12517832,1.1745327,0.6636557,1.1526363,-0.95882726,-2.9506361,-0.029831626,0.15975496,1.1467798,-0.08959871
-0.1,0.0,1.0999999999999999,0.5235987755982988,0.0,0,-0.857738,-1.4265026,1.1756171,-0.081513405,0.13509469,1.1838009,-0.037097327,1.152522,-0.9582719,-2.9559162,0.018340379,0.030009767,1.246427,-0.06990095
-0.1,0.0,1.0999999999999999,0.5235987755982988,0.0,0,-0.85705173,-1.425562,1.1750787,-0.06317617,-0.0124223335,1.2022337,0.6201249,1.1535552,-0.9590063,-3.023663,-0.011901282,0.04545051,1.1387784,-0.276614
-0.1,0.0,1.0999999999999999,0.5235987755982988,0.0,0,-0.8567942,-1.4256746,1.1768718,-0.103123784,-0.082204096,1.1438236,-0.18901391,1.1496127,-0.96380246,-2.8157642,-0.009315706,0.10627832,1.1004674,-0.14020143
-0.1,0.0,1.0999999999999999,0.5235987755982988,0.0,0,-0.8571256,-1.4269773,1.1756333,-0.02230678,-0.015809854,1.1983011,-0.13100131,1.1509671,-0.95731896,-2.8229923,-0.017838806,-0.03474945,1.0775735,0.17146026
-0.1,0.0,1.0999999999999999,0.5235987755982988,0.0,0,-0.8566464,-1.4264319,1.1762668,-0.0676064,-0.06382302,1.1477981,-1.310705,1.1534799,-0.9630402,-2.9208362,-0.043647606,0.009864146,1.263182,-0.0062209913
-0.1,0.0,1.0999999999999999,0.5235987755982988,0.0,0,-0.8564332,-1.4262737,1.1759291,0.005155113,-0.025334274,1.2129745,0.0074051134,1.1534019,-0.9585871,-2.9030848,-0.009081864,0.06523506,1.1871959,0.08209397
-0.1,0.0,1.0999999999999999,0.5235987755982988,0.0,0,-0.8567018,-1.4266063,1.1744946,0.036754943,-0.15035057,1.1706307,-0.22633328,1.1539922,-0.95539063,-2.8655145,-0.041118767,0.061323788,1.1868943,-0.18626022
-0.1,0.0,1.0999999999999999,0.5235987755982988,0.0,0,-0.857862,-1.4268901,1.1756645,0.0043229344,0.03663332,1.122145,0.09496737,1.1533076,-0.95942533,-2.9738307,0.016829655,0.02259859,1.1867764,-0.17118017
-0.1,0.0,1.0999999999999999,0.5235987755982988,0.0,0,-0.8572177,-1.4262215,1.1752632,-0.04087003,0.2653959,1.155801,-0.30353722,1.1532334,-0.95806897,-2.9133134,-0.0068655116,0.04032474,1.1787183,0.08206898
-0.1,0.0,1.0999999999999999,0.5235987755982988,0.0,0,-0.85702807,-1.4261748,1.1757122,-0.035567734,-0.025339445,1.1754287,-1.0156822,1.1542355,-0.95886785,-3.031691,-0.023567941,0.10912367,1.1082667,-0.81949687
-0.1,0.0,1.0999999999999999,0.5235987755982988,0.0,0,-0.85727066,-1.4261307,1.1757503,-0.05040658,0.07897462,1.1412423,0.8203826,1.1542292,-0.96045774,-2.865639,0.035002783,0.0465294,1.1886805,-0.22682677
-0.1,0.0,1.0999999999999999,0.5235987755982988,0.0,0,-0.8581589,-1.4259235,1.1751081,0.008794432,-0.03773871,1.1628975,-0.5234073,1.1521866,-0.96200275,-2.834545,0.03243583,0.055138007,1.145607,-0.8002438
-0.1,0.0,1.0999999999999999,0.5235987755982988,0.0,0,-0.85709727,-1.4264627,1.1755546,-0.024876097,-0.0024562979,1.1823425,-0.7422761,1.1509955,-0.9587201,-2.8605745,0.047602978,0.11883155,1.1848731,-0.96808213
-0.1,0.0,1.0999999999999999,0.5235987755982988,0.0,0,-0.8576502,-1.425507,1.175815,-0.04322921,-0.054172628,1.1375479,0.022084668,1.1498812,-0.95712435,-2.9174979,-0.0024072363,0.028319675,1.2162277,-0.43349516
-0.1,0.0,1.0999999999999999,0.5235987755982988,0.0,0,-0.85725504,-1.4263965,1.1753335,-0.06834645,-0.098975115,1.2720753,-0.19008747,1.1532038,-0.95996165,-2.8681788,-0.04448188,0.13682005,1.1849352,-0.042179894
-0.1,0.0,1.0999999999999999,0.5235987755982988,0.0,0,-0.85731083,-1.4272443,1.1761065,-0.041633237,-0.15463465,1.1190755,-0.46508297,1.1536725,-0.9574109,-2.8684406,0.020829251,0.1420205,1.1658998,-0.3136458
-0.1,0.0,1.0999999999999999,0.5235987755982988,0.0,0,-0.85712516,-1.4262229,1.1754781,-0.06634016,-0.18979925,1.206715,-0.49251005,1.152198,-0.9573972,-2.878119,-0.046994507,0.11000901,1.1355158,-0.4571349
-0.1,0.0,1.0999999999999999,0.5235987755982988,0.0,0,-0.8577076,-1.4275175,1.1756924,-0.05975123,0.120969586,1.2399594,-0.78823566,1.1513418,-0.95985454,-2.87372,-0.013460948,0.048637696,1.0844815,-0.53657603
-0.1,0.0,1.0999999999999999,0.5235987755982988,0.0,0,-0.85753816,-1.426669,1.1753634,-0.062861316,-0.091343425,1.1703795,-0.15411946,1.1532995,-0.958478,-2.933075,0.008080222,-0.0118273115,1.1907698,-0.6259308
-0.1,0.0,1.0999999999999999,0.5235987755982988,0.0,0,-0.8570571,-1.4273363,1.1758343,-0.008249434,-0.23243216,1.168725,-1.1047817,1.1515723,-0.9585657,-3.0223162,-0.057930037,-0.08761426,1.2375164,0.48878378
-0.1,0.0,1.0999999999999999,0.5235987755982988,0.0,0,-0.8577478,-1.4268241,1.1758132,-0.04573824,-0.017662251,1.15564,-0.42085755,1.1518035,-0.9593184,-2.924959,-0.0034716658,0.12972686,1.2453384,0.496518
-0.1,0.0,1.0999999999999999,0.5235987755982988,0.0,0,-0.85780483,-1.42665,1.1759714,-0.043640167,0.007196284,1.160789,-0.6692447,1.1529452,-0.95977664,-2.9839175,-0.068176225,-0.10000325,1.2113851,-0.09571444
-0.1,0.0,1.0999999999999999,0.5235987755982988,0.0,0,-0.8577564,-1.4259487,1.1749072,-0.093629345,-0.1330438,1.1766139,-0.78204286,1.1527017,-0.95986366,-2.9126918,0.003931513,0.011601,1.0979068,0.09264096
-0.1,0.0,1.0999999999999999,0.5235987755982988,0.0,0,-0.85616696,-1.4259853,1.1757163,-0.057301994,-0.2669785,1.1137931,-0.15869647,1.1515181,-0.95905846,-2.771762,-0.026104862,0.04875302,1.1277709,-0.00070513936
-0.1,0.0,1.0999999999999999,0.5235987755982988,0.0,0,-0.8574957,-1.4272912,1.1762061,-0.04312998,0.04002476,1.1214391,-0.50648594,1.1507288,-0.9578169,-2.9756308,-0.010022654,0.039848875,1.1952406,-1.0559213
-0.1,0.0,1.0999999999999999,0.5235987755982988,0.0,0,-0.8559522,-1.4262606,1.1760213,-0.038584948,-0.07206786,1.0997764,-0.04659654,1.1531134,-0.9575076,-2.97604,-0.016382704,0.08611659,1.1288582,0.25303403
-0.1,0.0,1.0999999999999999,0.5235987755982988,0.0,0,-0.85778904,-1.4266071,1.1745812,-0.03997068,-0.13080648,1.2883428,-1.0916086,1.1520433,-0.95981866,-2.923552,0.005079762,-0.02763867,1.1882725,-0.37590596
-0.1,0.0,1.0999999999999999,0.5235987755982988,0.0,0,-0.857878,-1.4267168,1.1754692,-0.0102492245,0.12945063,1.1699967,-0.06418894,1.1514907,-0.9603104,-3.0000694,0.018415373,0.20959741,1.1087756,0.049065974
-0.1,0.0,1.0999999999999999,0.5235987755982988,0.0,0,-0.85672456,-1.426511,1.1755826,-0.017130898,-0.030274032,1.1632909,-1.6037529,1.1506606,-0.9587604,-2.7642164,-0.030003762,0.013296839,1.1099329,-0.2701519
-0.1,0.0,1.0999999999999999,0.5235987755982988,0.0,0,-0.8572388,-1.4262174,1.175742,-0.03277205,-0.057308223,1.1060125,-0.63849604,1.1523196,-0.95860773,-2.9478655,0.029956749,-0.062393308,1.2139,0.18203393
-0.1,0.0,1.0999999999999999,0.5235987755982988,0.0,0,-0.8579812,-1.4274794,1.175859,-0.012019125,-0.15854362,1.1493586,0.7736921,1.1511375,-0.96099526,-2.9562328,-0.01653738,0.09541598,1.1651987,-0.38255626
-0.1,0.0,1.0999999999999999,0.5235987755982988,0.0,0,-0.8559838,-1.4259763,1.1741738,-0.02633536,-0.03146473,1.1834619,-0.44228655,1.1527128,-0.95497453,-2.9255714,-0.045525216,0.08490096,1.1526252,-0.24616462
-0.1,0.0,1.0999999999999999,0.5235987755982988,0.0,0,-0.85733205,-1.4276626,1.1759516,-0.08068217,0.015528733,1.1899321,-0.062235877,1.1537098,-0.95852894,-2.895072,0.04235005,0.14476931,1.1102284,0.38229993
-0.1,0.0,1.0999999999999999,0.5235987755982988,0.0,0,-0.85728896,-1.4259698,1.175094,-0.004901036,-0.024669698,1.0400537,-0.02882231,1.1542438,-0.95883065,-2.970778,-0.027724842,0.12542222,1.2110511,-0.48642188
-0.1,0.0,1.0999999999999999,0.5235987755982988,0.0,0,-0.8565621,-1.4261329,1.175878,-0.041180752,0.11159474,1.1661086,-0.49211696,1.1535801,-0.9595045,-2.8555439,0.033437055,0.17399852,1.2137793,-0.6165965
-0.1,0.0,1.0999999999999999,0.5235987755982988,0.0,0,-0.8564821,-1.426645,1.1758726,-0.03810454,-0.111878216,1.1606439,0.16985558,1.1535443,-0.955446,-3.0566127,-0.026251566,0.088077426,1.1521004,-0.6822802
-0.1,0.0,1.0999999999999999,0.5235987755982988,0.0,0,-0.8573415,-1.4267744,1.1754292,-0.00034698175,-0.063562825,1.1609839,-1.1372696,1.1523166,-0.95747906,-2.9991393,0.036484975,0.06829893,1.2346482,-0.5155837
-0.1,0.0,1.0999999999999999,0.5235987755982988,0.0,0,-0.85686725,-1.4262122,1.1760688,-0.06295981,0.0040312875,1.0610693,-0.10397545,1.1533574,-0.9581818,-2.9536908,-5.1274867e-05,0.10245891,1.2139462,-0.80464554
-0.1,0.0,1.0999999999999999,0.5235987755982988,0.0,0,-0.8576139,-1.4275665,1.1755985,-0.0340054,0.11593927,1.2010537,-0.057236053,1.1545779,-0.95711684,-2.963832,-0.02074694,0.13497989,1.165898,-0.3008336
-0.1,0.0,1.0999999999999999,0.5235987755982988,0.0,0,-0.85644245,-1.4254673,1.17523,0.0036056554,0.21772982,1.0782489,0.021023702,1.1532626,-0.9595969,-2.9212518,-0.032601334,-0.018831227,1.1424061,-0.32006133
-0.1,0.0,1.0999999999999999,0.5235987755982988,0.0,0,-0.85642433,-1.425618,1.1747965,-0.041674647,-0.02002827,1.2587533,-1.265644,1.1514573,-0.9595027,-2.8454792,0.05314763,0.07855198,1.2003279,-0.56776804
-0.1,0.0,1.0999999999999999,0.5235987755982988,0.0,0,-0.85730624,-1.4267782,1.1758778,-0.03683013,0.059491556,1.1098667,-1.1016848,1.1547598,-0.9583422,-2.9033422,-0.022574298,0.07467263,1.2304467,0.12679538
-0.1,0.0,1.0999999999999999,0.5235987755982988,0.0,0,-0.857461,-1.4274203,1.1751053,-0.04869947,-0.052200958,1.0980755,-0.40626216,1.1519998,-0.956311,-2.9995396,-0.056119703,0.008725824,1.1964312,-0.047231823
-0.1,0.0,1.0999999999999999,0.5235987755982988,0.0,0,-0.8569339,-1.427219,1.1760259,0.00841387,-0.12526335,1.1648904,0.5349943,1.1520448,-0.9567194,-2.9889603,0.001834896,0.04691094,1.1716186,-0.678804
-0.1,0.0,1.0999999999999999,0.5235987755982988,0.0,0,-0.8561631,-1.4262445,1.1756097,-0.038015634,-0.12589732,1.2339706,-0.9755133,1.1515334,-0.9568736,-2.948121,-0.051515054,-0.008065914,1.1330881,-0.7208353
-0.1,0.0,1.0999999999999999,0.5235987755982988,0.0,0,-0.8573379,-1.4265559,1.1753746,-0.0080505945,-0.009516481,1.1406277,-0.11029126,1.1534489,-0.95897233,-2.9059417,0.0046317047,-0.059880402,1.2312242,-0.81531847
-0.1,0.0,1.0999999999999999,0.5235987755982988,0.0,0,-0.8566525,-1.4271479,1.1757197,-0.041667823,-0.015095782,1.2373383,0.07403516,1.1549376,-0.9579222,-2.9002094,0.0061426014,0.05599247,1.21966,-0.42652544
-0.1,0.0,1.0999999999999999,0.5235987755982988,0.0,0,-0.85746384,-1.4267155,1.1756885,-0.040746037,-0.046773553,1.0625578,-0.9334454,1.151859,-0.96052307,-2.9952893,-0.045446306,0.18619128,1.1807388,-0.34305054
-0.1,0.0,1.0999999999999999,0.5235987755982988,0.0,0,-0.8580222,-1.4267904,1.1757536,-0.007169784,-0.020307386,1.2186911,0.56128496,1.1520054,-0.9575047,-2.955694,-0.0107905865,0.14500472,1.2243955,-0.42533544
-0.1,0.0,1.0999999999999999,0.5235987755982988,0.0,0,-0.85729986,-1.4257455,1.175903,-0.00019305645,0.027577454,1.1314957,-0.44401452,1.1527431,-0.95896584,-2.9316914,-0.0062903613,0.17138496,1.1981452,0.32801384
-0.1,0.0,1.0999999999999999,0.5235987755982988,0.0,0,-0.85727894,-1.4258022,1.1767641,0.0035228184,0.008592061,1.1482842,-1.0307696,1.150741,-0.95771915,-2.9292755,-0.041236002,0.03737837,1.2143353,0.2520727
-0.1,0.0,1.0999999999999999,0.5235987755982988,0.0,0,-0.8575486,-1.4269367,1.1741304,-0.02167996,-0.08391612,1.1613765,-0.32851112,1.1527491,-0.96198076,-2.9047208,0.012272056,0.20600282,1.19884,0.15666346
-0.1,0.0,1.0999999999999999,0.5235987755982988,0.0,0,-0.8583903,-1.4276822,1.1753032,0.0028366463,-0.079515696,1.1714948,0.023327658,1.1521469,-0.95802313,-2.8539426,0.0075497767,0.05106059,1.2113093,-0.43085873
-0.1,0.0,1.0999999999999999,0.5235987755982988,0.0,0,-0.85707414,-1.4265947,1.1748459,-0.027997794,0.0016563433,1.217997,-0.5098713,1.1522704,-0.96182215,-2.955531,-0.04839087,0.08140689,1.1272826,-0.19022344
-0.1,0.0,1.0999999999999999,0.5235987755982988,0.0,0,-0.8560554,-1.4267577,1.1761738,-0.031988446,-0.19037655,1.0866646,-0.3417184,1.1506495,-0.96030647,-2.8109453,0.007155062,0.061962534,1.1830965,-0.21051215
-0.1,0.0,1.0999999999999999,0.5235987755982988,0.0,0,-0.8564996,-1.4265431,1.1752856,-0.085066624,-0.13480718,1.0980247,0.43736476,1.1510538,-0.96063656,-2.8601036,-0.025203656,0.2505126,1.2263399,-0.6124291
-0.1,0.0,1.0999999999999999,0.5235987755982988,0.0,0,-0.8574391,-1.4270984,1.1753126,-0.035622492,-0.07254905,1.1657399,-0.4369505,1.1562872,-0.96125704,-2.8686752,-0.036094707,0.116360284,1.2016842,-0.33680898
-0.1,0.0,1.0999999999999999,0.5235987755982988,0.0,0,-0.8571177,-1.4267777,1.1756616,0.009402125,0.18542576,1.1732284,-0.029801743,1.1512624,-0.9627925,-2.8546798,-0.014014121,0.008610939,1.2019374,-0.08548902
-0.1,0.0,1.0999999999999999,0.5235987755982988,0.0,0,-0.8573466,-1.4271364,1.1747618,-0.03933169,0.052592896,1.1729383,-0.19462238,1.1518564,-0.9616973,-2.8912733,0.0016186829,-0.061303027,1.2188934,-0.7246072
-0.1,0.0,1.0999999999999999,0.5235987755982988,0.0,0,-0.85633004,-1.4272928,1.1752694,-0.041587744,-0.03056565,1.0674585,-1.0059354,1.1547767,-0.9582799,-2.907105,-0.017436426,0.02631961,1.162974,-0.28830227
-0.1,0.0,1.0999999999999999,0.5235987755982988,0.0,0,-0.8571557,-1.425952,1.175732,-0.050209187,-0.08821874,1.0995413,-0.3683008,1.1544875,-0.9602304,-2.97362,-0.010510244,0.16648939,1.1037625,-0.4451079
-0.1,0.0,1.0999999999999999,0.5235987755982988,0.0,0,-0.85666144,-1.4261036,1.1755033,0.0064398684,0.038174685,1.214687,-0.38120496,1.1551565,-0.96133953,-2.9997432,-0.01472195,0.10801027,1.097966,-0.31273824
-0.1,0.0,1.0999999999999999,0.5235987755982988,0.0,0,-0.8566548,-1.4271506,1.1743207,-0.031963255,0.06435215,1.0234035,-0.44992906,1.15364,-0.9605182,-2.949985,-0.025423825,0.1469064,1.2021003,-0.44097948
-0.1,0.0,1.0999999999999999,0.5235987755982988,0.0,0,-0.857247,-1.4271576,1.1748028,-0.046197575,0.047999825,1.1804743,-0.1486838,1.1549472,-0.9611092,-2.9373028,0.0070116697,0.06345565,1.0906305,0.104027525
-0.1,0.0,1.0999999999999999,0.5235987755982988,0.0,0,-0.8576148,-1.4275713,1.1749963,0.0022199617,-0.05946247,1.1306392,-0.80903405,1.1513054,-0.9622944,-3.0443695,0.000680497,0.11181897,1.1058476,-0.9271034
-0.1,0.0,1.0999999999999999,0.5235987755982988,0.0,0,-0.8574495,-1.4280248,1.1747158,-0.042655647,0.101460345,1.1461598,-0.71100396,1.1530457,-0.9598542,-2.9678388,0.019759942,0.067284636,1.1657877,-0.14306363
-0.1,0.0,1.0999999999999999,0.5235987755982988,0.0,0,-0.85624117,-1.4273784,1.1756295,0.010988436,-0.08993071,1.0791452,-0.17871054,1.1533436,-0.96292716,-2.9040253,0.010898562,-0.1721353,1.1395609,-0.21323718
-0.1,0.0,1.0999999999999999,0.5235987755982988,0.0,0,-0.8569328,-1.4271889,1.1754298,-0.060312178,0.07044065,1.1606532,-0.23137717,1.1539794,-0.9610165,-2.8724966,0.013605706,0.03939771,1.1538296,-0.36445746
-0.1,0.0,1.0999999999999999,0.5235987755982988,0.0,0,-0.85635763,-1.4286608,1.1748914,-0.018553283,0.041337036,1.2039438,-0.90682214,1.1554875,-0.96036416,-2.8577397,-0.0011717142,0.20630331,1.1885622,-0.30798176
-0.1,0.0,1.0999999999999999,0.5235987755982988,0.0,0,-0.8566989,-1.4276711,1.174773,-0.05334858,-0.10038249,1.1394441,-0.8742741,1.1531984,-0.95803356,-2.7708378,0.0002153314,0.12656373,1.1657276,-0.64339495
-0.1,0.0,1.0999999999999999,0.5235987755982988,0.0,0,-0.8567816,-1.4271294,1.1758735,-0.018205224,-0.22670719,1.188045,-0.96137077,1.1526814,-0.95997864,-2.9691398,-0.054782428,0.020936795,1.141357,-0.34634537
-0.1,0.0,1.0999999999999999,0.5235987755982988,0.0,0,-0.8562249,-1.426679,1.17507,0.0046559684,-0.18180346,1.2014852,-0.056029882,1.1525935,-0.9584019,-2.8775923,-0.008813227,0.13035579,1.0809481,-0.525097
-0.1,0.0,1.0999999999999999,0.5235987755982988,0.0,0,-0.85725164,-1.4275838,1.1755369,-0.015172843,0.042470146,1.1516771,-0.055500396,1.1507087,-0.9612473,-2.9197862,-0.013044037,0.100450344,1.1871706,-0.83216983
-0.1,0.0,1.0999999999999999,0.5235987755982988,0.0,0,-0.8567735,-1.4269866,1.1749338,-0.049831867,-0.100468166,1.261516,0.33853698,1.1508052,-0.95891255,-2.9714677,-0.061736546,0.17736164,1.1331254,-0.8058459
-0.1,0.0,1.0999999999999999,0.5235987755982988,0.0,0,-0.85724133,-1.4259965,1.1750851,0.023505082,-0.05056089,1.116386,-0.7064234,1.152582,-0.9617221,-3.0803506,-0.04254406,0.13601705,1.1797131,-0.24118067
-0.1,0.0,1.0999999999999999,0.5235987755982988,0.0,0,-0.8567397,-1.4274995,1.1754861,-0.05028032,0.25945908,1.202221,-1.8298197,1.1526057,-0.95825183,-2.8594623,0.00930853,-0.042768992,1.1200526,0.16915223
-0.1,0.0,1.0999999999999999,0.5235987755982988,0.0,0,-0.85706586,-1.4277037,1.1759334,-0.07915651,0.07597127,1.2388973,0.28191823,1.1517828,-0.9617773,-2.855937,-0.0010966698,0.08138144,1.2162554,-0.21660578
-0.1,0.0,1.0999999999999999,0.5235987755982988,0.0,0,-0.8580268,-1.4277823,1.1751937,-0.105506144,0.007947232,1.1598866,-0.7405395,1.1532335,-0.96069413,-2.8965454,-0.059072435,-0.052712608,1.2306241,-0.5898418
-0.1,0.0,1.0999999999999999,0.5235987755982988,0.0,0,-0.8567852,-1.4264774,1.1753047,-0.064563654,-0.09127013,1.1831714,-0.8861297,1.1515851,-0.9599439,-2.95219,0.011214762,0.111143075,1.2057418,-0.25109354
-0.1,0.0,1.0999999999999999,0.5235987755982988,0.0,0,-0.85668916,-1.4268398,1.1751511,0.017673092,-0.10414523,1.2568582,-0.10396377,1.1523421,-0.9585692,-2.88906,-0.0031767634,0.023995858,1.1535766,0.020783028
-0.1,0.0,1.0999999999999999,0.5235987755982988,0.0,0,-0.8560778,-1.4267367,1.1753042,-0.009474699,-0.015046466,1.1571753,-0.3902425,1.1526462,-0.9584618,-3.0310051,-0.012902812,0.12641151,1.1404506,0.105606794
-0.1,0.0,1.0999999999999999,0.5235987755982988,0.0,0,-0.85706705,-1.4275134,1.1753559,0.01199238,0.13524446,1.2082452,0.00732902,1.1538877,-0.9590358,-2.9763706,-0.041380834,-0.033557292,1.1782026,-0.7516422
-0.1,0.0,1.0999999999999999,0.5235987755982988,0.0,0,-0.8569686,-1.42758,1.1758034,-0.08905837,-0.28436014,1.1647416,-0.05255617,1.1520017,-0.9598659,-2.8772123,0.014971733,4.5296798e-05,1.1595178,-1.546399
-0.1,0.0,1.0999999999999999,0.5235987755982988,0.0,0,-0.85627115,-1.4279982,1.1760362,-0.04520853,-0.016458873,1.158952,0.5916139,1.1513228,-0.9597817,-3.018673,-0.018470861,0.040841132,1.1514208,0.40817693
-0.1,0.0,1.0999999999999999,0.5235987755982988,0.0,0,-0.8576682,-1.4276228,1.1758597,-0.0045993538,-0.12967063,1.0917836,-0.25713998,1.1539173,-0.9622952,-2.8333702,0.0042198924,-0.008214259,1.1531858,0.053756636
-0.1,0.0,1.0999999999999999,0.5235987755982988,0.0,0,-0.8577876,-1.4272976,1.175985,-0.0092008365,-0.2825541,1.1871842,-1.0637821,1.1554195,-0.96381724,-2.9292889,0.0265762,0.10470847,1.0900184,-0.05197895
-0.1,0.0,1.0999999999999999,0.5235987755982988,0.0,0,-0.85704076,-1.4272681,1.1747038,0.014553491,0.026624158,1.1520948,-0.29246512,1.1524489,-0.9583248,-2.9554346,-0.00030100392,0.13130195,1.1989658,-0.7278488
-0.1,0.0,1.0999999999999999,0.5235987755982988,0.0,0,-0.85554063,-1.4265124,1.1751674,-0.015471356,-0.035318542,1.1844687,-0.11187849,1.1537888,-0.96063536,-2.951229,-0.049899116,0.043433234,1.2318016,-0.35976017
-0.1,0.0,1.0999999999999999,0.5235987755982988,0.0,0,-0.8558042,-1.4264659,1.1760544,-0.036775585,-0.1280837,1.1677741,0.3167425,1.1532599,-0.95918334,-2.8656306,0.001969965,0.21568683,1.153168,-0.08763137
-0.1,0.0,1.0999999999999999,0.5235987755982988,0.0,0,-0.85647166,-1.427473,1.1754711,-0.0045520915,-0.15507688,1.1931171,0.13399316,1.1558439,-0.95913565,-2.9472435,0.01142312,0.029861327,1.2061738,-0.63091815
-0.1,0.0,1.0999999999999999,0.5235987755982988,0.0,0,-0.85675114,-1.4258624,1.1750654,-0.13222761,-0.21836147,1.1565249,-1.5772082,1.1516669,-0.9613765,-2.9237015,-0.033832915,0.026994538,1.2288185,0.22948003
-0.1,0.0,1.0999999999999999,0.5235987755982988,0.0,0,-0.85736454,-1.4263315,1.1754513,-0.0176363,0.021004662,1.1192396,0.10474721,1.1523091,-0.9581051,-2.8364205,0.011388584,0.022311438,1.1749505,-0.1873461
-0.1,0.0,1.0999999999999999,0.5235987755982988,0.0,0,-0.85609275,-1.4276067,1.1750901,-0.011202929,-0.24207425,1.1403068,-0.84960806,1.1519566,-0.95792866,-2.8906703,0.0036722485,0.053522643,1.2394619,0.22746125
-0.1,0.0,1.0999999999999999,0.5235987755982988,0.0,0,-0.8559848,-1.4265844,1.1759262,-0.019960964,-0.022722831,1.179527,-0.3078751,1.1520693,-0.9607525,-2.9946396,0.009386471,0.07398559,1.1895556,-0.45585206
-0.1,0.0,1.0999999999999999,0.5235987755982988,0.0,0,-0.85651726,-1.4270116,1.1757997,-0.09669444,-0.0006250038,1.194677,-0.19748953,1.1532512,-0.9612754,-3.0000563,-0.013301638,0.10242262,1.0825143,-0.11021473
-0.1,0.0,1.0999999999999999,0.5235987755982988,0.0,0,-0.8567759,-1.4268806,1.1757306,-0.029167607,-0.0043945806,1.0429164,0.0264917,1.151409,-0.96103585,-2.8343358,-0.006454998,-0.05083399,1.1620085,0.16510816
-0.1,0.0,1.0999999999999999,0.5235987755982988,0.0,0,-0.8575485,-1.4281085,1.1753713,-0.02451152,0.021213263,1.1936308,-0.5354591,1.1552196,-0.9602332,-2.877975,0.00090981706,0.07898519,1.203444,0.21453561
-0.1,0.0,1.0999999999999999,0.5235987755982988,0.0,0,-0.85776347,-1.4271461,1.1751698,-0.08189683,-0.035326835,1.200045,-0.07066588,1.1525826,-0.96184635,-2.9156268,-0.022204371,-0.08834357,1.1881034,-0.53598666
-0.1,0.0,1.0999999999999999,0.5235987755982988,0.0,0,-0.8564825,-1.426629,1.175525,0.038414992,-0.19852535,1.1268001,-0.005073916,1.1532034,-0.96051145,-2.8764033,-0.01610884,-0.1261608,1.2038834,-0.29623199
-0.1,0.0,1.0999999999999999,0.5235987755982988,0.0,0,-0.8572795,-1.4258398,1.176652,-0.035021096,-0.045675114,1.156438,-0.102226414,1.1515627,-0.9580232,-3.0866556,0.0007983796,0.04438202,1.0501297,-0.4102263
-0.1,0.0,1.0999999999999999,0.5235987755982988,0.0,0,-0.85760087,-1.426464,1.1745733,0.029643288,-0.4197959,1.0932171,0.2049364,1.1569492,-0.9574785,-2.9034882,-0.03542155,0.2759212,1.1517807,-0.46239582
-0.1,0.0,1.0999999999999999,0.5235987755982988,0.0,0,-0.8577339,-1.4265232,1.1749065,-0.07478886,-0.0665833,1.0913393,-0.6248321,1.1540699,-0.96121293,-2.964536,-0.057658058,0.009646662,1.1647877,0.2851783
-0.1,0.0,1.0999999999999999,0.5235987755982988,0.0,0,-0.8564966,-1.4271705,1.1754589,-0.093967855,0.20168523,1.1236763,-0.05763513,1.1502737,-0.95896244,-2.9600093,0.05045148,0.036286384,1.1357268,0.069203675
-0.1,0.0,1.0999999999999999,0.5235987755982988,0.0,0,-0.85625505,-1.4270728,1.1760997,-0.06558735,-0.17539662,1.1253219,-0.21744743,1.1505928,-0.9598236,-3.062888,-0.037909586,0.0472441,1.2006211,-0.14445199
-0.1,0.0,1.0999999999999999,0.5235987755982988,0.0,0,-0.85675454,-1.4256332,1.1753156,-0.031526934,-0.06425986,1.1761556,0.817592,1.1524725,-0.96213084,-3.0873027,-0.041518502,0.13011688,1.2085651,-0.7397356
-0.1,0.0,1.0999999999999999,0.5235987755982988,0.0,0,-0.858147,-1.4261278,1.1759222,-0.017909426,-0.22210701,1.0669518,0.37631184,1.1543305,-0.96309483,-2.7730088,-0.033086948,0.15450013,1.15532,-0.5240743
-0.1,0.0,1.0999999999999999,0.5235987755982988,0.0,0,-0.8571597,-1.4263784,1.1759394,0.009882979,-0.1868873,1.2701027,-0.45834228,1.1536431,-0.9589666,-2.9515326,-0.02680887,0.14461526,1.1723827,-0.53541076
-0.1,0.0,1.0999999999999999,0.5235987755982988,0.0,0,-0.8581038,-1.4265884,1.1752502,-0.022298744,-0.11756718,1.1621352,0.2244377,1.1521083,-0.96029836,-2.875908,0.02779733,0.028485691,1.1250368,-0.3313437
-0.1,0.0,1.0999999999999999,0.5235987755982988,0.0,0,-0.8562637,-1.42679,1.1750041,-0.097102165,-0.09550478,1.206843,-0.37725493,1.1529672,-0.9587754,-2.9316149,-0.009436314,-0.005307921,1.3084776,0.1721453
-0.1,0.0,1.0999999999999999,0.5235987755982988,0.0,0,-0.8568611,-1.4255586,1.1747271,0.023428535,0.026458869,1.139829,0.075181246,1.1530403,-0.9604635,-3.0951467,0.010046057,0.13196498,1.1009657,-0.33656347
-0.1,0.0,1.0999999999999999,0.5235987755982988,0.0,0,-0.85646087,-1.4265456,1.1755303,-0.016233325,0.020526055,1.2427429,0.5031617,1.1531711,-0.96069556,-3.0110054,-0.020700224,0.017334087,1.2100058,0.32131523
-0.1,0.0,1.0999999999999999,0.5235987755982988,0.0,0,-0.85583365,-1.426685,1.1750374,-0.010058743,0.08062659,1.1425995,0.23827586,1.1525068,-0.9582265,-3.0021946,0.03410122,0.057976324,1.1830726,-0.3673209
-0.1,0.0,1.0999999999999999,0.5235987755982988,0.0,0,-0.85588837,-1.4263508,1.1756692,-0.01999647,-0.027024679,1.1722885,0.44953457,1.1524818,-0.96002406,-2.9379163,-0.010499638,0.066816814,1.172352,0.24229299
-0.1,0.0,1.0999999999999999,0.5235987755982988,0.0,0,-0.8568851,-1.4271349,1.1757615,-0.056549814,-0.063655995,1.197126,-0.08551267,1.15274,-0.9577871,-3.0743861,0.029022003,0.19211926,1.146717,-0.9242488
-0.1,0.0,1.0999999999999999,0.5235987755982988,0.0,0,-0.8577386,-1.4273126,1.1738317,-0.035091117,0.33397076,1.1684254,0.012758883,1.1537558,-0.9572768,-2.9651175,-0.017126692,0.12402156,1.1736916,-0.22659664
-0.1,0.0,1.0999999999999999,0.5235987755982988,0.0,0,-0.85745275,-1.4261013,1.1750467,-0.031800147,0.03189521,1.2504311,0.22809881,1.1535578,-0.96058625,-2.9082086,-0.005780373,0.20999312,1.1765624,0.23434494
-0.1,0.0,1.0999999999999999,0.5235987755982988,0.0,0,-0.8567079,-1.4263787,1.1753033,-0.033029657,0.034527935,1.150181,-0.9853262,1.1504781,-0.9586172,-2.861343,-0.034255408,0.13967375,1.1556191,-0.5443937
-0.1,0.0,1.0999999999999999,0.5235987755982988,0.0,0,-0.8571926,-1.4271915,1.1756879,-0.005567858,0.10694141,1.1906395,-0.22045453,1.1520389,-0.95663786,-2.8231795,-0.0075630816,0.15316264,1.256124,0.5183266
-0.1,0.0,1.0999999999999999,0.5235987755982988,0.0,0,-0.857706,-1.4270805,1.1750455,-0.066914745,0.021840056,1.1604426,-0.48544553,1.1548584,-0.9585276,-2.913989,-0.015048971,-0.016216515,1.2166691,-0.42096993
-0.1,0.0,1.0999999999999999,0.5235987755982988,0.0,0,-0.857191,-1.4266573,1.1760938,-0.040067036,-0.1683434,1.1414832,0.54273295,1.1550561,-0.96009564,-2.9619937,0.04782156,-0.091470785,1.1904938,-0.8686678
-0.1,0.0,1.0999999999999999,0.5235987755982988,0.0,0,-0.8573669,-1.427506,1.1752954,-0.020293005,-0.033920363,1.2133249,-0.9351032,1.1535099,-0.95624536,-2.9166596,0.050529994,0.20722218,1.1246796,0.049648236
-0.1,0.0,1.0999999999999999,0.5235987755982988,0.0,0,-0.85751545,-1.4264941,1.1747991,-0.037715524,-0.022676473,1.1669075,-0.8160889,1.1523277,-0.9587686,-2.9551837,0.019178327,-0.14413503,1.1072222,0.011005516
-0.1,0.0,1.0999999999999999,0.5235987755982988,0.0,0,-0.8578599,-1.4265974,1.1758764,-0.05309192,0.2652661,1.1410538,0.15384914,1.1534871,-0.9598767,-2.8801742,-0.04513478,0.14124791,1.1886245,0.27555868
-0.1,0.0,1.0999999999999999,0.5235987755982988,0.0,0,-0.85606265,-1.4264364,1.1758411,-0.013314536,0.035329852,1.2136402,0.41120628,1.1546062,-0.9595155,-2.978507,-0.029686,0.093408674,1.1853112,-0.20306385
-0.1,0.0,1.0999999999999999,0.5235987755982988,0.0,0,-0.85779506,-1.4269209,1.1760573,-0.11000161,-0.17971854,1.1374427,-0.6344991,1.1511167,-0.9559927,-2.9469082,-0.020354643,0.040551983,1.1695021,-0.4652628
-0.1,0.0,1.0999999999999999,0.5235987755982988,0.0,0,-0.8583039,-1.4271996,1.1745943,-0.029030716,-0.033448994,1.194106,-0.6615069,1.1524553,-0.9595217,-2.788369,0.011039276,0.13827555,1.2112057,-0.0830194
-0.1,0.0,1.0999999999999999,0.5235987755982988,0.0,0,-0.85807276,-1.4262047,1.1758226,-0.1037846,-0.16366048,1.1638331,-0.41072908,1.1536717,-0.9591514,-2.9246502,-0.045254167,0.082428366,1.1810287,-0.7916815
-0.1,0.0,1.0999999999999999,0.5235987755982988,0.0,0,-0.85723764,-1.4264615,1.176192,-0.018827882,-0.097332366,1.043607,0.10650427,1.1524466,-0.9587488,-2.893392,-0.0054021017,0.038312748,1.1349757,-0.587657
-0.1,0.0,1.0999999999999999,0.5235987755982988,0.0,0,-0.85691553,-1.4263577,1.1755451,0.04066205,0.09360368,1.1695783,-0.24631387,1.1546209,-0.95987356,-2.8824368,-0.0060786903,0.08497979,1.1837143,0.023696117
-0.1,0.0,1.0999999999999999,0.5235987755982988,0.0,0,-0.85618544,-1.4265575,1.175455,-0.042199165,0.057933357,1.2038143,-1.0525547,1.1536021,-0.95782256,-2.9123306,-0.0072921654,-0.03331815,1.2145373,-0.57115215
-0.1,0.0,1.0999999999999999,0.5235987755982988,0.0,0,-0.85675985,-1.4263713,1.1755474,-0.057087447,0.1752238,1.1038762,0.24989699,1.1517977,-0.9577352,-2.9974806,0.020017056,-0.02345903,1.1947566,-0.69545233
-0.1,0.0,1.0999999999999999,0.5235987755982988,0.0,0,-0.8567302,-1.4275417,1.1741344,-0.05177776,-0.12325752,1.1325158,0.66756415,1.152223,-0.9595844,-2.9370487,0.01226605,-0.09768139,1.2122447,0.3122405
-0.1,0.0,1.0999999999999999,0.5235987755982988,0.0,0,-0.8566172,-1.4275202,1.1753132,-0.023411656,0.018186502,1.1889546,-0.11935017,1.1550816,-0.9601853,-2.9643471,0.06598302,0.0020928257,1.1299814,0.17837292
-0.1,0.0,1.0999999999999999,0.5235987755982988,0.0,0,-0.8573848,-1.427183,1.173828,-0.08007988,-0.11804258,1.128289,-0.5380052,1.149786,-0.96308565,-2.7423124,-0.0058151875,0.21213233,1.1803684,-0.7324585
-0.1,0.0,1.0999999999999999,0.5235987755982988,0.0,0,-0.85548115,-1.4278046,1.1744857,-0.030109415,0.09490926,1.1117816,-0.21685734,1.1501253,-0.9600632,-2.9590013,-0.009264369,0.03184191,1.1574459,-0.19107115
-0.1,0.0,1.0999999999999999,0.5235987755982988,0.0,0,-0.85690707,-1.427659,1.1752032,-0.037293028,-0.021512073,1.2321157,-0.46462527,1.1545578,-0.96150887,-2.9559286,-0.015720095,0.055889595,1.2105297,-0.5332213
-0.1,0.0,1.0999999999999999,0.5235987755982988,0.0,0,-0.8573824,-1.4283916,1.1745361,-0.009081149,-0.14559546,1.1591047,-1.317204,1.1523399,-0.9580537,-2.9744523,0.0003004487,-0.033625137,1.143802,0.026833845
-0.1,0.0,1.0999999999999999,0.5235987755982988,0.0,0,-0.85649836,-1.4268758,1.174493,-0.035631657,-0.21633449,1.135998,0.022610735,1.1538243,-0.9584562,-2.9696095,-0.013032958,0.10682739,1.0908091,-1.080214
-0.1,0.0,1.0999999999999999,0.5235987755982988,0.0,0,-0.8574971,-1.4266949,1.1747766,-0.036907244,-0.028684003,1.1445553,-0.19373293,1.1526625,-0.9608972,-2.8257277,0.0084117595,-0.047512446,1.1403923,-0.23032705
-0.1,0.0,1.0999999999999999,0.5235987755982988,0.0,0,-0.8571682,-1.4267027,1.1753596,-0.062509544,-0.13796389,1.2315359,-0.85259265,1.1520697,-0.9579873,-2.8915722,-0.021455865,-0.04019089,1.1913234,-0.21888563
-0.1,0.0,1.0999999999999999,0.5235987755982988,0.0,0,-0.8571914,-1.42745,1.1754532,-0.017179703,-0.12111502,1.2225631,0.40426055,1.1519661,-0.96076065,-2.7528877,-0.02245823,0.17551799,1.1575974,0.014498564
-0.1,0.0,1.0999999999999999,0.5235987755982988,0.0,0,-0.8575387,-1.425914,1.1748236,-0.04138171,-0.10282287,1.034919,-0.11795395,1.1523684,-0.9590416,-2.8624983,-0.030470436,0.0104104085,1.1468568,-0.58757985
-0.1,0.0,1.0999999999999999,0.5235987755982988,0.0,0,-0.85732234,-1.4275955,1.1763563,0.009146562,-0.11416934,1.2061486,-0.06860893,1.1545773,-0.9617519,-2.9322674,-0.016776457,0.09015405,1.1566036,0.6662462
-0.1,0.0,1.0999999999999999,0.5235987755982988,0.0,0,-0.85643536,-1.428064,1.1749029,-0.053385448,0.108340874,1.1593834,-0.36149773,1.1552033,-0.9576098,-2.8251958,0.060584966,-0.08781512,1.1919638,0.58047366
-0.1,0.0,1.0999999999999999,0.5235987755982988,0.0,0,-0.8568585,-1.4261115,1.1753182,-0.07777174,-0.3202282,1.2005179,-0.015921962,1.1527456,-0.96247894,-3.076504,-0.023350947,0.051609095,1.1455159,-0.47168303
