sanky1234/BimanualDexCatch/isaacgymenvs/cem_results/football_pose_0.1_0.1_0.9999999999999999_0.5235987755982988_-0.5235987755982988_0_2025-05-27.csv
x,y,z,roll,pitch,yaw,robot1/joint1,robot1/joint2,robot1/joint3,robot1/joint4,robot1/joint5,robot1/joint6,robot1/joint7,robot2/joint1,robot2/joint2,robot2/joint3,robot2/joint4,robot2/joint5,robot2/joint6,robot2/joint7
0.1,0.1,0.9999999999999999,0.5235987755982988,-0.5235987755982988,0,-1.0801203,0.20738855,-0.59117883,0.74635136,-0.67593193,1.517446,-0.46738425,-0.76905966,-1.846925,0.3170791,-0.05746808,0.042719726,1.0557383,0.5240734
0.1,0.1,0.9999999999999999,0.5235987755982988,-0.5235987755982988,0,-1.0779259,0.20244862,-0.59355223,0.74482775,-0.6617574,1.518005,-0.45320204,-0.81172997,-1.8268013,0.49143627,-0.024675809,0.1919432,1.1102146,-0.24342288
0.1,0.1,0.9999999999999999,0.5235987755982988,-0.5235987755982988,0,-1.0772136,0.20382078,-0.594103,0.74814177,-0.6772363,1.5182191,-0.46163982,-0.7745532,-1.8922735,0.40792358,-0.047697105,-0.2889038,1.2040257,-0.38721263
0.1,0.1,0.9999999999999999,0.5235987755982988,-0.5235987755982988,0,-1.0777793,0.20321327,-0.59188616,0.7448441,-0.6733144,1.5173924,-0.4614572,-0.7930699,-1.830237,0.29486024,-0.07550712,-0.10964337,1.076085,-0.647136
0.1,0.1,0.9999999999999999,0.5235987755982988,-0.5235987755982988,0,-1.0786812,0.20685013,-0.59328043,0.7469555,-0.6661054,1.5210476,-0.46859708,-0.7643617,-1.8256454,0.31402314,-0.004458174,0.099622466,1.0237365,0.2368318
0.1,0.1,0.9999999999999999,0.5235987755982988,-0.5235987755982988,0,-1.0774271,0.20034136,-0.5930013,0.74748343,-0.6708867,1.5197719,-0.4571451,-0.82336664,-1.8476222,0.4153758,-0.14419979,-0.030760903,1.0855987,0.71106946
0.1,0.1,0.9999999999999999,0.5235987755982988,-0.5235987755982988,0,-1.0805333,0.20376441,-0.5888498,0.74446625,-0.6685972,1.5189694,-0.46029174,-0.78310996,-1.8412592,0.30213115,-0.10692627,0.0409018,1.1900554,-0.57235104
0.1,0.1,0.9999999999999999,0.5235987755982988,-0.5235987755982988,0,-1.079615,0.20627908,-0.593516,0.74870634,-0.6685386,1.5186565,-0.43978542,-0.75346047,-1.718613,0.3068214,-0.056695994,-0.13384616,1.0682852,0.25147748
0.1,0.1,0.9999999999999999,0.5235987755982988,-0.5235987755982988,0,-1.080803,0.20594688,-0.59030265,0.74731046,-0.66756094,1.5210437,-0.45964015,-0.78333426,-1.7685215,0.3216186,0.0060779876,-0.21200664,1.0210534,0.0058844313
0.1,0.1,0.9999999999999999,0.5235987755982988,-0.5235987755982988,0,-1.0799776,0.20913158,-0.59158933,0.74785876,-0.67486477,1.5217357,-0.46425745,-0.77283823,-1.8520304,0.29859003,-0.084160194,0.011653216,1.1583589,-0.044418953
0.1,0.1,0.9999999999999999,0.5235987755982988,-0.5235987755982988,0,-1.0792882,0.20514727,-0.59104383,0.74782276,-0.68339103,1.516424,-0.4688338,-0.77710485,-1.8094457,0.2704772,-0.0413237,-0.24856137,1.1186122,-0.87050176
0.1,0.1,0.9999999999999999,0.5235987755982988,-0.5235987755982988,0,-1.0778373,0.20531565,-0.59432733,0.74735105,-0.6786,1.5153954,-0.46887827,-0.7809206,-1.7854222,0.4835538,-0.09816173,-0.074009724,1.0476639,0.1372963
0.1,0.1,0.9999999999999999,0.5235987755982988,-0.5235987755982988,0,-1.0792844,0.20720728,-0.59298885,0.74638885,-0.6608108,1.5202857,-0.4583535,-0.75673115,-1.8213444,0.31936264,-0.07909988,-0.17326711,1.0986605,0.047056045
0.1,0.1,0.9999999999999999,0.5235987755982988,-0.5235987755982988,0,-1.0806026,0.20701043,-0.59157187,0.7475586,-0.6766748,1.5171407,-0.45056778,-0.7897556,-1.8635404,0.29060113,-0.09542996,-0.0916364,1.0672975,-0.4732438
0.1,0.1,0.9999999999999999,0.5235987755982988,-0.5235987755982988,0,-1.0793076,0.20509197,-0.5933855,0.7464909,-0.6728044,1.5191292,-0.4511779,-0.80352795,-1.8037829,0.40857625,-0.017822834,-0.18901415,1.0977046,0.37832808
0.1,0.1,0.9999999999999999,0.5235987755982988,-0.5235987755982988,0,-1.080237,0.20373915,-0.5920604,0.7480183,-0.67728275,1.5198863,-0.44971663,-0.75297457,-1.7933464,0.42999265,-0.013349331,-0.049717993,1.1583581,0.040888615
0.1,0.1,0.9999999999999999,0.5235987755982988,-0.5235987755982988,0,-1.0814826,0.20677505,-0.59081453,0.7444923,-0.6697972,1.5184296,-0.44174615,-0.7629412,-1.8138213,0.35119522,-0.08241439,-0.14437927,1.116574,0.24921797
0.1,0.1,0.9999999999999999,0.5235987755982988,-0.5235987755982988,0,-1.0814826,0.20288512,-0.58833736,0.7522033,-0.6751008,1.5213335,-0.4720287,-0.7381549,-1.7868001,0.28960478,-0.07075738,-0.08633571,1.0911703,0.18739809
0.1,0.1,0.9999999999999999,0.5235987755982988,-0.5235987755982988,0,-1.0780629,0.20852938,-0.59177977,0.7472195,-0.67159253,1.5179454,-0.47969314,-0.7736457,-1.8104789,0.39667696,-0.08933413,0.0882275,1.1984626,0.037406564
0.1,0.1,0.9999999999999999,0.5235987755982988,-0.5235987755982988,0,-1.0796595,0.20603706,-0.594807,0.743893,-0.67236406,1.5191462,-0.4537448,-0.794169,-1.8261436,0.41798133,-0.044165444,-0.25247127,1.0521536,0.3349513
0.1,0.1,0.9999999999999999,0.5235987755982988,-0.5235987755982988,0,-1.078533,0.20424478,-0.5927954,0.74920434,-0.67620325,1.5172518,-0.4727763,-0.7765072,-1.8289526,0.41895446,-0.05615509,-0.37929395,1.079256,0.5967869
0.1,0.1,0.9999999999999999,0.5235987755982988,-0.5235987755982988,0,-1.076683,0.20303144,-0.5934716,0.74854106,-0.67164546,1.5203052,-0.46704668,-0.79882365,-1.8133245,0.28275698,-0.103402875,0.0028597466,1.1634609,-0.027848056
0.1,0.1,0.9999999999999999,0.5235987755982988,-0.5235987755982988,0,-1.0837029,0.20685643,-0.5888115,0.74952996,-0.6734276,1.5179703,-0.45422554,-0.78489417,-1.8222392,0.24829668,-0.12763996,0.036282897,0.93640995,0.4629139
0.1,0.1,0.9999999999999999,0.5235987755982988,-0.5235987755982988,0,-1.081502,0.21107233,-0.59388983,0.74748707,-0.67534137,1.5208142,-0.4618218,-0.79428923,-1.76745,0.35206372,-0.10203029,-0.002187705,1.1231853,-0.48825714
0.1,0.1,0.9999999999999999,0.5235987755982988,-0.5235987755982988,0,-1.0777515,0.20422126,-0.59102786,0.7452754,-0.6717202,1.5196345,-0.47716585,-0.79556423,-1.855125,0.36797392,-0.10270735,-0.14647034,1.1385169,0.017833177
0.1,0.1,0.9999999999999999,0.5235987755982988,-0.5235987755982988,0,-1.0776097,0.20269372,-0.59273833,0.74750715,-0.67782766,1.5189551,-0.48242506,-0.77944535,-1.7994331,0.57223684,-0.10171025,-0.10696034,1.1535847,-0.7347202
0.1,0.1,0.9999999999999999,0.5235987755982988,-0.5235987755982988,0,-1.07912,0.20655604,-0.59088755,0.7479025,-0.6696444,1.521582,-0.46952447,-0.74311894,-1.8361102,0.25030112,-0.028469928,-0.19636863,1.1557964,0.045460775
0.1,0.1,0.9999999999999999,0.5235987755982988,-0.5235987755982988,0,-1.0783719,0.20369521,-0.5923937,0.74763304,-0.67070514,1.5185025,-0.46908364,-0.8018993,-1.747972,0.37980986,0.014614864,-0.09275614,1.0894127,-0.25333408
0.1,0.1,0.9999999999999999,0.5235987755982988,-0.5235987755982988,0,-1.0792276,0.20432463,-0.59250957,0.7459303,-0.67346555,1.5186843,-0.45690542,-0.74585974,-1.7810466,0.4242503,0.014836843,-0.2087606,1.1387895,0.6528665
0.1,0.1,0.9999999999999999,0.5235987755982988,-0.5235987755982988,0,-1.0786966,0.20378318,-0.5943557,0.74563664,-0.6730571,1.5227393,-0.4632461,-0.8009409,-1.8358189,0.2830118,-0.103381544,-0.22369504,1.1533204,-1.0049031
0.1,0.1,0.9999999999999999,0.5235987755982988,-0.5235987755982988,0,-1.0803962,0.20342298,-0.5908561,0.74627644,-0.6739271,1.5191071,-0.45401964,-0.7216846,-1.908919,0.37334827,-0.1279646,-0.15327556,1.1509088,0.20504268
0.1,0.1,0.9999999999999999,0.5235987755982988,-0.5235987755982988,0,-1.0825862,0.20523734,-0.5896809,0.7446325,-0.6646588,1.5202446,-0.451873,-0.77755237,-1.8042256,0.3641272,-0.091167085,0.002314552,1.067029,-0.19692594
0.1,0.1,0.9999999999999999,0.5235987755982988,-0.5235987755982988,0,-1.0830586,0.20346826,-0.5888852,0.74540585,-0.66451234,1.5198805,-0.45618272,-0.80881554,-1.8221325,0.25475204,-0.06747402,-0.33077034,1.0972289,0.12034155
0.1,0.1,0.9999999999999999,0.5235987755982988,-0.5235987755982988,0,-1.0787072,0.19875199,-0.5912758,0.7431057,-0.6687057,1.5198773,-0.47074544,-0.77498376,-1.8521638,0.25725922,-0.14396003,-0.11557026,1.1855278,0.27715117
0.1,0.1,0.9999999999999999,0.5235987755982988,-0.5235987755982988,0,-1.0807244,0.20659848,-0.5914255,0.74741757,-0.6708497,1.5184712,-0.46663702,-0.8051735,-1.8750519,0.3448022,-0.11402526,0.061705578,1.0618181,0.9144363
0.1,0.1,0.9999999999999999,0.5235987755982988,-0.5235987755982988,0,-1.0801196,0.20346169,-0.58985066,0.7451053,-0.667778,1.5172399,-0.45372748,-0.78312093,-1.7681413,0.2993388,-0.0039168107,0.017382411,1.1708761,0.34056628
0.1,0.1,0.9999999999999999,0.5235987755982988,-0.5235987755982988,0,-1.0788293,0.2033275,-0.5888751,0.7501562,-0.67059505,1.5170738,-0.4736116,-0.76789343,-1.8239453,0.3530799,-0.061854854,0.014403072,1.1341213,0.47807235
0.1,0.1,0.9999999999999999,0.5235987755982988,-0.5235987755982988,0,-1.079081,0.20273249,-0.5910998,0.75077134,-0.6662249,1.5186704,-0.45892695,-0.77552575,-1.8429494,0.36281002,-0.022090344,0.29446417,1.1273608,-0.42104578
0.1,0.1,0.9999999999999999,0.5235987755982988,-0.5235987755982988,0,-1.0820606,0.20194481,-0.5909663,0.7451548,-0.67863417,1.522404,-0.4701989,-0.7753991,-1.8137351,0.26927817,-0.110711455,0.012899216,1.1042113,0.3393557
0.1,0.1,0.9999999999999999,0.5235987755982988,-0.5235987755982988,0,-1.0836766,0.2061019,-0.58833784,0.74493337,-0.6699047,1.5219299,-0.45810932,-0.8070959,-1.8266997,0.25109452,-0.14326824,-0.17856696,1.0745739,1.3532996
0.1,0.1,0.9999999999999999,0.5235987755982988,-0.5235987755982988,0,-1.0796857,0.20077609,-0.5905922,0.74786913,-0.6753558,1.5200487,-0.47777674,-0.789098,-1.8251615,0.44796765,-0.049724296,-0.30681488,1.0958526,0.47158286
0.1,0.1,0.9999999999999999,0.5235987755982988,-0.5235987755982988,0,-1.0824877,0.20759656,-0.59132034,0.74712604,-0.6699171,1.5211742,-0.44115755,-0.75126064,-1.8076509,0.3354178,0.011774274,0.008084891,1.1559862,0.7711349
0.1,0.1,0.9999999999999999,0.5235987755982988,-0.5235987755982988,0,-1.0792245,0.20398961,-0.59224105,0.7462247,-0.67684734,1.5154932,-0.45790064,-0.78750426,-1.7389387,0.17701232,-0.07799665,-0.059270058,1.1299759,-0.109314375
0.1,0.1,0.9999999999999999,0.5235987755982988,-0.5235987755982988,0,-1.0816965,0.2068963,-0.58833665,0.7489892,-0.6703315,1.5183585,-0.46946195,-0.80551976,-1.7248617,0.33515722,-0.1184768,-0.22091998,1.0846411,0.574444
0.1,0.1,0.9999999999999999,0.5235987755982988,-0.5235987755982988,0,-1.0798855,0.20511942,-0.5896109,0.74751174,-0.6679173,1.5173638,-0.4571702,-0.80325603,-1.8176734,0.2952363,-0.11563958,0.2009475,1.1663028,0.10749266
0.1,0.1,0.9999999999999999,0.5235987755982988,-0.5235987755982988,0,-1.0803561,0.20405157,-0.59129196,0.7461786,-0.6734963,1.519098,-0.46479833,-0.77298117,-1.7541298,0.52121365,-0.044808134,0.14731273,1.0951346,0.41387784
0.1,0.1,0.9999999999999999,0.5235987755982988,-0.5235987755982988,0,-1.0796474,0.20468535,-0.5953844,0.7450166,-0.6721583,1.5218843,-0.46617866,-0.79668427,-1.8616939,0.32037112,-0.17779177,-0.3939668,1.1050364,0.5502276
0.1,0.1,0.9999999999999999,0.5235987755982988,-0.5235987755982988,0,-1.0815147,0.19952941,-0.59101135,0.74474025,-0.6822479,1.518847,-0.4611036,-0.78619814,-1.7657576,0.44755727,-0.020789837,-0.14866415,1.0756073,0.7157873
0.1,0.1,0.9999999999999999,0.5235987755982988,-0.5235987755982988,0,-1.0794791,0.20763117,-0.5926618,0.74495226,-0.669993,1.5184957,-0.4668884,-0.77341974,-1.8325392,0.24264227,-0.0628648,-0.036586717,1.1714386,-1.3467985
0.1,0.1,0.9999999999999999,0.5235987755982988,-0.5235987755982988,0,-1.082003,0.20102406,-0.5890519,0.746883,-0.67366576,1.5177225,-0.4443737,-0.7904104,-1.8876692,0.42599437,-0.09891274,0.071087025,1.1517168,0.798445
0.1,0.1,0.9999999999999999,0.5235987755982988,-0.5235987755982988,0,-1.0805526,0.20211066,-0.5922367,0.74509096,-0.6709969,1.5178251,-0.45607054,-0.76471883,-1.8637661,0.62251306,-0.08758563,-0.14589413,1.1103334,-0.6491476
0.1,0.1,0.9999999999999999,0.5235987755982988,-0.5235987755982988,0,-1.0829293,0.20835109,-0.5896379,0.7485352,-0.67227054,1.5220988,-0.46147284,-0.8416761,-1.8622018,0.30402616,-0.13513076,-0.036098413,1.0741695,0.5847592
0.1,0.1,0.9999999999999999,0.5235987755982988,-0.5235987755982988,0,-1.0797422,0.20199648,-0.59482664,0.74619895,-0.6704768,1.5212084,-0.45767707,-0.7908129,-1.8461502,0.38213143,-0.063286394,-0.10861556,1.036161,1.0627866
0.1,0.1,0.9999999999999999,0.5235987755982988,-0.5235987755982988,0,-1.0785289,0.20451793,-0.59347945,0.74680734,-0.671648,1.5172943,-0.4575671,-0.7875172,-1.8407791,0.33776188,-0.0545931,-0.11851036,1.112872,-0.02948112
0.1,0.1,0.9999999999999999,0.5235987755982988,-0.5235987755982988,0,-1.082312,0.20702218,-0.5898319,0.74705637,-0.6715348,1.5183232,-0.4509862,-0.75325716,-1.8684517,0.26890093,-0.042558245,-0.14468092,1.1014183,0.36823758
0.1,0.1,0.9999999999999999,0.5235987755982988,-0.5235987755982988,0,-1.0812129,0.20068993,-0.59081423,0.742368,-0.67792284,1.5183982,-0.45599028,-0.79133445,-1.88192,0.5250266,-0.04587259,-0.027799435,1.0574458,-0.26723322
0.1,0.1,0.9999999999999999,0.5235987755982988,-0.5235987755982988,0,-1.0789809,0.20240685,-0.59186244,0.7428012,-0.6726832,1.5176259,-0.4737899,-0.7645033,-1.7418306,0.4795526,-0.034900755,-0.12856534,1.1651396,0.033973154
0.1,0.1,0.9999999999999999,0.5235987755982988,-0.5235987755982988,0,-1.0810084,0.20220006,-0.5909881,0.74767494,-0.6780521,1.5195804,-0.46335816,-0.76745,-1.8114587,0.49505785,-0.09737798,-0.01675323,1.066012,0.07304456
0.1,0.1,0.9999999999999999,0.5235987755982988,-0.5235987755982988,0,-1.08122,0.20614828,-0.59514827,0.74535185,-0.6719393,1.5207835,-0.45681176,-0.7724501,-1.9143159,0.49032062,0.021906974,-0.06797167,1.0625436,-0.33781835
0.1,0.1,0.9999999999999999,0.5235987755982988,-0.5235987755982988,0,-1.0782552,0.20182696,-0.5951384,0.748475,-0.6748052,1.5175829,-0.4473523,-0.7953315,-1.8358626,0.34525776,-0.052516192,-0.069118895,1.0682132,0.0036942407
0.1,0.1,0.9999999999999999,0.5235987755982988,-0.5235987755982988,0,-1.080376,0.20367052,-0.5906457,0.7479594,-0.6722734,1.5168697,-0.45367295,-0.7533432,-1.8441939,0.48466,-0.014471719,-0.19091852,1.2215542,-0.1512248
0.1,0.1,0.9999999999999999,0.5235987755982988,-0.5235987755982988,0,-1.0781906,0.20356384,-0.5913559,0.75038195,-0.6713077,1.5175087,-0.45758215,-0.8191785,-1.8434985,0.32842857,-0.01865842,0.07139736,1.1623077,0.18688431
0.1,0.1,0.9999999999999999,0.5235987755982988,-0.5235987755982988,0,-1.0797075,0.2037594,-0.5930159,0.74449813,-0.6723189,1.5213273,-0.4631661,-0.80528104,-1.8291364,0.26464352,-0.10587757,0.0907764,1.095429,0.23576607
0.1,0.1,0.9999999999999999,0.5235987755982988,-0.5235987755982988,0,-1.0788715,0.20876001,-0.59417945,0.7461459,-0.66228724,1.5191752,-0.4669684,-0.7994481,-1.7948401,0.095605105,-0.10057426,-0.271006,1.1591192,0.11376366
0.1,0.1,0.9999999999999999,0.5235987755982988,-0.5235987755982988,0,-1.0781087,0.20397605,-0.59279484,0.7461077,-0.67105204,1.5150071,-0.46441704,-0.76711655,-1.8327246,0.3953517,-0.076953985,-0.05912369,1.2059408,-0.6861982
0.1,0.1,0.9999999999999999,0.5235987755982988,-0.5235987755982988,0,-1.082838,0.20884009,-0.59124225,0.74391896,-0.6750179,1.5190446,-0.47066277,-0.8194325,-1.8766882,0.39070722,-0.021382447,-0.19842835,1.1158831,0.6235256
0.1,0.1,0.9999999999999999,0.5235987755982988,-0.5235987755982988,0,-1.080423,0.20314868,-0.59172994,0.74536204,-0.6748586,1.5202613,-0.45938727,-0.79071337,-1.8501753,0.2763917,-0.08446,-0.28316224,1.1464599,-0.7812801
0.1,0.1,0.9999999999999999,0.5235987755982988,-0.5235987755982988,0,-1.0822794,0.20582815,-0.5906219,0.74594736,-0.673056,1.5221461,-0.46814236,-0.802247,-1.773635,0.43107376,-0.13089298,0.0066920305,1.0627636,0.71106476
0.1,0.1,0.9999999999999999,0.5235987755982988,-0.5235987755982988,0,-1.0789213,0.21087232,-0.5966896,0.74698544,-0.6711188,1.5213653,-0.47494733,-0.762394,-1.801381,0.40709046,-0.0037946803,-0.14046735,1.1540673,-0.5544101
0.1,0.1,0.9999999999999999,0.5235987755982988,-0.5235987755982988,0,-1.0813528,0.20678559,-0.59386104,0.74730194,-0.66599566,1.5188504,-0.45358127,-0.78830594,-1.8277624,0.35688296,0.010959458,-0.12609228,0.9554247,0.9332247
0.1,0.1,0.9999999999999999,0.5235987755982988,-0.5235987755982988,0,-1.0807548,0.20520689,-0.5911506,0.7457331,-0.6704587,1.5181043,-0.48488933,-0.78744155,-1.8527741,0.42985559,-0.12989743,-0.08520429,1.0659215,0.52242213
0.1,0.1,0.9999999999999999,0.5235987755982988,-0.5235987755982988,0,-1.0779912,0.20830378,-0.5939327,0.75017476,-0.6729735,1.51609,-0.46930435,-0.7200668,-1.8447149,0.4080896,-0.067327365,0.22226031,1.0890931,0.8882943
0.1,0.1,0.9999999999999999,0.5235987755982988,-0.5235987755982988,0,-1.0828829,0.20487556,-0.5876076,0.7491819,-0.6709316,1.521401,-0.46431437,-0.7829931,-1.8046539,0.4569107,-0.036601424,-0.19403863,1.1432693,0.21017395
0.1,0.1,0.9999999999999999,0.5235987755982988,-0.5235987755982988,0,-1.0808582,0.20481248,-0.5898862,0.75024253,-0.6722106,1.520009,-0.46599144,-0.81443465,-1.821608,0.49622494,-0.12918074,-0.087185055,1.1550318,0.3012761
0.1,0.1,0.9999999999999999,0.5235987755982988,-0.5235987755982988,0,-1.081606,0.20558606,-0.5939551,0.74657226,-0.67155504,1.5190287,-0.45280215,-0.7809618,-1.8471241,0.27418488,-0.18652485,-0.016557382,1.061349,0.27370965
0.1,0.1,0.9999999999999999,0.5235987755982988,-0.5235987755982988,0,-1.0783448,0.20463029,-0.5941758,0.749278,-0.6744074,1.5214058,-0.48374617,-0.75888544,-1.8117893,0.405316,-0.058388725,-0.33837315,1.1401165,0.058239765
0.1,0.1,0.9999999999999999,0.5235987755982988,-0.5235987755982988,0,-1.0794238,0.2005168,-0.5927198,0.7470135,-0.6703824,1.5199605,-0.4695317,-0.7883634,-1.8180244,0.5515486,-0.1365787,-0.11115598,1.0642025,0.15165417
0.1,0.1,0.9999999999999999,0.5235987755982988,-0.5235987755982988,0,-1.0770974,0.2013321,-0.5974314,0.746547,-0.6766338,1.5187992,-0.47074854,-0.82907546,-1.8173229,0.41857174,-0.111213215,0.03642492,1.070282,0.72169936
0.1,0.1,0.9999999999999999,0.5235987755982988,-0.5235987755982988,0,-1.0810071,0.20552768,-0.5929775,0.7433547,-0.66418463,1.5193722,-0.44958216,-0.76085496,-1.8110797,0.3953497,-0.047496293,-0.028838066,1.1681601,0.46883672
0.1,0.1,0.9999999999999999,0.5235987755982988,-0.5235987755982988,0,-1.0833622,0.20362271,-0.5928341,0.74585056,-0.67752826,1.5197862,-0.44461116,-0.80992776,-1.7549621,0.4443579,-0.10474996,0.031116322,1.0854938,0.6979193
0.1,0.1,0.9999999999999999,0.5235987755982988,-0.5235987755982988,0,-1.0815398,0.20511216,-0.5934915,0.7473292,-0.6703639,1.5200993,-0.45543885,-0.7895913,-1.8323306,0.514891,-0.08128415,-0.12718788,1.0195912,0.12377456
0.1,0.1,0.9999999999999999,0.5235987755982988,-0.5235987755982988,0,-1.0778365,0.20459947,-0.59504896,0.7457461,-0.6667795,1.5188546,-0.46907315,-0.8437359,-1.8391732,0.26423588,-0.038264938,0.020705402,1.0906882,0.4668843
0.1,0.1,0.9999999999999999,0.5235987755982988,-0.5235987755982988,0,-1.079227,0.2038518,-0.59443736,0.7457444,-0.67870975,1.5169262,-0.46246678,-0.79070777,-1.8969287,0.3875266,0.0058675306,-0.15974456,1.1558422,0.3158517
0.1,0.1,0.9999999999999999,0.5235987755982988,-0.5235987755982988,0,-1.0782804,0.20313361,-0.595453,0.74390876,-0.67354554,1.519785,-0.47158203,-0.8299896,-1.8485692,0.5059676,-0.10747786,0.106986284,1.1123835,-0.4299987
0.1,0.1,0.9999999999999999,0.5235987755982988,-0.5235987755982988,0,-1.0837632,0.20354755,-0.5901073,0.74297136,-0.67305285,1.5227425,-0.44687745,-0.77513665,-1.8806573,0.2114378,-0.026108397,-0.14614713,1.166136,0.30804023
0.1,0.1,0.9999999999999999,0.5235987755982988,-0.5235987755982988,0,-1.0803306,0.20697826,-0.591667,0.7478344,-0.6622024,1.5182749,-0.45660308,-0.722454,-1.9189082,0.29465005,-0.02080555,0.032881606,1.1027545,0.22102262
0.1,0.1,0.9999999999999999,0.5235987755982988,-0.5235987755982988,0,-1.0799569,0.20614842,-0.59301203,0.7522163,-0.6736504,1.5200436,-0.46536043,-0.78142685,-1.8397095,0.27003664,-0.011118239,-0.13235384,1.1261497,-0.007817384
0.1,0.1,0.9999999999999999,0.5235987755982988,-0.5235987755982988,0,-1.0804679,0.20511581,-0.5914063,0.748672,-0.66990864,1.518245,-0.4439007,-0.7629306,-1.7913505,0.3562728,-0.079368494,0.019581018,1.1468345,0.099524744
0.1,0.1,0.9999999999999999,0.5235987755982988,-0.5235987755982988,0,-1.0790848,0.20434855,-0.59703463,0.7445655,-0.66834885,1.5212935,-0.45747334,-0.80874133,-1.7461413,0.5448103,-0.10183034,-0.120999254,1.2424717,-0.26389205
0.1,0.1,0.9999999999999999,0.5235987755982988,-0.5235987755982988,0,-1.0808952,0.20616877,-0.5931592,0.7476778,-0.67217946,1.5186046,-0.45832232,-0.82576334,-1.8214558,0.16842908,-0.0796939,-0.13650537,1.0848359,0.2529988
0.1,0.1,0.9999999999999999,0.5235987755982988,-0.5235987755982988,0,-1.0814017,0.20483568,-0.5916823,0.75027084,-0.6763978,1.5207256,-0.47004646,-0.814886,-1.8375775,0.27118057,-0.042632017,-0.059731785,1.1227847,0.37818408
0.1,0.1,0.9999999999999999,0.5235987755982988,-0.5235987755982988,0,-1.078679,0.19992244,-0.5954992,0.74471945,-0.6705456,1.5169808,-0.44447964,-0.8102416,-1.8073288,0.34457973,-0.19789219,0.08807615,1.0954081,-0.19203965
0.1,0.1,0.9999999999999999,0.5235987755982988,-0.5235987755982988,0,-1.0785918,0.2007022,-0.59492534,0.74798584,-0.6761263,1.5170038,-0.4564464,-0.77490187,-1.8832043,0.17872107,-0.11276001,-0.12442801,1.083708,0.7545943
0.1,0.1,0.9999999999999999,0.5235987755982988,-0.5235987755982988,0,-1.0832497,0.20827043,-0.5915036,0.74846447,-0.67115355,1.520565,-0.46006244,-0.7917572,-1.8435011,0.41092873,-0.06960562,-0.1291257,1.1115566,0.6743227
0.1,0.1,0.9999999999999999,0.5235987755982988,-0.5235987755982988,0,-1.0777566,0.20212042,-0.59695405,0.74754024,-0.6726584,1.516924,-0.46381283,-0.7996985,-1.8417401,0.31967363,-0.1471943,-0.20649152,1.0809757,-0.75024986
0.1,0.1,0.9999999999999999,0.5235987755982988,-0.5235987755982988,0,-1.077817,0.20268159,-0.59451354,0.74812037,-0.67195123,1.5186532,-0.4731092,-0.8053583,-1.8400292,0.34191564,-0.0894431,-0.18180288,1.122464,0.61002326
0.1,0.1,0.9999999999999999,0.5235987755982988,-0.5235987755982988,0,-1.0804862,0.20441747,-0.5891427,0.74972945,-0.67280966,1.5153476,-0.45410648,-0.7818191,-1.8096591,0.1839973,-0.05881308,0.015535271,1.136232,0.6659309
0.1,0.1,0.9999999999999999,0.5235987755982988,-0.5235987755982988,0,-1.0828224,0.20313673,-0.5898566,0.74421513,-0.6725784,1.5180582,-0.4580773,-0.82200855,-1.8162882,0.30613688,-0.10976566,-0.003061826,1.0321536,-0.0394244
0.1,0.1,0.9999999999999999,0.5235987755982988,-0.5235987755982988,0,-1.0811517,0.20640871,-0.59257793,0.7435902,-0.6737014,1.5170816,-0.46329686,-0.811728,-1.8562491,0.29615065,-0.028185477,0.029441882,1.1025711,0.18267421
0.1,0.1,0.9999999999999999,0.5235987755982988,-0.5235987755982988,0,-1.0804672,0.20210585,-0.5906499,0.74544597,-0.6768652,1.5205243,-0.48456892,-0.7854904,-1.8468568,0.35458133,0.017480066,-0.095586434,1.2039382,-0.3007831
0.1,0.1,0.9999999999999999,0.5235987755982988,-0.5235987755982988,0,-1.0782522,0.20453283,-0.5955196,0.7448662,-0.6628204,1.5204703,-0.47269332,-0.7950841,-1.8744574,0.3680807,-0.07829191,-0.18561712,1.0540388,0.43892863
0.1,0.1,0.9999999999999999,0.5235987755982988,-0.5235987755982988,0,-1.0831629,0.20302421,-0.59129393,0.7491839,-0.6794434,1.5192729,-0.4642887,-0.7981756,-1.7841921,0.31285208,-0.03769195,0.18276076,1.1643211,1.7622182
0.1,0.1,0.9999999999999999,0.5235987755982988,-0.5235987755982988,0,-1.0811778,0.20034392,-0.591604,0.7445772,-0.6621461,1.5187365,-0.46231395,-0.76112914,-1.9030755,0.3244134,-0.07733489,-0.2195891,1.0945348,-0.39108723
0.1,0.1,0.9999999999999999,0.5235987755982988,-0.5235987755982988,0,-1.0793557,0.20571814,-0.59313715,0.7486062,-0.6701548,1.519061,-0.47651958,-0.79032886,-1.8217092,0.32598883,-0.028085688,-0.032345526,1.049718,0.27221742
0.1,0.1,0.9999999999999999,0.5235987755982988,-0.5235987755982988,0,-1.0809438,0.20797816,-0.5926294,0.7467317,-0.6697282,1.5194376,-0.4646954,-0.74216616,-1.8466833,0.36687976,-0.11501827,-0.10639921,1.165485,0.2334574
0.1,0.1,0.9999999999999999,0.5235987755982988,-0.5235987755982988,0,-1.082428,0.20284832,-0.59155416,0.74853617,-0.66946113,1.5216845,-0.45745912,-0.79494065,-1.836348,0.28600827,-0.09552744,-0.030602638,1.0500734,0.9086522
0.1,0.1,0.9999999999999999,0.5235987755982988,-0.5235987755982988,0,-1.0845937,0.2026977,-0.59024805,0.74675494,-0.67534715,1.5212216,-0.45793042,-0.75389403,-1.8210037,0.37870544,-0.041992556,-0.2041843,1.0932473,0.013174256
0.1,0.1,0.9999999999999999,0.5235987755982988,-0.5235987755982988,0,-1.0813955,0.2075415,-0.5922063,0.7457295,-0.6624323,1.5188606,-0.45749864,-0.7755112,-1.8694851,0.22758198,-0.11230756,0.07292159,1.1440512,0.6225773
0.1,0.1,0.9999999999999999,0.5235987755982988,-0.5235987755982988,0,-1.0810509,0.20393316,-0.5907843,0.7474804,-0.6601138,1.521467,-0.4706698,-0.7929915,-1.8396667,0.39952806,-0.03943476,-0.2409208,1.1269767,0.3331763
0.1,0.1,0.9999999999999999,0.5235987755982988,-0.5235987755982988,0,-1.0836174,0.20419371,-0.59300226,0.746329,-0.67224896,1.5223099,-0.47030267,-0.77551466,-1.8120495,0.33944225,-0.077192925,-0.08047789,1.1628249,-0.1337518
0.1,0.1,0.9999999999999999,0.5235987755982988,-0.5235987755982988,0,-1.0804642,0.20274301,-0.59282386,0.7459422,-0.6664497,1.5209571,-0.46686596,-0.82276726,-1.8867753,0.48780105,-0.105857074,-0.0006534978,1.1458007,0.64242274
0.1,0.1,0.9999999999999999,0.5235987755982988,-0.5235987755982988,0,-1.0799536,0.2040566,-0.5940036,0.7450792,-0.67153025,1.5187865,-0.46134877,-0.8003552,-1.8471519,0.29576048,-0.12341322,0.023461629,1.1037832,0.6938857
0.1,0.1,0.9999999999999999,0.5235987755982988,-0.5235987755982988,0,-1.0798094,0.20288262,-0.59125465,0.75124645,-0.67187417,1.519113,-0.46712735,-0.7938022,-1.8463552,0.24471533,-0.095162354,-0.1258755,1.2097622,-0.09898546
0.1,0.1,0.9999999999999999,0.5235987755982988,-0.5235987755982988,0,-1.0807135,0.21104531,-0.5962811,0.7473581,-0.6738259,1.516961,-0.453527,-0.80071354,-1.7991202,0.15203153,-0.0034283057,-0.16686429,1.0762739,0.61511433
0.1,0.1,0.9999999999999999,0.5235987755982988,-0.5235987755982988,0,-1.0803512,0.20341387,-0.5935872,0.74784476,-0.6721111,1.5182021,-0.45910716,-0.74008787,-1.8515205,0.3279729,-0.052348968,-0.20830464,1.0552173,-0.45123625
0.1,0.1,0.9999999999999999,0.5235987755982988,-0.5235987755982988,0,-1.0816052,0.20285912,-0.59352994,0.74635357,-0.67537546,1.5193237,-0.4635874,-0.7724337,-1.7853874,0.37146404,-0.059678175,0.09574036,1.0761296,0.676875
0.1,0.1,0.9999999999999999,0.5235987755982988,-0.5235987755982988,0,-1.0803254,0.20160612,-0.59234303,0.74670595,-0.66923165,1.5212246,-0.47226554,-0.76331395,-1.8249917,0.36219624,-0.12843911,-0.23054796,1.103264,-1.126397
0.1,0.1,0.9999999999999999,0.5235987755982988,-0.5235987755982988,0,-1.077302,0.2015982,-0.59282696,0.74941796,-0.6687395,1.5146828,-0.46429816,-0.7676452,-1.8055699,0.21133544,-0.09274627,-0.119366735,1.044134,-0.16031677
0.1,0.1,0.9999999999999999,0.5235987755982988,-0.5235987755982988,0,-1.0813161,0.20037703,-0.5913317,0.74450344,-0.67882466,1.5180019,-0.46323264,-0.74885553,-1.8622153,0.40735382,-0.10668024,-0.08291297,1.078305,0.28996786
0.1,0.1,0.9999999999999999,0.5235987755982988,-0.5235987755982988,0,-1.078176,0.204637,-0.5966683,0.74665934,-0.67616373,1.5184795,-0.47312003,-0.7847724,-1.9003036,0.29661,-0.009569526,-0.13352208,1.1653032,-0.5272691
0.1,0.1,0.9999999999999999,0.5235987755982988,-0.5235987755982988,0,-1.0824552,0.20281021,-0.58955777,0.7479982,-0.67769974,1.5188715,-0.46296915,-0.8029797,-1.8648262,0.31807208,-0.05693162,-0.12854536,1.1298656,-0.21241218
0.1,0.1,0.9999999999999999,0.5235987755982988,-0.5235987755982988,0,-1.0820748,0.20279029,-0.592781,0.7484211,-0.6736042,1.5185196,-0.44868854,-0.7825163,-1.8561513,0.22428127,-0.053042285,-0.2059416,1.129922,0.47596464
0.1,0.1,0.9999999999999999,0.5235987755982988,-0.5235987755982988,0,-1.0827013,0.1976478,-0.59420556,0.7464208,-0.6702807,1.5187871,-0.45307603,-0.7472214,-1.8237642,0.4716899,-0.20507273,-0.24625213,1.1139963,-0.08568904
0.1,0.1,0.9999999999999999,0.5235987755982988,-0.5235987755982988,0,-1.0804747,0.20416664,-0.5939092,0.7513855,-0.6740605,1.5180509,-0.4684707,-0.7823128,-1.8087621,0.45879102,-0.07154124,-0.25999963,1.0170971,-0.30057254
0.1,0.1,0.9999999999999999,0.5235987755982988,-0.5235987755982988,0,-1.0816094,0.20128801,-0.59075665,0.7444462,-0.6745448,1.5219843,-0.4766737,-0.7783644,-1.7473115,0.3916507,-0.09820166,-0.016783534,1.1170578,0.34983945
0.1,0.1,0.9999999999999999,0.5235987755982988,-0.5235987755982988,0,-1.0825076,0.2029201,-0.5915879,0.7457079,-0.67392206,1.5197597,-0.4667846,-0.7743947,-1.8905226,0.39177898,-0.021822529,-0.17577915,1.1541486,0.97167015
0.1,0.1,0.9999999999999999,0.5235987755982988,-0.5235987755982988,0,-1.0804724,0.20472981,-0.5945006,0.7443846,-0.66863346,1.5185299,-0.45439303,-0.7474685,-1.8016056,0.27824458,-0.07625228,0.09793236,1.1401321,0.7635796
0.1,0.1,0.9999999999999999,0.5235987755982988,-0.5235987755982988,0,-1.0837083,0.20710054,-0.59259516,0.7457986,-0.67726713,1.5170299,-0.45277345,-0.7797204,-1.8329508,0.36194083,-0.047868673,0.03476595,1.0955274,0.85022587
0.1,0.1,0.9999999999999999,0.5235987755982988,-0.5235987755982988,0,-1.0813336,0.20081379,-0.59146327,0.7499121,-0.6674782,1.5198647,-0.46445408,-0.7520594,-1.8173555,0.21670075,-0.07777268,-0.29257897,1.0611178,0.6261309
0.1,0.1,0.9999999999999999,0.5235987755982988,-0.5235987755982988,0,-1.0826149,0.20039435,-0.59115666,0.74810606,-0.6598644,1.5231848,-0.45581123,-0.7687713,-1.8597155,0.25954178,-0.07487131,-0.16439746,1.1611053,-0.15496492
0.1,0.1,0.9999999999999999,0.5235987755982988,-0.5235987755982988,0,-1.0792934,0.20325299,-0.59387994,0.74703395,-0.6663085,1.518717,-0.46919596,-0.79318446,-1.8351296,0.1534873,-0.07569709,-0.20406172,1.1093336,0.18959834
0.1,0.1,0.9999999999999999,0.5235987755982988,-0.5235987755982988,0,-1.0835804,0.20881115,-0.59117967,0.74776083,-0.6655192,1.5173078,-0.45341015,-0.784704,-1.8401831,0.44927475,-0.10146938,-0.16624132,1.1067978,1.0112419
0.1,0.1,0.9999999999999999,0.5235987755982988,-0.5235987755982988,0,-1.0811996,0.20236866,-0.5917502,0.7469408,-0.66505367,1.5183388,-0.45721743,-0.82234824,-1.7959547,0.4911313,-0.046344556,-0.107235864,1.1201069,0.18836072
0.1,0.1,0.9999999999999999,0.5235987755982988,-0.5235987755982988,0,-1.0826198,0.20593332,-0.5947396,0.7436642,-0.67629075,1.5196245,-0.47876096,-0.755363,-1.8488559,0.41179127,-0.021491256,-0.24743952,1.1434355,-0.21486011
0.1,0.1,0.9999999999999999,0.5235987755982988,-0.5235987755982988,0,-1.0817205,0.20257042,-0.5911459,0.7445698,-0.6686946,1.5187175,-0.46921813,-0.79810566,-1.864044,0.33834976,-0.14744863,-0.07062796,1.1424557,-0.5663516
0.1,0.1,0.9999999999999999,0.5235987755982988,-0.5235987755982988,0,-1.0818144,0.20610847,-0.59510183,0.7426073,-0.67170733,1.5168444,-0.47160688,-0.7942744,-1.8463748,0.4307773,-0.015903298,-0.2763972,1.0512421,-0.7423523
0.1,0.1,0.9999999999999999,0.5235987755982988,-0.5235987755982988,0,-1.0834496,0.20426655,-0.59079766,0.7454611,-0.6716127,1.5197406,-0.46927622,-0.7831812,-1.7600814,0.49711585,-0.046706367,0.021811323,1.1462034,0.5324036
0.1,0.1,0.9999999999999999,0.5235987755982988,-0.5235987755982988,0,-1.0774648,0.20326756,-0.59475243,0.7511421,-0.6554906,1.5175674,-0.46645626,-0.76244885,-1.8252703,0.43948317,-0.106552586,-0.1187743,1.1385878,-0.27039903
0.1,0.1,0.9999999999999999,0.5235987755982988,-0.5235987755982988,0,-1.082119,0.20798205,-0.5940141,0.7473952,-0.67506987,1.5199819,-0.47739357,-0.81251186,-1.8327781,0.21922152,-0.12995066,-0.052489042,1.0953586,0.44987428
0.1,0.1,0.9999999999999999,0.5235987755982988,-0.5235987755982988,0,-1.0816817,0.20443028,-0.59418035,0.7449361,-0.6708078,1.5219012,-0.46094793,-0.76775694,-1.8423055,0.33441606,-0.060277835,-0.19351469,1.1394694,-0.07930687
0.1,0.1,0.9999999999999999,0.5235987755982988,-0.5235987755982988,0,-1.0821334,0.20509154,-0.5904325,0.7483655,-0.6695245,1.5170985,-0.48197898,-0.8318773,-1.7957047,0.28445503,-0.1033254,-0.36315942,1.1686025,-0.2882089
0.1,0.1,0.9999999999999999,0.5235987755982988,-0.5235987755982988,0,-1.0814271,0.20123343,-0.5930226,0.7481238,-0.670132,1.5202149,-0.47074753,-0.7951241,-1.8007123,0.5718204,-0.048168294,-0.11559153,1.1332053,0.32140863
0.1,0.1,0.9999999999999999,0.5235987755982988,-0.5235987755982988,0,-1.0807282,0.20113344,-0.5964799,0.74181825,-0.66518825,1.5171022,-0.4533106,-0.75942785,-1.8251357,0.29789367,-0.10785423,0.27780366,1.0177364,0.112182066
0.1,0.1,0.9999999999999999,0.5235987755982988,-0.5235987755982988,0,-1.0827606,0.20868488,-0.5944195,0.74921954,-0.6693926,1.5190955,-0.46335766,-0.7611951,-1.8187466,0.32331443,-0.11969157,-0.06946883,1.1810894,-0.39545527
0.1,0.1,0.9999999999999999,0.5235987755982988,-0.5235987755982988,0,-1.0834339,0.2051108,-0.59316933,0.7471909,-0.6666923,1.5189345,-0.47072697,-0.7641765,-1.8711368,0.42661402,-0.026924308,-0.18771793,1.1186134,0.00043669928
0.1,0.1,0.9999999999999999,0.5235987755982988,-0.5235987755982988,0,-1.082319,0.2028456,-0.5933697,0.74507993,-0.66941965,1.5168654,-0.4555357,-0.77374566,-1.8504925,0.3905093,0.021845588,-0.076462805,1.1651747,0.00986697
0.1,0.1,0.9999999999999999,0.5235987755982988,-0.5235987755982988,0,-1.0815498,0.20328541,-0.59232056,0.7499143,-0.6657051,1.518337,-0.47658256,-0.74492675,-1.8210533,0.5115623,-0.03514164,0.09901641,1.1390076,-0.29618725
0.1,0.1,0.9999999999999999,0.5235987755982988,-0.5235987755982988,0,-1.0799214,0.20246835,-0.5954496,0.75015897,-0.6684039,1.5156282,-0.46743536,-0.80440086,-1.8261259,0.3153303,-0.14310817,-0.2561004,1.136702,0.14682011
0.1,0.1,0.9999999999999999,0.5235987755982988,-0.5235987755982988,0,-1.0823952,0.20495185,-0.59427124,0.7479169,-0.6662308,1.5210296,-0.47536752,-0.8088409,-1.8097309,0.3241076,-0.109405525,-0.057499297,1.1595901,0.5200881
0.1,0.1,0.9999999999999999,0.5235987755982988,-0.5235987755982988,0,-1.0831031,0.20851114,-0.59684813,0.74780285,-0.66759366,1.516179,-0.46260333,-0.77398926,-1.8725218,0.59476435,-0.119733326,-0.02085749,1.1939415,-0.2691717
0.1,0.1,0.9999999999999999,0.5235987755982988,-0.5235987755982988,0,-1.0849491,0.20463175,-0.5936172,0.7455334,-0.66902614,1.5216181,-0.48362887,-0.79452914,-1.7825056,0.25107032,-0.09638984,-0.26595402,1.1624416,0.03624945
0.1,0.1,0.9999999999999999,0.5235987755982988,-0.5235987755982988,0,-1.0839059,0.20566985,-0.5934597,0.74811816,-0.6649594,1.5210415,-0.47465622,-0.7465772,-1.815914,0.24997088,-0.08627512,-0.12887435,1.1697625,-0.20399626
0.1,0.1,0.9999999999999999,0.5235987755982988,-0.5235987755982988,0,-1.0753531,0.20716047,-0.5933927,0.74886066,-0.6696176,1.520104,-0.44191328,-0.8083729,-1.811778,0.29661918,-0.10834019,-0.24840268,1.0905881,0.78031486
0.1,0.1,0.9999999999999999,0.5235987755982988,-0.5235987755982988,0,-1.0774428,0.2079076,-0.5924093,0.74053514,-0.67344683,1.5190028,-0.4547549,-0.7863606,-1.8370417,0.43171504,0.020464806,-0.25861526,1.0915022,0.15549266
0.1,0.1,0.9999999999999999,0.5235987755982988,-0.5235987755982988,0,-1.0800887,0.20473193,-0.5876911,0.7473769,-0.6766465,1.5144905,-0.4730366,-0.78465337,-1.7950865,0.47255418,-0.011577061,-0.1148647,1.0611175,1.2374794
0.1,0.1,0.9999999999999999,0.5235987755982988,-0.5235987755982988,0,-1.0765212,0.20772134,-0.5896386,0.7459133,-0.66692185,1.5160595,-0.45788696,-0.77663004,-1.8220248,0.21333154,-0.18608622,-0.12856777,1.0942978,-0.6974426
0.1,0.1,0.9999999999999999,0.5235987755982988,-0.5235987755982988,0,-1.0789979,0.20412348,-0.5916981,0.7483186,-0.66652733,1.5181978,-0.47012976,-0.7642391,-1.7852224,0.07944461,-0.008696899,0.031028826,1.092814,0.49669194
0.1,0.1,0.9999999999999999,0.5235987755982988,-0.5235987755982988,0,-1.079086,0.20520355,-0.5930769,0.7438384,-0.6693584,1.5167383,-0.47187045,-0.77491504,-1.8170718,0.33039227,-0.051725563,-0.028100114,1.0735115,-0.014559415
0.1,0.1,0.9999999999999999,0.5235987755982988,-0.5235987755982988,0,-1.0786709,0.20818992,-0.5862333,0.7423681,-0.6593994,1.5171103,-0.44645366,-0.7729751,-1.7735794,0.36983415,-0.023966508,-0.09252494,1.1413549,-0.044549912
0.1,0.1,0.9999999999999999,0.5235987755982988,-0.5235987755982988,0,-1.0808878,0.20714417,-0.59219456,0.7475446,-0.66386074,1.517951,-0.452907,-0.7980571,-1.7891338,0.22502892,-0.045896824,-0.18839693,1.1308516,-0.13864554
0.1,0.1,0.9999999999999999,0.5235987755982988,-0.5235987755982988,0,-1.0807421,0.20205069,-0.59046644,0.74702644,-0.66992754,1.5211439,-0.4556121,-0.8025542,-1.8415291,0.38395536,-0.09977875,-0.30017453,1.0215697,-0.53975266
0.1,0.1,0.9999999999999999,0.5235987755982988,-0.5235987755982988,0,-1.0772191,0.20797902,-0.59030867,0.7492716,-0.676232,1.520241,-0.4578808,-0.7402718,-1.8242996,0.4250452,-0.04359442,-0.16218014,1.1002195,-0.21378821
0.1,0.1,0.9999999999999999,0.5235987755982988,-0.5235987755982988,0,-1.0818647,0.2048849,-0.5908863,0.74293494,-0.6674904,1.5190353,-0.4535568,-0.8233434,-1.8224329,0.4099483,-0.07638078,-0.058552966,1.0560015,-0.6908983
0.1,0.1,0.9999999999999999,0.5235987755982988,-0.5235987755982988,0,-1.0800067,0.20622341,-0.5886544,0.7487066,-0.66504234,1.520045,-0.45971626,-0.7704436,-1.7697326,0.31067747,-0.18201627,0.04025475,1.1264697,0.041165177
0.1,0.1,0.9999999999999999,0.5235987755982988,-0.5235987755982988,0,-1.078759,0.2043273,-0.59153247,0.74648315,-0.67082095,1.5197188,-0.4589999,-0.7828345,-1.7917181,0.064674385,-0.060618225,-0.08061312,1.1394795,1.1223125
0.1,0.1,0.9999999999999999,0.5235987755982988,-0.5235987755982988,0,-1.0814275,0.20483015,-0.5899962,0.748379,-0.67444044,1.5182698,-0.451142,-0.791924,-1.8502339,0.41051823,-0.069179624,-0.100578025,1.0531865,0.37641647
0.1,0.1,0.9999999999999999,0.5235987755982988,-0.5235987755982988,0,-1.0773083,0.20753545,-0.5885843,0.7458132,-0.676768,1.519536,-0.4483316,-0.77549684,-1.7623677,0.30148417,0.05453698,0.046618424,1.1172336,0.5963905
0.1,0.1,0.9999999999999999,0.5235987755982988,-0.5235987755982988,0,-1.0784043,0.20499238,-0.59809786,0.7465391,-0.6688462,1.5172716,-0.47529656,-0.77444035,-1.8701978,0.47721785,-0.038141202,-0.18185836,1.1133127,0.5108379
0.1,0.1,0.9999999999999999,0.5235987755982988,-0.5235987755982988,0,-1.081233,0.20819442,-0.5919351,0.7472719,-0.6688499,1.5213597,-0.45907468,-0.7990533,-1.7989849,0.4080073,-0.14753266,-0.03223773,1.104022,0.7452159
0.1,0.1,0.9999999999999999,0.5235987755982988,-0.5235987755982988,0,-1.0784217,0.20642172,-0.5933663,0.7464859,-0.66523093,1.5202065,-0.45524505,-0.7744796,-1.7691238,0.14609514,-0.12844498,-0.025330566,1.0781378,0.42753708
0.1,0.1,0.9999999999999999,0.5235987755982988,-0.5235987755982988,0,-1.077038,0.20740381,-0.59537464,0.74749416,-0.6760608,1.51803,-0.46083653,-0.8202864,-1.8282974,0.24442847,-0.058189347,-0.040968813,1.0742048,-0.12995733
0.1,0.1,0.9999999999999999,0.5235987755982988,-0.5235987755982988,0,-1.0764167,0.20102215,-0.59325796,0.7489045,-0.6667739,1.5210713,-0.45550767,-0.7881308,-1.8391647,0.35931578,-0.038645558,-0.2486215,1.0633812,0.45005906
0.1,0.1,0.9999999999999999,0.5235987755982988,-0.5235987755982988,0,-1.0814624,0.20555252,-0.5887563,0.7481576,-0.67051786,1.5176357,-0.46961284,-0.79787004,-1.7908357,0.25289425,0.0109464135,-0.28141,1.1759142,-0.6321525
0.1,0.1,0.9999999999999999,0.5235987755982988,-0.5235987755982988,0,-1.0770826,0.20959708,-0.5914952,0.7472099,-0.67389226,1.5209466,-0.44466126,-0.82655174,-1.8119576,0.37390468,-0.11003827,-0.11264701,1.0981524,-0.25717634
0.1,0.1,0.9999999999999999,0.5235987755982988,-0.5235987755982988,0,-1.0753198,0.2055731,-0.5847055,0.74768865,-0.67635894,1.5209968,-0.4520008,-0.80619115,-1.8240539,0.38465223,-0.09616747,-0.09451381,1.0927317,0.6087265
0.1,0.1,0.9999999999999999,0.5235987755982988,-0.5235987755982988,0,-1.0790195,0.20601496,-0.59201807,0.7433441,-0.6730663,1.5208725,-0.46185315,-0.7766496,-1.8264381,0.3780672,-0.10327092,-0.22345224,1.1319793,0.47172102
0.1,0.1,0.9999999999999999,0.5235987755982988,-0.5235987755982988,0,-1.0767909,0.20077832,-0.5913971,0.74521756,-0.6729161,1.5178171,-0.43345612,-0.76937515,-1.8693737,0.27532193,0.013489345,-0.0047044675,1.1420894,0.68396217
0.1,0.1,0.9999999999999999,0.5235987755982988,-0.5235987755982988,0,-1.0787544,0.20463298,-0.5857059,0.7456615,-0.67689055,1.5194911,-0.45591602,-0.77098536,-1.8208525,0.4728933,-0.0983348,0.22435485,1.0717951,0.5567921
0.1,0.1,0.9999999999999999,0.5235987755982988,-0.5235987755982988,0,-1.078491,0.20976433,-0.5894411,0.74434066,-0.67156935,1.5195874,-0.46420234,-0.8005569,-1.8257514,0.43070048,-0.10631972,0.01997057,1.0880649,0.37505522
0.1,0.1,0.9999999999999999,0.5235987755982988,-0.5235987755982988,0,-1.0782709,0.20388025,-0.5915692,0.7461224,-0.6721726,1.5192347,-0.4623014,-0.7718723,-1.7896088,0.3770166,-0.06239617,-0.16111775,1.2009315,-0.16775128
0.1,0.1,0.9999999999999999,0.5235987755982988,-0.5235987755982988,0,-1.0754055,0.2109399,-0.59128743,0.7483613,-0.675587,1.5202146,-0.472919,-0.7801064,-1.780386,0.24811448,-0.024519516,-0.20593226,1.0179929,-0.0679312
0.1,0.1,0.9999999999999999,0.5235987755982988,-0.5235987755982988,0,-1.0820405,0.20233686,-0.5921374,0.745285,-0.67193323,1.5207343,-0.45953894,-0.7877652,-1.9026662,0.3267962,-0.049775757,-0.16419525,1.0964321,-0.50213295
0.1,0.1,0.9999999999999999,0.5235987755982988,-0.5235987755982988,0,-1.0805302,0.20861295,-0.5888529,0.7509901,-0.6725182,1.5174341,-0.4406221,-0.7512688,-1.8184683,0.26876315,-0.01286112,-0.15078498,1.1390581,-0.022288091
0.1,0.1,0.9999999999999999,0.5235987755982988,-0.5235987755982988,0,-1.0756481,0.20499554,-0.58907896,0.7472123,-0.6769237,1.516131,-0.4420225,-0.76327467,-1.8177603,0.31014618,-0.16148263,0.11756143,1.0974443,0.88180125
0.1,0.1,0.9999999999999999,0.5235987755982988,-0.5235987755982988,0,-1.0758724,0.20161977,-0.5909686,0.74555945,-0.68065095,1.5183715,-0.4596992,-0.7950868,-1.8528103,0.14045359,-0.13474917,-0.16219303,1.0778843,0.068612106
0.1,0.1,0.9999999999999999,0.5235987755982988,-0.5235987755982988,0,-1.0768276,0.20863149,-0.5922829,0.746827,-0.6761996,1.5236999,-0.45295554,-0.7963387,-1.802561,0.5356145,-0.10519003,-0.2794383,1.1324795,0.3882882
0.1,0.1,0.9999999999999999,0.5235987755982988,-0.5235987755982988,0,-1.0790586,0.20014149,-0.59523124,0.751703,-0.6730608,1.5200976,-0.4684269,-0.80886483,-1.8668325,0.45197654,-0.08904558,-0.022275688,1.1723592,-0.59149915
0.1,0.1,0.9999999999999999,0.5235987755982988,-0.5235987755982988,0,-1.0762137,0.2043362,-0.59314376,0.74641067,-0.67247546,1.5191312,-0.45919666,-0.78241426,-1.8180599,0.15097444,-0.07871349,-0.20525257,1.0290381,0.38259673
0.1,0.1,0.9999999999999999,0.5235987755982988,-0.5235987755982988,0,-1.0773534,0.20150626,-0.5925283,0.74803543,-0.66720915,1.518598,-0.45676687,-0.79874045,-1.8235579,0.38759583,-0.08492368,-0.10057627,1.1067953,1.0894911
0.1,0.1,0.9999999999999999,0.5235987755982988,-0.5235987755982988,0,-1.0760341,0.210954,-0.5870072,0.74823534,-0.6775971,1.5195825,-0.45785987,-0.7603049,-1.7884078,0.30948532,-0.071684055,-0.3643,1.1097156,-0.89045006
0.1,0.1,0.9999999999999999,0.5235987755982988,-0.5235987755982988,0,-1.0798011,0.2087732,-0.5914946,0.74739844,-0.673052,1.5193543,-0.4676469,-0.78700703,-1.8875359,0.4356461,-0.0254767,-0.05478949,1.0812248,0.8975055
0.1,0.1,0.9999999999999999,0.5235987755982988,-0.5235987755982988,0,-1.0788984,0.20755236,-0.58918166,0.7491554,-0.6660572,1.5185097,-0.46729556,-0.79193956,-1.8153799,0.31295422,-0.099778324,-0.056184232,1.0985641,0.7427454
0.1,0.1,0.9999999999999999,0.5235987755982988,-0.5235987755982988,0,-1.072446,0.20561326,-0.58752126,0.74618506,-0.678061,1.5193692,-0.46606243,-0.7993485,-1.8109628,0.6045321,-0.12491561,-0.013869025,1.0731412,0.4910874
0.1,0.1,0.9999999999999999,0.5235987755982988,-0.5235987755982988,0,-1.080501,0.20600362,-0.59196675,0.7506683,-0.6757693,1.5188311,-0.47020245,-0.7943919,-1.8044157,0.27555403,-0.021214655,-0.057674605,1.1257759,0.53662515
0.1,0.1,0.9999999999999999,0.5235987755982988,-0.5235987755982988,0,-1.0762202,0.20783402,-0.588559,0.74160135,-0.6753863,1.5213112,-0.46743813,-0.7720002,-1.8247485,0.4908444,-0.03966967,-0.053660415,1.0538998,-0.19518562
0.1,0.1,0.9999999999999999,0.5235987755982988,-0.5235987755982988,0,-1.0824685,0.20920615,-0.58959246,0.7459882,-0.67267925,1.5153425,-0.46657097,-0.78092337,-1.8234572,0.23709093,-0.024725894,-0.14418977,1.1098121,-0.49180588
0.1,0.1,0.9999999999999999,0.5235987755982988,-0.5235987755982988,0,-1.0792036,0.20493515,-0.5924936,0.7490323,-0.67071974,1.5208389,-0.4628816,-0.8328871,-1.9098545,0.2744775,-0.10322065,0.050122105,1.0766673,0.26632488
0.1,0.1,0.9999999999999999,0.5235987755982988,-0.5235987755982988,0,-1.0783503,0.2097947,-0.5875409,0.74170935,-0.6628055,1.5205681,-0.46722332,-0.76336795,-1.8190562,0.25542918,-0.14510204,-0.19469157,1.101444,-0.78330046
0.1,0.1,0.9999999999999999,0.5235987755982988,-0.5235987755982988,0,-1.0741249,0.21100524,-0.588314,0.7488059,-0.67054427,1.5223408,-0.46672887,-0.7605956,-1.7733184,0.29908422,-0.12396176,0.18939212,1.1580092,-0.1399704
0.1,0.1,0.9999999999999999,0.5235987755982988,-0.5235987755982988,0,-1.0745325,0.20477614,-0.5923447,0.7477065,-0.6714984,1.5221759,-0.45740443,-0.82699037,-1.8129835,0.51879436,-0.1261271,-0.027503455,1.1148746,0.95218027
0.1,0.1,0.9999999999999999,0.5235987755982988,-0.5235987755982988,0,-1.079101,0.20709279,-0.5883483,0.74406785,-0.66446674,1.5218191,-0.4564982,-0.7602906,-1.8298051,0.536303,-0.09385638,-0.2400113,1.0707498,0.06302058
0.1,0.1,0.9999999999999999,0.5235987755982988,-0.5235987755982988,0,-1.0748471,0.20800091,-0.5897718,0.7481442,-0.6736259,1.51993,-0.4635186,-0.76582605,-1.8885871,0.37080228,-0.13579704,-0.041792102,1.063845,0.4064813
0.1,0.1,0.9999999999999999,0.5235987755982988,-0.5235987755982988,0,-1.0755891,0.2056597,-0.5903868,0.74679023,-0.6641075,1.5186448,-0.45382327,-0.7605321,-1.7820773,0.25845534,-0.1301355,-0.22970739,1.0834905,0.14632176
0.1,0.1,0.9999999999999999,0.5235987755982988,-0.5235987755982988,0,-1.07602,0.20091239,-0.58926576,0.7441223,-0.6724057,1.5217987,-0.45491618,-0.7453472,-1.8179765,0.40968892,-0.16250326,-0.13848385,1.0361944,0.03715777
0.1,0.1,0.9999999999999999,0.5235987755982988,-0.5235987755982988,0,-1.0763148,0.20801476,-0.5909608,0.74836653,-0.6764486,1.5202982,-0.4456916,-0.72970676,-1.8760848,0.23546256,-0.16773221,-0.039924115,1.0793828,0.6755623
0.1,0.1,0.9999999999999999,0.5235987755982988,-0.5235987755982988,0,-1.0765823,0.20245029,-0.59002167,0.74817026,-0.6767805,1.5184854,-0.44053274,-0.773438,-1.8008221,0.5010748,-0.09633813,-0.10396489,1.0671012,-0.32526582
0.1,0.1,0.9999999999999999,0.5235987755982988,-0.5235987755982988,0,-1.0796084,0.20864819,-0.59038574,0.74456036,-0.6660403,1.5208257,-0.45769155,-0.78728575,-1.823154,0.2824848,-0.14415991,0.10780187,1.0877603,0.07104926
0.1,0.1,0.9999999999999999,0.5235987755982988,-0.5235987755982988,0,-1.0778484,0.20654754,-0.5910112,0.749183,-0.66980153,1.52429,-0.45196497,-0.76999855,-1.8549172,0.3378922,-0.1247869,-0.09341238,1.0819956,-0.18715978
0.1,0.1,0.9999999999999999,0.5235987755982988,-0.5235987755982988,0,-1.0747973,0.20477262,-0.595915,0.7450188,-0.67172945,1.5221535,-0.4603629,-0.7742128,-1.9017994,0.42458838,-0.07744573,-0.41596815,1.2421156,0.47165284
0.1,0.1,0.9999999999999999,0.5235987755982988,-0.5235987755982988,0,-1.0777156,0.20233539,-0.588323,0.748637,-0.6749978,1.5221303,-0.4572245,-0.80505353,-1.8289847,0.5285312,-0.06963151,-0.11036686,1.0794932,-0.93341297
0.1,0.1,0.9999999999999999,0.5235987755982988,-0.5235987755982988,0,-1.0794976,0.20874874,-0.59076947,0.74563926,-0.67596096,1.5233237,-0.45417318,-0.79591477,-1.8446995,0.5082868,-0.037560802,-0.16566122,1.1089252,-0.41151527
0.1,0.1,0.9999999999999999,0.5235987755982988,-0.5235987755982988,0,-1.0769961,0.20354591,-0.5895501,0.74569225,-0.675459,1.5189505,-0.45866564,-0.75728875,-1.8416389,0.41897386,-0.12207566,0.043578733,1.1058382,0.015638454
0.1,0.1,0.9999999999999999,0.5235987755982988,-0.5235987755982988,0,-1.0773813,0.20937057,-0.5953768,0.7454271,-0.6747455,1.5223333,-0.45191255,-0.76686764,-1.8894336,0.19603248,-0.163453,-0.14261265,1.1383432,0.5164427
0.1,0.1,0.9999999999999999,0.5235987755982988,-0.5235987755982988,0,-1.0803838,0.203835,-0.59168565,0.74424785,-0.68131006,1.5236808,-0.45958763,-0.75294334,-1.8634994,0.35285646,-0.13332883,-0.21995272,1.1124767,-0.67827266
0.1,0.1,0.9999999999999999,0.5235987755982988,-0.5235987755982988,0,-1.0803481,0.2055611,-0.58724666,0.74820495,-0.6748753,1.5197437,-0.45869228,-0.7539214,-1.8009528,0.56819636,-0.05140869,0.25670338,1.0469438,-0.4448666
0.1,0.1,0.9999999999999999,0.5235987755982988,-0.5235987755982988,0,-1.0781085,0.19983321,-0.589161,0.74420404,-0.6774601,1.5208399,-0.46999204,-0.812009,-1.8254938,0.33479914,-0.03335608,-0.07871461,1.0867573,-0.5380187
0.1,0.1,0.9999999999999999,0.5235987755982988,-0.5235987755982988,0,-1.0811478,0.2058932,-0.5909535,0.74545133,-0.6700631,1.5181066,-0.44964862,-0.7675448,-1.7812853,0.38723248,-0.15088505,-0.07891582,1.0857291,-0.04017209
0.1,0.1,0.9999999999999999,0.5235987755982988,-0.5235987755982988,0,-1.0780792,0.21063933,-0.59240454,0.74363554,-0.6713891,1.5190609,-0.4583157,-0.7508681,-1.8853905,0.40579015,-0.070009686,0.0427966,1.1384932,0.09209434
0.1,0.1,0.9999999999999999,0.5235987755982988,-0.5235987755982988,0,-1.0817866,0.20852755,-0.5877182,0.74380577,-0.677827,1.5177749,-0.47086686,-0.7905179,-1.8696461,0.5278471,-0.06567369,-0.07303682,1.1419824,0.37700707
0.1,0.1,0.9999999999999999,0.5235987755982988,-0.5235987755982988,0,-1.0804524,0.2041616,-0.58948684,0.7430331,-0.67728317,1.5202032,-0.46055004,-0.7875084,-1.8911078,0.2462647,-0.1329101,-0.1512337,1.1095167,0.48805413
0.1,0.1,0.9999999999999999,0.5235987755982988,-0.5235987755982988,0,-1.0771856,0.20408878,-0.5942687,0.7474445,-0.67251754,1.5186929,-0.45704225,-0.8007456,-1.8007442,0.3835349,0.025513357,0.06027401,1.0361866,-0.06811309
0.1,0.1,0.9999999999999999,0.5235987755982988,-0.5235987755982988,0,-1.0813032,0.21015213,-0.5891055,0.7479952,-0.6730396,1.520288,-0.4555911,-0.8001348,-1.8197185,0.2961978,-0.066143006,-0.2326482,1.1438934,-0.29710746
0.1,0.1,0.9999999999999999,0.5235987755982988,-0.5235987755982988,0,-1.076206,0.2026258,-0.5916974,0.7470894,-0.67399675,1.5168037,-0.46441075,-0.80710155,-1.8250377,0.4707501,-0.08340211,0.2505991,1.0677255,-1.0031971
0.1,0.1,0.9999999999999999,0.5235987755982988,-0.5235987755982988,0,-1.0776218,0.20851748,-0.5944645,0.74322337,-0.6708726,1.5188886,-0.45383602,-0.7440953,-1.8397467,0.26559994,-0.07001357,-0.039897244,1.0904163,0.2751144
0.1,0.1,0.9999999999999999,0.5235987755982988,-0.5235987755982988,0,-1.0788414,0.20132309,-0.5906469,0.7470771,-0.6682343,1.5192163,-0.44000933,-0.78522563,-1.7672213,0.3493942,-0.045046475,-0.24054244,1.1196681,0.18760024
0.1,0.1,0.9999999999999999,0.5235987755982988,-0.5235987755982988,0,-1.0792694,0.2048715,-0.58833706,0.7473407,-0.6773316,1.5170003,-0.46711457,-0.76535124,-1.8519775,0.35894698,-0.029655036,-0.12351893,1.0864978,0.45444876
0.1,0.1,0.9999999999999999,0.5235987755982988,-0.5235987755982988,0,-1.0804127,0.20639224,-0.58979416,0.7467805,-0.67143875,1.5192331,-0.46469095,-0.80221075,-1.8093706,0.5969505,-0.09828181,0.03372076,1.0946412,0.23383668
0.1,0.1,0.9999999999999999,0.5235987755982988,-0.5235987755982988,0,-1.0780685,0.20588776,-0.5904546,0.7437933,-0.6741041,1.5168737,-0.46786106,-0.7874349,-1.8701574,0.43880513,-0.0931722,-0.20216508,1.1730785,-0.11684207
0.1,0.1,0.9999999999999999,0.5235987755982988,-0.5235987755982988,0,-1.0798739,0.2013927,-0.58993155,0.7454849,-0.66908896,1.519861,-0.443904,-0.83172065,-1.7435355,0.2226582,-0.08489435,-0.023983823,1.0656637,0.9763093
0.1,0.1,0.9999999999999999,0.5235987755982988,-0.5235987755982988,0,-1.0794449,0.20534146,-0.5962638,0.7474996,-0.6738011,1.519165,-0.44572574,-0.76052254,-1.8152999,0.35700178,-0.047296178,-0.25624073,1.1095645,0.7139561
0.1,0.1,0.9999999999999999,0.5235987755982988,-0.5235987755982988,0,-1.0786556,0.20467773,-0.59415066,0.742765,-0.6700972,1.52043,-0.47143546,-0.76741594,-1.8331708,0.2974061,0.05531296,-0.124601975,1.1141633,0.38852027
0.1,0.1,0.9999999999999999,0.5235987755982988,-0.5235987755982988,0,-1.0765109,0.20583335,-0.59590566,0.7496092,-0.67535764,1.5214983,-0.47160777,-0.7704902,-1.8343443,0.16754891,-0.067665145,-0.2839309,1.1477761,-0.18797834
0.1,0.1,0.9999999999999999,0.5235987755982988,-0.5235987755982988,0,-1.0797695,0.20522186,-0.59244835,0.74486345,-0.6767528,1.5178227,-0.45341265,-0.74080527,-1.7886682,0.35495585,-0.030092547,-0.1373678,1.0899774,-0.17578548
0.1,0.1,0.9999999999999999,0.5235987755982988,-0.5235987755982988,0,-1.0810208,0.20120998,-0.5866738,0.7508271,-0.6695244,1.522393,-0.46323937,-0.7769095,-1.8617294,0.40238097,-0.11212433,-0.0335236,1.1709043,0.59853286
0.1,0.1,0.9999999999999999,0.5235987755982988,-0.5235987755982988,0,-1.0807995,0.2074321,-0.5924918,0.7494686,-0.6695921,1.5212586,-0.44871986,-0.80891025,-1.8255432,0.33036265,-0.07741322,-0.03597001,1.0670488,-0.025549188
0.1,0.1,0.9999999999999999,0.5235987755982988,-0.5235987755982988,0,-1.0799966,0.20125534,-0.59019375,0.7482657,-0.6733373,1.5176251,-0.465545,-0.7746348,-1.7952095,0.22387744,-0.058286704,-0.08579672,0.9684443,0.26370478
0.1,0.1,0.9999999999999999,0.5235987755982988,-0.5235987755982988,0,-1.0838888,0.20731777,-0.5868989,0.745542,-0.6731085,1.5195305,-0.45357195,-0.7665954,-1.8195684,0.51106566,-0.0827388,0.043732524,1.1984143,-0.2131676
0.1,0.1,0.9999999999999999,0.5235987755982988,-0.5235987755982988,0,-1.075258,0.20032117,-0.5934632,0.7471384,-0.673686,1.5153856,-0.4528225,-0.7520262,-1.8752627,0.1816919,-0.06848329,-0.01749579,1.1170814,1.086991
0.1,0.1,0.9999999999999999,0.5235987755982988,-0.5235987755982988,0,-1.0803376,0.20525715,-0.5930662,0.74516785,-0.67035604,1.5201522,-0.45098037,-0.8040787,-1.8160794,0.4338462,-0.0019537206,-0.2495788,1.1805979,0.16336825
0.1,0.1,0.9999999999999999,0.5235987755982988,-0.5235987755982988,0,-1.0787709,0.2043203,-0.59259206,0.7435956,-0.6742046,1.5172178,-0.4640181,-0.77584875,-1.8285286,0.2988854,-0.100583665,0.02526239,1.1722139,0.024578797
0.1,0.1,0.9999999999999999,0.5235987755982988,-0.5235987755982988,0,-1.0793154,0.20226438,-0.59122545,0.7463709,-0.675627,1.518839,-0.46689892,-0.8044752,-1.8146126,0.40668327,-0.06722324,-0.114687584,1.1218032,1.0059917
0.1,0.1,0.9999999999999999,0.5235987755982988,-0.5235987755982988,0,-1.0799317,0.20638168,-0.59251887,0.7441374,-0.6657297,1.5201794,-0.46240667,-0.79814565,-1.8422477,0.41355896,-0.07106158,0.10382449,1.1021011,0.17250036
0.1,0.1,0.9999999999999999,0.5235987755982988,-0.5235987755982988,0,-1.0808924,0.20566809,-0.59187883,0.7446951,-0.6741322,1.5195982,-0.47352138,-0.79482365,-1.8136079,0.32439068,-0.032015417,-0.42600757,1.1618298,0.42387038
0.1,0.1,0.9999999999999999,0.5235987755982988,-0.5235987755982988,0,-1.0806801,0.20753291,-0.5933953,0.7444118,-0.67068064,1.5188638,-0.46789673,-0.7925854,-1.7923474,0.24459195,-0.11696935,-0.14405003,1.0919465,1.433405
0.1,0.1,0.9999999999999999,0.5235987755982988,-0.5235987755982988,0,-1.0800931,0.20770499,-0.5912623,0.74596345,-0.6715526,1.5167557,-0.46638104,-0.7450046,-1.8991952,0.3201927,-0.032399338,-0.18540664,1.1080565,0.22755955
0.1,0.1,0.9999999999999999,0.5235987755982988,-0.5235987755982988,0,-1.0789413,0.20373882,-0.59195787,0.7462056,-0.67092353,1.5205623,-0.46907374,-0.81529784,-1.8370055,0.30227643,-0.041189943,-0.20173071,1.1577313,0.26710808
0.1,0.1,0.9999999999999999,0.5235987755982988,-0.5235987755982988,0,-1.0803452,0.19978938,-0.5915354,0.74592125,-0.671464,1.5194546,-0.46091554,-0.7315567,-1.8657591,0.45340303,0.009556997,-0.23370498,1.1444261,0.124919996
0.1,0.1,0.9999999999999999,0.5235987755982988,-0.5235987755982988,0,-1.0790689,0.20391224,-0.59164935,0.7478944,-0.6665399,1.5186942,-0.4661842,-0.7711044,-1.8734956,0.43584132,-0.13402821,-0.00066164194,1.1403617,0.20595153
0.1,0.1,0.9999999999999999,0.5235987755982988,-0.5235987755982988,0,-1.0810115,0.20810877,-0.59194875,0.7499677,-0.6707567,1.5165677,-0.45932642,-0.76024204,-1.8276837,0.36252993,-0.013943416,-0.2046486,1.0607014,0.31035253
0.1,0.1,0.9999999999999999,0.5235987755982988,-0.5235987755982988,0,-1.0822871,0.20567521,-0.59292865,0.7464886,-0.6674794,1.515894,-0.44780487,-0.819663,-1.862937,0.493655,-0.12203289,-0.014111315,1.1035603,-0.09755691
0.1,0.1,0.9999999999999999,0.5235987755982988,-0.5235987755982988,0,-1.0750753,0.20366935,-0.59095174,0.7465028,-0.67501247,1.5168786,-0.45459247,-0.74866307,-1.813689,0.41301385,0.010559525,0.23717575,1.1883631,0.7779321
0.1,0.1,0.9999999999999999,0.5235987755982988,-0.5235987755982988,0,-1.0769005,0.20083238,-0.58834666,0.74496007,-0.6661196,1.5201973,-0.44876176,-0.7584967,-1.8154304,0.31102106,-0.04362284,0.022163069,1.1190922,-0.4612759
0.1,0.1,0.9999999999999999,0.5235987755982988,-0.5235987755982988,0,-1.0768417,0.20504601,-0.5939122,0.74672407,-0.6690201,1.5172198,-0.45744443,-0.7901864,-1.8543843,0.28053704,-0.05661748,-0.3336869,1.0335134,-0.024293689
0.1,0.1,0.9999999999999999,0.5235987755982988,-0.5235987755982988,0,-1.0816133,0.20260692,-0.586981,0.74682003,-0.6750646,1.5200349,-0.44451487,-0.78059995,-1.7941852,0.58053553,-0.07691069,-0.07198022,1.092772,0.6926055
0.1,0.1,0.9999999999999999,0.5235987755982988,-0.5235987755982988,0,-1.0809629,0.20307006,-0.59355956,0.74799746,-0.6729211,1.5195835,-0.45662782,-0.72989666,-1.8411298,0.31202954,-0.09722457,-0.2553336,1.1556244,0.84113955
0.1,0.1,0.9999999999999999,0.5235987755982988,-0.5235987755982988,0,-1.082284,0.20331354,-0.58979356,0.7474755,-0.67027366,1.5179458,-0.46943566,-0.7999547,-1.8960366,0.41240817,-0.08254724,-0.30575088,1.1934924,-0.74736744
