sanky1234/BimanualDexCatch/isaacgymenvs/cem_results/football_pose_-0.2_-0.2_1.4999999999999998_0.5235987755982988_0.0_0_2025-05-24.csv
x,y,z,roll,pitch,yaw,robot1/joint1,robot1/joint2,robot1/joint3,robot1/joint4,robot1/joint5,robot1/joint6,robot1/joint7,robot2/joint1,robot2/joint2,robot2/joint3,robot2/joint4,robot2/joint5,robot2/joint6,robot2/joint7
-0.2,-0.2,1.4999999999999998,0.5235987755982988,0.0,0,1.2636383,0.99686223,0.5362064,-0.11138732,-0.21549185,-1.3822694,-0.8883937,-0.26134914,0.67314315,-1.491786,0.2819448,-0.49362102,0.4222328,0.24681951
-0.2,-0.2,1.4999999999999998,0.5235987755982988,0.0,0,1.1833466,0.9193112,0.5076435,0.014275487,0.2307317,-1.4521861,-1.3386632,-0.25890994,0.6721418,-1.4933665,0.28145203,-0.49692923,0.42065847,0.2407461
-0.2,-0.2,1.4999999999999998,0.5235987755982988,0.0,0,1.167805,0.94181573,0.5964462,-0.0077394424,0.528076,-1.3797814,-0.063859195,-0.26013637,0.6711656,-1.4934187,0.28172758,-0.49800315,0.42280528,0.24498661
-0.2,-0.2,1.4999999999999998,0.5235987755982988,0.0,0,1.1045667,0.97040313,0.21604829,-0.074854925,-0.19359304,-1.4861989,0.70959646,-0.26054475,0.67149407,-1.491796,0.2817792,-0.50070256,0.42316353,0.25147682
-0.2,-0.2,1.4999999999999998,0.5235987755982988,0.0,0,1.2320067,0.9524826,0.50352097,-0.0726867,-0.00022294112,-1.3443857,-0.1342598,-0.26003003,0.6720793,-1.4921151,0.28243682,-0.4924259,0.4229169,0.24827461
-0.2,-0.2,1.4999999999999998,0.5235987755982988,0.0,0,1.0725598,0.9068297,0.20244539,-0.061192445,0.06339505,-1.3810056,0.78365123,-0.26187202,0.67123,-1.4918807,0.28197044,-0.4986215,0.42009398,0.2445114
-0.2,-0.2,1.4999999999999998,0.5235987755982988,0.0,0,1.1427016,0.89932764,0.39235052,-0.12550502,0.21179596,-1.3497618,-2.7862945,-0.260695,0.67203665,-1.4916966,0.2817635,-0.49356416,0.41962153,0.24338998
-0.2,-0.2,1.4999999999999998,0.5235987755982988,0.0,0,1.2283789,0.94637644,0.08963765,-0.16096258,0.061300967,-1.357792,0.16350515,-0.26095158,0.6720033,-1.493837,0.281737,-0.4953782,0.42276123,0.2402604
-0.2,-0.2,1.4999999999999998,0.5235987755982988,0.0,0,1.0919447,0.9516234,-0.061826814,-0.12794368,-0.32733193,-1.3137807,0.37364748,-0.25934336,0.67192674,-1.4923962,0.28192055,-0.49546722,0.42042723,0.2448028
-0.2,-0.2,1.4999999999999998,0.5235987755982988,0.0,0,1.0518603,0.92513627,0.35277236,-0.040760707,0.064711675,-1.5295647,-1.3588676,-0.2608813,0.6729455,-1.493472,0.2820318,-0.4950827,0.4205936,0.24403857
-0.2,-0.2,1.4999999999999998,0.5235987755982988,0.0,0,1.1028011,0.9163567,0.20605063,0.023782754,0.07795821,-1.4262007,-2.070535,-0.25990424,0.6719413,-1.4925708,0.28189823,-0.49684027,0.4214347,0.24401729
-0.2,-0.2,1.4999999999999998,0.5235987755982988,0.0,0,1.244946,0.9721046,0.06648958,-0.05515986,0.06012719,-1.3106587,0.19150539,-0.2609692,0.67171407,-1.4925122,0.28160378,-0.501366,0.4226895,0.24754924
-0.2,-0.2,1.4999999999999998,0.5235987755982988,0.0,0,1.046798,1.0000218,0.14271139,-0.08360381,-0.12585002,-1.4522344,-1.1601557,-0.25937557,0.67159545,-1.4927312,0.282129,-0.4983353,0.42303059,0.25000018
-0.2,-0.2,1.4999999999999998,0.5235987755982988,0.0,0,1.2614412,0.98662215,0.14371051,-0.041017406,0.45456833,-1.3412684,-2.0808136,-0.26124752,0.6727484,-1.4926125,0.28153014,-0.4973031,0.4218059,0.24422699
-0.2,-0.2,1.4999999999999998,0.5235987755982988,0.0,0,1.1767309,0.9644539,0.4345749,-0.11040454,0.32850388,-1.390129,-0.11568455,-0.26001132,0.67284423,-1.4935786,0.28209066,-0.4964706,0.42359486,0.24264382
-0.2,-0.2,1.4999999999999998,0.5235987755982988,0.0,0,1.1299363,0.9488672,0.11729712,-0.066346556,0.46595836,-1.2869706,-0.8546537,-0.25924855,0.6724926,-1.4917655,0.28194395,-0.49289683,0.42263225,0.24862204
-0.2,-0.2,1.4999999999999998,0.5235987755982988,0.0,0,1.1817403,0.9396039,0.39244932,-0.034234375,-0.124273606,-1.4286522,-0.62842834,-0.26141486,0.67223656,-1.4920605,0.28167164,-0.4950738,0.42157117,0.24381508
-0.2,-0.2,1.4999999999999998,0.5235987755982988,0.0,0,1.053375,0.9347845,0.3581809,-0.061078522,0.03420531,-1.3584557,0.43788362,-0.26049605,0.67287546,-1.491489,0.28140357,-0.4970304,0.42095596,0.246849
-0.2,-0.2,1.4999999999999998,0.5235987755982988,0.0,0,1.0802989,0.94362205,0.3101252,-0.13119492,0.2936194,-1.3739411,-0.51999897,-0.2608306,0.67168945,-1.4934014,0.28217548,-0.496492,0.4218902,0.2459201
-0.2,-0.2,1.4999999999999998,0.5235987755982988,0.0,0,1.1134404,1.0233456,0.47877926,-0.027383618,-0.10910181,-1.3440918,0.2653967,-0.26065025,0.6721528,-1.4927124,0.28228426,-0.49947,0.42257744,0.24149759
-0.2,-0.2,1.4999999999999998,0.5235987755982988,0.0,0,1.174548,0.92210627,0.20508976,-0.0820616,0.28418455,-1.3329687,-0.0985857,-0.2599841,0.67271113,-1.4924749,0.28156525,-0.5042079,0.42062822,0.24407549
-0.2,-0.2,1.4999999999999998,0.5235987755982988,0.0,0,1.0338267,0.89743805,0.33528388,-0.06857595,-0.17311174,-1.3715999,0.42722192,-0.2599581,0.6715391,-1.4928992,0.28213903,-0.4987041,0.42184007,0.2473642
-0.2,-0.2,1.4999999999999998,0.5235987755982988,0.0,0,1.1772249,0.892163,0.23166089,-0.117534906,-0.42365608,-1.5103182,-0.5631932,-0.26140782,0.6717527,-1.492576,0.28200006,-0.49706542,0.42058626,0.24541374
-0.2,-0.2,1.4999999999999998,0.5235987755982988,0.0,0,1.3846742,0.9404382,0.078613535,-0.04705229,-0.0035704586,-1.4361144,-2.28744,-0.2609252,0.671699,-1.4916793,0.28175816,-0.49598593,0.4206754,0.24394144
-0.2,-0.2,1.4999999999999998,0.5235987755982988,0.0,0,1.1999797,0.9389898,0.2699481,-0.0705288,-0.48169008,-1.3341683,-0.44248164,-0.26078433,0.6706243,-1.4922808,0.2818323,-0.49553984,0.42069468,0.24144006
-0.2,-0.2,1.4999999999999998,0.5235987755982988,0.0,0,1.0672934,0.9048844,0.37757203,-0.030204898,-0.23154962,-1.5630488,-1.9595695,-0.25990832,0.672002,-1.492272,0.28187487,-0.49522886,0.42114082,0.24319583
-0.2,-0.2,1.4999999999999998,0.5235987755982988,0.0,0,1.1611329,0.8972184,0.37718508,-0.14704669,0.22251609,-1.3746917,0.42817864,-0.2585854,0.6712541,-1.4926696,0.28207645,-0.5025142,0.42132244,0.24279597
-0.2,-0.2,1.4999999999999998,0.5235987755982988,0.0,0,1.2318758,1.0052948,0.12941557,-0.04177236,0.15439568,-1.4630268,-0.19179578,-0.26086795,0.67142564,-1.4917535,0.28175592,-0.49757814,0.42149788,0.2458861
-0.2,-0.2,1.4999999999999998,0.5235987755982988,0.0,0,1.096622,0.98969305,0.14832231,-0.11279188,-0.41109157,-1.3453599,-0.20419215,-0.26085582,0.671961,-1.4927615,0.2812632,-0.49353954,0.42246526,0.24064681
-0.2,-0.2,1.4999999999999998,0.5235987755982988,0.0,0,1.2418857,0.9545537,0.2976461,-0.04603624,-0.101287775,-1.4118339,-1.0560693,-0.2593492,0.6719441,-1.4930729,0.28183067,-0.4876841,0.42135885,0.24634273
-0.2,-0.2,1.4999999999999998,0.5235987755982988,0.0,0,1.0890775,0.8949925,0.41356316,-0.004348653,-0.006109434,-1.3791924,-0.19732635,-0.26034918,0.67168266,-1.4907104,0.28166234,-0.49480724,0.42117,0.24206387
-0.2,-0.2,1.4999999999999998,0.5235987755982988,0.0,0,1.1712887,0.89938146,0.38124925,0.003922097,-0.30113888,-1.4412003,-1.4380703,-0.25977597,0.670997,-1.492655,0.28204253,-0.50384367,0.42,0.24643117
-0.2,-0.2,1.4999999999999998,0.5235987755982988,0.0,0,1.1774422,0.9274218,0.5825994,-0.05488708,-0.0024731897,-1.2793903,-1.5829493,-0.26008517,0.6719103,-1.4919343,0.2818497,-0.49630672,0.42325342,0.24339002
-0.2,-0.2,1.4999999999999998,0.5235987755982988,0.0,0,1.1130353,0.99743736,0.15227224,-0.013943182,-0.06085071,-1.4460473,0.7957403,-0.2603102,0.6707024,-1.492571,0.2816805,-0.5008961,0.4210756,0.2472571
-0.2,-0.2,1.4999999999999998,0.5235987755982988,0.0,0,1.1077583,0.986369,0.39175814,-0.041069105,-0.3134348,-1.3716127,-0.61216986,-0.26079285,0.6715651,-1.4924716,0.28213823,-0.49093693,0.4213462,0.2432767
-0.2,-0.2,1.4999999999999998,0.5235987755982988,0.0,0,1.1923901,1.0034517,0.20954804,-0.069639675,-0.15118212,-1.4332085,-0.038138416,-0.2599008,0.6721809,-1.4929358,0.28159997,-0.49177426,0.42118892,0.24609636
-0.2,-0.2,1.4999999999999998,0.5235987755982988,0.0,0,1.0778412,1.0122268,0.3989279,-0.11291924,0.110757716,-1.4939017,-1.3965931,-0.25972512,0.6717022,-1.4926168,0.28143075,-0.4992862,0.41943607,0.24869731
-0.2,-0.2,1.4999999999999998,0.5235987755982988,0.0,0,1.2636982,0.94627655,0.38699552,-0.1627044,0.13131125,-1.3977249,0.06540928,-0.25979882,0.6712631,-1.4927491,0.28261712,-0.49967748,0.42123768,0.2463261
-0.2,-0.2,1.4999999999999998,0.5235987755982988,0.0,0,1.0840167,0.97177887,0.34851316,-0.072034664,0.49348217,-1.3346412,0.31849763,-0.25980094,0.67156315,-1.4930562,0.2816299,-0.50135565,0.42063117,0.24481633
-0.2,-0.2,1.4999999999999998,0.5235987755982988,0.0,0,1.205973,0.98920375,0.19841439,-0.036055006,-0.024156388,-1.3917586,-0.962252,-0.26134273,0.6720338,-1.4920478,0.28162944,-0.49237573,0.42332193,0.24599586
-0.2,-0.2,1.4999999999999998,0.5235987755982988,0.0,0,1.1798972,0.9542932,0.51904,0.0004224936,-0.15917915,-1.4148033,1.0286146,-0.26006728,0.67220855,-1.4925665,0.2814792,-0.49150744,0.42469767,0.24546483
-0.2,-0.2,1.4999999999999998,0.5235987755982988,0.0,0,0.9626146,0.93615943,0.42909178,0.043229274,-0.20918214,-1.4300222,-1.8163096,-0.26046896,0.67192477,-1.4925591,0.2817043,-0.49255133,0.42226934,0.24208437
-0.2,-0.2,1.4999999999999998,0.5235987755982988,0.0,0,1.1177751,0.96683365,0.39036128,-0.013015303,-0.06593294,-1.3304149,-0.18761092,-0.26097894,0.67206156,-1.4924374,0.28204566,-0.4972117,0.42174634,0.24502726
-0.2,-0.2,1.4999999999999998,0.5235987755982988,0.0,0,1.3229114,0.9195974,0.21063446,-0.11727443,-0.1531241,-1.4920573,-0.27688435,-0.26130837,0.67271036,-1.492998,0.2813814,-0.49321514,0.42203173,0.2423918
-0.2,-0.2,1.4999999999999998,0.5235987755982988,0.0,0,1.2015452,0.9548775,0.41039538,0.03353051,-0.15259059,-1.3936151,0.5155589,-0.2592544,0.6724224,-1.4921783,0.28174958,-0.49882802,0.42227307,0.24387518
-0.2,-0.2,1.4999999999999998,0.5235987755982988,0.0,0,1.0394962,0.9897195,0.21986133,-0.07539968,0.2115848,-1.2910869,-0.14042218,-0.2600052,0.67206,-1.4913483,0.2820071,-0.49803555,0.4215725,0.24591026
-0.2,-0.2,1.4999999999999998,0.5235987755982988,0.0,0,1.3026642,0.88576233,0.3127932,-0.038935956,0.30102047,-1.340323,-1.0385998,-0.25979885,0.6717405,-1.4908018,0.28215232,-0.5006848,0.4212438,0.24688147
-0.2,-0.2,1.4999999999999998,0.5235987755982988,0.0,0,1.2137957,0.9846089,0.43998474,-0.034373675,0.24107032,-1.3502487,-0.9015977,-0.26005775,0.6713268,-1.4925689,0.28205496,-0.4934086,0.42207536,0.24334574
-0.2,-0.2,1.4999999999999998,0.5235987755982988,0.0,0,1.2521191,0.97289824,0.34489974,-0.09917048,0.03018826,-1.3775692,-0.8861118,-0.2618313,0.6720479,-1.4925493,0.2819168,-0.49750066,0.42019337,0.24186055
-0.2,-0.2,1.4999999999999998,0.5235987755982988,0.0,0,1.1357186,1.0592327,0.16828172,0.024236366,-0.23204781,-1.4712954,-1.2183417,-0.25993952,0.67151713,-1.4931245,0.28208622,-0.4930284,0.4220617,0.24510716
-0.2,-0.2,1.4999999999999998,0.5235987755982988,0.0,0,1.2502035,0.9074152,0.18999213,-0.053211976,-0.09814173,-1.4140396,-1.2049022,-0.2590328,0.67152256,-1.492124,0.28166917,-0.50517946,0.42067787,0.2553935
-0.2,-0.2,1.4999999999999998,0.5235987755982988,0.0,0,1.077425,0.986498,0.45874542,-0.08591462,0.13714644,-1.3784721,-0.1494317,-0.26195577,0.67191726,-1.4944588,0.28197595,-0.49377728,0.42236096,0.24092983
-0.2,-0.2,1.4999999999999998,0.5235987755982988,0.0,0,1.0548861,0.99373835,0.462187,-0.0824252,0.29604268,-1.2938334,-1.6243103,-0.26068538,0.67222726,-1.4914958,0.2818592,-0.4932144,0.42057705,0.25105983
-0.2,-0.2,1.4999999999999998,0.5235987755982988,0.0,0,1.1740875,1.0292612,0.39417002,-0.104714036,0.33699754,-1.3616396,-0.6012483,-0.26071274,0.6715968,-1.4917654,0.28174502,-0.5001737,0.41988844,0.24152473
-0.2,-0.2,1.4999999999999998,0.5235987755982988,0.0,0,1.2629706,0.9128698,0.18211412,-0.083628334,0.54245174,-1.3784481,-1.2515684,-0.260434,0.6723638,-1.4920583,0.2817705,-0.49957937,0.4209691,0.24237001
-0.2,-0.2,1.4999999999999998,0.5235987755982988,0.0,0,1.1373432,0.9502516,0.3720263,-0.107119955,0.08075468,-1.3089726,-1.8742064,-0.26074725,0.67213583,-1.4924971,0.28220055,-0.5018766,0.42234397,0.24786724
-0.2,-0.2,1.4999999999999998,0.5235987755982988,0.0,0,1.2039956,0.9742259,0.5101658,-0.10812521,0.06381997,-1.3978043,-1.2173039,-0.26042223,0.6723687,-1.4921315,0.28221327,-0.49372953,0.4213913,0.24486831
-0.2,-0.2,1.4999999999999998,0.5235987755982988,0.0,0,1.1044853,0.97725534,0.12781912,-0.10943311,0.23746757,-1.357139,-0.0729095,-0.26025084,0.6721087,-1.4927075,0.28123024,-0.49923828,0.42281407,0.24413468
-0.2,-0.2,1.4999999999999998,0.5235987755982988,0.0,0,1.1342274,0.99891764,0.6079814,-0.061075382,0.31650874,-1.3391104,-0.3339851,-0.26064673,0.6718141,-1.4931207,0.28216776,-0.49488336,0.4215852,0.24087983
-0.2,-0.2,1.4999999999999998,0.5235987755982988,0.0,0,1.0568132,0.9696043,0.34022656,-0.06949723,0.062104043,-1.5075718,-0.9649641,-0.2610273,0.6728009,-1.492255,0.2814222,-0.49451295,0.42261618,0.24337053
-0.2,-0.2,1.4999999999999998,0.5235987755982988,0.0,0,1.0860751,0.9673844,0.48337394,-0.075834684,0.09404365,-1.4379334,0.15477459,-0.25971314,0.6717816,-1.4916761,0.28206363,-0.49486336,0.4229153,0.24564058
-0.2,-0.2,1.4999999999999998,0.5235987755982988,0.0,0,1.1925963,0.9613797,0.37629187,-0.10872334,0.36764288,-1.4481826,-1.9742677,-0.25981557,0.67118406,-1.4917866,0.28210336,-0.49284464,0.42192987,0.25032434
-0.2,-0.2,1.4999999999999998,0.5235987755982988,0.0,0,1.1733129,0.91729724,0.19312677,-0.061090447,-0.3377122,-1.3550434,-1.1738173,-0.26081488,0.6715867,-1.4925246,0.28200093,-0.49807867,0.4209338,0.24378337
-0.2,-0.2,1.4999999999999998,0.5235987755982988,0.0,0,1.2344122,0.9767802,0.31105074,-0.18313229,-0.04902591,-1.410926,-0.5188368,-0.2605477,0.6724581,-1.49343,0.28146738,-0.5002074,0.42138994,0.2431357
-0.2,-0.2,1.4999999999999998,0.5235987755982988,0.0,0,1.2479111,0.9362733,0.13305758,-0.06377225,0.33989894,-1.3217072,-1.1207668,-0.25956842,0.6718149,-1.492922,0.28217843,-0.48915502,0.41940513,0.23977655
-0.2,-0.2,1.4999999999999998,0.5235987755982988,0.0,0,1.0648944,0.9927307,0.43934804,0.030150613,-0.34701276,-1.4161079,-0.54933274,-0.26109716,0.673083,-1.4919012,0.28189436,-0.50018924,0.4206442,0.24444044
-0.2,-0.2,1.4999999999999998,0.5235987755982988,0.0,0,1.0179651,0.98770213,0.37758458,-0.07838976,0.0265305,-1.4247233,-1.3084319,-0.26171538,0.67209166,-1.4941936,0.28209355,-0.4942161,0.4217958,0.24056114
-0.2,-0.2,1.4999999999999998,0.5235987755982988,0.0,0,1.0158579,1.0069594,-0.06920807,-0.028683819,-0.06161813,-1.4623677,-1.3610365,-0.2603548,0.6715592,-1.4915628,0.28185928,-0.49880856,0.4209547,0.24487145
-0.2,-0.2,1.4999999999999998,0.5235987755982988,0.0,0,1.2462234,0.9081316,0.2052885,-0.0032269417,-0.16952425,-1.3924292,0.04821346,-0.2602437,0.67146087,-1.492678,0.28224078,-0.4968845,0.4236046,0.24816498
-0.2,-0.2,1.4999999999999998,0.5235987755982988,0.0,0,1.0862875,0.96960557,0.42864618,-0.012991984,0.01199645,-1.3888084,0.8031349,-0.26041323,0.67162687,-1.4909958,0.28166988,-0.49806023,0.42192334,0.24438342
-0.2,-0.2,1.4999999999999998,0.5235987755982988,0.0,0,1.1805001,0.9271534,0.21626353,-0.021139875,-0.044742595,-1.3947734,-0.70585495,-0.2591455,0.67136425,-1.492999,0.28216404,-0.48637912,0.42196104,0.24322848
-0.2,-0.2,1.4999999999999998,0.5235987755982988,0.0,0,1.1715999,0.99308395,0.36188725,-0.21569721,-0.3717288,-1.4607713,0.084931314,-0.26075,0.6717009,-1.4921561,0.2819265,-0.4948678,0.42021984,0.24157083
-0.2,-0.2,1.4999999999999998,0.5235987755982988,0.0,0,1.1799667,0.9315996,0.32780856,-0.08047467,-0.2355491,-1.374234,-1.2620349,-0.26018432,0.6722235,-1.491959,0.28164703,-0.4924254,0.42179143,0.242992
-0.2,-0.2,1.4999999999999998,0.5235987755982988,0.0,0,1.1602746,0.9682071,0.30294368,-0.047408886,-0.12274273,-1.4233302,-0.7075562,-0.26021388,0.67185366,-1.4921488,0.2822726,-0.49631855,0.4185266,0.24608955
-0.2,-0.2,1.4999999999999998,0.5235987755982988,0.0,0,1.2624376,0.9594157,0.2738608,-0.08235007,0.022779277,-1.3676639,-1.78794,-0.26089963,0.6718081,-1.4931155,0.2813937,-0.4985896,0.42113715,0.24463136
-0.2,-0.2,1.4999999999999998,0.5235987755982988,0.0,0,1.0997666,0.97096694,0.27682713,-0.057026036,-0.074634895,-1.4160917,-0.1429767,-0.26155052,0.67144614,-1.4923409,0.281883,-0.49711648,0.42160037,0.24479444
-0.2,-0.2,1.4999999999999998,0.5235987755982988,0.0,0,1.0889227,1.0054644,0.28589067,-0.066338435,0.28690147,-1.4409363,0.16906227,-0.26062396,0.67104536,-1.4927636,0.28250322,-0.49139383,0.42017588,0.24270193
-0.2,-0.2,1.4999999999999998,0.5235987755982988,0.0,0,1.1300615,0.90136445,0.06525582,0.0013280577,-0.09965097,-1.3456174,-1.0316457,-0.26064107,0.6712566,-1.4918877,0.28187993,-0.50123656,0.4218603,0.2447543
-0.2,-0.2,1.4999999999999998,0.5235987755982988,0.0,0,1.0895897,0.9631147,0.22003567,-0.12425858,-0.043113403,-1.3836311,-0.4596065,-0.2593861,0.6707306,-1.4930393,0.28229266,-0.49949533,0.42139974,0.24434523
-0.2,-0.2,1.4999999999999998,0.5235987755982988,0.0,0,1.1797686,0.977213,0.52904934,0.07048012,-0.2596366,-1.5042689,-0.20724897,-0.26001763,0.6727339,-1.4943227,0.281901,-0.4969211,0.42144805,0.24458644
-0.2,-0.2,1.4999999999999998,0.5235987755982988,0.0,0,1.1035693,0.9285959,0.37811306,-0.0411762,0.16796768,-1.4831825,-1.6022394,-0.26046667,0.6712156,-1.4917697,0.2822817,-0.49376807,0.4211632,0.24592614
-0.2,-0.2,1.4999999999999998,0.5235987755982988,0.0,0,1.169237,0.973698,0.16054903,-0.07630741,-0.014865027,-1.4716172,-0.5214333,-0.26127282,0.6713908,-1.4935495,0.28225672,-0.49303123,0.4197004,0.24244642
-0.2,-0.2,1.4999999999999998,0.5235987755982988,0.0,0,1.0460379,0.9420654,0.48821148,-0.010252295,0.41078836,-1.4599085,-1.4572814,-0.2616389,0.6726958,-1.4917709,0.28174505,-0.49742952,0.41991135,0.24066696
-0.2,-0.2,1.4999999999999998,0.5235987755982988,0.0,0,1.2239721,1.014386,0.12019977,-0.062880486,0.1529842,-1.3689089,-0.06044978,-0.26008752,0.6722276,-1.4923695,0.28155306,-0.49460942,0.42262357,0.24340333
-0.2,-0.2,1.4999999999999998,0.5235987755982988,0.0,0,1.150556,0.97051924,0.26091653,-0.10669326,0.42808142,-1.3784277,-2.4320621,-0.26126257,0.6720292,-1.493424,0.28160986,-0.49107218,0.42027965,0.23674288
-0.2,-0.2,1.4999999999999998,0.5235987755982988,0.0,0,1.1426574,0.9825861,0.33241555,-0.09513845,0.36396804,-1.3314018,-0.21102129,-0.2610039,0.6718094,-1.4918936,0.28211206,-0.49977705,0.42165002,0.24492621
-0.2,-0.2,1.4999999999999998,0.5235987755982988,0.0,0,1.2266644,0.9511446,0.107737385,-0.021476973,-0.12951376,-1.3864421,-2.0317125,-0.26074275,0.6731872,-1.4930136,0.2817864,-0.49543104,0.42201197,0.24271215
-0.2,-0.2,1.4999999999999998,0.5235987755982988,0.0,0,1.113467,0.90705234,0.51930463,0.03493625,-0.48358774,-1.3315876,-1.5295892,-0.26092216,0.6723632,-1.4910816,0.28167933,-0.49163207,0.42075732,0.24578148
-0.2,-0.2,1.4999999999999998,0.5235987755982988,0.0,0,1.1308596,1.0230533,0.29571617,-0.0854349,-0.03632378,-1.3882134,-0.65460116,-0.26069444,0.6714673,-1.4922267,0.28146812,-0.5022394,0.42062414,0.24346793
-0.2,-0.2,1.4999999999999998,0.5235987755982988,0.0,0,1.1210035,0.94424057,0.17228256,-0.06622149,-0.40690926,-1.39695,-0.89061546,-0.2603291,0.6709767,-1.4917458,0.2817502,-0.49467695,0.42028752,0.24211681
-0.2,-0.2,1.4999999999999998,0.5235987755982988,0.0,0,1.1063805,0.8996249,0.19671892,0.01749166,-0.18082227,-1.3538917,-0.44975647,-0.26165164,0.6729291,-1.4920802,0.2822814,-0.49981254,0.42269376,0.2410453
-0.2,-0.2,1.4999999999999998,0.5235987755982988,0.0,0,1.0910263,0.89130664,0.28458357,-0.08048104,-0.24508609,-1.4702121,-0.70187795,-0.26127067,0.67118543,-1.491368,0.28165624,-0.5001413,0.42018187,0.24400559
-0.2,-0.2,1.4999999999999998,0.5235987755982988,0.0,0,1.2668215,0.9538095,0.30953646,-0.03503028,0.020459741,-1.308561,-1.47805,-0.26098472,0.6725468,-1.4923444,0.28178376,-0.49184886,0.423292,0.2402095
-0.2,-0.2,1.4999999999999998,0.5235987755982988,0.0,0,1.1351193,0.9742157,0.38388616,-0.05382878,0.26108646,-1.4928633,-2.027229,-0.2615303,0.67239565,-1.4918202,0.28163874,-0.495593,0.4218418,0.2432302
-0.2,-0.2,1.4999999999999998,0.5235987755982988,0.0,0,1.1186755,0.935919,0.33644748,-0.0056216563,0.16262676,-1.4594138,-0.8474207,-0.2608438,0.673159,-1.4913975,0.28166986,-0.5016815,0.421358,0.2446277
-0.2,-0.2,1.4999999999999998,0.5235987755982988,0.0,0,1.1135633,0.86581624,0.16242668,-0.11057266,-0.13093904,-1.3224077,-1.0500643,-0.26168504,0.672924,-1.4915204,0.28235525,-0.4954959,0.42052734,0.24366693
-0.2,-0.2,1.4999999999999998,0.5235987755982988,0.0,0,1.0480578,0.92355734,0.38037732,-0.102321394,0.20026712,-1.4249878,0.8491703,-0.2610671,0.6716129,-1.4917663,0.282389,-0.5032576,0.41984603,0.24606825
-0.2,-0.2,1.4999999999999998,0.5235987755982988,0.0,0,1.1272177,1.0027431,0.33564904,-0.028407237,0.5643159,-1.3992524,-0.10297977,-0.260075,0.6717493,-1.4922464,0.28198373,-0.49035555,0.42181048,0.24367058
-0.2,-0.2,1.4999999999999998,0.5235987755982988,0.0,0,1.1118165,0.9269026,0.29564407,-0.11569576,-0.3630914,-1.3245367,0.2612917,-0.2594655,0.6718124,-1.4917747,0.28153557,-0.49611604,0.42233098,0.24496457
-0.2,-0.2,1.4999999999999998,0.5235987755982988,0.0,0,1.18653,0.9032807,0.47421274,-0.21455972,-0.22987975,-1.3907734,0.63921684,-0.26002666,0.67321575,-1.4917443,0.2822749,-0.5007359,0.42118987,0.24046974
-0.2,-0.2,1.4999999999999998,0.5235987755982988,0.0,0,1.2585192,0.90135634,0.6001376,0.01809068,0.38576388,-1.4776213,-1.095502,-0.25998566,0.6714,-1.4916487,0.28133464,-0.49388355,0.4223715,0.24428572
-0.2,-0.2,1.4999999999999998,0.5235987755982988,0.0,0,1.0636692,0.971259,0.18099622,-0.09708434,-0.017155686,-1.3930681,-0.77804804,-0.26060584,0.67212224,-1.4928067,0.28185433,-0.5002603,0.42398846,0.24165812
-0.2,-0.2,1.4999999999999998,0.5235987755982988,0.0,0,1.0927596,0.9909515,0.15671615,-0.08047039,0.09026201,-1.2806239,-1.5088764,-0.26085436,0.673279,-1.4909413,0.28150734,-0.49656823,0.42239612,0.24346997
-0.2,-0.2,1.4999999999999998,0.5235987755982988,0.0,0,1.1482903,0.97196984,0.42009905,-0.13981162,0.091541335,-1.401988,-1.1183586,-0.2607917,0.67182446,-1.4926733,0.2818291,-0.49620312,0.4217357,0.24110736
-0.2,-0.2,1.4999999999999998,0.5235987755982988,0.0,0,1.2141294,0.95019704,0.060107224,-0.065937884,0.05087871,-1.4084036,-1.3556634,-0.25959966,0.6715705,-1.4925123,0.2817727,-0.49021435,0.42239785,0.24303265
-0.2,-0.2,1.4999999999999998,0.5235987755982988,0.0,0,1.1020557,0.9500828,0.16969484,-0.083692536,0.6118182,-1.4398566,0.041734084,-0.25936842,0.6719141,-1.4928331,0.2819036,-0.4942538,0.4223807,0.24467288
-0.2,-0.2,1.4999999999999998,0.5235987755982988,0.0,0,1.0625123,0.9574117,0.32202548,-0.082781814,0.2691152,-1.3855559,-0.62000936,-0.26103806,0.6721932,-1.4937419,0.2820128,-0.49270275,0.42209458,0.24242744
-0.2,-0.2,1.4999999999999998,0.5235987755982988,0.0,0,1.0856087,0.89915454,0.36718926,-0.08375892,0.33870503,-1.3441823,1.6861795,-0.26030192,0.6718046,-1.4930352,0.28182155,-0.49690807,0.42374927,0.24137223
-0.2,-0.2,1.4999999999999998,0.5235987755982988,0.0,0,1.1216699,0.92514384,0.31581357,-0.018924175,0.10884893,-1.339296,-0.3388503,-0.25967002,0.672171,-1.4928132,0.2816261,-0.49143377,0.42135265,0.23792017
-0.2,-0.2,1.4999999999999998,0.5235987755982988,0.0,0,1.1392661,0.98185647,0.4763744,-0.08243581,-0.60277194,-1.4726425,-0.5319708,-0.26011845,0.6723377,-1.493016,0.28221714,-0.49849394,0.42219216,0.23647319
-0.2,-0.2,1.4999999999999998,0.5235987755982988,0.0,0,1.1106681,0.9640845,0.011471257,-0.105847225,0.07115328,-1.3642576,-0.4999796,-0.26008686,0.6720656,-1.4927045,0.28218704,-0.49365014,0.4228766,0.2435712
-0.2,-0.2,1.4999999999999998,0.5235987755982988,0.0,0,0.95720136,1.0348067,0.38513783,-0.11076446,0.34095833,-1.3818693,-0.24288616,-0.26013356,0.67224926,-1.4917649,0.28107405,-0.49152976,0.42396215,0.24133
-0.2,-0.2,1.4999999999999998,0.5235987755982988,0.0,0,1.1804737,0.96925324,0.15899384,-0.03270578,0.050409142,-1.4502504,-1.1937367,-0.26130688,0.67251575,-1.4933311,0.2820447,-0.50048065,0.42160627,0.24225459
-0.2,-0.2,1.4999999999999998,0.5235987755982988,0.0,0,1.1631134,0.9705741,0.28779843,-0.00071210356,-0.2476172,-1.4449098,-1.1900709,-0.2601251,0.67198706,-1.4921836,0.28185785,-0.49954167,0.4223712,0.24466872
-0.2,-0.2,1.4999999999999998,0.5235987755982988,0.0,0,1.161234,1.0125163,0.3538393,-0.08218325,-0.13349839,-1.3658341,-0.7253188,-0.26188034,0.6715288,-1.4922389,0.28209382,-0.49226543,0.42154872,0.24306718
-0.2,-0.2,1.4999999999999998,0.5235987755982988,0.0,0,1.1791983,1.0199381,-0.052428555,-0.056921054,-0.14027345,-1.4536515,-1.7770982,-0.2598621,0.6717363,-1.4912106,0.28188992,-0.49589762,0.4214886,0.24388579
-0.2,-0.2,1.4999999999999998,0.5235987755982988,0.0,0,1.1490499,0.9178788,0.19824041,-0.071291514,-0.036449105,-1.3598133,-0.69883555,-0.2614673,0.67189986,-1.4921834,0.28225112,-0.49886584,0.42111957,0.24363236
-0.2,-0.2,1.4999999999999998,0.5235987755982988,0.0,0,1.2270855,0.9646075,0.2820359,-0.04919707,0.20204096,-1.3942566,-1.8346936,-0.26006427,0.6722897,-1.4923652,0.28224397,-0.49245715,0.42034125,0.24228814
-0.2,-0.2,1.4999999999999998,0.5235987755982988,0.0,0,1.1777163,0.93038815,0.34348634,-0.034774657,-0.17903686,-1.4689897,-1.048737,-0.26120028,0.6717874,-1.4913936,0.28171512,-0.50169265,0.42097616,0.24463858
-0.2,-0.2,1.4999999999999998,0.5235987755982988,0.0,0,1.1378942,0.9890912,0.3056735,-0.0022222348,0.29930606,-1.3963927,-1.017542,-0.2610919,0.672439,-1.4917402,0.28199768,-0.49875912,0.42187187,0.23827544
-0.2,-0.2,1.4999999999999998,0.5235987755982988,0.0,0,1.2451022,0.9923224,0.48909628,-0.12467169,-0.048678666,-1.3729305,-1.6661596,-0.25941584,0.672174,-1.491975,0.2818704,-0.49082673,0.4198342,0.24611104
-0.2,-0.2,1.4999999999999998,0.5235987755982988,0.0,0,1.2938849,0.9508366,0.1943276,-0.060802564,-0.15534331,-1.4551518,-1.1878179,-0.26204577,0.67197317,-1.4914274,0.28197968,-0.4872441,0.41941383,0.24259451
-0.2,-0.2,1.4999999999999998,0.5235987755982988,0.0,0,1.101123,0.90849006,0.14529042,-0.049495444,0.1933506,-1.4385192,-2.125601,-0.26140445,0.67340356,-1.4924774,0.2815829,-0.49918967,0.42272598,0.2364814
-0.2,-0.2,1.4999999999999998,0.5235987755982988,0.0,0,1.2007653,0.908263,0.38701174,-0.096119784,-0.08975868,-1.4505261,-0.34652373,-0.2613589,0.6726053,-1.4910011,0.28175098,-0.49203816,0.42081952,0.24662736
-0.2,-0.2,1.4999999999999998,0.5235987755982988,0.0,0,1.1279776,0.96564037,0.50914043,-0.06652321,0.13080487,-1.4769325,-0.9893747,-0.2603344,0.67229533,-1.4922174,0.28248024,-0.49896708,0.421615,0.2461016
-0.2,-0.2,1.4999999999999998,0.5235987755982988,0.0,0,1.1561627,0.96740067,0.4861247,-0.1019939,0.03556307,-1.4919512,-0.34317377,-0.26232857,0.67287326,-1.4915093,0.28227127,-0.5015863,0.42193386,0.24072078
-0.2,-0.2,1.4999999999999998,0.5235987755982988,0.0,0,1.0492749,0.9620841,0.2837215,-0.04150741,0.11484008,-1.4310192,-1.2908909,-0.2598405,0.6714958,-1.4931062,0.28237396,-0.50012517,0.4184807,0.23943602
-0.2,-0.2,1.4999999999999998,0.5235987755982988,0.0,0,1.1206955,0.99133605,0.31907088,-0.10575691,-0.024198346,-1.3494359,0.32687297,-0.25992203,0.6718819,-1.4925444,0.28234664,-0.4993015,0.42112395,0.24170563
-0.2,-0.2,1.4999999999999998,0.5235987755982988,0.0,0,1.1008505,0.9620694,0.22841097,0.06716286,0.41638324,-1.2857641,1.5215799,-0.26118317,0.6726935,-1.4922068,0.28203645,-0.4957829,0.4214177,0.24051204
-0.2,-0.2,1.4999999999999998,0.5235987755982988,0.0,0,1.0088334,0.9926759,0.33449078,-0.13912614,-0.3676095,-1.3868623,-3.128703,-0.26047322,0.6723964,-1.4921572,0.28190163,-0.49721053,0.42204842,0.2426372
-0.2,-0.2,1.4999999999999998,0.5235987755982988,0.0,0,1.2452997,0.921216,0.49421483,-0.08482085,-0.17497253,-1.3186693,0.2954481,-0.26093343,0.6710428,-1.4908129,0.2818271,-0.49630332,0.42158785,0.23930009
-0.2,-0.2,1.4999999999999998,0.5235987755982988,0.0,0,1.0898672,0.8731381,0.20658073,0.0003846879,0.15863487,-1.3894916,-0.69065726,-0.25993878,0.67207193,-1.4927211,0.28207907,-0.50134826,0.42306054,0.24513486
-0.2,-0.2,1.4999999999999998,0.5235987755982988,0.0,0,1.0987432,0.96347046,0.2185828,-0.09659186,-0.2404435,-1.4137646,-0.5844129,-0.26094806,0.672313,-1.4920465,0.2816541,-0.49848282,0.42252558,0.2441371
-0.2,-0.2,1.4999999999999998,0.5235987755982988,0.0,0,0.9967072,0.9839932,0.23329815,-0.12290475,-0.06383388,-1.4098433,-0.4683187,-0.2612612,0.6723587,-1.4923743,0.28178877,-0.49719232,0.42047203,0.24027194
-0.2,-0.2,1.4999999999999998,0.5235987755982988,0.0,0,1.2410537,0.91172373,0.3696067,-0.09163351,0.082428284,-1.3387811,-0.6108427,-0.26061517,0.6711782,-1.491382,0.28212783,-0.49776918,0.42123443,0.24088624
-0.2,-0.2,1.4999999999999998,0.5235987755982988,0.0,0,1.009088,0.9871972,0.20118758,-0.098497875,0.152918,-1.2964233,0.13352215,-0.26097092,0.67184174,-1.491317,0.28219548,-0.48547375,0.41803157,0.24476388
-0.2,-0.2,1.4999999999999998,0.5235987755982988,0.0,0,1.2122529,0.9250046,0.34688815,-0.052390978,0.072852045,-1.3749727,-0.04725712,-0.26019126,0.67159015,-1.4912279,0.28183052,-0.49377143,0.41949284,0.24427249
-0.2,-0.2,1.4999999999999998,0.5235987755982988,0.0,0,1.2700102,0.9228983,0.14654234,0.025525773,-0.021718008,-1.5008097,0.07831108,-0.26012272,0.67065406,-1.4923261,0.28159407,-0.49778998,0.4228049,0.24446437
-0.2,-0.2,1.4999999999999998,0.5235987755982988,0.0,0,1.1411576,1.0502465,0.25077197,-0.13275069,0.14561705,-1.5333112,-2.5727339,-0.2593095,0.6717517,-1.4922056,0.28141636,-0.4931919,0.42134303,0.24358684
-0.2,-0.2,1.4999999999999998,0.5235987755982988,0.0,0,1.2100892,0.9256955,0.47848356,-0.05899998,-0.5527012,-1.5066507,-0.79851824,-0.26057416,0.67159885,-1.4925277,0.28135872,-0.5033978,0.42075184,0.24645595
-0.2,-0.2,1.4999999999999998,0.5235987755982988,0.0,0,1.2078037,0.91019005,-0.04440893,-0.10905692,0.017577145,-1.496034,-1.3365324,-0.26088166,0.67270774,-1.4925523,0.28158394,-0.49489248,0.4202967,0.23853238
-0.2,-0.2,1.4999999999999998,0.5235987755982988,0.0,0,1.1237695,0.9966953,0.6267291,-0.03873768,-0.045893397,-1.4139832,-0.63622355,-0.25956365,0.671494,-1.4918432,0.2815922,-0.48967254,0.42200136,0.24548587
-0.2,-0.2,1.4999999999999998,0.5235987755982988,0.0,0,1.2085464,0.9210445,0.23314478,-0.115238965,-0.18652995,-1.3439785,-1.677613,-0.25996664,0.67158115,-1.4914384,0.2815125,-0.4950743,0.42159405,0.2496094
-0.2,-0.2,1.4999999999999998,0.5235987755982988,0.0,0,1.1958593,0.89516574,-0.241987,-0.13150625,-0.2231907,-1.3524418,0.10475433,-0.26119617,0.6724783,-1.4919295,0.28163218,-0.49414572,0.42160922,0.23853433
-0.2,-0.2,1.4999999999999998,0.5235987755982988,0.0,0,1.0590142,0.9973325,0.28727975,-0.12298293,0.12515992,-1.2834004,-1.3658581,-0.2597716,0.6716338,-1.4910603,0.2819959,-0.49796063,0.41836202,0.24547012
-0.2,-0.2,1.4999999999999998,0.5235987755982988,0.0,0,0.9500487,0.96415997,0.42072657,-0.010742494,-0.18781506,-1.385704,-0.17863445,-0.25956124,0.6710528,-1.4932803,0.28196943,-0.5050386,0.42005044,0.2480231
-0.2,-0.2,1.4999999999999998,0.5235987755982988,0.0,0,1.2528073,0.9470283,0.29258782,-0.025892733,0.04356267,-1.4578146,-1.1603825,-0.26024076,0.6723308,-1.4920552,0.28185412,-0.49392372,0.4217521,0.24389398
-0.2,-0.2,1.4999999999999998,0.5235987755982988,0.0,0,1.1678599,0.9844105,0.26480785,-0.018425003,0.22720635,-1.3474267,-1.2387828,-0.25951916,0.67213947,-1.491953,0.2817024,-0.4897504,0.42072064,0.24226522
-0.2,-0.2,1.4999999999999998,0.5235987755982988,0.0,0,1.1363788,0.93591833,0.31148908,0.033008162,0.030808002,-1.4985952,-1.556659,-0.26012588,0.6724765,-1.491629,0.2818947,-0.500148,0.42293382,0.2455251
-0.2,-0.2,1.4999999999999998,0.5235987755982988,0.0,0,1.1361104,0.9368068,0.13250807,-0.050488237,0.1728227,-1.4248903,-0.91265875,-0.25988784,0.67316324,-1.4937823,0.2823183,-0.49649057,0.42121464,0.24232529
-0.2,-0.2,1.4999999999999998,0.5235987755982988,0.0,0,1.1616008,0.97077215,0.35079235,-0.05223088,0.010105703,-1.4159782,1.0946307,-0.2606884,0.671706,-1.4930502,0.28159672,-0.50124526,0.42021057,0.24480774
-0.2,-0.2,1.4999999999999998,0.5235987755982988,0.0,0,1.0888474,0.9314295,0.2501581,-0.006701409,0.40601727,-1.399005,0.99150807,-0.26033506,0.6731519,-1.4917881,0.28201488,-0.49387312,0.4197887,0.24521446
-0.2,-0.2,1.4999999999999998,0.5235987755982988,0.0,0,1.060874,0.9474267,0.2938881,-0.002297437,0.22726156,-1.533002,-0.32177883,-0.26034108,0.67187774,-1.4912814,0.28216675,-0.49297366,0.42076778,0.24688725
-0.2,-0.2,1.4999999999999998,0.5235987755982988,0.0,0,1.1931877,1.0492667,0.39844945,-0.031771377,0.16971336,-1.5504389,-1.8420367,-0.25953764,0.6717516,-1.4921296,0.28173736,-0.49492612,0.42311808,0.24039671
-0.2,-0.2,1.4999999999999998,0.5235987755982988,0.0,0,1.1088153,0.87604326,0.13376205,-0.072351694,0.4462619,-1.5012233,-0.13952914,-0.25948286,0.6715621,-1.4915982,0.2818288,-0.4987382,0.42132488,0.24426976
-0.2,-0.2,1.4999999999999998,0.5235987755982988,0.0,0,0.95180476,0.96607536,-0.05375851,-0.045823988,0.23948623,-1.3582271,-0.36954156,-0.2613246,0.6716303,-1.492295,0.2814188,-0.49835116,0.42087373,0.24038318
-0.2,-0.2,1.4999999999999998,0.5235987755982988,0.0,0,0.990822,0.9690136,0.37840855,-0.119686686,0.026320763,-1.4343909,-1.3288476,-0.26177242,0.6717519,-1.4915551,0.2821369,-0.50167054,0.41955248,0.2427979
-0.2,-0.2,1.4999999999999998,0.5235987755982988,0.0,0,1.1880314,0.9596861,0.33918107,-0.061483134,-0.052775573,-1.4285007,-0.83971167,-0.2608736,0.67202085,-1.492751,0.28168723,-0.4996787,0.42102322,0.24080455
-0.2,-0.2,1.4999999999999998,0.5235987755982988,0.0,0,1.1222445,0.9422154,0.4139594,-0.04801263,0.17289403,-1.4177685,0.15811935,-0.26131177,0.6720481,-1.4924362,0.28209865,-0.5006618,0.42216247,0.24367192
-0.2,-0.2,1.4999999999999998,0.5235987755982988,0.0,0,1.180346,0.95684433,0.10951211,-0.10400364,0.022914927,-1.299223,-1.8041233,-0.26122287,0.6721632,-1.492465,0.28258872,-0.49798617,0.4215526,0.2441721
-0.2,-0.2,1.4999999999999998,0.5235987755982988,0.0,0,1.1578152,1.0080768,0.27398083,-0.010440825,-0.10314603,-1.3969058,-0.1018188,-0.26016784,0.6711321,-1.4928333,0.28180638,-0.4957331,0.42427963,0.24293911
-0.2,-0.2,1.4999999999999998,0.5235987755982988,0.0,0,1.1830931,0.9403266,0.42568922,-0.045317248,0.034501635,-1.4470071,-0.70578265,-0.2598275,0.67121786,-1.4911734,0.28195852,-0.49334085,0.42070994,0.24566208
-0.2,-0.2,1.4999999999999998,0.5235987755982988,0.0,0,1.0959914,0.98914844,0.35120633,-0.012785767,0.39006844,-1.4922059,-1.1507624,-0.26053044,0.6713084,-1.4915147,0.2818506,-0.49843407,0.4209287,0.24161652
-0.2,-0.2,1.4999999999999998,0.5235987755982988,0.0,0,1.3239874,0.95826566,0.2851417,-0.1165043,-0.27689034,-1.4546515,-0.87627417,-0.2606646,0.67165196,-1.4946086,0.2821943,-0.49357495,0.42202288,0.24317697
-0.2,-0.2,1.4999999999999998,0.5235987755982988,0.0,0,1.3417317,0.96363324,0.41732624,0.031337097,-0.25989643,-1.4812028,0.24916093,-0.26013076,0.6716522,-1.4912751,0.28215688,-0.49883962,0.42111963,0.24303113
-0.2,-0.2,1.4999999999999998,0.5235987755982988,0.0,0,1.0782657,0.92936164,0.35267588,-0.11272254,-0.37134397,-1.4056574,0.102528065,-0.26081747,0.671061,-1.492479,0.2818644,-0.49936932,0.42228043,0.24134693
-0.2,-0.2,1.4999999999999998,0.5235987755982988,0.0,0,1.0865184,0.9562674,0.17147838,-0.11639748,-0.11101351,-1.4462255,-1.3908219,-0.26082367,0.67263275,-1.4915968,0.2818086,-0.49926642,0.4222978,0.24469557
-0.2,-0.2,1.4999999999999998,0.5235987755982988,0.0,0,1.1903573,0.95121807,0.09287356,-0.011748974,-0.2257549,-1.462762,-2.121805,-0.26091883,0.6720329,-1.4926637,0.28224164,-0.50128305,0.42198515,0.24879462
-0.2,-0.2,1.4999999999999998,0.5235987755982988,0.0,0,1.0825509,0.9484621,0.09642844,-0.057958987,0.07767166,-1.2812911,-0.6706253,-0.26061127,0.67147,-1.4918019,0.28221813,-0.4995301,0.42198688,0.24169117
-0.2,-0.2,1.4999999999999998,0.5235987755982988,0.0,0,1.1523877,0.9529071,0.21122316,-0.04289917,0.4231965,-1.4032089,-0.47492406,-0.26009884,0.67127764,-1.4920402,0.28176007,-0.4924226,0.42167735,0.24446416
-0.2,-0.2,1.4999999999999998,0.5235987755982988,0.0,0,1.1354728,1.0100024,0.67148495,-0.05586915,-0.3728088,-1.5069951,-0.2866147,-0.26085585,0.67196625,-1.4914105,0.28161824,-0.4989674,0.42125207,0.2404495
-0.2,-0.2,1.4999999999999998,0.5235987755982988,0.0,0,1.143748,0.9911844,0.34739643,-0.05822728,-0.029313715,-1.408231,-1.2242339,-0.260209,0.6724833,-1.4940081,0.28186578,-0.49443343,0.42189345,0.2381626
-0.2,-0.2,1.4999999999999998,0.5235987755982988,0.0,0,1.1643506,0.9627635,0.26159745,-0.049376074,0.09887075,-1.364647,-1.4808762,-0.26006982,0.67223537,-1.4915707,0.2815714,-0.4977363,0.42375022,0.24384184
-0.2,-0.2,1.4999999999999998,0.5235987755982988,0.0,0,1.1177987,0.99510235,0.394985,-0.125254,0.23009959,-1.3639358,-1.8938407,-0.2607567,0.6711754,-1.4926909,0.28190592,-0.5000626,0.42296523,0.24183463
-0.2,-0.2,1.4999999999999998,0.5235987755982988,0.0,0,1.257342,0.9937869,0.12299071,-0.1206769,-0.06694429,-1.4239714,-1.5812821,-0.2603567,0.67191094,-1.4919524,0.28157207,-0.48619902,0.42007086,0.24709123
-0.2,-0.2,1.4999999999999998,0.5235987755982988,0.0,0,1.1757761,0.93487513,0.44209692,-0.15756649,0.075483136,-1.5160301,-0.582428,-0.26027894,0.67140085,-1.49229,0.28174552,-0.5056404,0.41940612,0.24091558
-0.2,-0.2,1.4999999999999998,0.5235987755982988,0.0,0,1.2387283,0.9745065,0.16106686,-0.039497934,0.23152268,-1.4030591,-2.1027496,-0.25876948,0.67347735,-1.4928515,0.28176796,-0.5144847,0.42240393,0.2413432
-0.2,-0.2,1.4999999999999998,0.5235987755982988,0.0,0,1.1013603,0.92515975,0.25912648,-0.07612789,-0.035968933,-1.541708,0.38614964,-0.2615004,0.67106175,-1.4916973,0.2821155,-0.48851034,0.42143133,0.24308944
-0.2,-0.2,1.4999999999999998,0.5235987755982988,0.0,0,1.1514447,0.94136107,0.3889313,-0.11309055,-0.31626147,-1.4867482,-0.78466576,-0.26023915,0.6717854,-1.4918464,0.2814361,-0.49114683,0.4204899,0.24445237
-0.2,-0.2,1.4999999999999998,0.5235987755982988,0.0,0,1.218467,0.9467777,0.11415529,-0.10470014,0.49366114,-1.3566562,-1.5339612,-0.26191875,0.6717171,-1.4918339,0.2816891,-0.5113303,0.4195196,0.23620506
-0.2,-0.2,1.4999999999999998,0.5235987755982988,0.0,0,1.105286,0.90641993,0.15092726,-0.1285102,-0.020226799,-1.343865,-1.3686466,-0.2604179,0.671413,-1.4917365,0.28191197,-0.5017238,0.42186493,0.24018455
-0.2,-0.2,1.4999999999999998,0.5235987755982988,0.0,0,1.147671,0.9449882,0.2145969,-0.045354854,-0.29813665,-1.3376431,-0.7083146,-0.26026103,0.67246705,-1.4933126,0.28147024,-0.50390875,0.42023623,0.24361368
-0.2,-0.2,1.4999999999999998,0.5235987755982988,0.0,0,1.1919924,0.9053141,0.4047236,-0.101783514,0.27096233,-1.4039023,-1.0588691,-0.25935876,0.6714305,-1.4906733,0.2821123,-0.50649285,0.42303416,0.24663596
-0.2,-0.2,1.4999999999999998,0.5235987755982988,0.0,0,1.1245499,0.93441546,0.35791898,-0.067373104,-0.047702096,-1.4394387,-0.043658134,-0.26055792,0.67126924,-1.4920316,0.28165373,-0.48997417,0.42102358,0.24656597
-0.2,-0.2,1.4999999999999998,0.5235987755982988,0.0,0,1.2353022,0.9492527,0.32047042,0.029367521,0.23486903,-1.4791689,-0.9944564,-0.26053116,0.6720593,-1.4913929,0.2824187,-0.49459958,0.4209996,0.24342012
-0.2,-0.2,1.4999999999999998,0.5235987755982988,0.0,0,1.1571418,0.92060846,0.28641525,-0.005873154,0.16215412,-1.4035109,0.8058599,-0.26049817,0.6718669,-1.4921966,0.2821916,-0.50387335,0.41967428,0.23953834
-0.2,-0.2,1.4999999999999998,0.5235987755982988,0.0,0,1.2778671,0.9246013,0.40633446,-0.04114124,0.055242203,-1.5151787,-1.36361,-0.26099,0.6721885,-1.4920161,0.28209457,-0.48685676,0.41855335,0.24403879
-0.2,-0.2,1.4999999999999998,0.5235987755982988,0.0,0,1.092779,0.95845836,0.2892159,-0.09928672,0.12285463,-1.3313906,-0.59808135,-0.2609754,0.67207843,-1.4920275,0.28191206,-0.4975007,0.42151666,0.23814487
-0.2,-0.2,1.4999999999999998,0.5235987755982988,0.0,0,1.1394919,0.88794893,0.5380088,-0.023984753,-0.35947862,-1.489673,-0.62329435,-0.26086685,0.672318,-1.4921861,0.28223643,-0.5023651,0.42313293,0.24630561
-0.2,-0.2,1.4999999999999998,0.5235987755982988,0.0,0,1.2275296,0.94989866,0.23493889,-0.06520215,-0.122852705,-1.3520615,-0.6655315,-0.2613528,0.6728395,-1.4930412,0.28189278,-0.4905842,0.4211542,0.23576757
-0.2,-0.2,1.4999999999999998,0.5235987755982988,0.0,0,1.174799,0.9607722,0.37780333,-0.017271567,0.33015054,-1.3942556,-1.027693,-0.2609814,0.6730357,-1.4933379,0.28223068,-0.49894947,0.4220273,0.24304938
-0.2,-0.2,1.4999999999999998,0.5235987755982988,0.0,0,1.0712183,0.9344035,0.21332523,-0.043585304,-0.19929945,-1.4767553,-1.569399,-0.26004282,0.6716193,-1.4917878,0.28193077,-0.49279022,0.42148957,0.2435679
-0.2,-0.2,1.4999999999999998,0.5235987755982988,0.0,0,1.0017201,0.97143126,0.19098297,-0.04161506,-0.08542655,-1.3764424,-2.0701983,-0.26269096,0.6716748,-1.4930959,0.28254038,-0.49279046,0.4202329,0.24227929
-0.2,-0.2,1.4999999999999998,0.5235987755982988,0.0,0,1.1866657,0.9350113,0.28677833,-0.13322403,0.21419664,-1.5039446,-0.17024711,-0.26077154,0.6717916,-1.4934689,0.28168958,-0.5009812,0.41988868,0.24540006
-0.2,-0.2,1.4999999999999998,0.5235987755982988,0.0,0,1.185129,0.93040544,0.03693094,-0.12328371,-0.17551386,-1.3907205,-0.83360696,-0.26175383,0.67339313,-1.4935008,0.2818712,-0.4925422,0.4220381,0.23968226
-0.2,-0.2,1.4999999999999998,0.5235987755982988,0.0,0,1.1028945,1.0031723,0.31617045,-0.08357842,0.07422088,-1.4579196,0.21153805,-0.26012978,0.67102695,-1.4919586,0.2813712,-0.5045094,0.42114133,0.23917904
-0.2,-0.2,1.4999999999999998,0.5235987755982988,0.0,0,1.0999056,0.9249704,0.28709623,-0.08758328,0.33045492,-1.4026902,-0.92193687,-0.26058596,0.67162627,-1.4913641,0.28207594,-0.5052566,0.4194065,0.23864472
-0.2,-0.2,1.4999999999999998,0.5235987755982988,0.0,0,1.1053802,0.8972741,0.383531,-0.05062394,0.0030472793,-1.5066627,0.9834851,-0.26155105,0.6713944,-1.4912074,0.28193015,-0.49527317,0.42196688,0.24236152
-0.2,-0.2,1.4999999999999998,0.5235987755982988,0.0,0,1.1194613,0.9648262,0.50715685,0.008147623,-0.4518595,-1.4294198,-0.6260234,-0.26065984,0.67217815,-1.4924625,0.28202748,-0.4987693,0.42328858,0.2419993
-0.2,-0.2,1.4999999999999998,0.5235987755982988,0.0,0,1.0080825,0.9840149,0.15345985,-0.08975257,-0.29992437,-1.41821,0.017303051,-0.25983942,0.673954,-1.4921014,0.28201413,-0.4933129,0.42043892,0.24819681
-0.2,-0.2,1.4999999999999998,0.5235987755982988,0.0,0,1.0955068,0.9930709,0.38423288,-0.13569742,-0.03102528,-1.4905394,0.14453939,-0.26015663,0.67116314,-1.4924583,0.2821847,-0.49064258,0.420883,0.24884763
-0.2,-0.2,1.4999999999999998,0.5235987755982988,0.0,0,1.156073,0.9194383,0.15658385,0.002223309,-0.13411498,-1.4398494,-0.55343986,-0.26156154,0.671959,-1.4922832,0.28187189,-0.50385374,0.4205333,0.24569815
-0.2,-0.2,1.4999999999999998,0.5235987755982988,0.0,0,1.1866074,0.98450494,0.21545231,0.05632553,-0.05396515,-1.4405771,-1.4648943,-0.2608101,0.6719153,-1.491283,0.28189465,-0.4976526,0.4222279,0.23828226
-0.2,-0.2,1.4999999999999998,0.5235987755982988,0.0,0,1.2352495,0.9331703,0.07775381,-0.068258695,0.23780781,-1.4417787,0.15762593,-0.2613435,0.67146605,-1.4933643,0.2815096,-0.499128,0.42144638,0.24417321
-0.2,-0.2,1.4999999999999998,0.5235987755982988,0.0,0,1.086801,1.008794,0.2974239,-0.016355736,0.41765076,-1.4812179,0.38699973,-0.26081946,0.6712185,-1.492547,0.28187746,-0.49853185,0.42242905,0.24127437
-0.2,-0.2,1.4999999999999998,0.5235987755982988,0.0,0,1.2138537,1.0223882,0.16149713,-0.0598798,0.575876,-1.3698719,-1.185454,-0.26106235,0.670826,-1.490467,0.2822965,-0.50052303,0.42217556,0.24576637
-0.2,-0.2,1.4999999999999998,0.5235987755982988,0.0,0,1.1535517,0.9751634,0.37578216,-0.080466576,-0.13704716,-1.4823579,-2.28832,-0.2614249,0.67264605,-1.4927588,0.2817467,-0.49713132,0.42228347,0.2413406
-0.2,-0.2,1.4999999999999998,0.5235987755982988,0.0,0,1.2402861,0.9439442,0.4522591,-0.12194382,0.2923694,-1.3646032,-0.6281637,-0.26122293,0.6717042,-1.4921547,0.28166562,-0.50868213,0.42208567,0.24299546
-0.2,-0.2,1.4999999999999998,0.5235987755982988,0.0,0,1.1950734,1.0269617,0.2382913,-0.034206342,0.021073623,-1.4987173,-0.4245608,-0.2596723,0.67209226,-1.4914572,0.2818303,-0.50074905,0.42131138,0.24124692
-0.2,-0.2,1.4999999999999998,0.5235987755982988,0.0,0,1.1779497,0.98293465,0.29028136,-0.032020483,-0.16791858,-1.3688126,-0.60070837,-0.26102522,0.671532,-1.490952,0.2811932,-0.5053929,0.4221249,0.2367346
-0.2,-0.2,1.4999999999999998,0.5235987755982988,0.0,0,1.1350906,0.96079385,-0.057325285,-0.10905536,-0.054397676,-1.5033139,-0.7230394,-0.2603381,0.6716066,-1.4914474,0.28224483,-0.5033775,0.42048797,0.24214707
-0.2,-0.2,1.4999999999999998,0.5235987755982988,0.0,0,1.000367,0.934404,0.28838328,-0.124314494,-0.0065335343,-1.4413995,-0.8221582,-0.2604758,0.67201203,-1.492516,0.28194565,-0.49927187,0.42189735,0.23837343
-0.2,-0.2,1.4999999999999998,0.5235987755982988,0.0,0,1.1501209,0.95566773,0.33669242,0.021134887,-0.6002223,-1.3766298,-0.2526224,-0.26213652,0.67250144,-1.4914988,0.2812821,-0.49878874,0.42256257,0.23747575
-0.2,-0.2,1.4999999999999998,0.5235987755982988,0.0,0,1.1705861,0.93800783,0.1483623,-0.042036463,0.029716114,-1.4381565,-0.62680244,-0.26142424,0.67219186,-1.4919289,0.28190684,-0.5005246,0.42234173,0.24267046
-0.2,-0.2,1.4999999999999998,0.5235987755982988,0.0,0,1.2651451,0.9870014,0.02662522,-0.16981296,-0.21838416,-1.5026777,-0.6596525,-0.25979203,0.6719205,-1.4907683,0.28176078,-0.50304085,0.4215925,0.2422402
-0.2,-0.2,1.4999999999999998,0.5235987755982988,0.0,0,1.1608979,0.9537654,0.058821674,-0.13182588,0.22961284,-1.4612606,0.27087727,-0.26151457,0.67325824,-1.4921705,0.28168008,-0.5034682,0.41895276,0.24217589
-0.2,-0.2,1.4999999999999998,0.5235987755982988,0.0,0,1.1406306,0.9775694,0.37340078,-0.10141113,-0.06155551,-1.4988701,0.8296928,-0.26078767,0.6722282,-1.4916337,0.2816152,-0.49138653,0.41872826,0.24336481
-0.2,-0.2,1.4999999999999998,0.5235987755982988,0.0,0,1.2132834,0.9056483,0.220629,0.00637506,-0.08855326,-1.4289443,-1.5326991,-0.2613253,0.67173994,-1.4926869,0.2816404,-0.5036225,0.42063653,0.24388961
-0.2,-0.2,1.4999999999999998,0.5235987755982988,0.0,0,1.1223804,0.9242367,-0.017695284,0.006753526,0.3855234,-1.3927794,-1.7596381,-0.26107445,0.67201924,-1.4925776,0.28207722,-0.49928173,0.42243606,0.24037264
-0.2,-0.2,1.4999999999999998,0.5235987755982988,0.0,0,1.2146657,0.9439146,0.14479746,-0.0010936116,-0.100463435,-1.4432611,-0.98384935,-0.26111913,0.6724123,-1.4917876,0.28202978,-0.4968666,0.42228258,0.24174897
-0.2,-0.2,1.4999999999999998,0.5235987755982988,0.0,0,1.1659452,0.973262,0.2703342,-0.13211106,0.023745643,-1.4893576,-0.59107554,-0.26070008,0.6722496,-1.4920974,0.2815155,-0.5066469,0.42187822,0.24256572
-0.2,-0.2,1.4999999999999998,0.5235987755982988,0.0,0,1.027946,1.0429544,0.17886037,-0.05821649,-0.037368648,-1.3909355,-2.901837,-0.26024547,0.6714728,-1.4918301,0.28259316,-0.49935213,0.4202116,0.23941574
-0.2,-0.2,1.4999999999999998,0.5235987755982988,0.0,0,1.1010758,0.89572537,0.12973091,-0.07065027,0.19385336,-1.506843,0.30698082,-0.2612976,0.671849,-1.4924569,0.2818726,-0.4990194,0.42275894,0.24245463
-0.2,-0.2,1.4999999999999998,0.5235987755982988,0.0,0,1.0446762,0.96236974,0.2461862,0.0211735,0.12028543,-1.4858648,-0.58118427,-0.26204664,0.67306,-1.4919122,0.28222603,-0.49419993,0.4213097,0.24111612
-0.2,-0.2,1.4999999999999998,0.5235987755982988,0.0,0,1.2266934,0.99325204,0.31007037,-0.03857227,0.14751935,-1.4662658,-1.5077684,-0.26169318,0.6724737,-1.4916403,0.2817695,-0.49755058,0.42116827,0.23753117
-0.2,-0.2,1.4999999999999998,0.5235987755982988,0.0,0,1.0575315,1.0008806,0.46173605,-0.021489292,-0.13601156,-1.4128939,-1.1701393,-0.26183432,0.6719035,-1.4921505,0.28207222,-0.50101787,0.42136973,0.23800269
-0.2,-0.2,1.4999999999999998,0.5235987755982988,0.0,0,1.1640204,0.9313471,0.24502131,-0.025991756,0.64453334,-1.4596258,0.4824731,-0.2605404,0.6728449,-1.4917781,0.2818725,-0.501164,0.42119005,0.23710902
-0.2,-0.2,1.4999999999999998,0.5235987755982988,0.0,0,1.0470772,0.9898417,0.23095427,-0.13552111,-0.4391605,-1.5038468,-0.33124068,-0.26182473,0.6718675,-1.4925382,0.28212482,-0.49983028,0.42089355,0.23995432
-0.2,-0.2,1.4999999999999998,0.5235987755982988,0.0,0,0.9934066,0.96125066,0.17114595,-0.06766418,0.14057833,-1.4275025,-0.82298005,-0.2606381,0.67185974,-1.4917734,0.2823926,-0.5026455,0.4215655,0.23992866
-0.2,-0.2,1.4999999999999998,0.5235987755982988,0.0,0,1.1885949,1.0206304,0.22914378,-0.14106305,-0.14572169,-1.4901811,-1.4356389,-0.2608927,0.6726908,-1.4914476,0.28186634,-0.5001162,0.42169985,0.23975891
-0.2,-0.2,1.4999999999999998,0.5235987755982988,0.0,0,1.0852199,0.99417204,0.47329184,-0.087675735,0.44628322,-1.454416,-0.062219005,-0.2620868,0.67181176,-1.4933264,0.28216565,-0.50263417,0.42239034,0.23968619
-0.2,-0.2,1.4999999999999998,0.5235987755982988,0.0,0,1.1737628,0.9665189,0.44747192,-0.0641927,-0.20738389,-1.3729911,0.27971736,-0.26094967,0.67227805,-1.492884,0.28254926,-0.4914335,0.42251506,0.24466851
-0.2,-0.2,1.4999999999999998,0.5235987755982988,0.0,0,1.0306288,1.0116405,0.039949387,-0.044258006,-0.19081324,-1.3382094,-0.9462228,-0.25979486,0.6718238,-1.4917927,0.28180623,-0.49733526,0.42234942,0.24911542
-0.2,-0.2,1.4999999999999998,0.5235987755982988,0.0,0,1.1660439,0.94570184,0.32245702,-0.10703984,0.027691878,-1.3970697,-1.813364,-0.2608376,0.6729899,-1.4924127,0.28146702,-0.49671552,0.42104197,0.24212037
-0.2,-0.2,1.4999999999999998,0.5235987755982988,0.0,0,1.2259154,0.91529584,0.13600112,-0.108375214,-0.21678811,-1.4336848,1.291367,-0.2604207,0.67257965,-1.4940515,0.2823574,-0.5037179,0.4188945,0.24480899
-0.2,-0.2,1.4999999999999998,0.5235987755982988,0.0,0,1.1059599,0.9837616,0.33851045,-0.13670889,-0.12772618,-1.4718832,0.067491665,-0.26105323,0.6714002,-1.49239,0.28189754,-0.50093406,0.4234163,0.24389662
-0.2,-0.2,1.4999999999999998,0.5235987755982988,0.0,0,1.1577455,0.9329289,-0.037519727,-0.034989253,0.52539927,-1.3438088,-0.0040283743,-0.2596325,0.672176,-1.4930921,0.28160894,-0.49510422,0.4207461,0.24348767
-0.2,-0.2,1.4999999999999998,0.5235987755982988,0.0,0,1.1397051,0.93873084,0.21677692,-0.056732923,-0.21189326,-1.5186368,-0.99371225,-0.2602813,0.6720493,-1.4918684,0.2814134,-0.5083595,0.4218844,0.24493231
-0.2,-0.2,1.4999999999999998,0.5235987755982988,0.0,0,1.1544783,0.938308,0.3267035,0.017045453,-0.16794606,-1.3237503,-0.44334587,-0.2630644,0.6709501,-1.4924122,0.28178823,-0.50712174,0.42014945,0.24338327
-0.2,-0.2,1.4999999999999998,0.5235987755982988,0.0,0,1.1010542,0.9743009,-0.00468242,-0.0990732,0.22863846,-1.3677557,0.454124,-0.26065794,0.6726692,-1.492961,0.28191265,-0.4985169,0.42082128,0.24126182
-0.2,-0.2,1.4999999999999998,0.5235987755982988,0.0,0,1.1854073,0.9514978,0.29111996,-0.08166396,-0.32720104,-1.4683899,-0.5152969,-0.25972816,0.6723818,-1.4931074,0.2819989,-0.4998948,0.42215836,0.24068877
-0.2,-0.2,1.4999999999999998,0.5235987755982988,0.0,0,1.1803523,0.94578826,0.2310528,-0.07323966,-0.16166301,-1.3010092,-1.2381871,-0.26011318,0.6718915,-1.4927493,0.28177428,-0.4958426,0.42132407,0.24067809
-0.2,-0.2,1.4999999999999998,0.5235987755982988,0.0,0,1.1158112,0.91536385,0.49249423,-0.054569338,-0.12468118,-1.4099822,0.4076617,-0.26029664,0.6719473,-1.4930071,0.28227976,-0.50185406,0.42206284,0.24552312
-0.2,-0.2,1.4999999999999998,0.5235987755982988,0.0,0,1.2411273,0.97553027,-0.048634302,-0.08632075,-0.027578041,-1.345552,-0.03211558,-0.26067558,0.67239314,-1.4928468,0.28141102,-0.5029934,0.41920272,0.24620457
-0.2,-0.2,1.4999999999999998,0.5235987755982988,0.0,0,1.0940953,0.94571227,0.0849346,-0.08116172,-0.29117194,-1.3307457,0.10289989,-0.25985247,0.67247355,-1.4912286,0.28170165,-0.49579942,0.42052364,0.25033852
-0.2,-0.2,1.4999999999999998,0.5235987755982988,0.0,0,1.1829361,0.9702424,0.20835158,-0.007523379,0.04334602,-1.3636926,-1.9398105,-0.26066974,0.6719286,-1.4926809,0.2818773,-0.5094242,0.4198298,0.24031779
-0.2,-0.2,1.4999999999999998,0.5235987755982988,0.0,0,1.0859199,0.90617293,0.38194415,-0.023321595,0.05028189,-1.3497367,-0.042454254,-0.26214328,0.67329556,-1.4910123,0.2818052,-0.49897486,0.42348984,0.2465252
-0.2,-0.2,1.4999999999999998,0.5235987755982988,0.0,0,1.132382,0.96790636,0.3582511,-0.08403738,0.18144488,-1.4179881,-1.3611524,-0.26056296,0.6721252,-1.4924603,0.28182307,-0.49560294,0.42286444,0.24272908
-0.2,-0.2,1.4999999999999998,0.5235987755982988,0.0,0,1.177615,0.979399,0.6893435,-0.11932015,-0.44189307,-1.4434036,-0.9670685,-0.2598433,0.6723415,-1.494401,0.2817273,-0.50066745,0.4215757,0.24289149
-0.2,-0.2,1.4999999999999998,0.5235987755982988,0.0,0,1.2258617,0.9943034,0.30101937,-0.106646866,0.4048451,-1.4445654,0.8666816,-0.26152173,0.6724269,-1.4925078,0.2815635,-0.49962577,0.4224111,0.24460526
-0.2,-0.2,1.4999999999999998,0.5235987755982988,0.0,0,1.1834816,0.8992709,0.2710839,-0.045779377,0.27413937,-1.2730772,-0.96342325,-0.26009756,0.67129284,-1.4919469,0.28219455,-0.4980472,0.42076328,0.24618925
-0.2,-0.2,1.4999999999999998,0.5235987755982988,0.0,0,1.1271763,0.9476212,0.5287614,-0.16321467,0.03805727,-1.4183937,-0.7542382,-0.26102886,0.6720604,-1.4931986,0.28194472,-0.50528145,0.42143086,0.24416673
-0.2,-0.2,1.4999999999999998,0.5235987755982988,0.0,0,1.1236528,0.987435,0.3074783,-0.19616313,-0.42724672,-1.4615693,-0.55864704,-0.26193145,0.6731026,-1.4916979,0.28214025,-0.50667065,0.42112607,0.2439343
-0.2,-0.2,1.4999999999999998,0.5235987755982988,0.0,0,1.2044728,0.8771637,0.12190907,-0.11010671,0.11863248,-1.396927,0.60801274,-0.25946206,0.6730426,-1.4932244,0.2822734,-0.4990306,0.4220115,0.24390064
-0.2,-0.2,1.4999999999999998,0.5235987755982988,0.0,0,1.1798232,0.9283829,0.316414,-0.12884538,0.14419524,-1.443298,-1.2525015,-0.26089478,0.67138124,-1.4927859,0.28236738,-0.4878197,0.42201683,0.24229522
-0.2,-0.2,1.4999999999999998,0.5235987755982988,0.0,0,1.1230545,0.8988042,0.07030947,-0.09305676,0.1819522,-1.4865129,-0.5389889,-0.25994757,0.67128867,-1.4923108,0.2816403,-0.49261883,0.42050236,0.24581552
