sanky1234/BimanualDexCatch/isaacgymenvs/cem_results/football_pose_0.0_0.1_1.1999999999999997_0.0_0.0_0_2025-05-26.csv
x,y,z,roll,pitch,yaw,robot1/joint1,robot1/joint2,robot1/joint3,robot1/joint4,robot1/joint5,robot1/joint6,robot1/joint7,robot2/joint1,robot2/joint2,robot2/joint3,robot2/joint4,robot2/joint5,robot2/joint6,robot2/joint7
0.0,0.1,1.1999999999999997,0.0,0.0,0,0.0068013784,-0.43678463,1.0169622,-0.06623609,0.22767505,1.1798555,-1.7877784,-0.8324331,-1.6678569,0.6137251,-0.052434593,0.052655723,1.1757094,-0.56351876
0.0,0.1,1.1999999999999997,0.0,0.0,0,0.006030613,-0.43695754,1.0142431,-0.061498914,0.23604113,1.2095882,-0.6258028,-0.8534751,-1.6717465,0.35586306,-0.018305184,-0.05726574,1.1909554,-0.26482412
0.0,0.1,1.1999999999999997,0.0,0.0,0,0.0072475523,-0.43665457,1.0164967,-0.04393422,0.18775563,1.1620373,-1.5987281,-0.8504081,-1.6699493,0.28425884,-0.060322806,-0.13836382,1.2194049,-1.038802
0.0,0.1,1.1999999999999997,0.0,0.0,0,0.0069724545,-0.43637982,1.0178299,-0.07735234,0.17933168,1.1838839,0.46841845,-0.8285646,-1.7149234,0.32355356,-0.022352226,-0.14387698,1.1272664,-1.4350407
0.0,0.1,1.1999999999999997,0.0,0.0,0,0.0071700546,-0.4366776,1.0205929,-0.03276622,0.19727638,1.1651001,0.17564611,-0.8868928,-1.6376579,0.3874528,-0.07979374,0.049923748,1.1334511,-2.4067469
0.0,0.1,1.1999999999999997,0.0,0.0,0,0.006433468,-0.43668988,1.015956,-0.069664344,0.22578888,1.2235271,-0.20748892,-0.8611402,-1.6821254,0.24446557,-0.035722233,0.018615017,1.1222746,-0.6758333
0.0,0.1,1.1999999999999997,0.0,0.0,0,0.0064355745,-0.43582287,1.017647,-0.07771111,0.20676337,1.1335205,-0.78237444,-0.8413199,-1.6786165,0.35968387,-0.06532316,-0.0028697439,1.1327243,-1.6906025
0.0,0.1,1.1999999999999997,0.0,0.0,0,0.0068845814,-0.4370523,1.0160396,-0.07700439,0.2133221,1.2362398,-0.6635773,-0.9255612,-1.6666751,0.21669155,-0.03646118,-0.1329993,1.246922,-1.4259447
0.0,0.1,1.1999999999999997,0.0,0.0,0,0.0069400445,-0.43676153,1.0190626,-0.081281886,0.18593201,1.2316937,-0.65932626,-0.9444962,-1.669647,0.36507776,-0.06338154,-0.05659782,1.1231362,0.051581584
0.0,0.1,1.1999999999999997,0.0,0.0,0,0.007081853,-0.4368241,1.0163674,-0.065692276,0.23008735,1.1711873,0.3742471,-0.80601144,-1.6660641,0.55944765,-0.07301263,-0.029216612,1.118957,-0.9453351
0.0,0.1,1.1999999999999997,0.0,0.0,0,0.006237174,-0.43656972,1.0153309,-0.07501335,0.22762026,1.2085663,1.8400073,-0.82813936,-1.6801225,0.57557976,-0.012621953,-0.042655088,1.1696886,-0.4305279
0.0,0.1,1.1999999999999997,0.0,0.0,0,0.0070412057,-0.4365012,1.0243107,-0.06843105,0.19214948,1.2652669,-0.2623568,-0.85638696,-1.6213632,0.3570102,-0.0208657,0.02652184,1.1451962,-0.027831381
0.0,0.1,1.1999999999999997,0.0,0.0,0,0.006874291,-0.43688008,1.0194416,-0.05893893,0.23538853,1.2093196,0.195128,-0.88575715,-1.6749239,0.513562,-0.05923409,-0.075357765,1.0912061,-1.4714415
0.0,0.1,1.1999999999999997,0.0,0.0,0,0.006537411,-0.43731907,1.0198148,-0.07975793,0.20853302,1.1568944,-0.2676965,-0.82157487,-1.6553037,0.34952974,-0.04249207,0.07529435,1.2172058,-0.70176774
0.0,0.1,1.1999999999999997,0.0,0.0,0,0.007125005,-0.43555284,1.0146028,-0.07886738,0.22686131,1.1990016,0.1852675,-0.90736806,-1.6729546,0.5281123,-0.035936177,-0.008981824,1.1437596,-0.90665615
0.0,0.1,1.1999999999999997,0.0,0.0,0,0.0068426626,-0.43727905,1.0263257,-0.08160364,0.18518232,1.1699876,-1.1196958,-0.8444913,-1.6701214,0.51588017,-0.023053093,-0.043413375,1.1562585,-0.85926455
0.0,0.1,1.1999999999999997,0.0,0.0,0,0.0061496315,-0.43676272,1.0165231,-0.07270326,0.22733046,1.2170947,-0.057222042,-0.86768264,-1.661335,0.3257209,-0.028668221,-0.035767004,1.1960676,-0.9415627
0.0,0.1,1.1999999999999997,0.0,0.0,0,0.0067194286,-0.43772063,1.0200007,-0.11009679,0.23255423,1.2207958,0.27654153,-0.8864166,-1.6385342,0.48237327,-0.012321434,-0.09134398,1.2025803,-1.0149769
0.0,0.1,1.1999999999999997,0.0,0.0,0,0.0065283473,-0.4364488,1.0188915,-0.074151285,0.22298604,1.1538193,-1.2460462,-0.84888667,-1.6644379,0.45711878,-0.028918374,0.09144747,1.1189003,-1.9912989
0.0,0.1,1.1999999999999997,0.0,0.0,0,0.006564593,-0.43612915,1.0187367,-0.11237876,0.22168109,1.1578406,0.36605304,-0.86772346,-1.664439,0.41994348,-0.07842166,0.11329604,1.2271763,-1.0912615
0.0,0.1,1.1999999999999997,0.0,0.0,0,0.006396672,-0.4366435,1.0184392,-0.08330117,0.21911676,1.1912847,-1.1088004,-0.85997957,-1.6617701,0.73948306,-0.036176883,-0.090708286,1.1530206,0.03034372
0.0,0.1,1.1999999999999997,0.0,0.0,0,0.0062295077,-0.4370945,1.0212284,-0.09704177,0.24304582,1.1234092,0.8544041,-0.9305451,-1.6839973,0.43463156,-0.03499213,-0.09905302,1.1647574,-0.037943322
0.0,0.1,1.1999999999999997,0.0,0.0,0,0.006692973,-0.4371367,1.0225226,-0.060042866,0.24518315,1.1154721,1.0615375,-0.9458486,-1.6838678,0.7063586,-0.059397332,-0.090264,1.162047,-1.0935291
0.0,0.1,1.1999999999999997,0.0,0.0,0,0.0063874987,-0.43626323,1.0227684,-0.08323643,0.20266859,1.1512432,-0.04176864,-0.9044378,-1.687576,0.6311907,-0.07011893,0.0035704405,1.1775486,-0.6257589
0.0,0.1,1.1999999999999997,0.0,0.0,0,0.0063418075,-0.4361036,1.0256566,-0.0881629,0.19439174,1.1628473,-0.639009,-0.92238057,-1.6601872,0.26641962,-0.07819364,-0.17631508,1.2085193,0.048372958
0.0,0.1,1.1999999999999997,0.0,0.0,0,0.00664066,-0.43629646,1.0223714,-0.053279947,0.18121627,1.2519335,-1.1686413,-0.92869765,-1.6827766,0.45624614,-0.06604577,-0.1424278,1.1183424,-1.0784608
0.0,0.1,1.1999999999999997,0.0,0.0,0,0.0069223978,-0.4372831,1.0167805,-0.077377185,0.23743524,1.1325134,0.35732344,-0.89113957,-1.6840777,0.21101065,-0.030582268,0.10235052,1.2211463,-1.200658
0.0,0.1,1.1999999999999997,0.0,0.0,0,0.00620631,-0.43693167,1.0189546,-0.049337633,0.16931863,1.209674,0.8684273,-0.8988581,-1.6566948,0.4095337,-0.016236095,-0.058044676,1.1569918,-0.6528917
0.0,0.1,1.1999999999999997,0.0,0.0,0,0.006117413,-0.4368541,1.0179499,-0.03546976,0.20245251,1.2846924,-1.3106385,-0.85381293,-1.6582946,0.31490496,-0.06778832,-0.020681385,1.1506653,-0.64612466
0.0,0.1,1.1999999999999997,0.0,0.0,0,0.0065156696,-0.4368332,1.015246,-0.027608223,0.18910705,1.2153076,-0.41023016,-0.8560428,-1.7158003,0.5021875,-0.044886313,0.018240856,1.1252737,-1.5932484
0.0,0.1,1.1999999999999997,0.0,0.0,0,0.006619213,-0.4361652,1.0216578,-0.072538935,0.19171141,1.2243497,-0.6629813,-0.9050383,-1.6669054,0.47462112,-0.034055963,0.0871828,1.1158596,-1.7226121
0.0,0.1,1.1999999999999997,0.0,0.0,0,0.0070600323,-0.4367559,1.0174268,-0.028687641,0.21988429,1.2355466,-0.35159737,-0.85566163,-1.7016469,0.28810307,-0.07092542,-0.047562633,1.1137371,-1.8572587
0.0,0.1,1.1999999999999997,0.0,0.0,0,0.0070468765,-0.43537074,1.0200783,-0.017559418,0.21900927,1.1990501,-0.8655987,-0.8979886,-1.6456915,0.4990538,-0.05496435,-0.104699425,1.1064894,-1.832541
0.0,0.1,1.1999999999999997,0.0,0.0,0,0.006248299,-0.43655404,1.0184277,-0.08680779,0.22840123,1.2305709,-0.931344,-0.89851063,-1.6525706,0.28669524,-0.06997679,-0.009373726,1.2031745,-1.859709
0.0,0.1,1.1999999999999997,0.0,0.0,0,0.0066233175,-0.43600762,1.0228533,-0.10239915,0.18307218,1.1398786,0.85975575,-0.89590305,-1.6603574,0.43557793,-0.030563416,-0.078613825,1.1568642,-1.2902756
0.0,0.1,1.1999999999999997,0.0,0.0,0,0.0070676496,-0.43712595,1.0224152,-0.045656886,0.18328165,1.1594882,0.22396465,-0.9032563,-1.7055956,0.4682704,-0.06277139,0.025647117,1.1164479,0.26511243
0.0,0.1,1.1999999999999997,0.0,0.0,0,0.0067709154,-0.4375166,1.0178978,-0.094232365,0.2095738,1.2222424,-1.2938877,-0.8755693,-1.6940248,0.30987415,-0.025150923,-0.1174013,1.204372,-1.3323896
0.0,0.1,1.1999999999999997,0.0,0.0,0,0.0071664527,-0.43656385,1.0173882,-0.11535893,0.20395847,1.2134955,-0.5979879,-0.9149488,-1.6648024,0.4355188,-0.05347475,-0.09041967,1.0728673,-1.6930655
0.0,0.1,1.1999999999999997,0.0,0.0,0,0.007620127,-0.4364999,1.0126218,-0.08482725,0.19967714,1.2239825,0.58850324,-0.8982597,-1.6578656,0.3267621,-0.046142906,-0.0899417,1.2149625,-0.036992494
0.0,0.1,1.1999999999999997,0.0,0.0,0,0.007230919,-0.4367841,1.0185312,-0.07125857,0.1886822,1.1841968,0.3658276,-0.8538478,-1.6866369,0.61877453,-0.062648915,0.07687164,1.1144928,-0.7594646
0.0,0.1,1.1999999999999997,0.0,0.0,0,0.0068182126,-0.43671614,1.0217265,-0.09721589,0.18528335,1.2321312,-0.4337948,-0.91850686,-1.6597137,0.5088806,-0.050222002,-0.017780745,1.1882938,-0.8948164
0.0,0.1,1.1999999999999997,0.0,0.0,0,0.0064244443,-0.43658176,1.0164949,-0.09136239,0.22759958,1.2507292,0.15693006,-0.89435244,-1.6719054,0.32432535,-0.050113063,0.00576829,1.148155,-0.14377849
0.0,0.1,1.1999999999999997,0.0,0.0,0,0.0065554855,-0.43620384,1.024165,-0.11564229,0.21262646,1.1223285,-0.13389324,-0.8361979,-1.6550897,0.47201496,-0.037890077,0.09909371,1.1856728,-1.8133086
0.0,0.1,1.1999999999999997,0.0,0.0,0,0.006764832,-0.43673313,1.0216851,-0.111908615,0.21739036,1.1690816,-0.6450497,-0.8410378,-1.6877624,0.65761733,-0.06248557,-0.13944097,1.1054722,-0.63080996
0.0,0.1,1.1999999999999997,0.0,0.0,0,0.006849726,-0.43622318,1.0206453,-0.08841848,0.22365841,1.101877,-0.38662732,-0.8976797,-1.6413627,0.54954445,-0.020199062,-0.07378144,1.1358448,-1.2810311
0.0,0.1,1.1999999999999997,0.0,0.0,0,0.0068268655,-0.43687296,1.0223758,-0.068624154,0.20737611,1.1825219,1.1595833,-0.8330648,-1.6460704,0.25191888,0.0062580197,-0.05601002,1.1418532,-1.0079057
0.0,0.1,1.1999999999999997,0.0,0.0,0,0.006651293,-0.4368639,1.0185947,-0.08615169,0.22064616,1.204235,1.1260433,-0.90314364,-1.705762,0.3210982,-0.06910186,-0.026503801,1.1813065,-1.073038
0.0,0.1,1.1999999999999997,0.0,0.0,0,0.0069248797,-0.436146,1.0215175,-0.07203047,0.20148462,1.2163705,-0.06483297,-0.8578241,-1.6475742,0.41407606,-0.036615815,-0.0016225264,1.1914374,-0.39438063
0.0,0.1,1.1999999999999997,0.0,0.0,0,0.007447837,-0.43693447,1.0130614,-0.08879379,0.22414093,1.2449347,-1.3864146,-0.85594016,-1.6416829,0.390133,-0.049970385,0.041965626,1.1497622,-0.46602187
0.0,0.1,1.1999999999999997,0.0,0.0,0,0.0070752883,-0.43604368,1.0231869,-0.08857945,0.19429633,1.1368663,-0.599199,-0.8662589,-1.6580848,0.32094762,-0.024754623,-0.009627449,1.1478138,0.17155495
0.0,0.1,1.1999999999999997,0.0,0.0,0,0.006802822,-0.43612927,1.0182848,-0.07453849,0.20531851,1.1952635,0.21002807,-0.82603455,-1.6862353,0.40923473,-0.058476795,-0.028580982,1.1444509,-1.3675791
0.0,0.1,1.1999999999999997,0.0,0.0,0,0.0069549214,-0.43708667,1.0210832,-0.102972016,0.19547486,1.1311435,1.1204807,-0.8746353,-1.6752896,0.32261497,-0.0504102,0.04168097,1.1520661,-0.82847625
0.0,0.1,1.1999999999999997,0.0,0.0,0,0.007351121,-0.43652856,1.0197294,-0.082460284,0.18360786,1.1308393,-0.30611333,-0.9282707,-1.6527798,0.38916805,-0.079648934,-0.010417924,1.2468041,-1.2293034
0.0,0.1,1.1999999999999997,0.0,0.0,0,0.0066529703,-0.43613207,1.024455,-0.11652025,0.19042887,1.1953424,-0.0565594,-0.84309053,-1.6790103,0.5560992,-0.033982813,-0.006582431,1.1757305,-1.3910474
0.0,0.1,1.1999999999999997,0.0,0.0,0,0.006624699,-0.43721586,1.0192411,-0.1267132,0.1930186,1.2117343,0.4441537,-0.9047933,-1.7179965,0.37876886,-0.062308695,-0.0146863945,1.1440114,-0.6347684
0.0,0.1,1.1999999999999997,0.0,0.0,0,0.0068602217,-0.43692794,1.0214821,-0.031774502,0.2111393,1.1911259,-1.1847014,-0.82747793,-1.6943727,0.44238654,-0.016472582,-0.03697132,1.1696465,-0.2738168
0.0,0.1,1.1999999999999997,0.0,0.0,0,0.006893926,-0.43623435,1.022455,-0.055209327,0.20987345,1.1419626,-1.6781946,-0.88369143,-1.6779474,0.27835968,-0.058357716,-0.08667567,1.1849902,-1.169792
0.0,0.1,1.1999999999999997,0.0,0.0,0,0.007283234,-0.43692917,1.0173987,-0.090577275,0.20087852,1.1253046,0.8254875,-0.896049,-1.6819005,0.43439773,-0.08754153,-0.0562643,1.1528624,-0.66236424
0.0,0.1,1.1999999999999997,0.0,0.0,0,0.0065819477,-0.43658245,1.0115882,-0.06290371,0.21272904,1.2036145,-1.0920566,-0.81184995,-1.6455238,0.5820891,-0.015685683,0.05026985,1.1754014,-1.5691228
0.0,0.1,1.1999999999999997,0.0,0.0,0,0.0064543798,-0.43586203,1.0175065,-0.08959331,0.21200135,1.2153863,-0.6141074,-0.8567856,-1.7021552,0.23982054,-0.051474333,-0.022535002,1.215479,-1.2644277
0.0,0.1,1.1999999999999997,0.0,0.0,0,0.0064262943,-0.43749693,1.0237095,-0.09359918,0.22992525,1.1946981,-0.12560561,-0.8364122,-1.6648532,0.31553513,-0.05836608,-0.09699385,1.1281283,-1.7742164
0.0,0.1,1.1999999999999997,0.0,0.0,0,0.006745665,-0.43654546,1.0193539,-0.07662796,0.21116397,1.1990125,-0.68049717,-0.8751706,-1.7124372,0.41309032,-0.070105836,-0.03367157,1.1718786,-1.1851972
0.0,0.1,1.1999999999999997,0.0,0.0,0,0.0071018944,-0.4367703,1.0209634,-0.09956938,0.18486658,1.1732578,0.24513294,-0.8753531,-1.662933,0.33570722,-0.09417269,-0.06680721,1.1209892,0.34214756
0.0,0.1,1.1999999999999997,0.0,0.0,0,0.0069662267,-0.436444,1.0232848,-0.065615274,0.20733285,1.1617491,0.35896474,-0.88750935,-1.6577827,0.15787055,-0.05055049,0.05716904,1.1853576,-0.36205995
0.0,0.1,1.1999999999999997,0.0,0.0,0,0.0069272425,-0.43722805,1.0176293,-0.1090065,0.2165176,1.1746869,-0.6011688,-0.9295471,-1.6466322,0.18636398,-0.040030695,0.029467862,1.1639262,-0.020875577
0.0,0.1,1.1999999999999997,0.0,0.0,0,0.0068124332,-0.43677056,1.0221195,-0.07602491,0.16184196,1.2307376,-0.26467285,-0.90285134,-1.6757716,0.4935742,-0.04947045,-0.01787468,1.1191955,0.09036879
0.0,0.1,1.1999999999999997,0.0,0.0,0,0.006880419,-0.43683326,1.0134395,-0.10309709,0.22940996,1.1397771,0.41286674,-0.82932466,-1.6592649,0.15183349,-0.023010448,0.05782805,1.1470063,-0.70827717
0.0,0.1,1.1999999999999997,0.0,0.0,0,0.0069156694,-0.43685576,1.0167634,-0.07738236,0.22801812,1.2116446,0.94976604,-0.8330574,-1.6775539,0.30530113,-0.018148562,-0.0281023,1.1551942,-0.5936262
0.0,0.1,1.1999999999999997,0.0,0.0,0,0.0073026475,-0.4371683,1.0189158,-0.05731837,0.20435284,1.1451957,-0.53942305,-0.90582126,-1.6832998,0.28341967,-0.044811316,-0.12474131,1.1661793,-0.63220984
0.0,0.1,1.1999999999999997,0.0,0.0,0,0.006718089,-0.4358014,1.0219948,-0.06500805,0.21608284,1.2610658,0.7876641,-0.7931842,-1.68577,0.6860384,-0.028047144,0.16308446,1.1354405,-0.5434996
0.0,0.1,1.1999999999999997,0.0,0.0,0,0.006579511,-0.4366832,1.022782,-0.082404576,0.2263729,1.2975602,-1.0645722,-0.81783134,-1.6605018,0.3991809,-0.07263502,-0.12341557,1.1331717,-0.6449539
0.0,0.1,1.1999999999999997,0.0,0.0,0,0.0070984024,-0.43677208,1.0195972,-0.039826944,0.21400782,1.141271,-0.41817454,-0.9185336,-1.6741612,0.22010785,-0.026707865,-0.1296249,1.1522772,-0.24752559
0.0,0.1,1.1999999999999997,0.0,0.0,0,0.0072957985,-0.4367763,1.0214387,-0.08197418,0.17650548,1.1817244,0.13389397,-0.8837839,-1.6850367,0.5393777,-0.047300644,-0.008274299,1.1598475,-0.53913647
0.0,0.1,1.1999999999999997,0.0,0.0,0,0.0068244752,-0.43650678,1.0195923,-0.080388576,0.22374117,1.2231876,-0.68186146,-0.80330586,-1.6572855,0.250892,-0.076980054,0.03628671,1.1164948,-1.384667
0.0,0.1,1.1999999999999997,0.0,0.0,0,0.0060967505,-0.4361382,1.0169481,-0.069835275,0.21852635,1.2640058,-0.80135,-0.8852532,-1.6665379,0.697107,-0.047583304,-0.0153545905,1.2263125,-1.1583908
0.0,0.1,1.1999999999999997,0.0,0.0,0,0.007411832,-0.43704215,1.0187476,-0.049262714,0.17539027,1.1895888,-0.30029365,-0.849949,-1.6915928,0.3169048,-0.059505362,0.04255194,1.1923474,-2.7521572
0.0,0.1,1.1999999999999997,0.0,0.0,0,0.0070645707,-0.43597648,1.0178397,-0.06525025,0.21673667,1.1839894,-0.568424,-0.9355312,-1.6586512,0.42008868,-0.025014764,-0.02985389,1.1644727,-1.3866395
0.0,0.1,1.1999999999999997,0.0,0.0,0,0.0072084004,-0.4365015,1.0193226,-0.057050116,0.19876954,1.1960114,-1.8570449,-0.81433684,-1.6860024,0.55118,-0.019083764,0.029083038,1.1797714,-1.2050543
0.0,0.1,1.1999999999999997,0.0,0.0,0,0.006772787,-0.43708563,1.0187918,-0.101942696,0.23391293,1.1961299,-0.46114913,-0.86938363,-1.7002039,0.40556386,-0.03884458,0.04349824,1.124119,-0.7166581
0.0,0.1,1.1999999999999997,0.0,0.0,0,0.0060453503,-0.43659732,1.0229064,-0.057476863,0.25281554,1.2052263,-0.34817716,-0.9136615,-1.6658636,0.44065133,-0.063514896,-0.020337354,1.2015448,-1.3593569
0.0,0.1,1.1999999999999997,0.0,0.0,0,0.0067811897,-0.43656933,1.0199862,-0.10559223,0.22018734,1.1897641,-0.43552458,-0.8304587,-1.6589537,0.38680005,-0.055967852,0.006263829,1.1461706,-0.13389754
0.0,0.1,1.1999999999999997,0.0,0.0,0,0.006664303,-0.43690136,1.0165541,-0.09382735,0.26176286,1.1585072,-1.6544788,-0.8124328,-1.6698389,0.40545827,-0.023822235,0.029965267,1.1743228,-0.1322921
0.0,0.1,1.1999999999999997,0.0,0.0,0,0.007175906,-0.436917,1.0192524,-0.07729444,0.20109244,1.1475981,-0.14463572,-0.8469932,-1.6671175,0.518885,-0.058106165,-0.028321985,1.1433818,-0.9090071
0.0,0.1,1.1999999999999997,0.0,0.0,0,0.0067772632,-0.43603143,1.0199921,-0.022197627,0.22323325,1.2194877,0.17072468,-0.86550367,-1.62898,0.32344326,-0.058525547,-0.009180228,1.1685396,-2.9413238
0.0,0.1,1.1999999999999997,0.0,0.0,0,0.007047821,-0.43682176,1.0189588,-0.084556654,0.2084296,1.1480477,0.3955087,-0.8486945,-1.6889513,0.61479443,-0.05311967,0.06709777,1.0910416,-2.7218952
0.0,0.1,1.1999999999999997,0.0,0.0,0,0.006971911,-0.43682477,1.0178181,-0.12906043,0.22948207,1.1706892,-1.9869804,-0.80823165,-1.674097,0.43673906,-0.058627516,0.08492645,1.1973555,-0.99858505
0.0,0.1,1.1999999999999997,0.0,0.0,0,0.0072911116,-0.43685395,1.020668,-0.06356461,0.21393529,1.1979101,-0.5100804,-0.8578912,-1.6700698,0.44713703,-0.008550971,-0.15415205,1.1251128,-0.60314447
0.0,0.1,1.1999999999999997,0.0,0.0,0,0.0073474078,-0.4363747,1.0165523,-0.080415875,0.23005919,1.1676468,-0.7389472,-0.85938853,-1.6407132,0.4252116,-0.03161241,-0.040832974,1.1050205,-2.0739846
0.0,0.1,1.1999999999999997,0.0,0.0,0,0.0069371746,-0.43718487,1.0198925,-0.07916271,0.21540529,1.2455722,-0.36744913,-0.88529915,-1.640371,0.5757426,-0.0526394,0.04586984,1.1018152,0.5217251
0.0,0.1,1.1999999999999997,0.0,0.0,0,0.007539047,-0.43602377,1.0160855,-0.07664011,0.22634535,1.1283035,0.10276545,-0.80873,-1.6523818,0.43281573,-0.040177748,-0.008667061,1.1138024,0.022245798
0.0,0.1,1.1999999999999997,0.0,0.0,0,0.0068325778,-0.43705583,1.0180262,-0.11458773,0.22385149,1.2130505,-1.1188253,-0.83203274,-1.6544952,0.2836891,-0.05043354,-0.016198609,1.1843052,-1.2674313
0.0,0.1,1.1999999999999997,0.0,0.0,0,0.007143185,-0.43696988,1.0192462,-0.07309313,0.17793693,1.2919251,0.17912053,-0.91545737,-1.7110916,0.5316559,-0.031989373,0.05706033,1.2452034,-1.2958779
0.0,0.1,1.1999999999999997,0.0,0.0,0,0.007129362,-0.43668845,1.0187457,-0.09418465,0.20197365,1.2508498,-0.5753651,-0.8711566,-1.6446518,0.44604877,-0.07136957,0.077358894,1.1442114,-0.83886325
0.0,0.1,1.1999999999999997,0.0,0.0,0,0.00698968,-0.43732545,1.0216936,-0.075211965,0.19466011,1.2450925,-0.8042199,-0.88320476,-1.6935433,0.6952757,0.0027487166,-0.13833268,1.215539,-2.2822912
0.0,0.1,1.1999999999999997,0.0,0.0,0,0.0072466377,-0.4365554,1.0153366,-0.0556046,0.22742121,1.1396664,-0.90715677,-0.85784847,-1.6839217,0.5925103,-0.045546122,-0.0846195,1.168282,-1.8826514
0.0,0.1,1.1999999999999997,0.0,0.0,0,0.007004574,-0.43673038,1.0192785,-0.09727637,0.23461993,1.2118148,-0.45589525,-0.82835907,-1.6959912,0.61226916,-0.05675652,0.042652544,1.1156749,-1.9086431
0.0,0.1,1.1999999999999997,0.0,0.0,0,0.0068415315,-0.43566507,1.0198474,-0.08350291,0.21483082,1.1180149,-0.47494406,-0.8827097,-1.7034788,0.23810355,-0.062401082,0.023281237,1.1431051,-1.6925896
0.0,0.1,1.1999999999999997,0.0,0.0,0,0.006499316,-0.43644622,1.0197968,-0.04089283,0.26356727,1.1764963,-2.1258194,-0.85587364,-1.6579403,0.45601484,-0.024167627,-0.06689702,1.188372,-2.1188073
0.0,0.1,1.1999999999999997,0.0,0.0,0,0.0068977117,-0.43713313,1.0197909,-0.04450377,0.21391015,1.2353185,-1.280356,-0.8874482,-1.6858388,0.49432874,-0.04839063,0.14009196,1.2591127,-2.1420405
0.0,0.1,1.1999999999999997,0.0,0.0,0,0.0072756354,-0.43650392,1.018817,-0.095938995,0.18180174,1.2346084,-0.090947315,-0.89803785,-1.6697615,0.36082315,-0.04368897,-0.13442807,1.1563553,-1.445991
0.0,0.1,1.1999999999999997,0.0,0.0,0,0.007311739,-0.43689942,1.0161936,-0.06072703,0.22939882,1.1524267,0.5829511,-0.8889822,-1.6695659,0.52739626,-0.03835851,0.07534557,1.1713618,-0.6341621
0.0,0.1,1.1999999999999997,0.0,0.0,0,0.0063388054,-0.43669748,1.020681,-0.035703294,0.25363752,1.2463846,-0.54671586,-0.8455308,-1.7078699,0.39631853,-0.06313617,-0.09639924,1.1791099,-1.579708
0.0,0.1,1.1999999999999997,0.0,0.0,0,0.00773393,-0.43646026,1.0173374,-0.07579885,0.23137793,1.028637,-0.8389931,-0.8913896,-1.6522328,0.47955754,-0.041396666,-0.05257967,1.1734787,0.10151107
0.0,0.1,1.1999999999999997,0.0,0.0,0,0.0073595825,-0.43777528,1.0230889,-0.048449863,0.220849,1.2085481,0.27244478,-0.878879,-1.6758671,0.5032079,-0.02182062,-0.19466257,1.1489099,-0.06968148
0.0,0.1,1.1999999999999997,0.0,0.0,0,0.0072544403,-0.43644664,1.0220368,-0.08669964,0.16411707,1.2183568,-1.0548043,-0.84118986,-1.7100306,0.36472824,0.015794305,-0.14403647,1.1401602,-0.63204914
0.0,0.1,1.1999999999999997,0.0,0.0,0,0.007225482,-0.43678558,1.0170518,-0.09684559,0.21195719,1.255132,0.4801195,-0.91000545,-1.6807762,0.4252842,-0.045550335,-0.024384229,1.173313,-1.9680682
0.0,0.1,1.1999999999999997,0.0,0.0,0,0.0076971394,-0.43762186,1.0175236,-0.051686544,0.23809114,1.2501851,0.80520576,-0.84556466,-1.6824726,0.5575914,-0.019321019,-0.06344676,1.1964403,-0.7829377
0.0,0.1,1.1999999999999997,0.0,0.0,0,0.0066582616,-0.43708053,1.0198202,-0.09597301,0.23193017,1.1763855,-0.19202733,-0.8507007,-1.6901563,0.55312836,-0.029413292,-0.18541084,1.1468245,0.31487364
0.0,0.1,1.1999999999999997,0.0,0.0,0,0.0073517845,-0.43698975,1.0176979,-0.12733026,0.221334,1.1767951,0.73591703,-0.8448453,-1.6408322,0.3928311,-0.038340505,-0.06749444,1.1068385,-2.4676
0.0,0.1,1.1999999999999997,0.0,0.0,0,0.00665179,-0.43666983,1.0213267,-0.10697984,0.22330683,1.1272895,-0.55730665,-0.88827944,-1.6804225,0.37696862,-0.06917313,-0.12241769,1.1598451,-0.74179274
0.0,0.1,1.1999999999999997,0.0,0.0,0,0.0069686407,-0.43695942,1.0172714,-0.0887431,0.21863769,1.2572892,-0.6532912,-0.878156,-1.6942142,0.4367492,-0.064364575,0.11122264,1.1697588,-0.62047434
0.0,0.1,1.1999999999999997,0.0,0.0,0,0.007379502,-0.4372879,1.0187048,-0.10506427,0.17088494,1.1888763,-0.14179827,-0.9000221,-1.6563617,0.43416402,0.0025809756,0.0966686,1.1743803,-1.7692425
0.0,0.1,1.1999999999999997,0.0,0.0,0,0.0066488264,-0.4364974,1.019629,-0.070054546,0.22231157,1.1895814,0.1849799,-0.9014566,-1.6560855,0.45748162,-0.037845902,0.027020631,1.1813526,-0.9360384
0.0,0.1,1.1999999999999997,0.0,0.0,0,0.006376572,-0.43715924,1.0212173,-0.11078389,0.26139662,1.2288148,-0.09759873,-0.8371384,-1.6895355,0.36418563,-0.03207149,-0.08980952,1.1137815,-1.3335453
0.0,0.1,1.1999999999999997,0.0,0.0,0,0.0069294632,-0.43626693,1.0175937,-0.09256594,0.24073328,1.1651863,0.56624186,-0.8780681,-1.6597708,0.51989436,-0.033617858,0.078185715,1.2243645,-1.7593735
0.0,0.1,1.1999999999999997,0.0,0.0,0,0.0067779557,-0.43665788,1.020739,-0.075004354,0.23262185,1.1683991,0.80726725,-0.8373086,-1.6610072,0.6991363,-0.006580778,0.05337255,1.0972372,-1.3549254
0.0,0.1,1.1999999999999997,0.0,0.0,0,0.0068027033,-0.4369087,1.0196785,-0.105462246,0.2226997,1.1744373,0.7919644,-0.84650546,-1.6521097,0.35423052,-0.023846436,-0.077272385,1.1750628,-1.4802369
0.0,0.1,1.1999999999999997,0.0,0.0,0,0.0075368066,-0.43660748,1.0135931,-0.08591461,0.23132022,1.1771203,0.86741537,-0.83980334,-1.6613998,0.3501038,-0.042246275,-0.045359112,1.1596197,-0.5337837
0.0,0.1,1.1999999999999997,0.0,0.0,0,0.006403533,-0.43630657,1.023666,-0.069874525,0.19741057,1.2025192,0.075755276,-0.9248876,-1.6729192,0.4304777,-0.04286368,-0.011533172,1.183971,-0.16628651
0.0,0.1,1.1999999999999997,0.0,0.0,0,0.006856406,-0.43635854,1.0239575,-0.091406405,0.19400719,1.2205677,-1.2328695,-0.8850969,-1.6746106,0.36854026,-0.031043848,-0.045173865,1.1377982,-0.3283531
0.0,0.1,1.1999999999999997,0.0,0.0,0,0.006776788,-0.43614513,1.0185283,-0.124745674,0.2552586,1.1300542,-0.52609664,-0.8748795,-1.6658732,0.5309041,-0.025318976,-0.026295392,1.1370562,-1.0560553
0.0,0.1,1.1999999999999997,0.0,0.0,0,0.0066229664,-0.4372008,1.0214716,-0.07282812,0.22083354,1.1865735,-1.5742081,-0.88966393,-1.676274,0.42826322,-0.007861967,-0.08483847,1.1304655,-1.0622524
0.0,0.1,1.1999999999999997,0.0,0.0,0,0.006863009,-0.43599877,1.0205324,-0.102268934,0.1731083,1.2456192,0.26144072,-0.85479563,-1.6788884,0.39734736,-0.06892794,-0.03840664,1.2066717,-2.3987725
0.0,0.1,1.1999999999999997,0.0,0.0,0,0.0068263193,-0.43659663,1.0199718,-0.07956832,0.21620852,1.1993147,-0.3148742,-0.9033377,-1.6976675,0.27831548,-0.05080033,0.032047667,1.1489058,-0.8761609
0.0,0.1,1.1999999999999997,0.0,0.0,0,0.006737423,-0.43683127,1.0178806,-0.072952114,0.22265041,1.1970419,-1.0486802,-0.86056864,-1.6511446,0.4154181,-0.092129074,-0.0600864,1.1402198,-0.22156696
0.0,0.1,1.1999999999999997,0.0,0.0,0,0.005702134,-0.43671343,1.0143985,-0.087738,0.20558922,1.1795509,-0.4322463,-0.8573638,-1.6672138,0.42218187,-0.056226164,0.15333314,1.1838096,-1.1422291
0.0,0.1,1.1999999999999997,0.0,0.0,0,0.0066775815,-0.43697342,1.0180928,-0.0937223,0.2199071,1.1896539,-0.3080042,-0.8571597,-1.6377653,0.26848212,-0.07123247,-0.058130283,1.1728988,-1.1053914
0.0,0.1,1.1999999999999997,0.0,0.0,0,0.0060697515,-0.43786424,1.018658,-0.067221135,0.18455373,1.247816,0.85972834,-0.8916434,-1.6584549,0.6409876,-0.05557485,-0.03731414,1.165279,-0.6479408
0.0,0.1,1.1999999999999997,0.0,0.0,0,0.00674077,-0.43700275,1.0214933,-0.060817212,0.21747316,1.2408407,-0.037286233,-0.9063862,-1.7184434,0.5028314,-0.06338064,-0.10402256,1.1230642,-0.41369075
0.0,0.1,1.1999999999999997,0.0,0.0,0,0.0067603784,-0.43626028,1.0205724,-0.08405743,0.21270384,1.1307713,-0.10308904,-0.85268044,-1.6811689,0.27669087,-0.040098198,-0.012931256,1.1816509,-0.24152175
0.0,0.1,1.1999999999999997,0.0,0.0,0,0.0071200007,-0.43711224,1.0162593,-0.07263325,0.23204896,1.1976494,-1.1107719,-0.8506267,-1.7104379,0.50192666,-0.05048905,0.12328783,1.1537354,-1.1927177
0.0,0.1,1.1999999999999997,0.0,0.0,0,0.007763104,-0.43716222,1.0227801,-0.04040473,0.17991313,1.2116889,0.71946996,-0.8183203,-1.6809555,0.47741705,-0.081755064,0.06553491,1.1744581,-1.8490348
0.0,0.1,1.1999999999999997,0.0,0.0,0,0.007346297,-0.4367051,1.0181206,-0.08907479,0.23306215,1.1822317,0.68379235,-0.8577699,-1.6579049,0.2881865,-0.051120628,0.041151427,1.2212467,-1.3662839
0.0,0.1,1.1999999999999997,0.0,0.0,0,0.0070047206,-0.43686074,1.0155292,-0.12512136,0.2154653,1.1583021,-0.36311066,-0.8650113,-1.6653553,0.28788182,-0.03358887,0.068621896,1.1415745,0.10374205
0.0,0.1,1.1999999999999997,0.0,0.0,0,0.006667598,-0.43663007,1.0198857,-0.0682868,0.23419888,1.2512716,-0.19289045,-0.8852497,-1.669903,0.61119163,-0.06748906,0.12496125,1.1281217,-0.53752893
0.0,0.1,1.1999999999999997,0.0,0.0,0,0.007455133,-0.4371163,1.0181592,-0.10967373,0.18383263,1.17071,-0.27262777,-0.81019264,-1.6827332,0.69967866,-0.04258924,-0.048439946,1.1872182,-0.35155806
0.0,0.1,1.1999999999999997,0.0,0.0,0,0.0069046766,-0.43684164,1.0156965,-0.07203721,0.24627188,1.1829336,0.1609821,-0.83502454,-1.6406828,0.5846734,-0.017395798,0.054197304,1.2013007,-0.72099435
0.0,0.1,1.1999999999999997,0.0,0.0,0,0.0073316665,-0.43648648,1.0177041,-0.0982086,0.20963672,1.1835312,0.18101498,-0.7956055,-1.6760885,0.4432451,-0.032261893,0.038850073,1.158566,-0.97164214
0.0,0.1,1.1999999999999997,0.0,0.0,0,0.007162699,-0.43663305,1.0181626,-0.12900552,0.20348555,1.1763834,-0.19125177,-0.79756165,-1.7118335,0.42723072,-0.041167032,-0.046160884,1.1640177,-0.68456656
0.0,0.1,1.1999999999999997,0.0,0.0,0,0.00746627,-0.43663794,1.0169401,-0.07473996,0.19622724,1.1471733,-1.0371474,-0.8826839,-1.7048849,0.36487287,-0.03041385,0.09086855,1.1950355,-1.2952482
0.0,0.1,1.1999999999999997,0.0,0.0,0,0.0071300818,-0.4370464,1.020844,-0.06140705,0.20396155,1.1801294,0.33245942,-0.84889895,-1.6625068,0.16300304,-0.073146015,-0.011479123,1.1177304,-1.2455976
0.0,0.1,1.1999999999999997,0.0,0.0,0,0.006801316,-0.4365129,1.0195473,-0.10726239,0.22406024,1.2040466,-0.4243143,-0.87280965,-1.6606044,0.40953067,-0.0777879,-0.09938594,1.1374593,-0.5916575
0.0,0.1,1.1999999999999997,0.0,0.0,0,0.006738984,-0.4372327,1.0196657,-0.092810035,0.247775,1.1054267,0.14242122,-0.82455707,-1.6789093,0.20395489,-0.06729511,-0.041117515,1.1105362,-1.2001973
0.0,0.1,1.1999999999999997,0.0,0.0,0,0.0070866854,-0.43639755,1.0236202,-0.07560173,0.21455847,1.2167339,0.27411225,-0.839162,-1.6415651,0.29583028,-0.048768517,-0.17356826,1.1398407,-1.8206143
0.0,0.1,1.1999999999999997,0.0,0.0,0,0.007194291,-0.4369383,1.0201528,-0.07811949,0.21433952,1.2059767,0.23275132,-0.8922634,-1.6706895,0.6159002,-0.05044648,-0.20423304,1.1059248,-1.1206064
0.0,0.1,1.1999999999999997,0.0,0.0,0,0.007096999,-0.4367836,1.0139973,-0.061060235,0.21954308,1.2099627,-0.10434554,-0.84294915,-1.6494418,0.26125562,-0.063627906,-0.03428044,1.1638603,-1.7869024
0.0,0.1,1.1999999999999997,0.0,0.0,0,0.006910374,-0.43661273,1.0200942,-0.113477886,0.23022658,1.2047771,-0.09511115,-0.84031445,-1.6587855,0.36291137,-0.0651492,-0.007721181,1.1727695,-0.34131062
0.0,0.1,1.1999999999999997,0.0,0.0,0,0.006928504,-0.43652472,1.0205994,-0.089781426,0.20569956,1.1659943,-0.90976036,-0.83346707,-1.6947477,0.3856286,-0.06670571,-0.08047023,1.1662747,-1.218484
0.0,0.1,1.1999999999999997,0.0,0.0,0,0.0072706663,-0.43660495,1.0173482,-0.063949026,0.20936802,1.2092118,0.51564485,-0.8327062,-1.6734865,0.4211778,-0.06414229,0.07987836,1.179545,-1.344857
0.0,0.1,1.1999999999999997,0.0,0.0,0,0.007197741,-0.43727773,1.01693,-0.10786421,0.22133243,1.1707667,-0.10341411,-0.9191154,-1.6560187,0.34749222,-0.07111047,0.16576117,1.1136156,-1.3216003
0.0,0.1,1.1999999999999997,0.0,0.0,0,0.0070869448,-0.43600163,1.0216827,-0.0924317,0.21278813,1.2270151,-0.57933325,-0.8448983,-1.6243005,0.38524482,-0.051865887,-0.024763457,1.1698236,-0.62999296
0.0,0.1,1.1999999999999997,0.0,0.0,0,0.008001184,-0.43615693,1.0132968,-0.06357162,0.2416524,1.1583183,-0.39888263,-0.9041214,-1.7102808,0.3747082,-0.039470803,0.1646746,1.1210539,-0.100877166
0.0,0.1,1.1999999999999997,0.0,0.0,0,0.007238355,-0.43687776,1.0184284,-0.03518796,0.2129685,1.2161909,-0.07171723,-0.8688541,-1.6781402,0.40268117,-0.039926104,-0.032911696,1.1665261,-0.207373
0.0,0.1,1.1999999999999997,0.0,0.0,0,0.006293933,-0.4357142,1.0256315,-0.093932584,0.23097648,1.2051802,-0.22387502,-0.8617553,-1.6381097,0.17828132,-0.029715171,0.108624816,1.2173617,-0.9472729
0.0,0.1,1.1999999999999997,0.0,0.0,0,0.0073898733,-0.43666914,1.0196922,-0.07886824,0.20101123,1.1521325,-0.9875195,-0.80707943,-1.6583023,0.57260233,-0.050214767,0.014353189,1.145391,-1.3627192
0.0,0.1,1.1999999999999997,0.0,0.0,0,0.007103774,-0.43632522,1.0215282,-0.09757668,0.20640898,1.218557,-0.29850212,-0.88483226,-1.6532121,0.55235034,-0.022511946,0.051919788,1.1470741,-0.39611053
0.0,0.1,1.1999999999999997,0.0,0.0,0,0.007044382,-0.43694934,1.0214591,-0.09782474,0.20981716,1.1716781,-0.47445765,-0.8576803,-1.6587967,0.2904986,-0.062500566,0.053076547,1.0775284,-1.5642813
0.0,0.1,1.1999999999999997,0.0,0.0,0,0.00629916,-0.4363775,1.0235635,-0.03507386,0.21556742,1.2549651,-1.5357544,-0.8768998,-1.6797241,0.5378515,-0.038348883,-0.019492298,1.172314,-1.2634571
0.0,0.1,1.1999999999999997,0.0,0.0,0,0.0075268354,-0.43617558,1.0148255,-0.056322213,0.20717376,1.1806048,-0.08372444,-0.8479,-1.6620086,0.4036693,-0.066197395,0.054021392,1.1703627,-0.9843162
0.0,0.1,1.1999999999999997,0.0,0.0,0,0.0072925487,-0.43713674,1.0219352,-0.08127067,0.22093324,1.1917495,1.178209,-0.88656884,-1.681698,0.38587245,-0.054695774,-0.0131816985,1.1819557,-1.7657039
0.0,0.1,1.1999999999999997,0.0,0.0,0,0.007110471,-0.43700963,1.019292,-0.09674913,0.21885297,1.2509134,-1.062419,-0.86372274,-1.6548206,0.38577554,-0.055950902,0.011007929,1.1941775,-0.8738821
0.0,0.1,1.1999999999999997,0.0,0.0,0,0.007223937,-0.43621078,1.0200539,-0.087361865,0.21004206,1.252681,0.027722437,-0.848279,-1.7140318,0.18282272,-0.019396318,0.03972434,1.1510795,0.29873532
0.0,0.1,1.1999999999999997,0.0,0.0,0,0.0071598813,-0.4361251,1.0198358,-0.10866663,0.25227347,1.206061,-0.99015695,-0.84373176,-1.6584328,0.51776785,-0.054252207,0.096931495,1.1594343,-0.5137452
0.0,0.1,1.1999999999999997,0.0,0.0,0,0.007179896,-0.43609932,1.0229404,-0.071134716,0.2017526,1.1558596,0.92253244,-0.8688079,-1.6618205,0.38939908,-0.034139443,-0.017501352,1.1875894,-1.1304086
0.0,0.1,1.1999999999999997,0.0,0.0,0,0.0068660267,-0.43691406,1.018789,-0.050963793,0.2282551,1.1913172,-1.7052815,-0.89430755,-1.7072436,0.27758667,-0.06574308,0.17100185,1.1922876,-1.1448406
0.0,0.1,1.1999999999999997,0.0,0.0,0,0.00706719,-0.4362853,1.0194294,-0.052455418,0.2118473,1.1787993,-1.3080003,-0.8408566,-1.6857849,0.35646904,-0.03536645,-0.009700262,1.1245693,-0.5183075
0.0,0.1,1.1999999999999997,0.0,0.0,0,0.0070188227,-0.4371963,1.0212476,-0.12371046,0.24119341,1.1929091,-0.7194398,-0.85534704,-1.6608877,0.5668318,-0.052935343,0.0006820323,1.1056366,-1.9064006
0.0,0.1,1.1999999999999997,0.0,0.0,0,0.0070173936,-0.43705043,1.0210555,-0.06537635,0.22322395,1.1843593,-0.8316179,-0.91412,-1.7001731,0.4214342,-0.08985864,-0.14793736,1.1916487,-0.86272
0.0,0.1,1.1999999999999997,0.0,0.0,0,0.0068538003,-0.43643636,1.0199261,-0.09323655,0.24146289,1.1917922,0.060561758,-0.83637655,-1.6764009,0.110469565,-0.062917694,0.04378341,1.1778934,-0.33182883
0.0,0.1,1.1999999999999997,0.0,0.0,0,0.007187006,-0.43627504,1.0188384,-0.10238025,0.22040825,1.2209343,-0.24711226,-0.92194414,-1.6381369,0.40552956,-0.037097663,0.03650429,1.1338956,-0.98027873
0.0,0.1,1.1999999999999997,0.0,0.0,0,0.007300704,-0.43654567,1.0194347,-0.062264122,0.2215706,1.2543659,-0.31255567,-0.8744564,-1.6917465,0.38223413,-0.012520924,0.059256855,1.1648889,0.07954928
0.0,0.1,1.1999999999999997,0.0,0.0,0,0.006873523,-0.43657216,1.0209903,-0.10487121,0.21913627,1.2467275,-0.3504962,-0.86062473,-1.6967489,0.4419272,-0.028460143,-0.078527704,1.1518493,-1.5840225
0.0,0.1,1.1999999999999997,0.0,0.0,0,0.007511796,-0.43710116,1.0176314,-0.089184605,0.20028764,1.2557614,-0.654553,-0.84602964,-1.6852757,0.3662518,-0.00067045883,-4.7567482e-05,1.1387467,-0.03518551
0.0,0.1,1.1999999999999997,0.0,0.0,0,0.0073433253,-0.43724903,1.0166051,-0.09621393,0.25140318,1.1553975,-1.4260172,-0.932887,-1.6739417,0.21881357,-0.06764411,0.06352623,1.1950899,-1.9056621
0.0,0.1,1.1999999999999997,0.0,0.0,0,0.007465852,-0.43667418,1.0171382,-0.09708376,0.2539839,1.1532679,0.5848068,-0.9063946,-1.6614275,0.40414783,-0.0467517,-0.0002628611,1.1233331,-1.9487485
0.0,0.1,1.1999999999999997,0.0,0.0,0,0.007681042,-0.436749,1.0185337,-0.12381618,0.22279239,1.1753021,-0.43469104,-0.85915124,-1.7006739,0.36307934,-0.06561706,-0.07184872,1.1364757,-0.9638901
0.0,0.1,1.1999999999999997,0.0,0.0,0,0.0067936108,-0.43670344,1.0229732,-0.093956485,0.23402798,1.1918739,-0.26645407,-0.9091397,-1.680266,0.54086506,-0.038355343,0.0062177693,1.1237762,0.1972823
0.0,0.1,1.1999999999999997,0.0,0.0,0,0.0075192177,-0.43701735,1.0205487,-0.10487663,0.22816406,1.1625062,0.04571894,-0.83591133,-1.6607829,0.31558266,-0.022879336,-0.045714658,1.1358863,-0.23180021
0.0,0.1,1.1999999999999997,0.0,0.0,0,0.0069962423,-0.43664414,1.0215821,-0.063554935,0.24877445,1.2048286,-0.579296,-0.8475423,-1.6687475,0.27339298,-0.03239648,-0.027127717,1.0991733,-0.5548278
0.0,0.1,1.1999999999999997,0.0,0.0,0,0.0067615537,-0.43623388,1.0243851,-0.092980206,0.21732591,1.2263119,0.3247268,-0.86010516,-1.6720101,0.6098518,-0.01362458,0.058026977,1.1865716,-0.2981933
0.0,0.1,1.1999999999999997,0.0,0.0,0,0.0076416177,-0.43586534,1.018256,-0.092514575,0.19984825,1.1567736,-0.20525129,-0.8679686,-1.6739974,0.3959943,-0.0071166717,-0.08687751,1.2053357,-1.3485942
0.0,0.1,1.1999999999999997,0.0,0.0,0,0.007416581,-0.4369558,1.0199739,-0.09377881,0.22485763,1.1887591,-1.3763047,-0.839602,-1.6538342,0.24064237,-0.06653497,-0.03103091,1.1805382,-1.1290762
0.0,0.1,1.1999999999999997,0.0,0.0,0,0.0075005423,-0.43668163,1.0193589,-0.11267138,0.22669043,1.2841854,1.1521049,-0.8571329,-1.690954,0.39876422,-0.04867005,-0.0555617,1.1187062,-0.13878588
0.0,0.1,1.1999999999999997,0.0,0.0,0,0.006788664,-0.4370544,1.0231011,-0.0636203,0.24193259,1.2837776,0.38995644,-0.84585476,-1.6702075,0.40337166,0.002730337,-0.05114897,1.1571069,-1.0123152
0.0,0.1,1.1999999999999997,0.0,0.0,0,0.006896093,-0.43702647,1.0189744,-0.1256183,0.24325475,1.1985323,-0.24666715,-0.80804116,-1.6992941,0.38416243,-0.06704689,0.0073373066,1.1968541,-0.7358137
0.0,0.1,1.1999999999999997,0.0,0.0,0,0.0066290065,-0.43673733,1.020542,-0.08045881,0.20775345,1.2165545,-0.66346,-0.8383108,-1.6737868,0.21059966,-0.073109955,0.046091333,1.1127101,0.33053082
0.0,0.1,1.1999999999999997,0.0,0.0,0,0.007485773,-0.43764204,1.0191809,-0.0712046,0.22805664,1.1546853,-0.83953804,-0.90785414,-1.6875645,0.20249808,-0.059128914,-0.030455055,1.0889947,-1.4027468
0.0,0.1,1.1999999999999997,0.0,0.0,0,0.007171523,-0.43666983,1.0235701,-0.05666617,0.21599272,1.1732876,0.35631976,-0.84501195,-1.6413448,0.2350333,-0.06418317,-0.042662762,1.1519946,-0.6513514
0.0,0.1,1.1999999999999997,0.0,0.0,0,0.0070008053,-0.43654433,1.0201942,-0.08876993,0.20346563,1.2435856,-1.0084312,-0.91325307,-1.6663153,0.37159443,-0.057164386,-0.07672466,1.1400629,-0.13725162
0.0,0.1,1.1999999999999997,0.0,0.0,0,0.007683533,-0.43704388,1.0237005,-0.08245157,0.19034977,1.1879379,-0.46455315,-0.9075223,-1.6671227,0.47436878,-0.060972195,-0.08025478,1.112128,-1.3166525
0.0,0.1,1.1999999999999997,0.0,0.0,0,0.00759437,-0.43656394,1.0184929,-0.081071645,0.23926999,1.2473402,1.1319354,-0.85372186,-1.6954287,0.2502037,-0.060013384,0.028247008,1.0702208,-0.7905053
0.0,0.1,1.1999999999999997,0.0,0.0,0,0.006995778,-0.43649444,1.0213851,-0.06848444,0.22638734,1.1979685,-0.3373627,-0.8930282,-1.6615592,0.4599874,-0.041726187,0.034896668,1.1768013,0.68192416
0.0,0.1,1.1999999999999997,0.0,0.0,0,0.0074421847,-0.43580616,1.0212847,-0.09276109,0.19433226,1.1798007,1.1580037,-0.88155955,-1.6846031,0.631125,-0.02152649,0.056457918,1.1582942,-0.5944585
0.0,0.1,1.1999999999999997,0.0,0.0,0,0.0077329404,-0.43636528,1.0206417,-0.08999035,0.18780474,1.1980194,-1.4508166,-0.8395571,-1.6603935,0.32148913,-0.011145954,-0.031057434,1.1309214,-1.3313099
0.0,0.1,1.1999999999999997,0.0,0.0,0,0.007185298,-0.43663123,1.0206473,-0.058592908,0.23166198,1.2135649,-0.6107136,-0.8137628,-1.6681412,0.16380768,-0.054768898,-0.050990097,1.1823387,-1.3506664
0.0,0.1,1.1999999999999997,0.0,0.0,0,0.007838282,-0.43635473,1.0166183,-0.07168896,0.21002284,1.2666159,-0.8300392,-0.8634144,-1.683307,0.27017957,-0.04856098,-0.031791702,1.1637877,-0.713819
0.0,0.1,1.1999999999999997,0.0,0.0,0,0.0071775997,-0.43696845,1.0197662,-0.06225763,0.2324195,1.190068,-0.6247632,-0.8644746,-1.6584401,0.38098568,-0.009332931,-0.023415314,1.1990318,-1.49754
0.0,0.1,1.1999999999999997,0.0,0.0,0,0.0072622425,-0.43660638,1.0221927,-0.082198605,0.22905424,1.1489052,0.1889615,-0.8561487,-1.6642364,0.334832,-0.059908025,-0.009195225,1.1629446,0.4670175
0.0,0.1,1.1999999999999997,0.0,0.0,0,0.006855891,-0.43711436,1.0213848,-0.07341529,0.24653359,1.1511236,-0.41228622,-0.86700654,-1.6989665,0.53675085,-0.046983406,-0.019091683,1.2269931,-0.7875191
0.0,0.1,1.1999999999999997,0.0,0.0,0,0.0071258163,-0.43692625,1.0231928,-0.052339077,0.24942759,1.2135473,0.6317981,-0.8872374,-1.6793215,0.26737913,-0.09608464,0.03427829,1.1937381,-0.58339727
0.0,0.1,1.1999999999999997,0.0,0.0,0,0.0069123628,-0.43647897,1.02287,-0.08042708,0.22732076,1.1510944,-1.4885833,-0.8701876,-1.6580122,0.48502162,-0.038586594,0.018528068,1.1594539,-0.5146159
0.0,0.1,1.1999999999999997,0.0,0.0,0,0.0072384947,-0.43689835,1.0232942,-0.10866709,0.2378972,1.1120636,-0.264923,-0.8368471,-1.6792753,0.400642,-0.056183938,-0.0910604,1.1346375,-1.1503683
0.0,0.1,1.1999999999999997,0.0,0.0,0,0.007149619,-0.4368031,1.0213637,-0.08675896,0.24660091,1.1442075,0.30940652,-0.8685601,-1.6571325,0.24077402,-0.0876073,-0.027245373,1.1141454,0.085112736
0.0,0.1,1.1999999999999997,0.0,0.0,0,0.006973623,-0.4366732,1.0245008,-0.10058589,0.21131036,1.1731926,-0.6335953,-0.8551582,-1.661378,0.4865348,-0.052512392,-0.016545799,1.1672918,-1.3333416
0.0,0.1,1.1999999999999997,0.0,0.0,0,0.007186108,-0.43638065,1.0248739,-0.09918223,0.21681103,1.1430768,0.41001704,-0.87419194,-1.6973767,0.5345605,-0.030176958,-0.017246751,1.1360476,-1.1218842
0.0,0.1,1.1999999999999997,0.0,0.0,0,0.0071978816,-0.43661758,1.0206046,-0.053458933,0.20983209,1.234278,-0.21407788,-0.88911015,-1.6972047,0.28914014,-0.05125394,-0.18504947,1.1761471,-1.6954149
0.0,0.1,1.1999999999999997,0.0,0.0,0,0.0074613728,-0.43715146,1.0212133,-0.10048873,0.21721868,1.1215076,-0.2798829,-0.9068956,-1.6669893,0.4410344,-0.072585955,0.110177815,1.3022668,0.19477393
0.0,0.1,1.1999999999999997,0.0,0.0,0,0.007323032,-0.43601987,1.0227247,-0.09803948,0.19065234,1.1952034,-0.4572971,-0.880104,-1.6943594,0.32236394,-0.025828112,-0.05709259,1.137639,-0.3027729
0.0,0.1,1.1999999999999997,0.0,0.0,0,0.00808102,-0.4367547,1.0170474,-0.051958233,0.21670157,1.1439896,-0.5516977,-0.83939904,-1.6456759,0.6319274,-0.04527311,-0.04423832,1.1692019,-1.2774309
0.0,0.1,1.1999999999999997,0.0,0.0,0,0.006693811,-0.43595028,1.0255015,-0.100189745,0.2394143,1.178429,0.17023227,-0.8237963,-1.6716288,0.30125412,-0.048373662,0.14967184,1.159959,-1.3746874
0.0,0.1,1.1999999999999997,0.0,0.0,0,0.007611936,-0.43623844,1.0169842,-0.086067975,0.21772075,1.1960132,-0.39463654,-0.8725966,-1.713287,0.27503267,-0.028655969,0.03391788,1.1320552,-0.5581423
0.0,0.1,1.1999999999999997,0.0,0.0,0,0.0074563464,-0.43649957,1.0234822,-0.11309518,0.22485757,1.1494123,-0.768001,-0.8107019,-1.663299,0.61768866,-0.012927399,-0.17361589,1.2101494,-0.60232806
0.0,0.1,1.1999999999999997,0.0,0.0,0,0.006667047,-0.4369623,1.0228878,-0.08325468,0.2382324,1.2429162,0.048856106,-0.8703236,-1.655204,0.36649054,-0.08568502,-0.018052407,1.1546406,-1.0375884
0.0,0.1,1.1999999999999997,0.0,0.0,0,0.007297455,-0.4362672,1.0183263,-0.07197425,0.22222942,1.1778098,-0.25311366,-0.87108034,-1.6883271,0.17645952,-0.04100409,-0.08111877,1.1883005,-1.1594515
0.0,0.1,1.1999999999999997,0.0,0.0,0,0.0072997324,-0.43626592,1.0228437,-0.10117437,0.23544677,1.2456082,-0.8923279,-0.8429948,-1.6695422,0.2765481,-0.025761541,-0.047674827,1.1508214,-1.2473348
0.0,0.1,1.1999999999999997,0.0,0.0,0,0.0068878443,-0.43683627,1.0227531,-0.056607563,0.22192705,1.2222768,-1.5370606,-0.821255,-1.6675656,0.29588413,-0.0260489,0.09775559,1.1697756,-0.47614697
0.0,0.1,1.1999999999999997,0.0,0.0,0,0.0070930854,-0.43687698,1.0248928,-0.07699888,0.26405838,1.2226442,-0.7696623,-0.87352806,-1.6537485,0.3786218,-0.035311937,-0.1386977,1.2037508,-0.92844844
0.0,0.1,1.1999999999999997,0.0,0.0,0,0.007209508,-0.43671095,1.0210736,-0.050011437,0.23061718,1.2480717,-0.7880875,-0.8870653,-1.6734213,0.17178865,-0.06567134,-0.025534892,1.1472621,-1.0504228
0.0,0.1,1.1999999999999997,0.0,0.0,0,0.007723858,-0.43689615,1.021839,-0.06598128,0.24066454,1.1981491,0.0778743,-0.8603372,-1.6633873,0.5191828,-0.048713885,0.07898375,1.242042,-0.3945927
0.0,0.1,1.1999999999999997,0.0,0.0,0,0.0071355877,-0.43697482,1.0239409,-0.043771878,0.25231743,1.142341,-1.3100692,-0.8333998,-1.66407,0.5261144,-0.04420419,0.022443837,1.1769196,-0.25499707
0.0,0.1,1.1999999999999997,0.0,0.0,0,0.006750429,-0.43563297,1.0207708,-0.05266513,0.24819492,1.2187446,0.87753594,-0.8849066,-1.7170907,0.43607876,-0.041673914,0.12342489,1.1734837,-1.8993666
0.0,0.1,1.1999999999999997,0.0,0.0,0,0.007318489,-0.43705273,1.0233403,-0.10474596,0.20332761,1.1607255,-1.1125861,-0.8034102,-1.6697707,0.5129218,-0.05400503,0.19094408,1.157037,-0.48559904
0.0,0.1,1.1999999999999997,0.0,0.0,0,0.0076483274,-0.4369148,1.0185268,-0.060791865,0.21927965,1.2466927,0.6599047,-0.84871954,-1.7001004,0.3411727,-0.032531116,-0.03991046,1.1900146,-1.3042326
0.0,0.1,1.1999999999999997,0.0,0.0,0,0.0075322306,-0.4365507,1.0231122,-0.044195183,0.21057145,1.2277112,0.027778117,-0.91150343,-1.6580287,0.36858213,-0.016017307,0.09467354,1.1395355,0.043924715
0.0,0.1,1.1999999999999997,0.0,0.0,0,0.0072654877,-0.43654835,1.0247372,-0.05594677,0.21075137,1.1992757,-0.25447285,-0.87049055,-1.6804215,0.32578623,-0.04522717,0.013810121,1.1743406,-1.3983165
0.0,0.1,1.1999999999999997,0.0,0.0,0,0.0065384083,-0.4370686,1.0181397,-0.057574682,0.20436704,1.189698,0.36478496,-0.863183,-1.6648574,0.5101656,-0.027789041,-0.058217667,1.1540139,-1.1663457
0.0,0.1,1.1999999999999997,0.0,0.0,0,0.0068325577,-0.43738073,1.0167015,-0.06235713,0.2326769,1.087773,1.0813639,-0.88897926,-1.6906277,0.3604877,-0.048461623,-0.019861111,1.1333677,-0.73380905
0.0,0.1,1.1999999999999997,0.0,0.0,0,0.006785969,-0.4379156,1.0126,-0.08430735,0.15382804,1.2390437,0.18874733,-0.8577759,-1.674504,0.2598298,-0.019917594,-0.049275212,1.2128018,-1.8085537
0.0,0.1,1.1999999999999997,0.0,0.0,0,0.0071911127,-0.43627262,1.0146599,-0.13438673,0.18294796,1.1201103,0.56384593,-0.87852407,-1.6405555,0.6096932,-0.037772495,-0.010438445,1.1425738,0.9334165
0.0,0.1,1.1999999999999997,0.0,0.0,0,0.0068403375,-0.43716305,1.0192199,-0.06894903,0.19147755,1.1926658,-1.4920541,-0.88551664,-1.6596452,0.25886786,-0.037236832,0.08262827,1.123716,-0.6129068
0.0,0.1,1.1999999999999997,0.0,0.0,0,0.0066239857,-0.43646526,1.019877,-0.117444865,0.1992461,1.2560838,0.9061629,-0.86415535,-1.6898315,0.2711784,-0.05738507,-0.09639887,1.1421258,-0.8289847
0.0,0.1,1.1999999999999997,0.0,0.0,0,0.006919433,-0.43734616,1.0203906,-0.090369254,0.1801035,1.1617903,-0.34245694,-0.8715165,-1.6949612,0.40536493,-0.00892355,-0.09867291,1.1827313,-1.5114884
0.0,0.1,1.1999999999999997,0.0,0.0,0,0.006431193,-0.4369084,1.0171019,-0.088172995,0.21097325,1.2242154,0.18240672,-0.81297606,-1.6790444,0.3784776,-0.029663973,0.06236784,1.167204,-0.51884377
0.0,0.1,1.1999999999999997,0.0,0.0,0,0.0067981454,-0.43664166,1.0225579,-0.03245198,0.21624556,1.1362009,-0.121221915,-0.8972934,-1.6996654,0.44078302,-0.067898594,0.08304238,1.1795557,-0.29637003
0.0,0.1,1.1999999999999997,0.0,0.0,0,0.0066991723,-0.43639642,1.0181625,-0.045875065,0.22471562,1.179694,0.74430996,-0.89061075,-1.6904136,0.3095641,-0.034790773,-0.0010985297,1.2532626,-2.0955722
0.0,0.1,1.1999999999999997,0.0,0.0,0,0.007270092,-0.43710566,1.0159638,-0.07457934,0.20601197,1.2448453,-1.5224417,-0.87571126,-1.6888697,0.35761598,-0.051207345,0.046484634,1.0894057,-0.0017781978
0.0,0.1,1.1999999999999997,0.0,0.0,0,0.006834407,-0.43711877,1.0115453,-0.078937516,0.22779433,1.2660555,0.2089642,-0.82824504,-1.7005844,0.29991102,-0.057789657,-0.06185976,1.1539102,-1.7067335
0.0,0.1,1.1999999999999997,0.0,0.0,0,0.006693029,-0.43639266,1.0189792,-0.079812884,0.19577515,1.2009002,-0.7538981,-0.87627655,-1.6920334,0.45987707,-0.052084338,-0.097121,1.2086301,0.45012462
0.0,0.1,1.1999999999999997,0.0,0.0,0,0.0068630944,-0.43722484,1.0208377,-0.09382998,0.1919045,1.1721243,-1.7175149,-0.8326879,-1.6784985,0.3147367,-0.059594423,0.05236805,1.1300653,-0.41276988
0.0,0.1,1.1999999999999997,0.0,0.0,0,0.0068884273,-0.4368589,1.0206401,-0.078346886,0.20956834,1.1805004,0.71944255,-0.8884248,-1.6617359,0.5029121,-0.06887127,-0.062310982,1.1188757,0.10496459
0.0,0.1,1.1999999999999997,0.0,0.0,0,0.007139853,-0.43606877,1.0175683,-0.092009105,0.19026741,1.1812464,0.85661274,-0.8750911,-1.6468611,0.5039586,-0.03925616,-0.10923256,1.1565344,-0.8901171
0.0,0.1,1.1999999999999997,0.0,0.0,0,0.0068479585,-0.43676254,1.0161101,-0.084120855,0.2130411,1.2094249,-0.16013184,-0.8910089,-1.6650925,0.38105986,-0.0026246207,0.030334579,1.1787561,-0.136156
0.0,0.1,1.1999999999999997,0.0,0.0,0,0.006674245,-0.4371297,1.0210257,-0.081012584,0.23874657,1.1274403,-0.6266022,-0.86112547,-1.670401,0.36034036,-0.055354826,0.10876913,1.1190503,-1.1593597
0.0,0.1,1.1999999999999997,0.0,0.0,0,0.0069850264,-0.43767247,1.0201778,-0.092812344,0.19192325,1.1805867,-0.31739235,-0.8513296,-1.6906577,0.46438968,-0.07527712,0.045583226,1.1738361,-0.30530068
0.0,0.1,1.1999999999999997,0.0,0.0,0,0.0069296556,-0.43709648,1.0202233,-0.10339136,0.22229558,1.1781032,-0.2678294,-0.89400846,-1.685326,0.61905915,-0.058952693,0.059085395,1.1921448,-0.052531485
0.0,0.1,1.1999999999999997,0.0,0.0,0,0.0062204218,-0.43736023,1.0166999,-0.058098547,0.16854802,1.2379764,0.07894969,-0.85678625,-1.6766535,0.33795267,-0.015399537,0.01589573,1.2139493,-1.3466485
0.0,0.1,1.1999999999999997,0.0,0.0,0,0.007030468,-0.4366071,1.0202014,-0.08361411,0.21468677,1.1580689,-1.322385,-0.86849403,-1.6789676,0.584284,-0.03277852,0.0017800599,1.1860621,-2.3262765
0.0,0.1,1.1999999999999997,0.0,0.0,0,0.0073505593,-0.43594372,1.018971,-0.11617484,0.20427975,1.2319707,-0.26490507,-0.8418806,-1.6710733,0.35680217,-0.057791766,-0.04365725,1.147125,-1.1886117
0.0,0.1,1.1999999999999997,0.0,0.0,0,0.007424352,-0.43675652,1.0170363,-0.09547815,0.2153446,1.1764498,0.394041,-0.8408751,-1.6824634,0.43422726,-0.033517577,-0.07851127,1.1451333,-0.16310856
0.0,0.1,1.1999999999999997,0.0,0.0,0,0.006996681,-0.43711796,1.0224394,-0.08989693,0.20831396,1.248203,-0.3996347,-0.90980834,-1.6942186,0.6834353,-0.025065547,0.1226413,1.1585542,-0.938097
0.0,0.1,1.1999999999999997,0.0,0.0,0,0.0069978386,-0.4360782,1.0200285,-0.09664679,0.2384348,1.2215928,-0.14167571,-0.8223392,-1.6484872,0.5195313,-0.028564323,-0.06374048,1.2367655,-1.0953075
0.0,0.1,1.1999999999999997,0.0,0.0,0,0.0073656295,-0.4372798,1.0209692,-0.06422261,0.24591051,1.1785907,-1.6051884,-0.8596532,-1.6730523,0.27976137,-0.07291231,0.07964763,1.2477313,-0.9647717
0.0,0.1,1.1999999999999997,0.0,0.0,0,0.0073694866,-0.4369264,1.0230217,-0.08930451,0.17830232,1.2267343,0.5836394,-0.8656619,-1.731156,0.33091965,-0.07444478,-0.049502585,1.2000698,-0.14556232
0.0,0.1,1.1999999999999997,0.0,0.0,0,0.0076464387,-0.43731293,1.0204967,-0.07866691,0.22960451,1.1892805,-0.95925516,-0.8880029,-1.6575441,0.5493326,-0.041783728,-0.06900388,1.1772541,-0.475485
0.0,0.1,1.1999999999999997,0.0,0.0,0,0.007441468,-0.43690917,1.0226045,-0.07886021,0.2290096,1.1917008,-1.4664518,-0.8756164,-1.6861913,0.37494588,-0.04356963,0.049750447,1.1373771,-0.45917222
0.0,0.1,1.1999999999999997,0.0,0.0,0,0.008217493,-0.43672478,1.021154,-0.09001291,0.20067368,1.1378597,0.049269717,-0.91070664,-1.6924117,0.6255348,-0.043353036,0.011944027,1.205281,-2.0337052
