sanky1234/BimanualDexCatch/isaacgymenvs/cem_results/football_pose_-0.2_-0.2_0.6_-0.5235987755982988_-0.5235987755982988_0.34906585039886606.csv
x,y,z,roll,pitch,yaw,robot1/joint1,robot1/joint2,robot1/joint3,robot1/joint4,robot1/joint5,robot1/joint6,robot1/joint7,robot2/joint1,robot2/joint2,robot2/joint3,robot2/joint4,robot2/joint5,robot2/joint6,robot2/joint7
-0.2,-0.2,0.6,-0.5235987755982988,-0.5235987755982988,0.34906585039886606,1.3209095,1.6297119,0.42605948,0.08336095,0.16870283,0.7594311,1.0237901,-0.375414,1.5285219,-0.24419044,-0.6237186,0.01208872,1.4156392,1.3665669
-0.2,-0.2,0.6,-0.5235987755982988,-0.5235987755982988,0.34906585039886606,1.322457,1.63043,0.41977614,0.08903185,0.18142912,0.746412,1.0590106,-0.3680832,1.5211476,-0.23858584,-0.629935,-0.02942368,1.3954133,1.5960313
-0.2,-0.2,0.6,-0.5235987755982988,-0.5235987755982988,0.34906585039886606,1.3185699,1.6325914,0.4281137,0.077994026,0.15638436,0.7610575,1.0352775,-0.37311226,1.5183163,-0.26336706,-0.6207819,0.02261614,1.4127312,1.3862829
-0.2,-0.2,0.6,-0.5235987755982988,-0.5235987755982988,0.34906585039886606,1.3295718,1.6257648,0.41615504,0.07906165,0.1739143,0.76724154,1.005544,-0.36558563,1.5175207,-0.23654693,-0.59577376,0.00578332,1.410011,1.5909184
-0.2,-0.2,0.6,-0.5235987755982988,-0.5235987755982988,0.34906585039886606,1.3338083,1.6340834,0.41859064,0.06905169,0.17633305,0.754789,1.0680395,-0.37262982,1.523353,-0.24036916,-0.6219265,0.005389071,1.4011745,1.526623
-0.2,-0.2,0.6,-0.5235987755982988,-0.5235987755982988,0.34906585039886606,1.3184295,1.637568,0.43840048,0.090476125,0.18053724,0.74174905,0.9760705,-0.36210218,1.5180254,-0.25536752,-0.5917204,-0.025357261,1.4236187,1.5275815
-0.2,-0.2,0.6,-0.5235987755982988,-0.5235987755982988,0.34906585039886606,1.331878,1.6364509,0.4334922,0.09200737,0.16973291,0.76172245,0.99402976,-0.36939883,1.5118606,-0.26310074,-0.6048406,-0.037865918,1.4122897,1.5491592
-0.2,-0.2,0.6,-0.5235987755982988,-0.5235987755982988,0.34906585039886606,1.3212205,1.6292454,0.42823976,0.08256676,0.1794678,0.73435354,0.9453777,-0.37015268,1.5235671,-0.2610037,-0.5898229,0.02737955,1.4152894,1.4685638
-0.2,-0.2,0.6,-0.5235987755982988,-0.5235987755982988,0.34906585039886606,1.3156749,1.6328962,0.4235411,0.073054306,0.17953563,0.7614284,1.0225055,-0.3675431,1.5136694,-0.23261718,-0.6567311,-0.026587728,1.3991395,1.5779622
-0.2,-0.2,0.6,-0.5235987755982988,-0.5235987755982988,0.34906585039886606,1.3352772,1.6355714,0.42114934,0.08309492,0.17303224,0.76012504,1.0112163,-0.37575874,1.5221475,-0.23910739,-0.62033784,0.0061477,1.4015081,1.6706051
-0.2,-0.2,0.6,-0.5235987755982988,-0.5235987755982988,0.34906585039886606,1.3232749,1.6342304,0.43189266,0.079728425,0.17254572,0.77088803,0.971586,-0.38758028,1.51879,-0.24435951,-0.6236855,-0.022073844,1.4326862,1.3951502
-0.2,-0.2,0.6,-0.5235987755982988,-0.5235987755982988,0.34906585039886606,1.3274951,1.6284169,0.4172461,0.08279953,0.1645881,0.7489902,0.9686855,-0.35492453,1.5253747,-0.24409255,-0.5833357,0.033294603,1.4115844,1.4586575
-0.2,-0.2,0.6,-0.5235987755982988,-0.5235987755982988,0.34906585039886606,1.3321213,1.6216812,0.4113702,0.09554743,0.18713334,0.769317,0.9647615,-0.3520792,1.525289,-0.25585198,-0.59282327,-0.029053448,1.4152147,1.4032799
-0.2,-0.2,0.6,-0.5235987755982988,-0.5235987755982988,0.34906585039886606,1.3284316,1.6394725,0.42744723,0.07441895,0.17093816,0.75583535,0.9530687,-0.38010147,1.523982,-0.22460102,-0.60549384,-0.010552249,1.4159021,1.3877587
-0.2,-0.2,0.6,-0.5235987755982988,-0.5235987755982988,0.34906585039886606,1.3204598,1.6319959,0.42396694,0.08096368,0.19904341,0.7422629,1.013052,-0.37778485,1.5318644,-0.24841154,-0.6099455,0.0012125778,1.4136353,1.4929054
-0.2,-0.2,0.6,-0.5235987755982988,-0.5235987755982988,0.34906585039886606,1.3174734,1.6337075,0.42160487,0.08378292,0.17216378,0.75772166,1.0988507,-0.3660504,1.5219003,-0.24933036,-0.64895624,-0.01857327,1.3993386,1.6821637
-0.2,-0.2,0.6,-0.5235987755982988,-0.5235987755982988,0.34906585039886606,1.3226576,1.6325679,0.4238577,0.09347684,0.19192697,0.7447792,1.0328246,-0.36693206,1.5237427,-0.2772315,-0.6079216,0.0036809267,1.384363,1.4049495
-0.2,-0.2,0.6,-0.5235987755982988,-0.5235987755982988,0.34906585039886606,1.3271849,1.629492,0.43967798,0.071011305,0.18389143,0.750261,0.95580196,-0.3778312,1.5195694,-0.2530143,-0.6164038,-0.008550769,1.3974783,1.4761344
-0.2,-0.2,0.6,-0.5235987755982988,-0.5235987755982988,0.34906585039886606,1.3339565,1.6315275,0.41328534,0.085305326,0.17598346,0.74909794,0.9859313,-0.3768887,1.5295619,-0.21674342,-0.6227738,0.0013992761,1.4253322,1.4712099
-0.2,-0.2,0.6,-0.5235987755982988,-0.5235987755982988,0.34906585039886606,1.3096474,1.6319761,0.4339951,0.07405673,0.18620582,0.7575092,0.95323336,-0.35862568,1.5172527,-0.24426675,-0.59810877,-0.020950358,1.4229351,1.4895072
-0.2,-0.2,0.6,-0.5235987755982988,-0.5235987755982988,0.34906585039886606,1.3144803,1.6335093,0.4244026,0.08486584,0.2134385,0.7459501,0.9835574,-0.3833454,1.5145923,-0.21612583,-0.6222451,-0.018644081,1.4142234,1.5377955
-0.2,-0.2,0.6,-0.5235987755982988,-0.5235987755982988,0.34906585039886606,1.3212129,1.6297092,0.41989005,0.11335299,0.18722624,0.757241,0.985469,-0.37803975,1.5217078,-0.24433151,-0.60978353,-0.0062631518,1.4022189,1.5968035
-0.2,-0.2,0.6,-0.5235987755982988,-0.5235987755982988,0.34906585039886606,1.3268137,1.6294001,0.41628894,0.103869736,0.17971188,0.76376945,0.9802103,-0.37172225,1.5251886,-0.23651107,-0.5732565,-0.0024571274,1.4004174,1.4034402
-0.2,-0.2,0.6,-0.5235987755982988,-0.5235987755982988,0.34906585039886606,1.3296491,1.6297454,0.424017,0.08014753,0.1819017,0.753707,1.0084362,-0.3554321,1.518201,-0.23482685,-0.6053289,0.0038910685,1.4400419,1.5829144
-0.2,-0.2,0.6,-0.5235987755982988,-0.5235987755982988,0.34906585039886606,1.3251061,1.6327409,0.42221653,0.08821198,0.16770577,0.7568303,1.0190866,-0.38827136,1.5291398,-0.23291749,-0.64577264,-0.024577677,1.3998957,1.5731362
-0.2,-0.2,0.6,-0.5235987755982988,-0.5235987755982988,0.34906585039886606,1.3192544,1.6278834,0.4157992,0.085037224,0.17924371,0.7495025,0.9883625,-0.34505013,1.5233513,-0.23575614,-0.57706237,-0.012128026,1.4007735,1.5606098
-0.2,-0.2,0.6,-0.5235987755982988,-0.5235987755982988,0.34906585039886606,1.3266082,1.6269665,0.42121786,0.07773053,0.20274694,0.75294966,1.0417907,-0.36301553,1.525839,-0.25018036,-0.6076974,-0.02459117,1.4063925,1.6453451
-0.2,-0.2,0.6,-0.5235987755982988,-0.5235987755982988,0.34906585039886606,1.3238896,1.6297535,0.42106092,0.084193476,0.17856254,0.7531732,0.9711694,-0.38656303,1.5252287,-0.23091513,-0.60497034,0.0027576096,1.4055554,1.4982699
-0.2,-0.2,0.6,-0.5235987755982988,-0.5235987755982988,0.34906585039886606,1.3137882,1.6340531,0.43438935,0.08631877,0.18017916,0.75489765,0.99634165,-0.38270533,1.5175518,-0.24626794,-0.60028964,-0.013025653,1.4068475,1.569541
-0.2,-0.2,0.6,-0.5235987755982988,-0.5235987755982988,0.34906585039886606,1.3286439,1.6295823,0.42102104,0.09679199,0.19746403,0.73870265,0.9335473,-0.35366535,1.5300422,-0.2411234,-0.57754356,-0.011450763,1.4173977,1.5033648
-0.2,-0.2,0.6,-0.5235987755982988,-0.5235987755982988,0.34906585039886606,1.3307227,1.6348199,0.42039818,0.07983856,0.1985537,0.7455642,0.9994362,-0.3606151,1.520045,-0.23474903,-0.6057318,-0.011535687,1.4321936,1.4210738
-0.2,-0.2,0.6,-0.5235987755982988,-0.5235987755982988,0.34906585039886606,1.3190248,1.6320388,0.41961777,0.07068394,0.19082716,0.75979877,0.95196414,-0.3887253,1.5316683,-0.23547353,-0.60253173,0.005500592,1.3960319,1.3708988
-0.2,-0.2,0.6,-0.5235987755982988,-0.5235987755982988,0.34906585039886606,1.322013,1.6321945,0.42515072,0.06475766,0.21105936,0.7522915,0.9369096,-0.36164126,1.5282116,-0.25148895,-0.59702826,-0.0058826483,1.4182559,1.5917724
-0.2,-0.2,0.6,-0.5235987755982988,-0.5235987755982988,0.34906585039886606,1.3289824,1.6327189,0.42148596,0.07847007,0.19605708,0.7680455,1.0200106,-0.35668162,1.5294541,-0.27919236,-0.59045076,0.011663834,1.3952059,1.4240108
-0.2,-0.2,0.6,-0.5235987755982988,-0.5235987755982988,0.34906585039886606,1.3163497,1.6360676,0.41644135,0.07528293,0.17711388,0.78121835,1.0740229,-0.34530082,1.5126317,-0.24639377,-0.6341168,0.0012485177,1.4091709,1.5565829
-0.2,-0.2,0.6,-0.5235987755982988,-0.5235987755982988,0.34906585039886606,1.3105806,1.6330262,0.43450075,0.09178891,0.18322855,0.75015914,0.98476267,-0.3571984,1.5277911,-0.25421396,-0.5821506,-0.02240539,1.4036691,1.5682138
-0.2,-0.2,0.6,-0.5235987755982988,-0.5235987755982988,0.34906585039886606,1.3208224,1.6324468,0.41526902,0.07820774,0.21528643,0.75820696,1.0208056,-0.3713992,1.5163734,-0.22003154,-0.6259861,-0.027765278,1.4007761,1.494006
-0.2,-0.2,0.6,-0.5235987755982988,-0.5235987755982988,0.34906585039886606,1.3146467,1.6258838,0.43221506,0.07123912,0.17289701,0.745046,1.0319991,-0.38626206,1.5198858,-0.25699735,-0.62179905,-0.00063135655,1.4031106,1.4812262
-0.2,-0.2,0.6,-0.5235987755982988,-0.5235987755982988,0.34906585039886606,1.3202415,1.6333863,0.42310265,0.07816118,0.1820732,0.77008283,0.9904362,-0.3877595,1.5287406,-0.24423172,-0.6171819,0.0037766665,1.401683,1.431225
-0.2,-0.2,0.6,-0.5235987755982988,-0.5235987755982988,0.34906585039886606,1.3283198,1.6296093,0.42420924,0.07937182,0.16718948,0.75195235,1.0027927,-0.38371184,1.5276589,-0.23812233,-0.6233236,0.0058645904,1.4154152,1.4648031
-0.2,-0.2,0.6,-0.5235987755982988,-0.5235987755982988,0.34906585039886606,1.3121578,1.6332935,0.42560875,0.08044092,0.15909913,0.74827087,1.0254035,-0.37152287,1.52443,-0.25482118,-0.6127448,0.0038894543,1.3777806,1.6632333
-0.2,-0.2,0.6,-0.5235987755982988,-0.5235987755982988,0.34906585039886606,1.3184534,1.6346732,0.42400464,0.07151107,0.21409251,0.74628484,1.0666049,-0.35955757,1.5184869,-0.2431694,-0.5780177,-0.007136831,1.3985428,1.5583967
-0.2,-0.2,0.6,-0.5235987755982988,-0.5235987755982988,0.34906585039886606,1.3125769,1.6300235,0.42382735,0.08478135,0.16120245,0.7688962,1.03775,-0.38180536,1.5274063,-0.20938903,-0.620373,-0.02133877,1.4284118,1.5786047
-0.2,-0.2,0.6,-0.5235987755982988,-0.5235987755982988,0.34906585039886606,1.3277637,1.6335149,0.42335197,0.08306915,0.19863112,0.74853516,1.0677613,-0.36872056,1.5359592,-0.26072967,-0.6257412,0.005042539,1.4083978,1.5775454
-0.2,-0.2,0.6,-0.5235987755982988,-0.5235987755982988,0.34906585039886606,1.3260959,1.6266801,0.4211484,0.08470723,0.18603168,0.73986584,1.03374,-0.34229833,1.5222379,-0.25453174,-0.57607967,-0.006178154,1.4082301,1.5417908
-0.2,-0.2,0.6,-0.5235987755982988,-0.5235987755982988,0.34906585039886606,1.3359587,1.6312629,0.40981108,0.06335808,0.1727887,0.7491549,0.9986105,-0.36921212,1.5345509,-0.23612727,-0.6284301,0.026133187,1.4204051,1.3802627
-0.2,-0.2,0.6,-0.5235987755982988,-0.5235987755982988,0.34906585039886606,1.3185015,1.6305467,0.42156255,0.084064715,0.1737623,0.7419394,1.0232723,-0.3592283,1.5197897,-0.24563257,-0.60465527,-0.0062500024,1.3922989,1.4756533
-0.2,-0.2,0.6,-0.5235987755982988,-0.5235987755982988,0.34906585039886606,1.3272645,1.633165,0.42453948,0.081474274,0.18836017,0.74764186,1.0460259,-0.34957522,1.5202361,-0.25434354,-0.5957879,-0.01591598,1.4096684,1.440449
-0.2,-0.2,0.6,-0.5235987755982988,-0.5235987755982988,0.34906585039886606,1.3344711,1.6342207,0.422642,0.08357971,0.1997892,0.7354125,0.996873,-0.32768884,1.5148951,-0.25822148,-0.573417,-0.04552281,1.4253138,1.4864241
-0.2,-0.2,0.6,-0.5235987755982988,-0.5235987755982988,0.34906585039886606,1.3346058,1.6323587,0.4143663,0.0742777,0.17842741,0.7582985,1.0584798,-0.36274996,1.5184349,-0.23817085,-0.5985528,0.014805065,1.4173568,1.6770109
-0.2,-0.2,0.6,-0.5235987755982988,-0.5235987755982988,0.34906585039886606,1.3310329,1.6334151,0.42538118,0.07820529,0.17486094,0.7785094,1.0195287,-0.37697425,1.5288112,-0.25365567,-0.6187884,-0.010235775,1.4213737,1.4143509
-0.2,-0.2,0.6,-0.5235987755982988,-0.5235987755982988,0.34906585039886606,1.3230255,1.6347872,0.42977482,0.07872428,0.17401522,0.7650418,0.9842266,-0.36347854,1.5189978,-0.22984077,-0.5667992,-0.014852164,1.4143702,1.5509139
-0.2,-0.2,0.6,-0.5235987755982988,-0.5235987755982988,0.34906585039886606,1.3163389,1.6269073,0.4223762,0.08691577,0.19116358,0.7650059,1.0342141,-0.36395606,1.5137918,-0.25185663,-0.645685,-0.0104166,1.4179121,1.5687585
-0.2,-0.2,0.6,-0.5235987755982988,-0.5235987755982988,0.34906585039886606,1.3226515,1.6350182,0.42266744,0.06526631,0.18459319,0.7614218,0.99800384,-0.35697365,1.5231115,-0.25793505,-0.61237204,0.025139427,1.4211233,1.3965665
-0.2,-0.2,0.6,-0.5235987755982988,-0.5235987755982988,0.34906585039886606,1.3278749,1.6326725,0.41561425,0.08219383,0.19430539,0.7508313,0.97084266,-0.37120005,1.5242729,-0.2441597,-0.6337661,-0.037947103,1.4213709,1.3987116
-0.2,-0.2,0.6,-0.5235987755982988,-0.5235987755982988,0.34906585039886606,1.3219577,1.6271116,0.41869557,0.08677431,0.19589688,0.7519879,0.9925594,-0.36305946,1.5217538,-0.24487107,-0.5953496,-0.008503198,1.4089172,1.7085482
-0.2,-0.2,0.6,-0.5235987755982988,-0.5235987755982988,0.34906585039886606,1.3343488,1.6328977,0.41881418,0.08694636,0.19075081,0.7593416,1.0193996,-0.37939045,1.5258538,-0.23808943,-0.6141514,-0.0028154424,1.4157449,1.5146405
-0.2,-0.2,0.6,-0.5235987755982988,-0.5235987755982988,0.34906585039886606,1.3159633,1.6321917,0.4178022,0.070238784,0.20248985,0.76366097,1.0041006,-0.35097775,1.5249757,-0.22377986,-0.56856453,-0.0020169332,1.4163694,1.5057288
-0.2,-0.2,0.6,-0.5235987755982988,-0.5235987755982988,0.34906585039886606,1.3143271,1.6326731,0.42571518,0.069949724,0.17544734,0.76455474,1.0256659,-0.3465887,1.5203702,-0.24046348,-0.5781682,-0.019244157,1.404064,1.4020759
-0.2,-0.2,0.6,-0.5235987755982988,-0.5235987755982988,0.34906585039886606,1.3206028,1.632255,0.419782,0.090463996,0.17994027,0.74365336,1.0729574,-0.352494,1.5232949,-0.24899966,-0.63345826,-0.028870512,1.4169406,1.5327718
-0.2,-0.2,0.6,-0.5235987755982988,-0.5235987755982988,0.34906585039886606,1.3216312,1.6318932,0.42170298,0.09015414,0.19408083,0.77120596,0.9894399,-0.37040344,1.5188328,-0.2520735,-0.63461256,-0.003823433,1.4217206,1.5931981
-0.2,-0.2,0.6,-0.5235987755982988,-0.5235987755982988,0.34906585039886606,1.3205246,1.6275928,0.4276563,0.08557154,0.1726099,0.7413421,0.9687665,-0.37188157,1.5199233,-0.28874734,-0.6154816,-0.011040192,1.3994671,1.3349531
-0.2,-0.2,0.6,-0.5235987755982988,-0.5235987755982988,0.34906585039886606,1.3166494,1.6331309,0.41397083,0.069145806,0.17921233,0.751653,1.1286039,-0.35018614,1.5253208,-0.2318606,-0.62128603,-0.013761473,1.4026915,1.4469401
-0.2,-0.2,0.6,-0.5235987755982988,-0.5235987755982988,0.34906585039886606,1.3291184,1.6320682,0.42225468,0.07351543,0.19718675,0.7546892,1.027298,-0.3444725,1.5189655,-0.25189734,-0.6320064,-0.020308554,1.4232228,1.4497237
-0.2,-0.2,0.6,-0.5235987755982988,-0.5235987755982988,0.34906585039886606,1.323312,1.6355307,0.41020238,0.07315427,0.20360674,0.7676429,0.988544,-0.3529041,1.5196087,-0.21405964,-0.59859824,-0.053504404,1.4065303,1.6795764
-0.2,-0.2,0.6,-0.5235987755982988,-0.5235987755982988,0.34906585039886606,1.318059,1.6330261,0.42905524,0.10059128,0.18736768,0.7484184,0.9430038,-0.37061977,1.5244532,-0.2609368,-0.59707123,-0.004366053,1.4064968,1.5857762
-0.2,-0.2,0.6,-0.5235987755982988,-0.5235987755982988,0.34906585039886606,1.3193747,1.6356101,0.4192225,0.07108406,0.17943726,0.74089813,1.1043206,-0.35162553,1.5181444,-0.24838144,-0.61323196,0.011981545,1.3924265,1.5962342
-0.2,-0.2,0.6,-0.5235987755982988,-0.5235987755982988,0.34906585039886606,1.3246318,1.6258836,0.41837668,0.073320165,0.19657812,0.74902534,0.95794165,-0.35593316,1.5282854,-0.24840504,-0.60458183,-0.035620548,1.4132968,1.5015068
-0.2,-0.2,0.6,-0.5235987755982988,-0.5235987755982988,0.34906585039886606,1.3307762,1.6257449,0.41805062,0.0706665,0.17541906,0.7693322,0.9549274,-0.37181017,1.5279346,-0.22284083,-0.6045041,-7.752724e-05,1.4200331,1.381924
-0.2,-0.2,0.6,-0.5235987755982988,-0.5235987755982988,0.34906585039886606,1.3328973,1.6375293,0.43410805,0.09727243,0.1676442,0.73061365,1.0348788,-0.3831394,1.5265188,-0.23924138,-0.62659377,-0.031767633,1.4263381,1.5648494
-0.2,-0.2,0.6,-0.5235987755982988,-0.5235987755982988,0.34906585039886606,1.3244445,1.629191,0.42631218,0.07313193,0.19546418,0.75045526,0.989173,-0.38045084,1.5260355,-0.2637758,-0.6724145,-0.046955414,1.4362746,1.3138341
-0.2,-0.2,0.6,-0.5235987755982988,-0.5235987755982988,0.34906585039886606,1.3323557,1.6298826,0.42124367,0.08842337,0.18040968,0.7577943,0.9396225,-0.3590267,1.5142813,-0.2479291,-0.5790455,0.01991277,1.4090819,1.540639
-0.2,-0.2,0.6,-0.5235987755982988,-0.5235987755982988,0.34906585039886606,1.3147528,1.6352724,0.4174412,0.08669357,0.18763207,0.7442608,1.0203438,-0.32957646,1.534265,-0.2611152,-0.5863247,-0.001778783,1.4020592,1.4064764
-0.2,-0.2,0.6,-0.5235987755982988,-0.5235987755982988,0.34906585039886606,1.3237928,1.6304301,0.4256704,0.07970252,0.18606956,0.7366013,0.9798993,-0.38035858,1.517277,-0.26862854,-0.6488601,-0.0051443265,1.4315636,1.4333683
-0.2,-0.2,0.6,-0.5235987755982988,-0.5235987755982988,0.34906585039886606,1.330468,1.6316972,0.41773462,0.0859137,0.17492688,0.7683878,1.0268105,-0.36804384,1.5162071,-0.24549982,-0.57981944,-0.0009697271,1.3996547,1.600175
-0.2,-0.2,0.6,-0.5235987755982988,-0.5235987755982988,0.34906585039886606,1.3276167,1.638213,0.42894515,0.08152858,0.16370977,0.77256274,1.0091156,-0.39551035,1.5201035,-0.2226423,-0.62003726,-0.0005441471,1.4072243,1.3959677
-0.2,-0.2,0.6,-0.5235987755982988,-0.5235987755982988,0.34906585039886606,1.3275965,1.6332117,0.42923567,0.0671663,0.18691754,0.7672344,1.0300201,-0.3567472,1.518978,-0.26027152,-0.59909827,-0.01004216,1.4192965,1.4093205
-0.2,-0.2,0.6,-0.5235987755982988,-0.5235987755982988,0.34906585039886606,1.3299319,1.6346477,0.43007505,0.079015024,0.16339743,0.7569764,1.0060012,-0.38096943,1.5157992,-0.24886785,-0.64238393,-0.005168342,1.4201359,1.507629
-0.2,-0.2,0.6,-0.5235987755982988,-0.5235987755982988,0.34906585039886606,1.3248442,1.6384853,0.4121105,0.086603984,0.19227394,0.7451001,1.0815818,-0.3593212,1.525672,-0.22814919,-0.6059211,0.011353117,1.4030243,1.5189412
-0.2,-0.2,0.6,-0.5235987755982988,-0.5235987755982988,0.34906585039886606,1.3103306,1.6386034,0.42444357,0.07598935,0.1775734,0.7583618,1.107823,-0.35266748,1.5281513,-0.2507129,-0.62120306,0.013138992,1.4111423,1.4533546
-0.2,-0.2,0.6,-0.5235987755982988,-0.5235987755982988,0.34906585039886606,1.3265051,1.6308813,0.41911346,0.07867832,0.18206753,0.7731665,1.0411848,-0.38072458,1.5234696,-0.24197936,-0.62412685,-0.019610792,1.4220504,1.5136411
-0.2,-0.2,0.6,-0.5235987755982988,-0.5235987755982988,0.34906585039886606,1.3269821,1.634902,0.43621594,0.067208685,0.18143997,0.7796201,0.94587696,-0.37004256,1.5226635,-0.26600316,-0.61573106,-0.0014229446,1.4009714,1.5837492
-0.2,-0.2,0.6,-0.5235987755982988,-0.5235987755982988,0.34906585039886606,1.3336809,1.6305261,0.42085803,0.08579463,0.16018796,0.7482569,0.99885184,-0.37730825,1.5229605,-0.23027751,-0.58354264,-0.022690704,1.4000232,1.3080696
-0.2,-0.2,0.6,-0.5235987755982988,-0.5235987755982988,0.34906585039886606,1.3088338,1.6360557,0.41621876,0.07194755,0.15192592,0.7571988,1.0938793,-0.3572807,1.5289595,-0.23654218,-0.62115806,0.008011674,1.4006109,1.3364648
-0.2,-0.2,0.6,-0.5235987755982988,-0.5235987755982988,0.34906585039886606,1.3228073,1.6259689,0.4121151,0.086528175,0.178687,0.7467098,1.0813282,-0.34680304,1.521549,-0.2450161,-0.6018183,-0.012122287,1.3967204,1.5226179
-0.2,-0.2,0.6,-0.5235987755982988,-0.5235987755982988,0.34906585039886606,1.3292036,1.6313864,0.41608354,0.068141975,0.21016812,0.7576276,0.96755016,-0.36161348,1.5134059,-0.2512383,-0.61329585,-0.01647924,1.4068171,1.471116
-0.2,-0.2,0.6,-0.5235987755982988,-0.5235987755982988,0.34906585039886606,1.3233707,1.6300027,0.41718453,0.09215368,0.18909022,0.7503768,1.0197208,-0.3585775,1.5241367,-0.2562809,-0.595554,0.012074581,1.3851049,1.48357
-0.2,-0.2,0.6,-0.5235987755982988,-0.5235987755982988,0.34906585039886606,1.3167334,1.6271993,0.4244096,0.08821426,0.20142435,0.74077904,0.95383495,-0.34861183,1.5211451,-0.26340124,-0.60099596,-0.008924843,1.4227265,1.4399475
-0.2,-0.2,0.6,-0.5235987755982988,-0.5235987755982988,0.34906585039886606,1.3206456,1.6323924,0.42364416,0.07095286,0.17923483,0.7467728,1.0125846,-0.35668707,1.5237093,-0.24489203,-0.60809785,-0.029695228,1.3912249,1.4376241
-0.2,-0.2,0.6,-0.5235987755982988,-0.5235987755982988,0.34906585039886606,1.330045,1.633179,0.432732,0.069325075,0.17500784,0.7521965,0.96661514,-0.37450698,1.5265757,-0.25119713,-0.61064285,-0.039137106,1.4102333,1.4873719
-0.2,-0.2,0.6,-0.5235987755982988,-0.5235987755982988,0.34906585039886606,1.3286811,1.6335902,0.42425737,0.091843314,0.15872669,0.751985,0.9978536,-0.36136743,1.5235113,-0.25269502,-0.6168929,-0.017743306,1.4130492,1.526923
-0.2,-0.2,0.6,-0.5235987755982988,-0.5235987755982988,0.34906585039886606,1.3256247,1.6308844,0.41179597,0.07924619,0.17805426,0.76900506,1.0694908,-0.340387,1.5148449,-0.25751087,-0.58397454,0.01018729,1.3939253,1.590006
-0.2,-0.2,0.6,-0.5235987755982988,-0.5235987755982988,0.34906585039886606,1.327513,1.6303542,0.42124447,0.092033684,0.18872589,0.75391155,0.9830707,-0.38731202,1.519591,-0.23378798,-0.611563,-0.01414447,1.3944402,1.4485804
-0.2,-0.2,0.6,-0.5235987755982988,-0.5235987755982988,0.34906585039886606,1.3233653,1.6321784,0.42387173,0.08183648,0.16845039,0.75865334,1.0184084,-0.37512153,1.5171741,-0.25196204,-0.61154807,-0.026296854,1.3900915,1.6965292
-0.2,-0.2,0.6,-0.5235987755982988,-0.5235987755982988,0.34906585039886606,1.3207322,1.6346364,0.42725176,0.0893563,0.20369084,0.74712956,1.0395924,-0.3479192,1.5141981,-0.25935614,-0.58044535,-0.0073735924,1.4000729,1.5596766
-0.2,-0.2,0.6,-0.5235987755982988,-0.5235987755982988,0.34906585039886606,1.3188589,1.632483,0.42238533,0.07258204,0.1758864,0.75634134,1.0173805,-0.35340747,1.5235052,-0.24891536,-0.6155976,0.003722724,1.4182546,1.4569978
-0.2,-0.2,0.6,-0.5235987755982988,-0.5235987755982988,0.34906585039886606,1.3205892,1.6349669,0.42554802,0.07540164,0.20835765,0.7385809,0.99866843,-0.3505676,1.5217507,-0.26119947,-0.5977556,-0.02974583,1.4036428,1.5103087
-0.2,-0.2,0.6,-0.5235987755982988,-0.5235987755982988,0.34906585039886606,1.3268981,1.6254134,0.42291197,0.07809222,0.18455325,0.7653264,1.0838373,-0.36330083,1.5201162,-0.25939256,-0.6307164,-0.038630437,1.4047203,1.6389549
-0.2,-0.2,0.6,-0.5235987755982988,-0.5235987755982988,0.34906585039886606,1.3157743,1.629364,0.42757258,0.067170635,0.1769943,0.7516288,0.956395,-0.3683389,1.5196627,-0.25541326,-0.60262567,-0.023113575,1.4077775,1.4458965
-0.2,-0.2,0.6,-0.5235987755982988,-0.5235987755982988,0.34906585039886606,1.327507,1.6331228,0.42228806,0.08616108,0.17194352,0.7446397,1.0219604,-0.34860107,1.5246459,-0.255069,-0.59772354,0.009732685,1.4215639,1.4262551
-0.2,-0.2,0.6,-0.5235987755982988,-0.5235987755982988,0.34906585039886606,1.3240659,1.6351616,0.4180091,0.116146885,0.19472583,0.7635599,0.9977881,-0.35937697,1.5195138,-0.25635934,-0.5877823,-0.02287369,1.3925401,1.6417208
-0.2,-0.2,0.6,-0.5235987755982988,-0.5235987755982988,0.34906585039886606,1.3287853,1.6354597,0.41825143,0.08629061,0.18700922,0.7558994,1.0244759,-0.36440244,1.5272274,-0.24391599,-0.601783,0.01443195,1.406821,1.3426269
-0.2,-0.2,0.6,-0.5235987755982988,-0.5235987755982988,0.34906585039886606,1.3169811,1.6329433,0.41827363,0.08032919,0.18523134,0.77298516,0.9184377,-0.37007272,1.5205005,-0.24634048,-0.6265152,0.0048536994,1.4273794,1.4185914
-0.2,-0.2,0.6,-0.5235987755982988,-0.5235987755982988,0.34906585039886606,1.3188162,1.6290766,0.41639018,0.061703585,0.17467861,0.7695298,1.0319494,-0.35434934,1.5236388,-0.27229378,-0.63149124,0.022504622,1.413962,1.3397118
-0.2,-0.2,0.6,-0.5235987755982988,-0.5235987755982988,0.34906585039886606,1.3313679,1.6300627,0.4177795,0.07403749,0.19340657,0.7618039,1.0699158,-0.3598194,1.5320293,-0.2406964,-0.5986966,-0.0071983277,1.4300433,1.481212
-0.2,-0.2,0.6,-0.5235987755982988,-0.5235987755982988,0.34906585039886606,1.3254987,1.6358798,0.4197722,0.09037309,0.19422442,0.762471,1.0098431,-0.38027397,1.5241972,-0.2439492,-0.60786426,0.007596817,1.4080138,1.4930149
-0.2,-0.2,0.6,-0.5235987755982988,-0.5235987755982988,0.34906585039886606,1.325302,1.6306121,0.43155402,0.086312674,0.16834506,0.7424938,1.0516293,-0.37760478,1.515576,-0.2587633,-0.60950667,-0.028916258,1.399588,1.4987541
-0.2,-0.2,0.6,-0.5235987755982988,-0.5235987755982988,0.34906585039886606,1.3161423,1.6373414,0.41350242,0.08519623,0.19433425,0.75406414,1.0746579,-0.35676,1.5091345,-0.23521315,-0.6138281,0.001894552,1.4029573,1.6476746
-0.2,-0.2,0.6,-0.5235987755982988,-0.5235987755982988,0.34906585039886606,1.3309957,1.6337866,0.4186906,0.08789121,0.18930697,0.75677335,0.98735094,-0.39148733,1.5252296,-0.24687631,-0.61656326,0.0012911262,1.4141153,1.4954534
-0.2,-0.2,0.6,-0.5235987755982988,-0.5235987755982988,0.34906585039886606,1.3174069,1.6375445,0.42600542,0.096299745,0.16755053,0.7603254,1.016938,-0.36518684,1.5212716,-0.24819237,-0.5893272,0.02384465,1.3971064,1.3295981
-0.2,-0.2,0.6,-0.5235987755982988,-0.5235987755982988,0.34906585039886606,1.3232632,1.6338812,0.4217928,0.082899354,0.1731103,0.74496377,0.9910258,-0.35611585,1.5219891,-0.24966216,-0.5877391,-0.0032383008,1.3850423,1.4580393
-0.2,-0.2,0.6,-0.5235987755982988,-0.5235987755982988,0.34906585039886606,1.3210647,1.6299891,0.42239448,0.08762514,0.1622155,0.76076883,0.9285157,-0.37678653,1.5285472,-0.25418788,-0.71743363,0.00903304,1.4221394,1.3698804
-0.2,-0.2,0.6,-0.5235987755982988,-0.5235987755982988,0.34906585039886606,1.3247824,1.6344548,0.42680323,0.082826465,0.14125605,0.75298065,1.0207151,-0.3631414,1.5295593,-0.22896852,-0.58966804,0.030786173,1.435156,1.4235377
-0.2,-0.2,0.6,-0.5235987755982988,-0.5235987755982988,0.34906585039886606,1.319041,1.6312462,0.42005196,0.071687125,0.16516271,0.74484265,1.0166242,-0.33349407,1.5276159,-0.23415004,-0.57753253,-0.027904665,1.4135032,1.4913344
-0.2,-0.2,0.6,-0.5235987755982988,-0.5235987755982988,0.34906585039886606,1.3289723,1.6305051,0.422615,0.06615045,0.2010672,0.75298226,1.0393862,-0.35956532,1.5267293,-0.25356996,-0.58376366,-0.00821536,1.4244547,1.4079715
-0.2,-0.2,0.6,-0.5235987755982988,-0.5235987755982988,0.34906585039886606,1.3208009,1.6354079,0.43031707,0.08689659,0.19390135,0.73981684,0.95711213,-0.37525773,1.5150974,-0.24766995,-0.6278589,-0.02592829,1.4104276,1.3644533
-0.2,-0.2,0.6,-0.5235987755982988,-0.5235987755982988,0.34906585039886606,1.3132223,1.6355078,0.43211243,0.087902345,0.18652047,0.7527275,1.0022062,-0.3374213,1.5271918,-0.2704693,-0.5792524,-0.0057943184,1.4037813,1.6663877
-0.2,-0.2,0.6,-0.5235987755982988,-0.5235987755982988,0.34906585039886606,1.3320411,1.6282972,0.420408,0.08265978,0.18293472,0.75082785,0.990231,-0.38003618,1.5221571,-0.25129634,-0.59200287,-0.03646857,1.3867408,1.6283224
-0.2,-0.2,0.6,-0.5235987755982988,-0.5235987755982988,0.34906585039886606,1.3238955,1.6298918,0.4225604,0.09030956,0.17740521,0.7599773,1.0588628,-0.36014637,1.5288323,-0.23996164,-0.5873974,-0.014047569,1.4125245,1.4952422
-0.2,-0.2,0.6,-0.5235987755982988,-0.5235987755982988,0.34906585039886606,1.3261943,1.633585,0.42309,0.082923904,0.19343744,0.7539135,1.0177162,-0.37133324,1.5220833,-0.23955362,-0.5844483,-0.01140335,1.3924859,1.3951551
-0.2,-0.2,0.6,-0.5235987755982988,-0.5235987755982988,0.34906585039886606,1.3262606,1.6313456,0.4204101,0.07738857,0.17891176,0.76026165,1.0182159,-0.36840913,1.5287869,-0.24957618,-0.60073954,-7.3382325e-05,1.4038472,1.5039215
-0.2,-0.2,0.6,-0.5235987755982988,-0.5235987755982988,0.34906585039886606,1.3314557,1.6362343,0.42385167,0.08905446,0.19691575,0.7484923,0.97082156,-0.37580696,1.5229397,-0.23282175,-0.6078908,0.0052234638,1.4395773,1.639461
-0.2,-0.2,0.6,-0.5235987755982988,-0.5235987755982988,0.34906585039886606,1.3285532,1.6373453,0.42287493,0.08585429,0.1971944,0.7537306,0.9802013,-0.37962824,1.5182711,-0.23559022,-0.5954979,-0.009147501,1.4100708,1.4351037
-0.2,-0.2,0.6,-0.5235987755982988,-0.5235987755982988,0.34906585039886606,1.3192427,1.6295899,0.41587523,0.07504461,0.19973972,0.77027047,1.0724207,-0.3742732,1.5293683,-0.25736287,-0.6103257,-0.005429392,1.395815,1.5414169
-0.2,-0.2,0.6,-0.5235987755982988,-0.5235987755982988,0.34906585039886606,1.3283086,1.6282971,0.4145233,0.08956775,0.17215116,0.74184614,1.0189282,-0.35040358,1.5255141,-0.24966408,-0.61556846,-0.016774714,1.3971397,1.4952426
-0.2,-0.2,0.6,-0.5235987755982988,-0.5235987755982988,0.34906585039886606,1.3350384,1.6395687,0.4205953,0.07590758,0.21051769,0.7537466,0.9961828,-0.35803688,1.5167049,-0.25834307,-0.60332793,0.010075438,1.4081337,1.5282757
-0.2,-0.2,0.6,-0.5235987755982988,-0.5235987755982988,0.34906585039886606,1.3231462,1.630219,0.4220988,0.06879727,0.18926433,0.77234215,0.9926861,-0.34605703,1.5214058,-0.26782325,-0.58423454,-0.014105563,1.3960043,1.4502425
-0.2,-0.2,0.6,-0.5235987755982988,-0.5235987755982988,0.34906585039886606,1.3127573,1.6280233,0.42851597,0.06803764,0.18364106,0.766355,1.0173438,-0.36103874,1.5164487,-0.26572984,-0.58159345,-0.015256771,1.3995533,1.4851481
-0.2,-0.2,0.6,-0.5235987755982988,-0.5235987755982988,0.34906585039886606,1.3295573,1.6337942,0.42675224,0.0790042,0.17491633,0.76094675,1.0349475,-0.35590112,1.5176332,-0.25421423,-0.6269175,-0.015418761,1.4135826,1.4724042
-0.2,-0.2,0.6,-0.5235987755982988,-0.5235987755982988,0.34906585039886606,1.3387959,1.6319529,0.41557303,0.07813361,0.16872674,0.7735018,1.0880901,-0.36848247,1.520191,-0.25306395,-0.6093962,0.032745894,1.4067045,1.3912716
-0.2,-0.2,0.6,-0.5235987755982988,-0.5235987755982988,0.34906585039886606,1.3174918,1.6348331,0.4185827,0.07811117,0.18905708,0.76109713,1.0095813,-0.36493912,1.5197692,-0.22473167,-0.65834606,-0.011967384,1.433663,1.5585525
-0.2,-0.2,0.6,-0.5235987755982988,-0.5235987755982988,0.34906585039886606,1.322711,1.629954,0.42443648,0.06416152,0.17774217,0.74787045,1.0563962,-0.35960063,1.528785,-0.24055618,-0.58944905,-0.04541936,1.3922095,1.5951899
-0.2,-0.2,0.6,-0.5235987755982988,-0.5235987755982988,0.34906585039886606,1.3190407,1.6338285,0.43127826,0.08736144,0.18217722,0.7492679,1.0237427,-0.36173642,1.5175642,-0.24480562,-0.5909466,0.009662231,1.4302185,1.521477
-0.2,-0.2,0.6,-0.5235987755982988,-0.5235987755982988,0.34906585039886606,1.3202592,1.6340567,0.42528102,0.09384701,0.1709663,0.7590661,1.0585058,-0.36933303,1.5234907,-0.25076824,-0.6163433,-0.014406739,1.3996985,1.4944165
-0.2,-0.2,0.6,-0.5235987755982988,-0.5235987755982988,0.34906585039886606,1.3111316,1.630183,0.42869335,0.0718888,0.18136542,0.7491161,1.0091274,-0.37733084,1.5201796,-0.24812883,-0.63833934,-0.013720585,1.4216846,1.5472333
-0.2,-0.2,0.6,-0.5235987755982988,-0.5235987755982988,0.34906585039886606,1.3260953,1.6320022,0.41441926,0.073023684,0.16873313,0.7681411,1.0456325,-0.3427357,1.5197388,-0.2408877,-0.6337494,-0.005725892,1.3974669,1.4390459
-0.2,-0.2,0.6,-0.5235987755982988,-0.5235987755982988,0.34906585039886606,1.3156663,1.6324507,0.42719826,0.07497711,0.18655892,0.74807864,1.0745568,-0.37452567,1.5265495,-0.26113015,-0.61912686,0.015620238,1.4097918,1.4797132
-0.2,-0.2,0.6,-0.5235987755982988,-0.5235987755982988,0.34906585039886606,1.324582,1.634545,0.4239455,0.08584473,0.18775347,0.7656681,0.990715,-0.37898442,1.5188613,-0.23831744,-0.5928012,0.002313277,1.4118006,1.4225482
-0.2,-0.2,0.6,-0.5235987755982988,-0.5235987755982988,0.34906585039886606,1.3181689,1.630062,0.41600078,0.08230768,0.20052715,0.74399316,1.0593171,-0.38518867,1.5263884,-0.23929358,-0.6242654,0.019392325,1.4145389,1.425564
-0.2,-0.2,0.6,-0.5235987755982988,-0.5235987755982988,0.34906585039886606,1.3045037,1.6368738,0.4144463,0.08145903,0.20013602,0.7702323,1.0038736,-0.3658977,1.5218112,-0.22809379,-0.5891973,0.011493342,1.3980416,1.4992192
-0.2,-0.2,0.6,-0.5235987755982988,-0.5235987755982988,0.34906585039886606,1.3179421,1.6360196,0.41987735,0.09651222,0.16323535,0.7536226,0.9670686,-0.3622719,1.521692,-0.24039415,-0.5716215,-0.002030968,1.3916419,1.3433807
-0.2,-0.2,0.6,-0.5235987755982988,-0.5235987755982988,0.34906585039886606,1.321255,1.6325272,0.42725527,0.07849625,0.15229486,0.7696905,0.97346765,-0.38145673,1.5225458,-0.2624883,-0.61946464,0.008835828,1.3882113,1.4039973
-0.2,-0.2,0.6,-0.5235987755982988,-0.5235987755982988,0.34906585039886606,1.3164445,1.6410366,0.42316607,0.07539314,0.19301304,0.7489211,0.9467534,-0.37552336,1.5244586,-0.23136626,-0.6207085,0.019565826,1.4193553,1.4313643
-0.2,-0.2,0.6,-0.5235987755982988,-0.5235987755982988,0.34906585039886606,1.3259891,1.6378075,0.41891328,0.07754473,0.16637346,0.7419864,1.0707936,-0.3336895,1.5230998,-0.23357923,-0.6257689,-0.011289524,1.4131626,1.4301677
-0.2,-0.2,0.6,-0.5235987755982988,-0.5235987755982988,0.34906585039886606,1.3207839,1.6321853,0.42032966,0.079287864,0.1896863,0.7334625,1.0103805,-0.35366932,1.5193253,-0.24699993,-0.59560686,-0.010250919,1.3992946,1.5716811
-0.2,-0.2,0.6,-0.5235987755982988,-0.5235987755982988,0.34906585039886606,1.3142139,1.628947,0.42681745,0.08709465,0.1739492,0.74561435,0.9513255,-0.38663033,1.5237455,-0.26354024,-0.65173066,-0.03168347,1.4187403,1.4826885
-0.2,-0.2,0.6,-0.5235987755982988,-0.5235987755982988,0.34906585039886606,1.321471,1.635465,0.42340365,0.08633538,0.21197672,0.7619283,1.0544031,-0.37184298,1.521549,-0.25138423,-0.6245927,-0.025101908,1.4288694,1.422589
-0.2,-0.2,0.6,-0.5235987755982988,-0.5235987755982988,0.34906585039886606,1.3110017,1.6265231,0.4146094,0.06895949,0.19739129,0.75445133,0.9697203,-0.36845127,1.5220777,-0.237583,-0.61171067,0.0033473321,1.4006232,1.3968234
-0.2,-0.2,0.6,-0.5235987755982988,-0.5235987755982988,0.34906585039886606,1.3186469,1.6282719,0.4184805,0.08068252,0.19284107,0.760846,0.9895678,-0.36734304,1.529473,-0.24448967,-0.6050629,0.009778297,1.4286282,1.4319329
-0.2,-0.2,0.6,-0.5235987755982988,-0.5235987755982988,0.34906585039886606,1.322722,1.6397841,0.4309558,0.08837707,0.16057146,0.77033114,1.0501087,-0.36383328,1.514783,-0.25312674,-0.58048534,-0.007900401,1.4062563,1.3678435
-0.2,-0.2,0.6,-0.5235987755982988,-0.5235987755982988,0.34906585039886606,1.3178821,1.6300387,0.410803,0.07106883,0.2004325,0.7593808,1.0399203,-0.3546083,1.5078137,-0.23604494,-0.59030855,-0.01706917,1.388105,1.6425363
-0.2,-0.2,0.6,-0.5235987755982988,-0.5235987755982988,0.34906585039886606,1.314784,1.6329207,0.42450207,0.08836241,0.19974391,0.75197136,1.0246811,-0.36219496,1.5155828,-0.2522328,-0.61847544,-0.024109762,1.4015176,1.5891267
-0.2,-0.2,0.6,-0.5235987755982988,-0.5235987755982988,0.34906585039886606,1.3108226,1.6267055,0.416652,0.07983561,0.18026553,0.7536364,1.0668243,-0.35680795,1.5251974,-0.22443406,-0.5793005,-0.0070547247,1.4096812,1.4906845
-0.2,-0.2,0.6,-0.5235987755982988,-0.5235987755982988,0.34906585039886606,1.320567,1.6322429,0.41804934,0.078537025,0.19738759,0.7614642,1.073641,-0.37389848,1.5246621,-0.22636178,-0.5863348,-0.007942043,1.413269,1.5278033
-0.2,-0.2,0.6,-0.5235987755982988,-0.5235987755982988,0.34906585039886606,1.3252043,1.6348851,0.41939706,0.091198035,0.17317629,0.7538468,0.9749955,-0.3893673,1.5148983,-0.24148804,-0.6376574,0.017859226,1.387626,1.6035851
-0.2,-0.2,0.6,-0.5235987755982988,-0.5235987755982988,0.34906585039886606,1.3195376,1.6368824,0.43164143,0.07532943,0.17554943,0.74268204,1.008612,-0.358694,1.5254056,-0.24183878,-0.62053806,-0.016745606,1.4389523,1.34658
-0.2,-0.2,0.6,-0.5235987755982988,-0.5235987755982988,0.34906585039886606,1.309718,1.6297543,0.43031046,0.07426407,0.18573858,0.7777988,0.9699221,-0.37401682,1.5152619,-0.26002574,-0.6024527,-0.007758402,1.4007199,1.403072
-0.2,-0.2,0.6,-0.5235987755982988,-0.5235987755982988,0.34906585039886606,1.3213829,1.6302646,0.41896158,0.09485804,0.17317544,0.75243145,0.9761082,-0.36465082,1.5205488,-0.23574202,-0.6059563,-0.008670837,1.4037676,1.5756458
-0.2,-0.2,0.6,-0.5235987755982988,-0.5235987755982988,0.34906585039886606,1.3216013,1.633481,0.42013055,0.075905345,0.18488425,0.75171506,0.96403515,-0.3934555,1.5318552,-0.24015097,-0.63410944,-0.009132834,1.4059117,1.5707138
-0.2,-0.2,0.6,-0.5235987755982988,-0.5235987755982988,0.34906585039886606,1.3174984,1.6288431,0.41690007,0.09020593,0.15462276,0.7566131,0.9760487,-0.37428463,1.5306878,-0.24173062,-0.6025697,-0.01145835,1.3981012,1.298506
-0.2,-0.2,0.6,-0.5235987755982988,-0.5235987755982988,0.34906585039886606,1.3083084,1.6366094,0.4170861,0.07859646,0.20145926,0.75009507,1.02849,-0.34879425,1.5199488,-0.22494778,-0.60559237,0.01199871,1.4252155,1.5155358
-0.2,-0.2,0.6,-0.5235987755982988,-0.5235987755982988,0.34906585039886606,1.3398563,1.6371021,0.4206058,0.08315975,0.1778828,0.7492221,1.0370638,-0.36401594,1.5181646,-0.25680986,-0.60868615,0.02864948,1.4062504,1.3604211
-0.2,-0.2,0.6,-0.5235987755982988,-0.5235987755982988,0.34906585039886606,1.3131065,1.6313301,0.41830295,0.07877073,0.1980948,0.7539196,0.9592359,-0.39173096,1.526314,-0.23813455,-0.62283796,0.011510559,1.4101212,1.5832891
-0.2,-0.2,0.6,-0.5235987755982988,-0.5235987755982988,0.34906585039886606,1.3202513,1.6376956,0.43300852,0.09432024,0.15963009,0.76452416,1.0127743,-0.3567673,1.5223662,-0.25471944,-0.59082884,-0.02869714,1.4220955,1.3546928
-0.2,-0.2,0.6,-0.5235987755982988,-0.5235987755982988,0.34906585039886606,1.3124943,1.6286155,0.4226401,0.098628305,0.17508096,0.74753505,0.97817636,-0.3679064,1.5256691,-0.2646213,-0.6110292,-0.032183796,1.4074912,1.3363428
-0.2,-0.2,0.6,-0.5235987755982988,-0.5235987755982988,0.34906585039886606,1.3234823,1.63235,0.4190999,0.07397733,0.20642397,0.7633534,1.0021312,-0.34954107,1.5135462,-0.25880614,-0.6288052,-0.007826426,1.3989371,1.5672115
-0.2,-0.2,0.6,-0.5235987755982988,-0.5235987755982988,0.34906585039886606,1.3149563,1.6361386,0.42515856,0.09149089,0.22235133,0.75720924,0.9957659,-0.35258535,1.5170586,-0.24000041,-0.57705873,0.009824814,1.4347044,1.5277516
-0.2,-0.2,0.6,-0.5235987755982988,-0.5235987755982988,0.34906585039886606,1.3225614,1.6316723,0.42407143,0.09389206,0.17527544,0.766245,1.0156621,-0.370503,1.5200391,-0.24686593,-0.60692334,-0.011034538,1.421608,1.2730517
-0.2,-0.2,0.6,-0.5235987755982988,-0.5235987755982988,0.34906585039886606,1.3281306,1.6315563,0.4189608,0.06587174,0.18371767,0.74548054,1.040978,-0.35007167,1.5202426,-0.24483371,-0.6196947,0.008222371,1.4234636,1.5008047
-0.2,-0.2,0.6,-0.5235987755982988,-0.5235987755982988,0.34906585039886606,1.3164726,1.62712,0.41049623,0.095327236,0.18821336,0.75561184,1.0234286,-0.3882962,1.53416,-0.23622157,-0.65275896,0.007398984,1.4161615,1.5547763
-0.2,-0.2,0.6,-0.5235987755982988,-0.5235987755982988,0.34906585039886606,1.3178828,1.633421,0.42167747,0.08526278,0.19237423,0.75121295,1.0000116,-0.37170509,1.5178016,-0.21167189,-0.5688133,0.0043358696,1.4159935,1.7072626
-0.2,-0.2,0.6,-0.5235987755982988,-0.5235987755982988,0.34906585039886606,1.3169057,1.6292486,0.4169571,0.07709657,0.19324744,0.74488056,1.0170052,-0.34962887,1.5129734,-0.23183669,-0.6116827,-0.0025365963,1.4091315,1.3568445
-0.2,-0.2,0.6,-0.5235987755982988,-0.5235987755982988,0.34906585039886606,1.3202605,1.6334617,0.42544952,0.09161096,0.1769508,0.7548212,1.0649112,-0.3358202,1.5204941,-0.26406378,-0.5817375,-0.017509656,1.4053414,1.452754
-0.2,-0.2,0.6,-0.5235987755982988,-0.5235987755982988,0.34906585039886606,1.3141294,1.6313283,0.41747943,0.087385066,0.17579493,0.7561308,0.95421314,-0.36065954,1.5202,-0.2718144,-0.6234716,0.028509473,1.408642,1.3902476
-0.2,-0.2,0.6,-0.5235987755982988,-0.5235987755982988,0.34906585039886606,1.3234189,1.6300154,0.42370626,0.07445636,0.18720363,0.75503,0.9212333,-0.3810339,1.5250989,-0.24742377,-0.62556976,-0.0034179527,1.433529,1.4891473
-0.2,-0.2,0.6,-0.5235987755982988,-0.5235987755982988,0.34906585039886606,1.310687,1.6329081,0.41530293,0.08264042,0.18625832,0.7596832,0.9928432,-0.36775663,1.5231217,-0.24277896,-0.6020004,0.015908105,1.4093004,1.6118257
-0.2,-0.2,0.6,-0.5235987755982988,-0.5235987755982988,0.34906585039886606,1.3228523,1.631791,0.42049894,0.08029136,0.20326857,0.7478055,1.0409753,-0.38460612,1.5282657,-0.23143446,-0.6090829,-0.030526755,1.4060419,1.4687804
-0.2,-0.2,0.6,-0.5235987755982988,-0.5235987755982988,0.34906585039886606,1.320557,1.6329253,0.41562137,0.07839216,0.17603189,0.7736277,0.99873686,-0.36924055,1.5236872,-0.23591794,-0.61800337,0.0097241225,1.4071958,1.5286567
-0.2,-0.2,0.6,-0.5235987755982988,-0.5235987755982988,0.34906585039886606,1.3253956,1.6349146,0.4246737,0.09720167,0.18630685,0.74904174,0.97433716,-0.35696575,1.5226902,-0.25049904,-0.59049,-0.040311486,1.4179316,1.4022399
-0.2,-0.2,0.6,-0.5235987755982988,-0.5235987755982988,0.34906585039886606,1.3228636,1.6333343,0.41225758,0.074282624,0.17359786,0.7618152,1.0620314,-0.37187564,1.5279093,-0.22725275,-0.62815654,-0.015830742,1.3944509,1.4822097
-0.2,-0.2,0.6,-0.5235987755982988,-0.5235987755982988,0.34906585039886606,1.3138561,1.6374807,0.42559198,0.0972494,0.18131234,0.7462458,0.92440796,-0.35577396,1.526055,-0.24484257,-0.57669973,0.0023603041,1.4201893,1.4531878
-0.2,-0.2,0.6,-0.5235987755982988,-0.5235987755982988,0.34906585039886606,1.323688,1.6320539,0.41847345,0.08201239,0.18081895,0.75895035,1.0177623,-0.36834484,1.5218198,-0.24880525,-0.6111532,0.02211245,1.4053428,1.2719324
-0.2,-0.2,0.6,-0.5235987755982988,-0.5235987755982988,0.34906585039886606,1.3246939,1.6312021,0.41890085,0.08111369,0.17236678,0.771515,1.0034345,-0.35445628,1.5363083,-0.2531223,-0.59173983,0.005890316,1.4075766,1.6247765
-0.2,-0.2,0.6,-0.5235987755982988,-0.5235987755982988,0.34906585039886606,1.3244497,1.6322699,0.42534503,0.091220185,0.17692418,0.75447196,1.0401926,-0.34102654,1.5296364,-0.2678185,-0.5881681,-0.020917797,1.4156882,1.5511233
-0.2,-0.2,0.6,-0.5235987755982988,-0.5235987755982988,0.34906585039886606,1.3298709,1.633543,0.42570487,0.08174365,0.17117082,0.7543988,0.9641187,-0.38033015,1.5185788,-0.24548462,-0.600587,0.015474401,1.4191569,1.4859055
-0.2,-0.2,0.6,-0.5235987755982988,-0.5235987755982988,0.34906585039886606,1.3242955,1.6341138,0.4244278,0.080421954,0.18781158,0.75439596,1.088753,-0.38063315,1.5206381,-0.2493997,-0.6356924,-0.001367203,1.4082805,1.496986
-0.2,-0.2,0.6,-0.5235987755982988,-0.5235987755982988,0.34906585039886606,1.3256841,1.6312312,0.42055705,0.063506074,0.1951675,0.7612396,1.0514601,-0.37739933,1.5083345,-0.25312155,-0.60885483,0.011676766,1.3922971,1.370217
-0.2,-0.2,0.6,-0.5235987755982988,-0.5235987755982988,0.34906585039886606,1.3190516,1.6343647,0.42096686,0.09291974,0.1975884,0.7515509,1.0289501,-0.3652947,1.5217987,-0.22183998,-0.60050523,-0.03837521,1.4046799,1.435769
-0.2,-0.2,0.6,-0.5235987755982988,-0.5235987755982988,0.34906585039886606,1.3264052,1.6349804,0.41995296,0.078791894,0.18766645,0.748303,1.0378655,-0.37775016,1.5271994,-0.24825191,-0.6128079,-0.009740014,1.3877903,1.4144499
-0.2,-0.2,0.6,-0.5235987755982988,-0.5235987755982988,0.34906585039886606,1.3142669,1.6392294,0.43095508,0.07935864,0.1940773,0.74269104,0.98025626,-0.3776229,1.5210652,-0.22560084,-0.5910013,0.0018528994,1.4215596,1.5101992
-0.2,-0.2,0.6,-0.5235987755982988,-0.5235987755982988,0.34906585039886606,1.3152004,1.6280882,0.4203247,0.097983904,0.15916087,0.76638883,0.97620004,-0.34536847,1.5266994,-0.24657425,-0.57647645,-0.015795521,1.4108397,1.5018175
-0.2,-0.2,0.6,-0.5235987755982988,-0.5235987755982988,0.34906585039886606,1.3260453,1.6340803,0.4125116,0.07709876,0.19507827,0.7646648,1.051993,-0.35410735,1.5258385,-0.24665998,-0.6200839,0.01803066,1.4150217,1.5244161
-0.2,-0.2,0.6,-0.5235987755982988,-0.5235987755982988,0.34906585039886606,1.330182,1.6316425,0.41598454,0.07595852,0.18109398,0.7720235,1.0423733,-0.37527013,1.521083,-0.25284463,-0.6220445,0.008991497,1.3942909,1.4988018
-0.2,-0.2,0.6,-0.5235987755982988,-0.5235987755982988,0.34906585039886606,1.3204238,1.6320791,0.42100334,0.08767384,0.19531503,0.7487303,1.0611705,-0.35882294,1.5118997,-0.2245174,-0.6010872,-0.01940646,1.4146612,1.5121604
-0.2,-0.2,0.6,-0.5235987755982988,-0.5235987755982988,0.34906585039886606,1.3179877,1.6351268,0.42308524,0.08055578,0.18367258,0.7652679,0.9871353,-0.3715654,1.5223846,-0.23607734,-0.59006935,1.2361149e-05,1.407149,1.5615628
-0.2,-0.2,0.6,-0.5235987755982988,-0.5235987755982988,0.34906585039886606,1.3144851,1.634147,0.41740188,0.09142118,0.18891944,0.77656823,0.9959029,-0.38007668,1.5299706,-0.24312158,-0.6070456,0.0029085984,1.417735,1.5055856
-0.2,-0.2,0.6,-0.5235987755982988,-0.5235987755982988,0.34906585039886606,1.3254467,1.6304241,0.43088847,0.075629495,0.17169222,0.75531685,0.93280816,-0.36435002,1.5255003,-0.24989824,-0.5931707,0.029862106,1.4244186,1.4321182
-0.2,-0.2,0.6,-0.5235987755982988,-0.5235987755982988,0.34906585039886606,1.3069012,1.6334649,0.41430834,0.094517745,0.18848957,0.7456261,1.036726,-0.35293394,1.5103213,-0.21644105,-0.62389255,0.0049457885,1.4226688,1.50455
-0.2,-0.2,0.6,-0.5235987755982988,-0.5235987755982988,0.34906585039886606,1.3271555,1.6356982,0.4216755,0.10335315,0.17958249,0.7528522,1.0126323,-0.36761624,1.5311729,-0.2433309,-0.6026698,-0.0070188004,1.4290214,1.5012467
-0.2,-0.2,0.6,-0.5235987755982988,-0.5235987755982988,0.34906585039886606,1.3227818,1.6289563,0.41171265,0.076802246,0.1774589,0.76522726,1.052357,-0.34685743,1.5164603,-0.24414544,-0.62906647,-0.018757978,1.3855605,1.5418587
-0.2,-0.2,0.6,-0.5235987755982988,-0.5235987755982988,0.34906585039886606,1.3211677,1.6303217,0.4267004,0.08363559,0.15674014,0.74769187,1.0226811,-0.3726739,1.5200468,-0.24010788,-0.60253537,-0.0050185574,1.4154681,1.5426112
-0.2,-0.2,0.6,-0.5235987755982988,-0.5235987755982988,0.34906585039886606,1.321612,1.6443998,0.4242501,0.073077604,0.19989407,0.7644614,0.9965281,-0.36373264,1.5239826,-0.2604364,-0.6108025,-0.00606854,1.4066149,1.5492965
-0.2,-0.2,0.6,-0.5235987755982988,-0.5235987755982988,0.34906585039886606,1.3122562,1.6317114,0.4162586,0.076464884,0.17801057,0.76126546,0.949057,-0.3416626,1.5286466,-0.25847843,-0.6121115,-0.0071277027,1.3773625,1.5497085
-0.2,-0.2,0.6,-0.5235987755982988,-0.5235987755982988,0.34906585039886606,1.338954,1.6385646,0.41342577,0.07675423,0.19633189,0.76291764,0.9385994,-0.3590924,1.5233196,-0.25398567,-0.60811526,0.007257269,1.4009428,1.4607469
-0.2,-0.2,0.6,-0.5235987755982988,-0.5235987755982988,0.34906585039886606,1.3149068,1.629525,0.42935348,0.079576366,0.17250666,0.74342537,1.0369799,-0.38232043,1.5299805,-0.26371655,-0.64595765,-0.026530642,1.4129426,1.4313536
-0.2,-0.2,0.6,-0.5235987755982988,-0.5235987755982988,0.34906585039886606,1.3295883,1.6288315,0.42216027,0.08721944,0.15984634,0.76599485,1.0386267,-0.3749616,1.5158323,-0.2662248,-0.62724334,0.0053462354,1.3999017,1.4961504
-0.2,-0.2,0.6,-0.5235987755982988,-0.5235987755982988,0.34906585039886606,1.3174627,1.6305401,0.42329586,0.09888949,0.19259895,0.73976946,0.95527714,-0.34014714,1.5188723,-0.26365477,-0.57778245,-0.014303327,1.4085344,1.5486462
-0.2,-0.2,0.6,-0.5235987755982988,-0.5235987755982988,0.34906585039886606,1.3278686,1.6271906,0.42426288,0.074380964,0.16818018,0.7510029,1.074206,-0.339035,1.5261594,-0.26356775,-0.58276296,0.00080318924,1.4181733,1.582526
-0.2,-0.2,0.6,-0.5235987755982988,-0.5235987755982988,0.34906585039886606,1.3260953,1.6298743,0.40925768,0.079007514,0.1742585,0.75799906,1.0675604,-0.34962726,1.5232592,-0.22618152,-0.58208567,0.00016910511,1.4162772,1.6308978
-0.2,-0.2,0.6,-0.5235987755982988,-0.5235987755982988,0.34906585039886606,1.3168168,1.6307439,0.42722884,0.09127796,0.15532316,0.7492199,1.0236408,-0.35439605,1.5239608,-0.24705184,-0.5993959,-0.028970446,1.3913509,1.6359493
-0.2,-0.2,0.6,-0.5235987755982988,-0.5235987755982988,0.34906585039886606,1.3366188,1.6291919,0.42174476,0.08163331,0.18167011,0.7491403,1.0267222,-0.3682368,1.5195651,-0.25209257,-0.61460096,-0.023575798,1.4101529,1.6050382
-0.2,-0.2,0.6,-0.5235987755982988,-0.5235987755982988,0.34906585039886606,1.3197092,1.6318513,0.42412084,0.08486635,0.18436147,0.7432858,0.9974455,-0.37186617,1.5207287,-0.26797372,-0.623383,0.00041099373,1.4050736,1.3390702
-0.2,-0.2,0.6,-0.5235987755982988,-0.5235987755982988,0.34906585039886606,1.3149018,1.6305392,0.4267704,0.07338891,0.16831787,0.7568566,1.0445396,-0.36285278,1.5187023,-0.24749993,-0.5756425,0.0005276649,1.4060844,1.4441266
-0.2,-0.2,0.6,-0.5235987755982988,-0.5235987755982988,0.34906585039886606,1.3310263,1.6353167,0.41604024,0.08235736,0.1758596,0.753758,1.1005318,-0.35934955,1.5233264,-0.25087023,-0.6149503,-0.0008066466,1.3981827,1.5072323
-0.2,-0.2,0.6,-0.5235987755982988,-0.5235987755982988,0.34906585039886606,1.3213229,1.635193,0.4250059,0.07678447,0.16970731,0.75899166,1.0409032,-0.37109184,1.516959,-0.20652895,-0.5845464,-0.0257376,1.4069986,1.3231244
-0.2,-0.2,0.6,-0.5235987755982988,-0.5235987755982988,0.34906585039886606,1.3302774,1.6402955,0.41708758,0.07908414,0.17806008,0.7459532,0.99844205,-0.35371217,1.5281817,-0.23701088,-0.6089409,0.008822204,1.4128728,1.5155295
-0.2,-0.2,0.6,-0.5235987755982988,-0.5235987755982988,0.34906585039886606,1.3239475,1.6349535,0.42248866,0.08315368,0.18630822,0.75489414,0.9157285,-0.37255803,1.5296192,-0.23787251,-0.593244,0.008641871,1.4056834,1.4623426
-0.2,-0.2,0.6,-0.5235987755982988,-0.5235987755982988,0.34906585039886606,1.3186324,1.6323268,0.42856276,0.08214832,0.15396838,0.7409608,1.0163552,-0.38379216,1.5180789,-0.22299668,-0.58896375,-0.010169951,1.3979506,1.4211868
-0.2,-0.2,0.6,-0.5235987755982988,-0.5235987755982988,0.34906585039886606,1.3095927,1.6294997,0.42485976,0.07231348,0.19275187,0.761791,1.0202765,-0.35505626,1.5146528,-0.2497013,-0.5891018,-0.04904116,1.4250882,1.5491416
-0.2,-0.2,0.6,-0.5235987755982988,-0.5235987755982988,0.34906585039886606,1.3253464,1.6291883,0.41025096,0.08429845,0.19415131,0.76396126,1.0731987,-0.3249292,1.5203502,-0.26190606,-0.58358157,0.043710746,1.4248168,1.3829566
-0.2,-0.2,0.6,-0.5235987755982988,-0.5235987755982988,0.34906585039886606,1.3239995,1.6359587,0.42265114,0.0862576,0.19236152,0.7646687,1.0035185,-0.3508066,1.5242039,-0.25252202,-0.5736551,0.029226849,1.4214501,1.4554569
-0.2,-0.2,0.6,-0.5235987755982988,-0.5235987755982988,0.34906585039886606,1.3340281,1.6319665,0.42338893,0.06871529,0.20259544,0.733613,1.0046481,-0.3607103,1.522607,-0.25051594,-0.5916603,-0.015475311,1.4262941,1.2351656
-0.2,-0.2,0.6,-0.5235987755982988,-0.5235987755982988,0.34906585039886606,1.3151944,1.6424729,0.41982436,0.06272148,0.17996012,0.75366086,1.0135283,-0.36564463,1.5269107,-0.22930841,-0.62909347,0.008154366,1.4111818,1.4390204
-0.2,-0.2,0.6,-0.5235987755982988,-0.5235987755982988,0.34906585039886606,1.3243382,1.6321115,0.4178091,0.09192539,0.16381893,0.7481497,1.024007,-0.3690367,1.5323588,-0.24581853,-0.63682324,0.009293011,1.4323733,1.5224427
-0.2,-0.2,0.6,-0.5235987755982988,-0.5235987755982988,0.34906585039886606,1.3263813,1.6317782,0.4237898,0.08395672,0.18855713,0.755623,0.9878063,-0.35679886,1.5251303,-0.26583546,-0.6023775,0.0156143755,1.4205904,1.4981519
-0.2,-0.2,0.6,-0.5235987755982988,-0.5235987755982988,0.34906585039886606,1.3094158,1.6315485,0.42631853,0.09762371,0.19470155,0.74941826,1.035085,-0.370354,1.5171688,-0.22890754,-0.60299677,-0.020026008,1.4244127,1.4926121
-0.2,-0.2,0.6,-0.5235987755982988,-0.5235987755982988,0.34906585039886606,1.3222858,1.6284539,0.4257062,0.08576896,0.17202249,0.7507262,0.9951819,-0.35566804,1.5192946,-0.2717824,-0.60767275,-0.008102603,1.4145887,1.4845624
-0.2,-0.2,0.6,-0.5235987755982988,-0.5235987755982988,0.34906585039886606,1.3248075,1.6324453,0.41928053,0.06973645,0.16914079,0.7622291,1.0603838,-0.3763585,1.5259119,-0.23697892,-0.61291796,0.011284215,1.4123315,1.5134757
-0.2,-0.2,0.6,-0.5235987755982988,-0.5235987755982988,0.34906585039886606,1.3013234,1.6313798,0.42474377,0.08532316,0.16616537,0.74586177,1.0126675,-0.35811386,1.5211747,-0.24381082,-0.58388615,0.03433156,1.398227,1.6668938
-0.2,-0.2,0.6,-0.5235987755982988,-0.5235987755982988,0.34906585039886606,1.3176847,1.6326518,0.4040993,0.08449243,0.17290363,0.7423278,1.1042213,-0.34611526,1.5328112,-0.22551802,-0.6151462,0.015067988,1.4168931,1.4441053
-0.2,-0.2,0.6,-0.5235987755982988,-0.5235987755982988,0.34906585039886606,1.3343287,1.6315705,0.41915202,0.08030461,0.19859941,0.7610463,1.021962,-0.36659074,1.5275865,-0.27024242,-0.6327406,-0.008733104,1.4193013,1.4300647
-0.2,-0.2,0.6,-0.5235987755982988,-0.5235987755982988,0.34906585039886606,1.3204236,1.6345041,0.4145931,0.068794005,0.18837835,0.75172573,0.95394474,-0.37629032,1.5271319,-0.22371647,-0.6241931,-0.005559914,1.4114094,1.3790445
-0.2,-0.2,0.6,-0.5235987755982988,-0.5235987755982988,0.34906585039886606,1.319012,1.6291928,0.41740355,0.09135803,0.16557123,0.75163454,0.97930235,-0.34561685,1.5176308,-0.24083205,-0.5949676,-0.019908898,1.4055932,1.4608064
-0.2,-0.2,0.6,-0.5235987755982988,-0.5235987755982988,0.34906585039886606,1.3250345,1.637016,0.41894612,0.092448436,0.1891777,0.7515713,1.0578038,-0.3526435,1.5166398,-0.23552635,-0.56211233,0.0012884097,1.3978368,1.3838824
-0.2,-0.2,0.6,-0.5235987755982988,-0.5235987755982988,0.34906585039886606,1.3207906,1.6311496,0.42700455,0.07466312,0.17493305,0.747534,0.9837596,-0.39072734,1.5173419,-0.23018089,-0.6154007,-0.030400855,1.4100605,1.433474
-0.2,-0.2,0.6,-0.5235987755982988,-0.5235987755982988,0.34906585039886606,1.3367387,1.629713,0.42400077,0.0683276,0.16665706,0.7556522,1.0459704,-0.34948748,1.5231408,-0.25033262,-0.57597136,-0.030837886,1.4270935,1.346801
-0.2,-0.2,0.6,-0.5235987755982988,-0.5235987755982988,0.34906585039886606,1.3398604,1.6314775,0.42020684,0.08348353,0.19528866,0.7432895,1.0480415,-0.37887105,1.5274428,-0.25446185,-0.63865596,-0.020684443,1.4000437,1.4356495
-0.2,-0.2,0.6,-0.5235987755982988,-0.5235987755982988,0.34906585039886606,1.3244146,1.6375958,0.42442966,0.06579995,0.1987395,0.73999065,1.0649476,-0.3667904,1.5281563,-0.2444917,-0.58835995,-0.0027993165,1.4001719,1.582254
-0.2,-0.2,0.6,-0.5235987755982988,-0.5235987755982988,0.34906585039886606,1.3254681,1.6318145,0.42045346,0.07934288,0.15790224,0.7514465,1.0363079,-0.38820246,1.5275384,-0.22878239,-0.61067605,0.029794343,1.4273988,1.5508806
-0.2,-0.2,0.6,-0.5235987755982988,-0.5235987755982988,0.34906585039886606,1.3200878,1.630925,0.4210486,0.07129214,0.1773575,0.75239956,1.0740591,-0.38077894,1.5252769,-0.22808829,-0.614824,-0.0184487,1.3926333,1.3913636
-0.2,-0.2,0.6,-0.5235987755982988,-0.5235987755982988,0.34906585039886606,1.3204938,1.6356477,0.42090467,0.0812274,0.17657347,0.758646,0.9819869,-0.38019818,1.5320847,-0.25468004,-0.62593925,0.0035291412,1.4126747,1.3897306
-0.2,-0.2,0.6,-0.5235987755982988,-0.5235987755982988,0.34906585039886606,1.3037989,1.6359397,0.42557374,0.08807411,0.20329997,0.758227,1.0505565,-0.33925053,1.5208687,-0.25687823,-0.59172267,-0.009873897,1.4274222,1.332265
-0.2,-0.2,0.6,-0.5235987755982988,-0.5235987755982988,0.34906585039886606,1.3223836,1.6298705,0.41478217,0.08495732,0.19207661,0.76552874,1.0020963,-0.37275276,1.5311587,-0.2538896,-0.62778753,0.02075198,1.4269587,1.4728023
-0.2,-0.2,0.6,-0.5235987755982988,-0.5235987755982988,0.34906585039886606,1.3215808,1.6311015,0.41685563,0.08529869,0.17088626,0.7571453,0.9391084,-0.3783792,1.5159189,-0.24087627,-0.5917689,0.014465873,1.3869429,1.4811054
-0.2,-0.2,0.6,-0.5235987755982988,-0.5235987755982988,0.34906585039886606,1.3254254,1.6270814,0.41478395,0.0820159,0.19293727,0.760398,0.9546557,-0.3590983,1.5186418,-0.25975794,-0.62283105,-0.006619721,1.4153793,1.5002558
-0.2,-0.2,0.6,-0.5235987755982988,-0.5235987755982988,0.34906585039886606,1.3256826,1.632213,0.41617528,0.077452466,0.16087942,0.7463719,1.0033262,-0.38403824,1.5272298,-0.22468637,-0.62610453,0.011597331,1.4003043,1.5689344
-0.2,-0.2,0.6,-0.5235987755982988,-0.5235987755982988,0.34906585039886606,1.3293699,1.6247706,0.4162866,0.09468595,0.16407292,0.7439546,0.99072546,-0.34770787,1.51749,-0.23299359,-0.57025236,0.0040003285,1.4260688,1.5100569
-0.2,-0.2,0.6,-0.5235987755982988,-0.5235987755982988,0.34906585039886606,1.32573,1.6329062,0.42519748,0.07626518,0.17516111,0.7559488,1.0111383,-0.36509776,1.5224953,-0.25431255,-0.6167331,-0.021427963,1.4005673,1.6234381
-0.2,-0.2,0.6,-0.5235987755982988,-0.5235987755982988,0.34906585039886606,1.3299563,1.6371515,0.41725913,0.085179046,0.17280194,0.761497,1.0843669,-0.35188547,1.5275581,-0.2550896,-0.60587704,-0.00023674898,1.4129831,1.6035018
-0.2,-0.2,0.6,-0.5235987755982988,-0.5235987755982988,0.34906585039886606,1.3292706,1.6332699,0.4190136,0.07632719,0.17454048,0.7532528,1.0564209,-0.33469328,1.5167776,-0.25978026,-0.5708786,0.0053430656,1.3993734,1.402793
-0.2,-0.2,0.6,-0.5235987755982988,-0.5235987755982988,0.34906585039886606,1.321111,1.6305618,0.41862014,0.08956685,0.16938834,0.75101537,1.007598,-0.39001065,1.5316645,-0.24009798,-0.6244508,-0.052655168,1.378634,1.4808476
-0.2,-0.2,0.6,-0.5235987755982988,-0.5235987755982988,0.34906585039886606,1.3251882,1.631304,0.42136565,0.0861597,0.18856907,0.7671508,1.022788,-0.3592149,1.5120624,-0.26070008,-0.6090946,0.008677098,1.4144654,1.4915204
-0.2,-0.2,0.6,-0.5235987755982988,-0.5235987755982988,0.34906585039886606,1.3185965,1.6283785,0.41631636,0.08175658,0.2222018,0.7609139,0.99319464,-0.34720176,1.5202417,-0.27695328,-0.6055148,-0.023294037,1.3998702,1.4641895
-0.2,-0.2,0.6,-0.5235987755982988,-0.5235987755982988,0.34906585039886606,1.3146914,1.6269171,0.41942015,0.08289891,0.17656912,0.74369967,0.97701395,-0.37141442,1.524663,-0.23294371,-0.5926488,-0.0044385595,1.4118294,1.325987
-0.2,-0.2,0.6,-0.5235987755982988,-0.5235987755982988,0.34906585039886606,1.3249605,1.63603,0.4238425,0.08260201,0.19175142,0.7439985,0.9995356,-0.37699324,1.5271983,-0.23254843,-0.6204422,-0.0321929,1.4009721,1.3094561
-0.2,-0.2,0.6,-0.5235987755982988,-0.5235987755982988,0.34906585039886606,1.3276033,1.6351199,0.42390385,0.08278954,0.16981429,0.7454252,1.0251111,-0.37837806,1.5273498,-0.24735828,-0.6221413,-0.031183463,1.4072844,1.5483681
-0.2,-0.2,0.6,-0.5235987755982988,-0.5235987755982988,0.34906585039886606,1.3180426,1.628727,0.4189076,0.07089109,0.19257921,0.7572964,0.99051785,-0.37531,1.5223013,-0.25542662,-0.66538507,-0.01255168,1.4153612,1.4344478
-0.2,-0.2,0.6,-0.5235987755982988,-0.5235987755982988,0.34906585039886606,1.3212436,1.6370765,0.4198964,0.08903379,0.17863753,0.75821793,0.99833894,-0.36855417,1.5187889,-0.2242242,-0.5721463,0.0066006193,1.4023389,1.587294
-0.2,-0.2,0.6,-0.5235987755982988,-0.5235987755982988,0.34906585039886606,1.312739,1.6231124,0.4185793,0.08741575,0.17162716,0.755971,0.934557,-0.39215478,1.5188355,-0.2254069,-0.61566955,-0.012632495,1.3996096,1.5368494
-0.2,-0.2,0.6,-0.5235987755982988,-0.5235987755982988,0.34906585039886606,1.3299146,1.6284616,0.41711444,0.07118106,0.1816622,0.76009077,1.081991,-0.37380213,1.5201234,-0.24929214,-0.62691164,-0.013492151,1.4140741,1.4586053
-0.2,-0.2,0.6,-0.5235987755982988,-0.5235987755982988,0.34906585039886606,1.3173453,1.6364212,0.43754888,0.08481454,0.16549051,0.7448192,0.8956553,-0.3762132,1.5237486,-0.2335729,-0.6034309,0.013528972,1.4099443,1.5504155
-0.2,-0.2,0.6,-0.5235987755982988,-0.5235987755982988,0.34906585039886606,1.3213547,1.6271794,0.41600558,0.0911417,0.17519754,0.7491304,1.0543559,-0.37181744,1.5178283,-0.21363364,-0.62071025,-0.009366628,1.4289583,1.5276192
-0.2,-0.2,0.6,-0.5235987755982988,-0.5235987755982988,0.34906585039886606,1.3225317,1.6324384,0.42304242,0.07438673,0.18440872,0.74812216,1.0212897,-0.37087002,1.5230356,-0.2506878,-0.60316426,-0.0054549803,1.4070852,1.5180241
-0.2,-0.2,0.6,-0.5235987755982988,-0.5235987755982988,0.34906585039886606,1.317521,1.636958,0.41712067,0.07954625,0.18276083,0.7652926,1.0315107,-0.35904178,1.5163289,-0.23303218,-0.6262854,0.033797473,1.4184465,1.4545476
-0.2,-0.2,0.6,-0.5235987755982988,-0.5235987755982988,0.34906585039886606,1.3286347,1.6228703,0.41346866,0.06041568,0.18605702,0.7667497,0.98773307,-0.3651863,1.5169506,-0.25460038,-0.62338185,-0.023131141,1.4064718,1.4924408
-0.2,-0.2,0.6,-0.5235987755982988,-0.5235987755982988,0.34906585039886606,1.3337224,1.6325823,0.4208726,0.07554529,0.1680218,0.74849397,1.0353572,-0.37037113,1.5175586,-0.22337909,-0.6069246,-0.011842939,1.4076297,1.429967
-0.2,-0.2,0.6,-0.5235987755982988,-0.5235987755982988,0.34906585039886606,1.3268301,1.6305404,0.42116606,0.05693898,0.17126696,0.75752664,1.0900792,-0.36642632,1.5198927,-0.24842985,-0.5933392,0.0165303,1.3984787,1.4795377
-0.2,-0.2,0.6,-0.5235987755982988,-0.5235987755982988,0.34906585039886606,1.3200536,1.6375225,0.42025602,0.077439606,0.18202715,0.743516,1.0593812,-0.3566213,1.520615,-0.2265434,-0.6098753,0.026830394,1.4297464,1.4028997
-0.2,-0.2,0.6,-0.5235987755982988,-0.5235987755982988,0.34906585039886606,1.3247157,1.6347271,0.42197335,0.08638242,0.17414778,0.7575896,1.0618538,-0.35403514,1.528117,-0.25201806,-0.5889545,-0.00090539287,1.4047666,1.4737366
-0.2,-0.2,0.6,-0.5235987755982988,-0.5235987755982988,0.34906585039886606,1.3243452,1.6255876,0.41560787,0.07501258,0.1733619,0.7636372,1.0300503,-0.34882075,1.5342087,-0.26095626,-0.61643374,-0.044899642,1.4057938,1.5019464
-0.2,-0.2,0.6,-0.5235987755982988,-0.5235987755982988,0.34906585039886606,1.3236692,1.6280624,0.41843772,0.084004484,0.1933252,0.74408096,1.0470668,-0.36929327,1.5215304,-0.23890851,-0.6261319,-0.019593652,1.4165317,1.5452514
-0.2,-0.2,0.6,-0.5235987755982988,-0.5235987755982988,0.34906585039886606,1.3237095,1.6342696,0.4231634,0.07837502,0.16918777,0.75095373,1.0438794,-0.36016902,1.5143186,-0.25438505,-0.59373707,-0.007881557,1.3938155,1.4165611
-0.2,-0.2,0.6,-0.5235987755982988,-0.5235987755982988,0.34906585039886606,1.3200032,1.6330111,0.41916955,0.08880412,0.18487555,0.7534634,1.0253166,-0.37855193,1.5276964,-0.23872305,-0.61882985,-0.00043898606,1.4093965,1.2919562
-0.2,-0.2,0.6,-0.5235987755982988,-0.5235987755982988,0.34906585039886606,1.3219879,1.6323919,0.41916716,0.09344041,0.18244328,0.755336,0.9941544,-0.3753218,1.5235052,-0.24915268,-0.59860134,0.0029914584,1.4141674,1.3699374
-0.2,-0.2,0.6,-0.5235987755982988,-0.5235987755982988,0.34906585039886606,1.3176669,1.6298188,0.426239,0.067243546,0.18177468,0.7627248,1.006231,-0.35984924,1.5221798,-0.25609636,-0.58424157,0.009900192,1.4041728,1.5628378
-0.2,-0.2,0.6,-0.5235987755982988,-0.5235987755982988,0.34906585039886606,1.3223892,1.6338843,0.42182678,0.08941245,0.16628607,0.75642556,1.0174928,-0.37152717,1.5230578,-0.2416724,-0.6199648,6.9676535e-05,1.4104377,1.5668532
-0.2,-0.2,0.6,-0.5235987755982988,-0.5235987755982988,0.34906585039886606,1.3215253,1.6346875,0.4253892,0.08017172,0.18437572,0.75244325,1.0324644,-0.40248597,1.510236,-0.24403538,-0.6433101,0.029025903,1.4072534,1.4339707
-0.2,-0.2,0.6,-0.5235987755982988,-0.5235987755982988,0.34906585039886606,1.3249701,1.6302134,0.42487368,0.085464105,0.1779106,0.7606097,1.0544511,-0.3646611,1.5179269,-0.25894707,-0.61542076,-0.03496868,1.3991634,1.6326653
-0.2,-0.2,0.6,-0.5235987755982988,-0.5235987755982988,0.34906585039886606,1.3188303,1.6322633,0.42015028,0.080047354,0.18582734,0.7693585,1.0542091,-0.34975561,1.5201849,-0.2630437,-0.62261206,-0.0011283313,1.3995911,1.5267366
-0.2,-0.2,0.6,-0.5235987755982988,-0.5235987755982988,0.34906585039886606,1.321443,1.6371036,0.42768815,0.085114196,0.17411599,0.76389956,0.9805024,-0.36228028,1.5185455,-0.23044536,-0.57016045,-0.004467172,1.4059582,1.5309223
-0.2,-0.2,0.6,-0.5235987755982988,-0.5235987755982988,0.34906585039886606,1.3173269,1.6281554,0.4220497,0.08023174,0.18619192,0.7428847,1.0938343,-0.36430576,1.5121151,-0.2493657,-0.6231395,-0.0131527735,1.4072913,1.4547385
-0.2,-0.2,0.6,-0.5235987755982988,-0.5235987755982988,0.34906585039886606,1.3312274,1.6272525,0.41836047,0.09548453,0.18485303,0.75579756,1.075331,-0.37929285,1.5201552,-0.2619466,-0.63545257,-0.004188797,1.4017483,1.6439332
-0.2,-0.2,0.6,-0.5235987755982988,-0.5235987755982988,0.34906585039886606,1.3175105,1.6367552,0.4126418,0.090741865,0.19138677,0.77276707,1.0231746,-0.36870027,1.5107801,-0.2422854,-0.5926494,0.016351858,1.399899,1.4466528
-0.2,-0.2,0.6,-0.5235987755982988,-0.5235987755982988,0.34906585039886606,1.3234564,1.6294765,0.42955318,0.062074915,0.17504825,0.7457542,1.1376324,-0.3404088,1.518935,-0.28086996,-0.6017069,0.0024403667,1.4227476,1.5531456
-0.2,-0.2,0.6,-0.5235987755982988,-0.5235987755982988,0.34906585039886606,1.3149159,1.6290427,0.41960648,0.08419869,0.20715182,0.7588128,1.0532998,-0.3358811,1.5196084,-0.266029,-0.5777576,-0.0034977912,1.41501,1.3967762
-0.2,-0.2,0.6,-0.5235987755982988,-0.5235987755982988,0.34906585039886606,1.3283316,1.6261234,0.4130958,0.090655826,0.16996759,0.749724,1.0110095,-0.3703514,1.5307393,-0.2477155,-0.6095127,-0.013993531,1.3926101,1.4336917
-0.2,-0.2,0.6,-0.5235987755982988,-0.5235987755982988,0.34906585039886606,1.3146867,1.6371597,0.4260385,0.09042519,0.18106064,0.7596364,0.9901736,-0.34591582,1.5227326,-0.2487052,-0.5749364,-0.0023558224,1.4077908,1.4903315
-0.2,-0.2,0.6,-0.5235987755982988,-0.5235987755982988,0.34906585039886606,1.3171728,1.6384926,0.4279043,0.07340655,0.17540035,0.74676245,1.0265499,-0.3411399,1.5307579,-0.25735638,-0.6032912,0.009720495,1.4225847,1.5296499
-0.2,-0.2,0.6,-0.5235987755982988,-0.5235987755982988,0.34906585039886606,1.3186027,1.6275102,0.41431046,0.08414562,0.18528481,0.7550513,0.9916531,-0.37727362,1.5294777,-0.23744458,-0.6025582,-0.028212218,1.3983222,1.3769697
-0.2,-0.2,0.6,-0.5235987755982988,-0.5235987755982988,0.34906585039886606,1.3241792,1.6261951,0.4150221,0.06860482,0.17963563,0.76056314,0.9976434,-0.36476168,1.5276301,-0.2383098,-0.5953788,0.0070524085,1.4202335,1.4851615
-0.2,-0.2,0.6,-0.5235987755982988,-0.5235987755982988,0.34906585039886606,1.3192074,1.6377031,0.41589367,0.08699702,0.18647403,0.7586274,0.9297478,-0.3850546,1.515661,-0.23873374,-0.6190419,0.0022762017,1.3868815,1.4606057
-0.2,-0.2,0.6,-0.5235987755982988,-0.5235987755982988,0.34906585039886606,1.3209686,1.6333587,0.41286066,0.09508233,0.20307888,0.7524656,0.9955262,-0.36635393,1.5282338,-0.23304966,-0.63456273,0.008092172,1.4232874,1.5630597
-0.2,-0.2,0.6,-0.5235987755982988,-0.5235987755982988,0.34906585039886606,1.3336918,1.6339791,0.41603798,0.065480046,0.19663432,0.74809927,1.0533876,-0.39522848,1.5241597,-0.21573965,-0.64113855,-0.028556164,1.4151757,1.5099542
-0.2,-0.2,0.6,-0.5235987755982988,-0.5235987755982988,0.34906585039886606,1.3216099,1.6381516,0.4261481,0.08584376,0.17388184,0.7591455,1.0294404,-0.36716482,1.5218931,-0.24883193,-0.6112878,-0.03169471,1.4067695,1.4833049
-0.2,-0.2,0.6,-0.5235987755982988,-0.5235987755982988,0.34906585039886606,1.3228595,1.6274956,0.41546535,0.07613851,0.16878612,0.7589311,0.9769618,-0.3950293,1.5252364,-0.22590458,-0.6314598,-0.027418617,1.4029238,1.5301206
-0.2,-0.2,0.6,-0.5235987755982988,-0.5235987755982988,0.34906585039886606,1.3252156,1.6256089,0.41219035,0.0795962,0.18608166,0.768211,0.9423262,-0.36349145,1.5286502,-0.25446832,-0.6226822,-0.014195606,1.4133159,1.4529945
-0.2,-0.2,0.6,-0.5235987755982988,-0.5235987755982988,0.34906585039886606,1.3272707,1.6300716,0.4201536,0.07531443,0.18851376,0.76326245,1.0150124,-0.33404827,1.523573,-0.2748345,-0.58400106,-0.00439533,1.4197117,1.4118199
-0.2,-0.2,0.6,-0.5235987755982988,-0.5235987755982988,0.34906585039886606,1.3293113,1.635165,0.42524806,0.08793384,0.1638099,0.7476701,0.99912137,-0.35126948,1.5214862,-0.26693302,-0.59328955,0.004550336,1.401024,1.4979248
-0.2,-0.2,0.6,-0.5235987755982988,-0.5235987755982988,0.34906585039886606,1.3195448,1.6321255,0.42356282,0.07441291,0.18761793,0.7580364,0.9592456,-0.36985052,1.5212953,-0.26348448,-0.603565,-0.0041971668,1.4039893,1.3462465
-0.2,-0.2,0.6,-0.5235987755982988,-0.5235987755982988,0.34906585039886606,1.3169383,1.6341357,0.42368397,0.089233965,0.18727382,0.7555871,0.9926487,-0.3705473,1.524642,-0.24897967,-0.6198749,-0.02423102,1.4058136,1.5249544
-0.2,-0.2,0.6,-0.5235987755982988,-0.5235987755982988,0.34906585039886606,1.3197958,1.622429,0.41865706,0.05967433,0.20783813,0.7533153,0.99359477,-0.36779413,1.5244462,-0.24420887,-0.59492505,-0.028552402,1.3980463,1.4411747
-0.2,-0.2,0.6,-0.5235987755982988,-0.5235987755982988,0.34906585039886606,1.3252347,1.6293261,0.4192451,0.08675605,0.1741623,0.7439315,1.0704379,-0.34298247,1.525955,-0.253446,-0.6121946,-0.021368127,1.4259402,1.4487196
-0.2,-0.2,0.6,-0.5235987755982988,-0.5235987755982988,0.34906585039886606,1.3232898,1.6354153,0.4103489,0.08096498,0.17367849,0.7603227,0.95665216,-0.36702037,1.523533,-0.23650506,-0.6219799,-0.0062597636,1.4155033,1.2995805
-0.2,-0.2,0.6,-0.5235987755982988,-0.5235987755982988,0.34906585039886606,1.3312932,1.6370368,0.4159193,0.09210613,0.19303788,0.7661255,0.9903667,-0.36322248,1.5111283,-0.22153153,-0.5774937,-0.006399978,1.404202,1.6682591
-0.2,-0.2,0.6,-0.5235987755982988,-0.5235987755982988,0.34906585039886606,1.320946,1.6385529,0.42433628,0.083542325,0.18100582,0.74751824,1.038903,-0.37285382,1.5242819,-0.24067754,-0.6014991,0.0178489,1.4008148,1.507087
-0.2,-0.2,0.6,-0.5235987755982988,-0.5235987755982988,0.34906585039886606,1.3166426,1.632068,0.41760224,0.090509206,0.17135876,0.7652586,1.0258807,-0.3584035,1.5152569,-0.26326725,-0.6020688,-0.0039073396,1.4094214,1.4428625
-0.2,-0.2,0.6,-0.5235987755982988,-0.5235987755982988,0.34906585039886606,1.3279701,1.6331162,0.41999018,0.08164247,0.18520717,0.7583293,0.9604236,-0.36757556,1.5306426,-0.2534413,-0.63012034,-0.024236862,1.4055979,1.606309
-0.2,-0.2,0.6,-0.5235987755982988,-0.5235987755982988,0.34906585039886606,1.3275739,1.6286621,0.41388258,0.096942574,0.16003789,0.7566427,1.0727457,-0.37266907,1.5258437,-0.24373294,-0.59670794,-0.004767585,1.3820742,1.413846
-0.2,-0.2,0.6,-0.5235987755982988,-0.5235987755982988,0.34906585039886606,1.3187954,1.6359171,0.4245096,0.08200354,0.17755225,0.7479009,1.0118985,-0.38404667,1.5170097,-0.20897922,-0.63821566,-0.019434141,1.4174349,1.27374
-0.2,-0.2,0.6,-0.5235987755982988,-0.5235987755982988,0.34906585039886606,1.3280663,1.6356001,0.42479914,0.10037905,0.16104251,0.73214096,1.0695146,-0.38817927,1.519953,-0.25845072,-0.6383715,-0.022945108,1.3936586,1.4966929
-0.2,-0.2,0.6,-0.5235987755982988,-0.5235987755982988,0.34906585039886606,1.3214595,1.635843,0.4273058,0.08278218,0.191102,0.74374634,1.0340561,-0.36150885,1.5181152,-0.2572827,-0.60917187,-0.0047099227,1.4208677,1.5045336
-0.2,-0.2,0.6,-0.5235987755982988,-0.5235987755982988,0.34906585039886606,1.3194118,1.6345994,0.41775072,0.08651679,0.19383147,0.7551303,1.0110502,-0.34476593,1.5153832,-0.24809264,-0.6124713,-0.008785865,1.3924868,1.4416783
-0.2,-0.2,0.6,-0.5235987755982988,-0.5235987755982988,0.34906585039886606,1.3136648,1.6332066,0.418397,0.088835016,0.18868975,0.74439645,1.0525907,-0.3746884,1.522068,-0.2394815,-0.6202628,0.0061862925,1.406715,1.4175214
-0.2,-0.2,0.6,-0.5235987755982988,-0.5235987755982988,0.34906585039886606,1.3162478,1.6334052,0.4174121,0.071363635,0.19145244,0.7418686,0.9853004,-0.3649961,1.5197124,-0.22446197,-0.60892516,-0.020639533,1.3925856,1.3719186
-0.2,-0.2,0.6,-0.5235987755982988,-0.5235987755982988,0.34906585039886606,1.3208263,1.6300865,0.41897246,0.07312447,0.17523144,0.75200343,0.9730215,-0.38385057,1.5287805,-0.23519194,-0.6262768,-0.029592872,1.405903,1.5633608
-0.2,-0.2,0.6,-0.5235987755982988,-0.5235987755982988,0.34906585039886606,1.3220417,1.6321028,0.42303813,0.079988964,0.17977925,0.75226563,1.0256206,-0.36915532,1.5285331,-0.2376395,-0.60628414,-0.00039377078,1.4192529,1.316983
-0.2,-0.2,0.6,-0.5235987755982988,-0.5235987755982988,0.34906585039886606,1.3261575,1.6297032,0.41945964,0.09865403,0.15069017,0.74650085,0.97582895,-0.37357974,1.5191113,-0.2654893,-0.6076926,0.013590098,1.3926425,1.5441675
-0.2,-0.2,0.6,-0.5235987755982988,-0.5235987755982988,0.34906585039886606,1.3250006,1.634117,0.41890436,0.068527274,0.1817871,0.74678415,1.0905406,-0.37059975,1.5231156,-0.2554416,-0.6313269,0.042960692,1.4062957,1.4988554
-0.2,-0.2,0.6,-0.5235987755982988,-0.5235987755982988,0.34906585039886606,1.3052723,1.6327162,0.42229807,0.087143384,0.16819075,0.7631883,1.0752873,-0.37317973,1.5242252,-0.23946017,-0.6065359,0.00582233,1.4022297,1.5178313
-0.2,-0.2,0.6,-0.5235987755982988,-0.5235987755982988,0.34906585039886606,1.3178467,1.6293268,0.416213,0.079605386,0.18730648,0.7587063,1.046443,-0.36729044,1.5143995,-0.22429237,-0.6292663,-0.028416723,1.4020189,1.5844145
-0.2,-0.2,0.6,-0.5235987755982988,-0.5235987755982988,0.34906585039886606,1.3216791,1.6348815,0.43056068,0.08757403,0.16519704,0.76398647,0.97571355,-0.34964842,1.5241822,-0.24834535,-0.5923788,-0.009880042,1.4345107,1.5263454
-0.2,-0.2,0.6,-0.5235987755982988,-0.5235987755982988,0.34906585039886606,1.3341961,1.6313127,0.4169282,0.093792245,0.16122237,0.7473944,0.9949897,-0.36350045,1.5144253,-0.23023973,-0.6112515,-0.026192581,1.3983527,1.5819389
-0.2,-0.2,0.6,-0.5235987755982988,-0.5235987755982988,0.34906585039886606,1.3127432,1.6329316,0.41828576,0.0761444,0.20749977,0.74496543,1.0700618,-0.36240986,1.5254463,-0.24696419,-0.59065306,0.017798923,1.3931334,1.3054886
-0.2,-0.2,0.6,-0.5235987755982988,-0.5235987755982988,0.34906585039886606,1.3144283,1.6311884,0.41876933,0.08987513,0.18254209,0.7509162,1.0134888,-0.3635569,1.5084248,-0.25127882,-0.5938094,-0.033013873,1.3951911,1.2269171
-0.2,-0.2,0.6,-0.5235987755982988,-0.5235987755982988,0.34906585039886606,1.3334728,1.6316515,0.41963768,0.080210924,0.16746028,0.7502878,0.91627353,-0.36903477,1.5299047,-0.22795999,-0.6263143,-0.02126562,1.403193,1.477998
-0.2,-0.2,0.6,-0.5235987755982988,-0.5235987755982988,0.34906585039886606,1.3195777,1.6324792,0.4232645,0.08476711,0.16530949,0.74294466,1.0850114,-0.36497298,1.5319847,-0.24868219,-0.6067439,0.012525973,1.4157189,1.4548664
-0.2,-0.2,0.6,-0.5235987755982988,-0.5235987755982988,0.34906585039886606,1.3202759,1.629927,0.41260636,0.07510209,0.20619656,0.7507068,1.018801,-0.36192092,1.5194159,-0.24070442,-0.6364363,-0.0099094445,1.4118333,1.4308816
-0.2,-0.2,0.6,-0.5235987755982988,-0.5235987755982988,0.34906585039886606,1.3152683,1.634199,0.42385778,0.08577473,0.15370882,0.75489324,0.9932039,-0.36093393,1.5172637,-0.24502258,-0.6016709,-0.012353044,1.403571,1.377551
-0.2,-0.2,0.6,-0.5235987755982988,-0.5235987755982988,0.34906585039886606,1.3254641,1.6298862,0.42071694,0.060256977,0.18501279,0.73891133,0.9850325,-0.36980814,1.5257449,-0.24715957,-0.60277516,-0.010701206,1.4114181,1.4552518
-0.2,-0.2,0.6,-0.5235987755982988,-0.5235987755982988,0.34906585039886606,1.3226972,1.6310014,0.41365346,0.08160147,0.19052444,0.77558786,1.0323542,-0.38628745,1.5167581,-0.2204256,-0.64730453,-0.006606337,1.4209061,1.3998475
-0.2,-0.2,0.6,-0.5235987755982988,-0.5235987755982988,0.34906585039886606,1.3280215,1.6351682,0.41553605,0.09412781,0.19537258,0.7373346,1.061483,-0.3722085,1.5262994,-0.23978712,-0.6197933,-0.021393951,1.4105335,1.6148919
-0.2,-0.2,0.6,-0.5235987755982988,-0.5235987755982988,0.34906585039886606,1.3295393,1.6321546,0.41622517,0.07219871,0.18455198,0.7557686,1.1064334,-0.3632626,1.5251896,-0.24024007,-0.58891433,0.012369783,1.4216715,1.542305
-0.2,-0.2,0.6,-0.5235987755982988,-0.5235987755982988,0.34906585039886606,1.319106,1.6267915,0.42500988,0.07309385,0.18507597,0.75538325,1.007574,-0.3815711,1.5130503,-0.24957453,-0.60753727,0.0032039147,1.4207398,1.7231644
-0.2,-0.2,0.6,-0.5235987755982988,-0.5235987755982988,0.34906585039886606,1.3126711,1.6304442,0.42357334,0.08664803,0.17774108,0.7520271,1.0373632,-0.3502393,1.5125525,-0.25160995,-0.63588977,-0.0059398822,1.406671,1.5324349
-0.2,-0.2,0.6,-0.5235987755982988,-0.5235987755982988,0.34906585039886606,1.332505,1.633565,0.41964024,0.08145409,0.16658634,0.7478874,0.9951726,-0.36775565,1.5281423,-0.2636877,-0.6172611,-0.020498997,1.4026011,1.4756286
-0.2,-0.2,0.6,-0.5235987755982988,-0.5235987755982988,0.34906585039886606,1.3213414,1.6314291,0.41906425,0.07866034,0.1978789,0.7415435,1.0335634,-0.3635871,1.5257831,-0.23793745,-0.59168303,-0.035890706,1.4023157,1.4326267
-0.2,-0.2,0.6,-0.5235987755982988,-0.5235987755982988,0.34906585039886606,1.3113308,1.6375455,0.41596755,0.08028692,0.19912441,0.7682529,1.0020446,-0.3603573,1.5244421,-0.24932672,-0.6043945,0.006558569,1.4045149,1.6127313
-0.2,-0.2,0.6,-0.5235987755982988,-0.5235987755982988,0.34906585039886606,1.3326985,1.6359162,0.4154641,0.08493568,0.18726155,0.7498415,1.0184904,-0.35269728,1.5225317,-0.22891295,-0.5686882,-0.0065035257,1.4034057,1.5330633
-0.2,-0.2,0.6,-0.5235987755982988,-0.5235987755982988,0.34906585039886606,1.323191,1.6378218,0.42363694,0.0947192,0.1666466,0.7586357,1.0535542,-0.37300774,1.5213752,-0.23614824,-0.60460895,-0.011075874,1.3970934,1.5706708
-0.2,-0.2,0.6,-0.5235987755982988,-0.5235987755982988,0.34906585039886606,1.3288641,1.6333303,0.41320565,0.05997523,0.19960526,0.75837845,0.9561503,-0.37603846,1.525135,-0.24092701,-0.6235865,-0.026015399,1.3898127,1.5372691
-0.2,-0.2,0.6,-0.5235987755982988,-0.5235987755982988,0.34906585039886606,1.3217965,1.6314719,0.41332936,0.10031931,0.18243746,0.7592885,0.96303314,-0.3414888,1.5222936,-0.25059855,-0.58809215,-0.020471046,1.4312744,1.4214334
-0.2,-0.2,0.6,-0.5235987755982988,-0.5235987755982988,0.34906585039886606,1.3127328,1.6294192,0.41932377,0.06623819,0.18569537,0.75019974,0.9862976,-0.36482373,1.5194515,-0.24762416,-0.6065904,0.03359364,1.4117486,1.4679742
-0.2,-0.2,0.6,-0.5235987755982988,-0.5235987755982988,0.34906585039886606,1.335533,1.6313177,0.4168521,0.06916078,0.19492182,0.7497255,0.9782989,-0.35699788,1.5244042,-0.24900857,-0.5868933,-0.018351886,1.4216218,1.4474617
-0.2,-0.2,0.6,-0.5235987755982988,-0.5235987755982988,0.34906585039886606,1.3217932,1.6327547,0.42015493,0.0801687,0.15227218,0.7553973,0.9503005,-0.38238215,1.5242825,-0.23294865,-0.62902856,-0.031147469,1.4133081,1.4688576
-0.2,-0.2,0.6,-0.5235987755982988,-0.5235987755982988,0.34906585039886606,1.3293239,1.6281142,0.41110292,0.07476809,0.18443513,0.76293415,1.0235336,-0.3697008,1.5186682,-0.25113872,-0.6242557,-0.016844725,1.3929347,1.4577441
-0.2,-0.2,0.6,-0.5235987755982988,-0.5235987755982988,0.34906585039886606,1.3185734,1.6312541,0.41798037,0.08046405,0.1856554,0.7514062,1.0630038,-0.35825282,1.5219803,-0.24720898,-0.6237966,-0.0058144093,1.404094,1.5195011
-0.2,-0.2,0.6,-0.5235987755982988,-0.5235987755982988,0.34906585039886606,1.3303041,1.6372868,0.42982024,0.083072476,0.16735552,0.75959367,0.98550326,-0.36170247,1.5199087,-0.25434843,-0.6082129,-0.02817501,1.3937469,1.6695122
-0.2,-0.2,0.6,-0.5235987755982988,-0.5235987755982988,0.34906585039886606,1.3268706,1.6356426,0.4291753,0.05377879,0.17089449,0.7553004,0.9944488,-0.3770236,1.5136133,-0.20929882,-0.5956302,-0.035170026,1.4116485,1.5326402
-0.2,-0.2,0.6,-0.5235987755982988,-0.5235987755982988,0.34906585039886606,1.3243661,1.6316954,0.41675657,0.07908309,0.18514745,0.74618155,1.082287,-0.37889493,1.5166146,-0.23346172,-0.6091292,0.03066934,1.4035594,1.5359886
-0.2,-0.2,0.6,-0.5235987755982988,-0.5235987755982988,0.34906585039886606,1.3231244,1.6269523,0.4271463,0.06617415,0.1709639,0.7463797,0.9916616,-0.35788497,1.5239426,-0.2523248,-0.5845228,-0.011385623,1.3980335,1.5417926
-0.2,-0.2,0.6,-0.5235987755982988,-0.5235987755982988,0.34906585039886606,1.3180164,1.6316787,0.41966176,0.08857506,0.18382125,0.7491603,0.9708056,-0.37966344,1.5221596,-0.26976752,-0.63897,-0.018952204,1.397277,1.5300503
-0.2,-0.2,0.6,-0.5235987755982988,-0.5235987755982988,0.34906585039886606,1.3300973,1.6364707,0.42071986,0.081176475,0.16385649,0.7545428,1.0771304,-0.37441903,1.5236833,-0.23277648,-0.61787856,-0.024810892,1.417826,1.572139
-0.2,-0.2,0.6,-0.5235987755982988,-0.5235987755982988,0.34906585039886606,1.323746,1.6393557,0.41801667,0.07778194,0.2047019,0.75750923,1.0059559,-0.3578549,1.5271713,-0.2743897,-0.6112869,0.035470087,1.3983905,1.4865447
-0.2,-0.2,0.6,-0.5235987755982988,-0.5235987755982988,0.34906585039886606,1.3205557,1.6316583,0.4239139,0.08668545,0.1703074,0.753176,1.0504647,-0.3683879,1.519337,-0.24325971,-0.61803126,-0.010948611,1.4173737,1.5251102
-0.2,-0.2,0.6,-0.5235987755982988,-0.5235987755982988,0.34906585039886606,1.3146117,1.6329647,0.41072747,0.09064341,0.17642246,0.7614932,1.1181129,-0.36384633,1.525276,-0.22502966,-0.61343837,-0.011915941,1.3990458,1.5367486
-0.2,-0.2,0.6,-0.5235987755982988,-0.5235987755982988,0.34906585039886606,1.3252116,1.6330875,0.4156754,0.0775732,0.17537296,0.7765856,1.0249293,-0.348043,1.5274805,-0.25519025,-0.5894596,5.5539847e-05,1.4098333,1.4830074
-0.2,-0.2,0.6,-0.5235987755982988,-0.5235987755982988,0.34906585039886606,1.319611,1.6394123,0.4154551,0.081831984,0.19731715,0.7654329,0.9535664,-0.38423032,1.5212831,-0.2322715,-0.5998267,0.008933243,1.3939558,1.4522665
-0.2,-0.2,0.6,-0.5235987755982988,-0.5235987755982988,0.34906585039886606,1.3221605,1.6350873,0.4165682,0.07956039,0.17502186,0.75830793,0.9674236,-0.36675662,1.5202394,-0.2374484,-0.5965684,-0.00029559096,1.4009458,1.4221961
-0.2,-0.2,0.6,-0.5235987755982988,-0.5235987755982988,0.34906585039886606,1.3300726,1.6410725,0.42180938,0.071195684,0.17508562,0.7604312,1.069277,-0.36225805,1.5131831,-0.23546195,-0.6039242,-0.017527709,1.4012318,1.5242177
-0.2,-0.2,0.6,-0.5235987755982988,-0.5235987755982988,0.34906585039886606,1.3329256,1.6320497,0.41587275,0.06302542,0.18502489,0.74716586,1.0534123,-0.37104174,1.519757,-0.26136324,-0.63416946,0.019245675,1.430145,1.4573975
-0.2,-0.2,0.6,-0.5235987755982988,-0.5235987755982988,0.34906585039886606,1.3190401,1.6286385,0.40714628,0.076906346,0.18931375,0.7595996,1.0676467,-0.35835847,1.5224061,-0.23652552,-0.59799623,0.008194878,1.4121165,1.4977176
-0.2,-0.2,0.6,-0.5235987755982988,-0.5235987755982988,0.34906585039886606,1.3199563,1.6335613,0.41401598,0.075394996,0.18520015,0.76913846,0.9708082,-0.36398575,1.5242122,-0.23297381,-0.6067648,-0.029721167,1.413572,1.4291313
-0.2,-0.2,0.6,-0.5235987755982988,-0.5235987755982988,0.34906585039886606,1.3304452,1.6344182,0.41943386,0.07816785,0.16198559,0.7361644,0.98673475,-0.37002,1.5247529,-0.23738328,-0.5983058,0.004518142,1.4081302,1.3209474
-0.2,-0.2,0.6,-0.5235987755982988,-0.5235987755982988,0.34906585039886606,1.3045702,1.6314913,0.42015827,0.08592503,0.15651414,0.7647966,1.0248073,-0.37862676,1.5220829,-0.24434397,-0.60581464,-0.0005488089,1.4187036,1.5857675
-0.2,-0.2,0.6,-0.5235987755982988,-0.5235987755982988,0.34906585039886606,1.3331182,1.634583,0.41675633,0.058921043,0.1816076,0.7541549,0.9994524,-0.3655258,1.5235176,-0.23758495,-0.61133707,-0.002984066,1.415297,1.4933006
-0.2,-0.2,0.6,-0.5235987755982988,-0.5235987755982988,0.34906585039886606,1.3167259,1.6306412,0.4290475,0.078692555,0.169223,0.74432826,0.98810935,-0.37550983,1.5275937,-0.25973395,-0.6365456,-0.02432982,1.4063451,1.6287762
-0.2,-0.2,0.6,-0.5235987755982988,-0.5235987755982988,0.34906585039886606,1.3107475,1.6316458,0.42341986,0.08018501,0.1621983,0.7426837,1.0199952,-0.35195896,1.5128813,-0.24203442,-0.6014411,0.013598765,1.4153546,1.3421634
-0.2,-0.2,0.6,-0.5235987755982988,-0.5235987755982988,0.34906585039886606,1.3211612,1.6312507,0.41248,0.10202319,0.16053629,0.7444829,0.9955443,-0.36037603,1.5156606,-0.2409837,-0.6016058,-0.006750874,1.4100957,1.377209
-0.2,-0.2,0.6,-0.5235987755982988,-0.5235987755982988,0.34906585039886606,1.3098569,1.625837,0.42889312,0.068623,0.18084799,0.7552512,0.9460921,-0.35724384,1.5220046,-0.23738582,-0.5795634,0.022128,1.41034,1.5943408
-0.2,-0.2,0.6,-0.5235987755982988,-0.5235987755982988,0.34906585039886606,1.321054,1.6350582,0.4168388,0.08084177,0.14964923,0.7678467,0.9934116,-0.3654475,1.5219506,-0.2599155,-0.6446777,-0.0030060366,1.4142666,1.3752044
-0.2,-0.2,0.6,-0.5235987755982988,-0.5235987755982988,0.34906585039886606,1.3200111,1.6305109,0.41306582,0.08468498,0.1638272,0.7437412,1.0757477,-0.3401994,1.5240135,-0.23538963,-0.5911279,0.006096996,1.425303,1.4827878
-0.2,-0.2,0.6,-0.5235987755982988,-0.5235987755982988,0.34906585039886606,1.3201911,1.6330316,0.41271633,0.08684437,0.17787726,0.74470645,1.0103084,-0.36483422,1.5219879,-0.24375366,-0.6089389,0.0070469338,1.4014137,1.4951411
-0.2,-0.2,0.6,-0.5235987755982988,-0.5235987755982988,0.34906585039886606,1.3213056,1.6287787,0.4227438,0.09122497,0.16909124,0.7672729,1.0207126,-0.3474094,1.5197204,-0.24952304,-0.5747846,-0.0029186688,1.4152604,1.4908789
-0.2,-0.2,0.6,-0.5235987755982988,-0.5235987755982988,0.34906585039886606,1.3123745,1.6396167,0.42265296,0.07731408,0.19481157,0.7439137,0.93969625,-0.35362977,1.5232972,-0.2451628,-0.61730045,0.012267495,1.4098636,1.5785879
-0.2,-0.2,0.6,-0.5235987755982988,-0.5235987755982988,0.34906585039886606,1.3291764,1.629487,0.420446,0.08089169,0.13843103,0.7491762,1.0933062,-0.38072088,1.5200076,-0.2658023,-0.6600745,-0.016018733,1.402263,1.4466245
-0.2,-0.2,0.6,-0.5235987755982988,-0.5235987755982988,0.34906585039886606,1.3313404,1.632446,0.40881935,0.068052955,0.1668089,0.775734,1.0137535,-0.3525334,1.5192683,-0.24012318,-0.6343591,-0.027593527,1.4048786,1.6389078
-0.2,-0.2,0.6,-0.5235987755982988,-0.5235987755982988,0.34906585039886606,1.32712,1.6312094,0.41369805,0.07984377,0.16146094,0.75879717,0.9595441,-0.37788802,1.5293267,-0.2226702,-0.62163943,-0.011839163,1.4216589,1.5451825
-0.2,-0.2,0.6,-0.5235987755982988,-0.5235987755982988,0.34906585039886606,1.3272362,1.6334713,0.42042872,0.09285166,0.18976179,0.73648214,1.0797466,-0.35933676,1.5222796,-0.25568697,-0.6149462,0.00087554165,1.4178854,1.4517999
-0.2,-0.2,0.6,-0.5235987755982988,-0.5235987755982988,0.34906585039886606,1.3264717,1.6359812,0.41063675,0.08643379,0.19692196,0.75485146,1.0139251,-0.35990778,1.5250869,-0.244584,-0.6077371,0.013073461,1.402158,1.5561155
-0.2,-0.2,0.6,-0.5235987755982988,-0.5235987755982988,0.34906585039886606,1.3310924,1.6400863,0.4192077,0.0804558,0.18499404,0.763826,0.9679116,-0.3385032,1.5193965,-0.2621142,-0.5990741,-0.0328564,1.4186177,1.3842382
-0.2,-0.2,0.6,-0.5235987755982988,-0.5235987755982988,0.34906585039886606,1.3214687,1.6271328,0.41551697,0.07088626,0.17457628,0.7539568,0.9717985,-0.35305136,1.5205309,-0.25944057,-0.61527544,-0.0026810598,1.4096795,1.4490227
-0.2,-0.2,0.6,-0.5235987755982988,-0.5235987755982988,0.34906585039886606,1.3249408,1.6359754,0.4125917,0.07136253,0.19323185,0.75491214,1.0338356,-0.36122584,1.5258107,-0.22556359,-0.5932894,0.0030667495,1.4152668,1.6092898
-0.2,-0.2,0.6,-0.5235987755982988,-0.5235987755982988,0.34906585039886606,1.3309568,1.6373379,0.41705775,0.08483943,0.15173146,0.7663554,1.0289688,-0.35620832,1.5269011,-0.26000294,-0.5802794,0.020245593,1.3897619,1.3767356
-0.2,-0.2,0.6,-0.5235987755982988,-0.5235987755982988,0.34906585039886606,1.3190036,1.6323687,0.42322382,0.10018632,0.15937158,0.7593425,0.9618831,-0.38040647,1.5210454,-0.23032323,-0.61644626,-0.011508003,1.415457,1.4590149
-0.2,-0.2,0.6,-0.5235987755982988,-0.5235987755982988,0.34906585039886606,1.3218648,1.6342453,0.41210452,0.08502899,0.2016991,0.7408778,0.97518724,-0.38381487,1.5281479,-0.2641487,-0.736589,-0.017006462,1.4276518,1.4090644
-0.2,-0.2,0.6,-0.5235987755982988,-0.5235987755982988,0.34906585039886606,1.312925,1.6377063,0.42017654,0.07287018,0.20945448,0.7612003,1.0602448,-0.36807036,1.5178676,-0.24218242,-0.6106065,-0.029734936,1.4070626,1.4619371
-0.2,-0.2,0.6,-0.5235987755982988,-0.5235987755982988,0.34906585039886606,1.3235782,1.6319331,0.41843614,0.08206041,0.18072991,0.7536313,1.0053147,-0.3736061,1.5205125,-0.24377076,-0.6325228,-0.016257513,1.4147167,1.5471946
-0.2,-0.2,0.6,-0.5235987755982988,-0.5235987755982988,0.34906585039886606,1.3160495,1.6335475,0.4213358,0.074426696,0.18699741,0.767851,1.0146806,-0.35384852,1.5220743,-0.24174845,-0.6019695,-0.026481334,1.4029526,1.6266196
-0.2,-0.2,0.6,-0.5235987755982988,-0.5235987755982988,0.34906585039886606,1.3247439,1.6345165,0.42429963,0.060727768,0.17715406,0.7415133,0.9512109,-0.37017757,1.5282434,-0.23729447,-0.6319504,0.00083122886,1.414179,1.5045655
-0.2,-0.2,0.6,-0.5235987755982988,-0.5235987755982988,0.34906585039886606,1.3173234,1.6424799,0.41330352,0.08921843,0.1809745,0.7580168,1.0839671,-0.3258129,1.5234164,-0.26559082,-0.59417707,0.01569351,1.4066751,1.5785748
-0.2,-0.2,0.6,-0.5235987755982988,-0.5235987755982988,0.34906585039886606,1.3224943,1.6304992,0.43094912,0.06869256,0.16248702,0.7495844,1.0423311,-0.3784925,1.5102814,-0.23641047,-0.60297877,-0.0029537117,1.4040583,1.3839923
-0.2,-0.2,0.6,-0.5235987755982988,-0.5235987755982988,0.34906585039886606,1.3230077,1.6316863,0.42266938,0.086412996,0.15226829,0.7373295,1.0049309,-0.37227756,1.5212623,-0.2457191,-0.6053919,0.002321733,1.399368,1.5084318
-0.2,-0.2,0.6,-0.5235987755982988,-0.5235987755982988,0.34906585039886606,1.3280782,1.6311932,0.41803822,0.08958077,0.16714564,0.75372773,1.0111073,-0.37230843,1.5248425,-0.22736663,-0.609038,-0.013409614,1.4083488,1.2482878
-0.2,-0.2,0.6,-0.5235987755982988,-0.5235987755982988,0.34906585039886606,1.3094965,1.6297957,0.41681737,0.08464552,0.17637116,0.7457638,0.9703915,-0.38293576,1.5251337,-0.22455452,-0.6102839,-0.028669756,1.4009433,1.5020254
-0.2,-0.2,0.6,-0.5235987755982988,-0.5235987755982988,0.34906585039886606,1.3259403,1.6351408,0.42239267,0.0868864,0.17648758,0.75385916,0.96363056,-0.35251287,1.5281429,-0.24591431,-0.58343583,0.041683774,1.4056258,1.4685663
-0.2,-0.2,0.6,-0.5235987755982988,-0.5235987755982988,0.34906585039886606,1.3204895,1.6345419,0.4176189,0.079744674,0.1950539,0.73705715,0.9956863,-0.3583587,1.531737,-0.24744853,-0.61158776,-0.0027616397,1.417094,1.5414697
-0.2,-0.2,0.6,-0.5235987755982988,-0.5235987755982988,0.34906585039886606,1.320205,1.6368836,0.41877824,0.06363637,0.1470998,0.7574642,0.98479694,-0.3444794,1.518113,-0.23818931,-0.61943376,-0.04200854,1.4155202,1.6569166
-0.2,-0.2,0.6,-0.5235987755982988,-0.5235987755982988,0.34906585039886606,1.3202664,1.6362909,0.4162913,0.07714175,0.17784053,0.7484133,1.0199362,-0.36349928,1.5187532,-0.2333672,-0.6185167,0.029294616,1.4310822,1.5046955
-0.2,-0.2,0.6,-0.5235987755982988,-0.5235987755982988,0.34906585039886606,1.3103315,1.6327938,0.41674447,0.09280814,0.1774922,0.7611545,0.96730006,-0.36241782,1.5253102,-0.2394977,-0.6127613,-0.005271063,1.4162073,1.433641
-0.2,-0.2,0.6,-0.5235987755982988,-0.5235987755982988,0.34906585039886606,1.3260489,1.6354797,0.4181613,0.068870954,0.16827355,0.7646569,0.99757373,-0.36488232,1.5228643,-0.22031604,-0.5810622,0.01368508,1.4099597,1.4809663
-0.2,-0.2,0.6,-0.5235987755982988,-0.5235987755982988,0.34906585039886606,1.3089132,1.6366637,0.4083429,0.110447176,0.19841462,0.754638,0.99701345,-0.3275914,1.518908,-0.2559293,-0.5915504,-0.015277152,1.4135728,1.4435484
-0.2,-0.2,0.6,-0.5235987755982988,-0.5235987755982988,0.34906585039886606,1.3062601,1.6330516,0.4148576,0.07474952,0.17398906,0.747688,1.0360343,-0.33089706,1.5231588,-0.2369825,-0.5958156,-0.021592543,1.4185858,1.4646374
-0.2,-0.2,0.6,-0.5235987755982988,-0.5235987755982988,0.34906585039886606,1.3301511,1.6320778,0.40738207,0.094532445,0.1937255,0.7625619,1.0590669,-0.36554813,1.5178527,-0.24047104,-0.6145523,-0.017422091,1.3697821,1.4360762
-0.2,-0.2,0.6,-0.5235987755982988,-0.5235987755982988,0.34906585039886606,1.322538,1.6376457,0.41300967,0.08027458,0.19598374,0.76540464,1.0223386,-0.3612128,1.5185099,-0.23589924,-0.5876536,0.035155755,1.4015219,1.6333652
-0.2,-0.2,0.6,-0.5235987755982988,-0.5235987755982988,0.34906585039886606,1.3183346,1.6344961,0.41803703,0.082694665,0.18090878,0.7284676,0.9871287,-0.3570199,1.5121367,-0.23136398,-0.5793059,0.0008133166,1.3975226,1.4974217
-0.2,-0.2,0.6,-0.5235987755982988,-0.5235987755982988,0.34906585039886606,1.3324641,1.6382744,0.41696852,0.093185306,0.1877948,0.76286757,1.091801,-0.33617884,1.5228623,-0.2600923,-0.5893257,-0.014812692,1.4134088,1.3234606
-0.2,-0.2,0.6,-0.5235987755982988,-0.5235987755982988,0.34906585039886606,1.3263378,1.6302758,0.41569427,0.06963334,0.15813419,0.752541,1.0333066,-0.38251725,1.5286094,-0.24238907,-0.62487495,0.026262103,1.41037,1.3824782
-0.2,-0.2,0.6,-0.5235987755982988,-0.5235987755982988,0.34906585039886606,1.3257021,1.6308584,0.41518134,0.09679396,0.18842043,0.7675177,0.9539564,-0.36157408,1.5178783,-0.25331718,-0.6101827,0.014826778,1.4139748,1.5069124
-0.2,-0.2,0.6,-0.5235987755982988,-0.5235987755982988,0.34906585039886606,1.3232343,1.6420603,0.41805017,0.08822288,0.19565725,0.7518245,0.9618087,-0.35211027,1.5177633,-0.24342546,-0.6036921,0.0026291623,1.4161494,1.4909066
-0.2,-0.2,0.6,-0.5235987755982988,-0.5235987755982988,0.34906585039886606,1.3237839,1.629329,0.41504192,0.082225814,0.20420271,0.7498699,1.0130564,-0.36059818,1.5142264,-0.2516434,-0.6037953,-0.0012731543,1.4153813,1.5078824
-0.2,-0.2,0.6,-0.5235987755982988,-0.5235987755982988,0.34906585039886606,1.3141184,1.6310568,0.41419393,0.07714763,0.18659417,0.76210266,1.0116322,-0.36433458,1.5273265,-0.23755682,-0.6298282,-0.0007164166,1.4151187,1.5390891
-0.2,-0.2,0.6,-0.5235987755982988,-0.5235987755982988,0.34906585039886606,1.3149171,1.6391667,0.4194118,0.09029983,0.16507526,0.76604754,1.0611621,-0.3599677,1.5241846,-0.24808791,-0.6076932,-0.016641011,1.4200034,1.4075333
-0.2,-0.2,0.6,-0.5235987755982988,-0.5235987755982988,0.34906585039886606,1.3135325,1.6365451,0.41931158,0.06483728,0.16233194,0.77364516,1.0347707,-0.35316682,1.5326567,-0.24301332,-0.61352694,-0.01579832,1.4053272,1.4646177
-0.2,-0.2,0.6,-0.5235987755982988,-0.5235987755982988,0.34906585039886606,1.311457,1.6324037,0.42453453,0.0714434,0.17222667,0.7388707,1.034582,-0.36981124,1.5205564,-0.23194048,-0.59500694,-0.0075779934,1.4139438,1.3997638
-0.2,-0.2,0.6,-0.5235987755982988,-0.5235987755982988,0.34906585039886606,1.3145357,1.6332866,0.42175484,0.08435229,0.18198839,0.75340986,1.005038,-0.38184905,1.5125469,-0.23531094,-0.6261208,-0.014236473,1.4006212,1.5365317
-0.2,-0.2,0.6,-0.5235987755982988,-0.5235987755982988,0.34906585039886606,1.3318387,1.6386118,0.41645426,0.073467,0.18148841,0.7546316,0.97320545,-0.35835457,1.5208057,-0.23881823,-0.6251111,-0.010855236,1.4210689,1.5378038
-0.2,-0.2,0.6,-0.5235987755982988,-0.5235987755982988,0.34906585039886606,1.3285334,1.6291238,0.41773814,0.07762083,0.17770748,0.7262037,0.96826535,-0.37207356,1.5194263,-0.23833896,-0.5999386,-0.019851739,1.3914729,1.4358993
-0.2,-0.2,0.6,-0.5235987755982988,-0.5235987755982988,0.34906585039886606,1.3192822,1.6277927,0.41522816,0.063902326,0.18845351,0.7448376,1.0442564,-0.36959442,1.5202037,-0.24447487,-0.6323318,-0.013598868,1.3924438,1.5425999
-0.2,-0.2,0.6,-0.5235987755982988,-0.5235987755982988,0.34906585039886606,1.3025534,1.6307031,0.4284263,0.06161388,0.17508999,0.74187076,0.940097,-0.3788216,1.520144,-0.24524845,-0.6146109,-0.011684382,1.3999468,1.45408
-0.2,-0.2,0.6,-0.5235987755982988,-0.5235987755982988,0.34906585039886606,1.305916,1.6311737,0.41038278,0.08906489,0.17698044,0.76735705,1.0274234,-0.3576714,1.5153993,-0.24228887,-0.6171756,0.012525421,1.3935302,1.4714772
-0.2,-0.2,0.6,-0.5235987755982988,-0.5235987755982988,0.34906585039886606,1.32782,1.6368382,0.41329595,0.09781307,0.20626469,0.7468225,0.9800476,-0.34841397,1.5120518,-0.26132867,-0.59069234,0.0020569647,1.4127139,1.5247611
-0.2,-0.2,0.6,-0.5235987755982988,-0.5235987755982988,0.34906585039886606,1.3284771,1.6294346,0.41086212,0.098238125,0.17962962,0.7522931,1.010899,-0.33295235,1.5264721,-0.26000655,-0.5931254,-0.0014844356,1.4147604,1.5060829
-0.2,-0.2,0.6,-0.5235987755982988,-0.5235987755982988,0.34906585039886606,1.3226398,1.6395931,0.41429222,0.08343413,0.18527046,0.7428733,1.0305916,-0.38654578,1.5221506,-0.23210129,-0.63653225,-0.0034006976,1.3865242,1.4443111
-0.2,-0.2,0.6,-0.5235987755982988,-0.5235987755982988,0.34906585039886606,1.3137625,1.6321278,0.41556326,0.08286525,0.19016163,0.75973195,1.028389,-0.35274884,1.5171541,-0.25142002,-0.60279924,-0.013024105,1.4046108,1.3868806
-0.2,-0.2,0.6,-0.5235987755982988,-0.5235987755982988,0.34906585039886606,1.3265667,1.630387,0.42029685,0.08151896,0.16116217,0.7481186,1.0981611,-0.36788845,1.5225296,-0.242956,-0.623417,-0.036132906,1.4060712,1.6672515
-0.2,-0.2,0.6,-0.5235987755982988,-0.5235987755982988,0.34906585039886606,1.3075761,1.6287454,0.4071764,0.09441636,0.16673306,0.7698706,1.0566498,-0.35159746,1.5146354,-0.25201863,-0.5893748,-0.014929384,1.4145184,1.5886126
-0.2,-0.2,0.6,-0.5235987755982988,-0.5235987755982988,0.34906585039886606,1.3228331,1.635703,0.41612637,0.08698076,0.17793444,0.7616469,0.98807126,-0.3604366,1.5216465,-0.25601494,-0.63556796,-0.0068962425,1.413515,1.5217538
-0.2,-0.2,0.6,-0.5235987755982988,-0.5235987755982988,0.34906585039886606,1.3146394,1.6326692,0.41340438,0.07253758,0.17423481,0.7535167,1.0485811,-0.3320785,1.5189488,-0.2299081,-0.5581016,0.002957724,1.408374,1.4180096
-0.2,-0.2,0.6,-0.5235987755982988,-0.5235987755982988,0.34906585039886606,1.32314,1.6295788,0.41731343,0.086704984,0.17001927,0.7370149,1.0350093,-0.34891108,1.5158751,-0.2620617,-0.6043438,0.0010228138,1.3841673,1.5106995
-0.2,-0.2,0.6,-0.5235987755982988,-0.5235987755982988,0.34906585039886606,1.3301413,1.6347129,0.4150002,0.08045849,0.17128766,0.75038457,1.0695018,-0.3659871,1.5260322,-0.20975718,-0.59410506,-0.0030405363,1.4246074,1.3543843
-0.2,-0.2,0.6,-0.5235987755982988,-0.5235987755982988,0.34906585039886606,1.3154634,1.6273333,0.41966057,0.06452248,0.152853,0.7574829,0.94937134,-0.37890247,1.5154803,-0.26839933,-0.60863215,0.0140790455,1.394549,1.3442849
-0.2,-0.2,0.6,-0.5235987755982988,-0.5235987755982988,0.34906585039886606,1.3231419,1.6294937,0.4108705,0.09601715,0.17800929,0.75762737,1.0098432,-0.36943197,1.5211464,-0.22692882,-0.5883007,-0.012332078,1.403063,1.6045557
-0.2,-0.2,0.6,-0.5235987755982988,-0.5235987755982988,0.34906585039886606,1.311468,1.6301311,0.4205193,0.06553056,0.16501321,0.76877916,1.0084261,-0.37420195,1.5247909,-0.23502317,-0.62162286,-0.0099435,1.4009782,1.4783678
-0.2,-0.2,0.6,-0.5235987755982988,-0.5235987755982988,0.34906585039886606,1.325143,1.6246114,0.42521995,0.06840599,0.15484622,0.7528919,0.9885574,-0.3721623,1.5239638,-0.23754685,-0.6183947,-0.013266229,1.418233,1.5855299
-0.2,-0.2,0.6,-0.5235987755982988,-0.5235987755982988,0.34906585039886606,1.322649,1.6291388,0.41310596,0.07749861,0.16569997,0.7702479,1.083929,-0.36900523,1.5267143,-0.25042534,-0.6297375,-0.009211292,1.4177907,1.5901518
-0.2,-0.2,0.6,-0.5235987755982988,-0.5235987755982988,0.34906585039886606,1.3319796,1.6336766,0.41071835,0.10272517,0.16469494,0.7457146,0.99987656,-0.34534404,1.5165412,-0.23921299,-0.6134188,-0.0024418605,1.3981601,1.4689955
-0.2,-0.2,0.6,-0.5235987755982988,-0.5235987755982988,0.34906585039886606,1.3217573,1.6328999,0.41572186,0.06827687,0.18540676,0.7555018,1.0786582,-0.36294574,1.5122164,-0.23610677,-0.6193442,0.0037283946,1.4174047,1.3943319
-0.2,-0.2,0.6,-0.5235987755982988,-0.5235987755982988,0.34906585039886606,1.3249434,1.632252,0.4123612,0.08995661,0.17778434,0.74326456,0.94986534,-0.35873744,1.5305549,-0.23292936,-0.59796137,-0.0024260345,1.4042625,1.4749646
-0.2,-0.2,0.6,-0.5235987755982988,-0.5235987755982988,0.34906585039886606,1.3197157,1.6313657,0.4272564,0.070953675,0.18469213,0.7580549,0.9307983,-0.34981483,1.5161748,-0.26596627,-0.6000675,0.0049196114,1.4140038,1.5692899
-0.2,-0.2,0.6,-0.5235987755982988,-0.5235987755982988,0.34906585039886606,1.3183516,1.6296172,0.41199794,0.07902676,0.16103734,0.75153244,1.0745038,-0.35184157,1.5224581,-0.26234296,-0.59378046,0.008236962,1.4095012,1.6701013
-0.2,-0.2,0.6,-0.5235987755982988,-0.5235987755982988,0.34906585039886606,1.326686,1.6372125,0.41945416,0.09784577,0.17641763,0.74019414,0.98949355,-0.34731045,1.5304644,-0.24574621,-0.63205606,-0.007391014,1.4250618,1.5818828
-0.2,-0.2,0.6,-0.5235987755982988,-0.5235987755982988,0.34906585039886606,1.3134263,1.6317413,0.41614735,0.08496925,0.18069594,0.74589646,1.0070134,-0.36540017,1.5240355,-0.23540911,-0.61939305,-0.006117422,1.4150728,1.4851509
-0.2,-0.2,0.6,-0.5235987755982988,-0.5235987755982988,0.34906585039886606,1.3198638,1.6317102,0.4116349,0.07247622,0.19393548,0.7559457,0.9615328,-0.36783814,1.5202612,-0.22947738,-0.6093234,-0.016722998,1.4139851,1.4210893
-0.2,-0.2,0.6,-0.5235987755982988,-0.5235987755982988,0.34906585039886606,1.3263515,1.6330485,0.41061047,0.08828375,0.17070374,0.7466562,1.0600803,-0.3381032,1.5286583,-0.24910453,-0.5971188,-0.018657539,1.3969448,1.4083627
-0.2,-0.2,0.6,-0.5235987755982988,-0.5235987755982988,0.34906585039886606,1.3264444,1.6203891,0.41789448,0.063447304,0.16436009,0.7611216,0.9879905,-0.37096658,1.5169451,-0.24703881,-0.61689484,0.026494894,1.4073379,1.6408346
