sanky1234/BimanualDexCatch/isaacgymenvs/cem_results/football_pose_0.0_0.1_1.1999999999999997_0.0_-0.5235987755982988_0_2025-05-26.csv
x,y,z,roll,pitch,yaw,robot1/joint1,robot1/joint2,robot1/joint3,robot1/joint4,robot1/joint5,robot1/joint6,robot1/joint7,robot2/joint1,robot2/joint2,robot2/joint3,robot2/joint4,robot2/joint5,robot2/joint6,robot2/joint7
0.0,0.1,1.1999999999999997,0.0,-0.5235987755982988,0,-0.18228252,-0.43795642,-0.0372528,0.22325173,0.22697718,1.3987833,-1.3497678,-0.83107007,-1.7854815,-0.06916003,-0.06306633,-0.0497983,1.2627609,0.8873721
0.0,0.1,1.1999999999999997,0.0,-0.5235987755982988,0,-0.18223552,-0.4381038,-0.039759412,0.2313884,0.2015118,1.4345537,0.09316111,-0.8247968,-1.7779617,0.011941087,-0.077544026,0.059513725,1.1949098,1.6793981
0.0,0.1,1.1999999999999997,0.0,-0.5235987755982988,0,-0.18247934,-0.4381861,-0.036241952,0.19913308,-0.16605917,1.360758,-0.044515934,-0.8130116,-1.7829745,0.0046306974,-0.06820887,-0.04828805,1.1756446,0.87264603
0.0,0.1,1.1999999999999997,0.0,-0.5235987755982988,0,-0.18226081,-0.43802708,-0.037685774,0.17775081,-0.3897905,1.4433819,-0.62939185,-0.8159097,-1.7879342,0.05927741,-0.09000688,-0.014443217,1.1855743,1.7592293
0.0,0.1,1.1999999999999997,0.0,-0.5235987755982988,0,-0.1813181,-0.43837747,-0.034356687,0.17837568,0.3087216,1.3731779,-1.0583997,-0.8161678,-1.7770486,0.0859999,-0.06368619,0.12948802,1.1860384,-0.6403515
0.0,0.1,1.1999999999999997,0.0,-0.5235987755982988,0,-0.18213917,-0.43837824,-0.036325276,0.17846027,-0.40723556,1.3863899,-1.2073935,-0.81120896,-1.7933978,0.12403384,-0.06410134,-0.022138732,1.2481737,-0.20106237
0.0,0.1,1.1999999999999997,0.0,-0.5235987755982988,0,-0.18237445,-0.43816203,-0.039409246,0.22741601,0.28469333,1.4086509,-0.6146392,-0.8204857,-1.7946125,0.14551128,-0.055841148,0.03829794,1.1633418,-0.7240661
0.0,0.1,1.1999999999999997,0.0,-0.5235987755982988,0,-0.18298523,-0.43805817,-0.0359144,0.22505757,0.45289078,1.3672516,-1.4195952,-0.83198845,-1.786923,0.04356218,-0.050457265,0.056014705,1.2594082,1.2744535
0.0,0.1,1.1999999999999997,0.0,-0.5235987755982988,0,-0.18190213,-0.43815058,-0.04025538,0.20718849,0.0034567406,1.3983411,-0.74805814,-0.81189764,-1.7877947,0.022450937,-0.05312794,-0.050867785,1.2535526,-0.26192805
0.0,0.1,1.1999999999999997,0.0,-0.5235987755982988,0,-0.18235123,-0.43797967,-0.036107335,0.18386093,0.16238132,1.4046898,-0.7840295,-0.82098633,-1.7929142,0.013529022,-0.0845867,0.03756235,1.2670916,1.0778807
0.0,0.1,1.1999999999999997,0.0,-0.5235987755982988,0,-0.18260476,-0.43813282,-0.034935728,0.20469762,0.020928806,1.4245117,-0.5590386,-0.8213864,-1.7766957,0.049030796,-0.06474538,-0.028556947,1.2214484,0.80157936
0.0,0.1,1.1999999999999997,0.0,-0.5235987755982988,0,-0.18199623,-0.4382541,-0.034680985,0.17354447,0.2745058,1.3708946,-0.27435642,-0.823211,-1.7802497,0.08379413,-0.08216511,-0.061427843,1.2119143,-0.2785639
0.0,0.1,1.1999999999999997,0.0,-0.5235987755982988,0,-0.18231055,-0.43828496,-0.038510755,0.19777672,0.35393497,1.3893094,-0.3008758,-0.8142543,-1.7872391,0.023296302,-0.05237451,-0.029887954,1.2132621,-1.0583328
0.0,0.1,1.1999999999999997,0.0,-0.5235987755982988,0,-0.18243417,-0.43840232,-0.035296172,0.20954515,0.15305457,1.3460948,0.051189203,-0.8062986,-1.7902386,0.08206777,-0.04193924,0.040086802,1.235814,-0.4021354
0.0,0.1,1.1999999999999997,0.0,-0.5235987755982988,0,-0.18257008,-0.438584,-0.03767281,0.19013406,0.33032832,1.3509184,-1.5011717,-0.8235364,-1.7759641,-0.05663464,-0.09572423,-0.06763756,1.2511033,2.3696034
0.0,0.1,1.1999999999999997,0.0,-0.5235987755982988,0,-0.18224643,-0.43836546,-0.035636693,0.17276266,0.20856163,1.3710315,-0.23929025,-0.8230878,-1.791301,0.0750106,-0.07075692,-0.07084925,1.2081832,1.0225528
0.0,0.1,1.1999999999999997,0.0,-0.5235987755982988,0,-0.18167634,-0.4380964,-0.038386527,0.18076843,-0.13224523,1.3318743,-0.6571557,-0.8097382,-1.7833152,0.18940416,-0.060633343,0.03436328,1.247248,0.09511536
0.0,0.1,1.1999999999999997,0.0,-0.5235987755982988,0,-0.18263648,-0.43823904,-0.038193364,0.18664548,-0.05501718,1.41696,-0.18839686,-0.8270495,-1.7872455,0.10322699,-0.08627559,0.14341123,1.2778996,-0.11342184
0.0,0.1,1.1999999999999997,0.0,-0.5235987755982988,0,-0.18262292,-0.4384085,-0.0390706,0.17328715,0.34406424,1.35602,-0.39026362,-0.8175433,-1.7877506,0.041903086,-0.115113154,-0.09894928,1.199898,-0.30064476
0.0,0.1,1.1999999999999997,0.0,-0.5235987755982988,0,-0.18223153,-0.43805262,-0.0397066,0.19453803,0.1443357,1.384663,-0.5970978,-0.81899846,-1.7822837,0.11588778,-0.03230573,-0.028280694,1.2064085,1.2244812
0.0,0.1,1.1999999999999997,0.0,-0.5235987755982988,0,-0.18226878,-0.43849885,-0.03779227,0.17834485,0.06800989,1.3692491,-0.119490184,-0.82214266,-1.7772882,0.10958222,-0.08744838,0.059142873,1.2270852,0.6463416
0.0,0.1,1.1999999999999997,0.0,-0.5235987755982988,0,-0.18179506,-0.438218,-0.03634386,0.2121418,0.3203301,1.3960203,-1.0741845,-0.830815,-1.7724988,0.05565854,-0.075417906,-0.046350613,1.222511,0.3913912
0.0,0.1,1.1999999999999997,0.0,-0.5235987755982988,0,-0.18251534,-0.4382397,-0.03571429,0.24905273,-0.09150049,1.3942527,-1.439459,-0.82417595,-1.7797313,0.011614812,-0.10394282,-0.078472,1.2644736,1.5531865
0.0,0.1,1.1999999999999997,0.0,-0.5235987755982988,0,-0.1817918,-0.43831632,-0.03420471,0.24951574,0.45702523,1.3908376,0.120172575,-0.83146715,-1.77978,-0.007447495,-0.080285594,0.034557983,1.2553825,0.8694057
0.0,0.1,1.1999999999999997,0.0,-0.5235987755982988,0,-0.18182689,-0.43827203,-0.038901974,0.19884245,0.12024145,1.3469245,-0.47505018,-0.82485574,-1.7802252,0.0998845,-0.054695893,0.06813151,1.2260174,2.319202
0.0,0.1,1.1999999999999997,0.0,-0.5235987755982988,0,-0.18171373,-0.43827498,-0.040237077,0.18014865,-0.22013927,1.4021257,-1.6677089,-0.82007366,-1.7848508,4.7475485e-05,-0.05926407,-0.11274935,1.2432439,0.61008704
0.0,0.1,1.1999999999999997,0.0,-0.5235987755982988,0,-0.18237409,-0.43829384,-0.03714749,0.2064383,0.05230027,1.3437178,-0.7149392,-0.8083606,-1.7897755,0.06274455,-0.071213774,-0.13948879,1.2681397,0.8948275
0.0,0.1,1.1999999999999997,0.0,-0.5235987755982988,0,-0.18223952,-0.43821424,-0.039155304,0.2076709,-0.13732399,1.3895404,-0.5977612,-0.8326872,-1.7791595,0.048832,-0.1009018,-0.04287928,1.2437238,0.17931879
0.0,0.1,1.1999999999999997,0.0,-0.5235987755982988,0,-0.18173897,-0.438257,-0.034096655,0.1925293,0.13462067,1.3686285,-0.43867776,-0.8208161,-1.7739955,0.12440504,-0.08661403,0.032345813,1.1942147,-0.13841443
0.0,0.1,1.1999999999999997,0.0,-0.5235987755982988,0,-0.18254788,-0.43861142,-0.03720173,0.17507595,0.073062785,1.3590667,-1.9171196,-0.81597745,-1.7899321,0.16663195,-0.1073019,0.019347252,1.2325269,0.8991859
0.0,0.1,1.1999999999999997,0.0,-0.5235987755982988,0,-0.18204334,-0.4382236,-0.037163712,0.20975076,0.1500634,1.4219291,-0.25507382,-0.81975424,-1.7662705,-0.017520407,-0.08556323,-0.1791382,1.2483606,0.7949303
0.0,0.1,1.1999999999999997,0.0,-0.5235987755982988,0,-0.18210764,-0.43798783,-0.038029954,0.18717235,0.51961875,1.4370469,-0.9042298,-0.8210927,-1.7663304,0.049133535,-0.05633251,-0.020422652,1.2662375,0.81573606
0.0,0.1,1.1999999999999997,0.0,-0.5235987755982988,0,-0.18181768,-0.43824384,-0.034930747,0.23645297,0.06239792,1.4183328,-0.70629513,-0.81985784,-1.7686379,0.071821816,-0.074312195,-0.009803291,1.2375244,-1.5833848
0.0,0.1,1.1999999999999997,0.0,-0.5235987755982988,0,-0.18266387,-0.43798694,-0.0353761,0.2076182,0.3312315,1.42273,-0.19844258,-0.80073607,-1.7860949,0.040026497,-0.039322324,-0.019069599,1.1762613,0.49677196
0.0,0.1,1.1999999999999997,0.0,-0.5235987755982988,0,-0.18243441,-0.43828902,-0.036265194,0.20102595,-0.2886483,1.3908685,-0.05033137,-0.83275735,-1.7928065,0.08989551,-0.060630105,-0.09793672,1.2227474,1.0470611
0.0,0.1,1.1999999999999997,0.0,-0.5235987755982988,0,-0.18174648,-0.43827155,-0.03709526,0.23462765,-0.15882199,1.3793088,-0.2949797,-0.821324,-1.7901074,0.13012622,-0.08083741,0.15033977,1.2384521,-0.1773609
0.0,0.1,1.1999999999999997,0.0,-0.5235987755982988,0,-0.18220663,-0.438387,-0.037763637,0.22801356,-0.008435615,1.3884187,-0.65192044,-0.82670784,-1.7939825,0.07694427,-0.078312606,-0.14272515,1.2185984,0.27291098
0.0,0.1,1.1999999999999997,0.0,-0.5235987755982988,0,-0.18203007,-0.43815312,-0.036431145,0.2098908,-0.18410593,1.3614081,-1.4877497,-0.81565356,-1.779295,0.118304424,-0.05429528,0.016703034,1.2302974,0.36594465
0.0,0.1,1.1999999999999997,0.0,-0.5235987755982988,0,-0.18198638,-0.4380908,-0.03731796,0.2126947,0.2628466,1.3887937,-0.73585194,-0.82219887,-1.7955755,0.047785796,-0.11297875,0.044767544,1.2568476,0.46702522
0.0,0.1,1.1999999999999997,0.0,-0.5235987755982988,0,-0.18236983,-0.43842682,-0.036955547,0.20165886,0.3024518,1.3636678,-0.99963665,-0.81300753,-1.7799122,0.00892229,-0.11939682,-0.09117295,1.2138467,0.17956503
0.0,0.1,1.1999999999999997,0.0,-0.5235987755982988,0,-0.18272284,-0.43813902,-0.040492926,0.152393,0.1274649,1.394156,-0.008268184,-0.8112341,-1.7814198,0.06923681,-0.017721353,-0.010779308,1.2773807,1.6221019
0.0,0.1,1.1999999999999997,0.0,-0.5235987755982988,0,-0.18279204,-0.43813217,-0.037412688,0.18448298,0.13570723,1.40792,-1.1517774,-0.82103395,-1.7808189,-0.028135935,-0.0758041,-0.009189468,1.2341369,1.091751
0.0,0.1,1.1999999999999997,0.0,-0.5235987755982988,0,-0.1825206,-0.43843022,-0.035779946,0.21552776,0.04062675,1.3736316,-0.058677997,-0.81374925,-1.7766917,-0.0043808375,-0.07702723,-0.016006034,1.2623512,-0.2161536
0.0,0.1,1.1999999999999997,0.0,-0.5235987755982988,0,-0.18212867,-0.43813092,-0.04063795,0.21030243,0.02857693,1.3711014,-0.6232879,-0.8072604,-1.7884729,0.068211354,-0.07343177,0.053562544,1.2423934,1.5064977
0.0,0.1,1.1999999999999997,0.0,-0.5235987755982988,0,-0.18257013,-0.438181,-0.037529584,0.18911181,-0.17015992,1.4056704,-0.829612,-0.82479507,-1.7717099,-0.059094377,-0.097594194,-0.09035245,1.2401363,-0.41510636
0.0,0.1,1.1999999999999997,0.0,-0.5235987755982988,0,-0.18228629,-0.43808204,-0.036602594,0.20553286,0.33869776,1.3912443,-0.8369129,-0.8188125,-1.7820485,0.19918104,-0.048192155,-0.024106072,1.2061834,1.2636166
0.0,0.1,1.1999999999999997,0.0,-0.5235987755982988,0,-0.18291952,-0.43827525,-0.03668485,0.21769214,-0.18094562,1.3675159,-0.23815201,-0.81401986,-1.7847272,0.12881805,-0.07856286,-0.029962458,1.228395,0.18144953
0.0,0.1,1.1999999999999997,0.0,-0.5235987755982988,0,-0.18204989,-0.4380427,-0.03787452,0.16051205,0.1110991,1.4346087,-0.26001114,-0.8222943,-1.7679949,0.067285314,-0.055676308,-0.12113942,1.215684,1.8024646
0.0,0.1,1.1999999999999997,0.0,-0.5235987755982988,0,-0.18158366,-0.43821427,-0.037365727,0.2401117,0.27301604,1.3590195,-0.96846807,-0.8182222,-1.7881659,0.09629774,-0.063836284,0.042698808,1.2431526,-0.011967225
0.0,0.1,1.1999999999999997,0.0,-0.5235987755982988,0,-0.18241717,-0.43818256,-0.039436247,0.16854244,0.33776274,1.3812715,-0.6493588,-0.82012945,-1.7756143,0.110141546,-0.09547889,-0.055601098,1.2433592,0.27752653
0.0,0.1,1.1999999999999997,0.0,-0.5235987755982988,0,-0.1816953,-0.43789884,-0.038452595,0.17068365,0.064459994,1.362405,0.14739074,-0.80137974,-1.7872138,0.06714034,-0.07130558,0.01429483,1.2643185,0.62005234
0.0,0.1,1.1999999999999997,0.0,-0.5235987755982988,0,-0.18231043,-0.4383665,-0.03892006,0.22200821,-0.11763225,1.3918868,-0.58273596,-0.8139799,-1.7813772,0.09703107,-0.045278735,-0.17650895,1.2368877,0.26611567
0.0,0.1,1.1999999999999997,0.0,-0.5235987755982988,0,-0.18270242,-0.43839654,-0.036974154,0.17097446,0.049299046,1.4189209,-0.15807997,-0.8127304,-1.7641518,0.12511304,-0.074646,0.009563736,1.2138954,0.9993532
0.0,0.1,1.1999999999999997,0.0,-0.5235987755982988,0,-0.18175799,-0.4384311,-0.036489636,0.22362031,0.07155586,1.340962,-0.6043935,-0.81661975,-1.7909796,0.021386012,-0.07887486,-0.058627855,1.1960071,0.08253191
0.0,0.1,1.1999999999999997,0.0,-0.5235987755982988,0,-0.1815692,-0.43826264,-0.03845027,0.14096802,-0.12866773,1.4066817,-0.05126156,-0.8226783,-1.778236,0.042877194,-0.06467713,0.0208523,1.2387922,-0.17044245
0.0,0.1,1.1999999999999997,0.0,-0.5235987755982988,0,-0.18274955,-0.43835342,-0.03899581,0.21891427,0.35059574,1.4289125,-0.7562756,-0.83211255,-1.7792393,0.033478145,-0.0736358,-0.1383835,1.217291,1.7530802
0.0,0.1,1.1999999999999997,0.0,-0.5235987755982988,0,-0.18254319,-0.43815187,-0.039595526,0.22775176,0.06513248,1.3655589,-0.5453769,-0.8078252,-1.7740873,0.21253744,-0.08427084,-0.01635922,1.258713,0.7762175
0.0,0.1,1.1999999999999997,0.0,-0.5235987755982988,0,-0.18201645,-0.43819723,-0.03785201,0.19221349,0.20658433,1.340711,-0.36453614,-0.80736816,-1.7918112,0.19846515,-0.06639921,0.096928805,1.2233778,0.62901264
0.0,0.1,1.1999999999999997,0.0,-0.5235987755982988,0,-0.18190695,-0.4377837,-0.036917437,0.19395041,-0.0024184936,1.3993136,-0.8567467,-0.8212989,-1.7810425,0.012830226,-0.11644365,-0.049659356,1.2192487,1.238698
0.0,0.1,1.1999999999999997,0.0,-0.5235987755982988,0,-0.18178546,-0.43842682,-0.034774344,0.19192123,-0.12774123,1.4144127,-1.3614179,-0.80845964,-1.786059,0.11275766,-0.07754114,0.05716085,1.2516199,-0.4832823
0.0,0.1,1.1999999999999997,0.0,-0.5235987755982988,0,-0.18219288,-0.43819848,-0.040411133,0.17075646,-0.0103075765,1.3695664,-0.9737984,-0.8188137,-1.7772545,0.08695296,-0.0879062,-0.058478385,1.2189641,1.38168
0.0,0.1,1.1999999999999997,0.0,-0.5235987755982988,0,-0.18190502,-0.4381751,-0.038721245,0.18405788,0.26750812,1.4254165,-1.3837976,-0.82032937,-1.7853221,0.09772546,-0.08349869,0.012985433,1.2554011,0.03488943
0.0,0.1,1.1999999999999997,0.0,-0.5235987755982988,0,-0.18247174,-0.43810344,-0.039653126,0.23025756,-0.13497746,1.3571476,-0.775479,-0.8195713,-1.7757123,0.08759924,-0.055881094,-0.06139416,1.2821202,0.8927865
0.0,0.1,1.1999999999999997,0.0,-0.5235987755982988,0,-0.18213728,-0.43826595,-0.0361413,0.20933616,0.015231116,1.387646,-0.6914911,-0.8227462,-1.7744228,0.113094,-0.08407804,-0.09997709,1.2056404,1.7022865
0.0,0.1,1.1999999999999997,0.0,-0.5235987755982988,0,-0.18153866,-0.4381536,-0.038418766,0.26254708,0.25232974,1.4396418,-0.9784305,-0.8248273,-1.783534,0.06684579,-0.07450921,-0.07795344,1.2543421,1.2998043
0.0,0.1,1.1999999999999997,0.0,-0.5235987755982988,0,-0.18272236,-0.43836948,-0.03869986,0.2475301,-0.05811476,1.3978299,-0.3222824,-0.8122199,-1.7903389,0.15511562,-0.05729967,-0.010850939,1.2191068,-1.8426251
0.0,0.1,1.1999999999999997,0.0,-0.5235987755982988,0,-0.18240695,-0.43814197,-0.03153169,0.14390142,-0.07428546,1.4130052,-0.39454836,-0.8218995,-1.783082,-0.004190514,-0.05779115,0.13134891,1.2045666,-0.66016304
0.0,0.1,1.1999999999999997,0.0,-0.5235987755982988,0,-0.18245944,-0.43825835,-0.03352707,0.1745258,-0.011974572,1.4362584,-0.2047916,-0.81933343,-1.7896428,0.11215728,-0.075513214,-0.04493429,1.2042118,0.13550219
0.0,0.1,1.1999999999999997,0.0,-0.5235987755982988,0,-0.1825502,-0.4385827,-0.039326243,0.14737232,0.23692176,1.3765332,-0.7027051,-0.81863225,-1.7842249,0.16241805,-0.047300056,-0.075509965,1.2376959,0.93608314
0.0,0.1,1.1999999999999997,0.0,-0.5235987755982988,0,-0.18128684,-0.43839478,-0.038939036,0.20178281,-0.14659148,1.4325672,-0.6786496,-0.8161007,-1.7733321,0.09451928,-0.08311473,-0.012663636,1.1676558,0.13484325
0.0,0.1,1.1999999999999997,0.0,-0.5235987755982988,0,-0.18221192,-0.43822068,-0.041543316,0.21637689,0.35883087,1.412879,0.008959668,-0.81654567,-1.7912635,0.112277664,-0.030348213,0.070348255,1.2141173,0.37387782
0.0,0.1,1.1999999999999997,0.0,-0.5235987755982988,0,-0.18217087,-0.43815053,-0.039302513,0.21447073,0.08249045,1.4201908,0.5105678,-0.810868,-1.7805429,0.05383033,-0.07634829,-0.06623025,1.239287,-0.919635
0.0,0.1,1.1999999999999997,0.0,-0.5235987755982988,0,-0.18148595,-0.4382419,-0.03639911,0.16513395,0.14642376,1.4220523,-0.6398997,-0.81986564,-1.7746828,0.01409581,-0.016857117,-0.16099499,1.268112,1.1804317
0.0,0.1,1.1999999999999997,0.0,-0.5235987755982988,0,-0.18216312,-0.43849754,-0.039470058,0.17192222,-0.103484124,1.3702375,-0.2473732,-0.82081705,-1.787264,0.060650922,-0.057327326,0.005355013,1.250313,0.60796815
0.0,0.1,1.1999999999999997,0.0,-0.5235987755982988,0,-0.18210922,-0.4382711,-0.040497705,0.18842554,-0.070306435,1.385081,-0.22684918,-0.82558095,-1.791023,0.1150319,-0.082592174,-0.110323966,1.2091055,1.0150311
0.0,0.1,1.1999999999999997,0.0,-0.5235987755982988,0,-0.18187632,-0.43799275,-0.03825947,0.17980836,0.18364084,1.4012907,-0.2884537,-0.8273195,-1.7805686,-0.03112356,-0.07415045,0.021630293,1.2195728,1.4030038
0.0,0.1,1.1999999999999997,0.0,-0.5235987755982988,0,-0.18229444,-0.43828246,-0.03710263,0.22621168,0.6292484,1.4118575,0.052651864,-0.8190619,-1.7754257,0.19565049,-0.08451316,-0.060644306,1.2061692,-0.039330367
0.0,0.1,1.1999999999999997,0.0,-0.5235987755982988,0,-0.18273742,-0.43810278,-0.032485344,0.17213447,0.30680802,1.377292,-0.9969291,-0.809207,-1.7863191,0.13722308,-0.051382203,0.06189997,1.2388891,1.1413816
0.0,0.1,1.1999999999999997,0.0,-0.5235987755982988,0,-0.18266752,-0.43793312,-0.037651546,0.20117669,-0.11941778,1.3645389,-0.75190294,-0.82221574,-1.7755184,0.07972871,-0.08651439,-0.08045838,1.2247285,0.9451352
0.0,0.1,1.1999999999999997,0.0,-0.5235987755982988,0,-0.18228735,-0.4383322,-0.03522808,0.17795806,0.15406051,1.3915374,-0.6696144,-0.8222507,-1.7911209,0.052896734,-0.065849416,-0.042305574,1.209173,0.52812845
0.0,0.1,1.1999999999999997,0.0,-0.5235987755982988,0,-0.18249063,-0.43856016,-0.03772698,0.19777296,0.28969416,1.4295597,-0.5311521,-0.81949556,-1.7711886,0.044465676,-0.0625869,-0.0068323705,1.2017212,1.1967047
0.0,0.1,1.1999999999999997,0.0,-0.5235987755982988,0,-0.18215485,-0.43813354,-0.03614988,0.17696041,0.3573695,1.4045606,-0.5671199,-0.83539176,-1.7803352,0.09330611,-0.07006262,0.050308,1.1801145,1.6241153
0.0,0.1,1.1999999999999997,0.0,-0.5235987755982988,0,-0.18206224,-0.43838647,-0.037422165,0.16274118,0.345721,1.3759924,-0.4769538,-0.8086082,-1.770352,0.053280175,-0.059320938,-0.06271047,1.2685618,1.4648151
0.0,0.1,1.1999999999999997,0.0,-0.5235987755982988,0,-0.18230894,-0.43831465,-0.03550667,0.16323563,0.024811957,1.4220442,-1.5899172,-0.81695527,-1.773645,0.22104952,-0.05461651,0.012946914,1.2393621,0.102514036
0.0,0.1,1.1999999999999997,0.0,-0.5235987755982988,0,-0.18262401,-0.4382338,-0.032059778,0.2029203,0.32780376,1.3522087,-0.40447718,-0.81192064,-1.7958472,0.07648168,-0.09526268,0.030680234,1.2070138,1.4331752
0.0,0.1,1.1999999999999997,0.0,-0.5235987755982988,0,-0.18278143,-0.4382378,-0.041194405,0.22958334,0.18527922,1.3589913,-0.7845492,-0.8226546,-1.7913254,0.07925438,-0.09083724,-0.07515705,1.2577792,0.713178
0.0,0.1,1.1999999999999997,0.0,-0.5235987755982988,0,-0.18142298,-0.43796057,-0.038300253,0.22449721,0.036264,1.3812615,-0.4231476,-0.8249793,-1.7886521,0.12687695,-0.060887806,0.0072562424,1.2624629,0.60191673
0.0,0.1,1.1999999999999997,0.0,-0.5235987755982988,0,-0.18198596,-0.4383219,-0.03758359,0.1850055,0.13611062,1.3884754,-1.2839824,-0.827577,-1.7762724,0.051983673,-0.07433136,0.035559803,1.2048308,1.9248468
0.0,0.1,1.1999999999999997,0.0,-0.5235987755982988,0,-0.18241547,-0.43817744,-0.034625996,0.19166915,-0.10263125,1.3985562,-0.69279855,-0.8121714,-1.7715775,0.08686725,-0.077862196,0.026972152,1.2088543,0.90285724
0.0,0.1,1.1999999999999997,0.0,-0.5235987755982988,0,-0.18225266,-0.43838665,-0.035761066,0.14959568,-0.047810297,1.4062165,-1.0490934,-0.81908965,-1.7732775,0.058639828,-0.082365476,-0.03366888,1.2265816,0.37030658
0.0,0.1,1.1999999999999997,0.0,-0.5235987755982988,0,-0.1824134,-0.43814346,-0.038461506,0.19038512,0.06644562,1.4337219,-0.3105626,-0.8041686,-1.7705293,0.12316989,-0.071026795,0.17736132,1.2252561,1.757747
0.0,0.1,1.1999999999999997,0.0,-0.5235987755982988,0,-0.18288401,-0.4382399,-0.03667556,0.20140205,0.23512831,1.4020728,-0.534729,-0.8138364,-1.7880093,-0.017262636,-0.10036593,-0.15484451,1.2429186,0.21661933
0.0,0.1,1.1999999999999997,0.0,-0.5235987755982988,0,-0.18309861,-0.43855554,-0.03819739,0.20261784,0.11183563,1.4039009,-0.108923405,-0.8187493,-1.7711635,0.04862698,-0.08241571,0.10568786,1.2280499,1.2380573
0.0,0.1,1.1999999999999997,0.0,-0.5235987755982988,0,-0.18196252,-0.43845123,-0.03596318,0.18039714,0.055960063,1.4238298,-0.3818855,-0.80999154,-1.778061,0.06444915,-0.067601025,-0.17585005,1.2219626,1.0604259
0.0,0.1,1.1999999999999997,0.0,-0.5235987755982988,0,-0.18182588,-0.43819964,-0.03600388,0.21947205,-0.12544882,1.4007796,-0.29724726,-0.8156353,-1.7833474,0.07486968,-0.08074313,-0.011880366,1.2557114,-0.120777056
0.0,0.1,1.1999999999999997,0.0,-0.5235987755982988,0,-0.18155871,-0.43823537,-0.037928503,0.19050841,-0.17769326,1.3960452,-1.0578988,-0.8172592,-1.7820152,0.03625392,-0.058926955,-0.035658736,1.2496896,-0.111398146
0.0,0.1,1.1999999999999997,0.0,-0.5235987755982988,0,-0.18232195,-0.43841657,-0.03678425,0.20638329,-0.20364754,1.4076189,-0.7381212,-0.82800126,-1.7849542,0.09932356,-0.10359705,0.12968364,1.2540157,0.568661
0.0,0.1,1.1999999999999997,0.0,-0.5235987755982988,0,-0.18272606,-0.43850255,-0.037727002,0.202198,0.20200405,1.3656721,0.06423287,-0.82738733,-1.7845616,-0.013543529,-0.088275604,-0.001188219,1.2433586,-0.55422336
0.0,0.1,1.1999999999999997,0.0,-0.5235987755982988,0,-0.1825398,-0.4384209,-0.03775288,0.1866777,-0.12816782,1.4087396,-0.2560096,-0.8215818,-1.7819585,0.1442753,-0.09526972,0.022922672,1.2142211,-0.23214231
0.0,0.1,1.1999999999999997,0.0,-0.5235987755982988,0,-0.18211614,-0.4381987,-0.03458793,0.18008667,0.20921849,1.3579336,-0.59519607,-0.81954885,-1.7810937,0.0044792336,-0.07915181,0.03532807,1.2405332,0.41639653
0.0,0.1,1.1999999999999997,0.0,-0.5235987755982988,0,-0.18218012,-0.43833062,-0.035603143,0.20016484,0.13435172,1.3890053,-1.4093671,-0.8145294,-1.7792501,-0.04466959,-0.06929665,-0.10858259,1.2280632,1.5056787
0.0,0.1,1.1999999999999997,0.0,-0.5235987755982988,0,-0.18163149,-0.43827525,-0.0348678,0.19709292,-0.107800744,1.4231672,-0.012112554,-0.823494,-1.7794163,0.11124008,-0.062307104,-0.10876709,1.2107179,-0.12899236
0.0,0.1,1.1999999999999997,0.0,-0.5235987755982988,0,-0.18153892,-0.4380905,-0.0388449,0.18733412,0.019583328,1.4096489,-0.7286932,-0.8286672,-1.7942197,0.0348092,-0.08114638,-0.021195985,1.2106102,-0.24869248
0.0,0.1,1.1999999999999997,0.0,-0.5235987755982988,0,-0.18199849,-0.43836683,-0.037145834,0.22741428,0.23791587,1.3641222,-0.9939441,-0.82396376,-1.7835191,0.031109607,-0.10752856,-0.106804915,1.2341288,0.6899734
0.0,0.1,1.1999999999999997,0.0,-0.5235987755982988,0,-0.18161201,-0.43815774,-0.03336377,0.21465904,0.27138755,1.3929477,-0.4374351,-0.82086897,-1.76619,0.12834391,-0.0595266,-0.051109,1.1806405,1.8104999
0.0,0.1,1.1999999999999997,0.0,-0.5235987755982988,0,-0.18229187,-0.43837762,-0.03687105,0.19008207,0.5870134,1.3985902,-1.0637555,-0.8110066,-1.7798142,-0.011252789,-0.081548676,0.011399523,1.2607665,0.1772817
0.0,0.1,1.1999999999999997,0.0,-0.5235987755982988,0,-0.18215911,-0.43820128,-0.035972897,0.23744354,0.41185555,1.3848902,-0.3694049,-0.8134178,-1.785792,0.13102503,-0.07942472,-0.005822039,1.2367657,-0.47152805
0.0,0.1,1.1999999999999997,0.0,-0.5235987755982988,0,-0.18186945,-0.43805644,-0.036080547,0.20956868,0.16903308,1.396141,-0.122867405,-0.8248578,-1.7860763,0.13851118,-0.09647593,0.05225808,1.2085909,0.082903445
0.0,0.1,1.1999999999999997,0.0,-0.5235987755982988,0,-0.18154006,-0.4380558,-0.037359305,0.22624348,-0.15437365,1.3655838,-0.333023,-0.8133622,-1.7869245,0.115366854,-0.08524687,-0.12843084,1.2581221,-0.11270444
0.0,0.1,1.1999999999999997,0.0,-0.5235987755982988,0,-0.18208575,-0.43840647,-0.035393644,0.17552602,0.24393295,1.4267865,-0.72359186,-0.8202448,-1.7678429,0.02569936,-0.06474874,-0.02849168,1.2427585,0.8725646
0.0,0.1,1.1999999999999997,0.0,-0.5235987755982988,0,-0.18281597,-0.43817705,-0.03765317,0.17945045,-0.25526538,1.3981534,-0.31958744,-0.8181513,-1.7899156,0.0471151,-0.06547025,-0.25667182,1.2118173,0.704032
0.0,0.1,1.1999999999999997,0.0,-0.5235987755982988,0,-0.18206184,-0.4382028,-0.035094786,0.1762523,0.1507862,1.3583213,-0.63912874,-0.8080894,-1.7851334,0.08061285,-0.074499436,0.123750225,1.2646968,-0.48469633
0.0,0.1,1.1999999999999997,0.0,-0.5235987755982988,0,-0.18207504,-0.4383984,-0.034837153,0.1384467,0.13580936,1.3866202,-1.3330543,-0.8125181,-1.7786789,0.159244,-0.05727216,-0.03543034,1.2095939,1.0728343
0.0,0.1,1.1999999999999997,0.0,-0.5235987755982988,0,-0.1825352,-0.43815705,-0.038749322,0.16611448,0.12445392,1.4416429,-0.14490955,-0.81042296,-1.7815232,-0.015279854,-0.080751844,0.010183996,1.2337012,1.0277297
0.0,0.1,1.1999999999999997,0.0,-0.5235987755982988,0,-0.18252276,-0.43809614,-0.037279937,0.24544103,0.09558299,1.3930695,0.19595641,-0.82119626,-1.780795,-0.03891394,-0.0793923,-0.082094334,1.2682383,-0.11561992
0.0,0.1,1.1999999999999997,0.0,-0.5235987755982988,0,-0.18202844,-0.4384772,-0.036282975,0.17815837,0.014349975,1.3794754,-0.36605403,-0.80977476,-1.76949,0.09052276,-0.0737638,-0.16775988,1.2040703,0.57557607
0.0,0.1,1.1999999999999997,0.0,-0.5235987755982988,0,-0.18179275,-0.43815234,-0.04040998,0.1726954,0.16686063,1.3427516,-1.3137013,-0.8178175,-1.7898567,-0.0022267788,-0.037572056,0.05364179,1.2224846,1.0279576
0.0,0.1,1.1999999999999997,0.0,-0.5235987755982988,0,-0.18199313,-0.43834615,-0.037645947,0.19245252,0.09911457,1.404393,-0.8559229,-0.8158552,-1.7727735,0.0631993,-0.08957523,0.034383662,1.2501106,-0.75564253
0.0,0.1,1.1999999999999997,0.0,-0.5235987755982988,0,-0.18255517,-0.43839,-0.034976494,0.19299228,-0.08787622,1.4044223,-0.78814167,-0.8116505,-1.7815391,0.14344554,-0.047115427,-0.07530016,1.225413,0.52359533
0.0,0.1,1.1999999999999997,0.0,-0.5235987755982988,0,-0.18240897,-0.43828708,-0.0359075,0.2134881,0.11347939,1.3341137,-0.88619435,-0.818471,-1.7779137,0.094351456,-0.09276444,0.033993896,1.2537441,1.186355
0.0,0.1,1.1999999999999997,0.0,-0.5235987755982988,0,-0.18234058,-0.43821612,-0.034055192,0.19582494,0.2348775,1.4092885,-0.99312055,-0.8190422,-1.7898642,0.05916812,-0.058001492,0.061626643,1.2202979,1.0783511
0.0,0.1,1.1999999999999997,0.0,-0.5235987755982988,0,-0.18276592,-0.43811947,-0.0314987,0.19492066,-0.2887356,1.4029058,-0.037894756,-0.82393956,-1.7864206,0.049736384,-0.06459823,-0.023021342,1.2251765,-1.4450977
0.0,0.1,1.1999999999999997,0.0,-0.5235987755982988,0,-0.1820634,-0.43843174,-0.034017187,0.23281476,0.023759786,1.4030557,0.026009785,-0.82237947,-1.7741446,0.039362792,-0.06354075,-0.14688598,1.2370015,0.8680395
0.0,0.1,1.1999999999999997,0.0,-0.5235987755982988,0,-0.18245678,-0.4380836,-0.039205227,0.18128824,0.40190706,1.4005213,-0.07846711,-0.81276274,-1.7829548,0.08994932,-0.08019616,-0.06973915,1.245606,1.2265277
0.0,0.1,1.1999999999999997,0.0,-0.5235987755982988,0,-0.18178436,-0.43833235,-0.0400041,0.16471396,0.31285712,1.3746957,-0.49929795,-0.8178158,-1.7870756,0.0745582,-0.067712136,0.036798812,1.224569,0.025716651
0.0,0.1,1.1999999999999997,0.0,-0.5235987755982988,0,-0.18214495,-0.4382587,-0.034958914,0.24329595,0.09646948,1.427945,0.13623022,-0.8186931,-1.7862118,0.03880549,0.0044808295,-0.0031089475,1.1821744,0.40884238
0.0,0.1,1.1999999999999997,0.0,-0.5235987755982988,0,-0.18214366,-0.4382508,-0.032843992,0.19530986,-0.37624145,1.359495,0.40034512,-0.81921476,-1.7949529,0.10023637,-0.056413356,0.009996288,1.239557,0.7645613
0.0,0.1,1.1999999999999997,0.0,-0.5235987755982988,0,-0.1813852,-0.43823144,-0.03807697,0.20926434,0.34673107,1.402177,0.21483254,-0.8231596,-1.781422,0.05906958,-0.07829716,-0.14259294,1.2674495,-0.33799198
0.0,0.1,1.1999999999999997,0.0,-0.5235987755982988,0,-0.18193749,-0.43850222,-0.035268053,0.19442156,0.39898765,1.4065855,-0.4993911,-0.82083684,-1.7749294,0.1709469,-0.07370617,-0.13439749,1.2536732,-0.020018257
0.0,0.1,1.1999999999999997,0.0,-0.5235987755982988,0,-0.18207869,-0.43802837,-0.03488866,0.20214064,0.051437836,1.4150773,-0.41706178,-0.8239997,-1.776565,0.097780764,-0.07700709,0.06867627,1.2419518,-0.054452345
0.0,0.1,1.1999999999999997,0.0,-0.5235987755982988,0,-0.18195687,-0.43807396,-0.037937395,0.25271466,0.17529525,1.4019353,-0.9306469,-0.81124276,-1.7850282,0.11060028,-0.03177294,0.07718734,1.208825,0.8247975
0.0,0.1,1.1999999999999997,0.0,-0.5235987755982988,0,-0.18195772,-0.4379258,-0.037741203,0.21778302,-0.33911046,1.3775709,-0.33409697,-0.8171496,-1.7775844,0.044882815,-0.10208221,0.042957224,1.2187783,0.34579316
0.0,0.1,1.1999999999999997,0.0,-0.5235987755982988,0,-0.18190673,-0.43794423,-0.03873693,0.193231,0.3338821,1.3807617,-0.58492047,-0.8246238,-1.7695909,0.047594815,-0.08714705,-0.0010745841,1.1835421,0.45402026
0.0,0.1,1.1999999999999997,0.0,-0.5235987755982988,0,-0.18291587,-0.43814585,-0.039738707,0.21691068,0.053760804,1.3466502,-1.1003453,-0.8241592,-1.7858905,0.04970727,-0.071167454,-0.15086812,1.2048777,1.2231575
0.0,0.1,1.1999999999999997,0.0,-0.5235987755982988,0,-0.18177775,-0.43821296,-0.03659404,0.21998788,0.18871294,1.3825405,-0.626824,-0.8280695,-1.7819165,0.03710493,-0.057287198,-0.0005163502,1.2836014,-0.4626157
0.0,0.1,1.1999999999999997,0.0,-0.5235987755982988,0,-0.18128298,-0.43836835,-0.037173007,0.2146203,-0.1596085,1.432372,-0.8120478,-0.8172641,-1.7865256,0.018406533,-0.073482424,0.03747967,1.2668102,-0.6617227
0.0,0.1,1.1999999999999997,0.0,-0.5235987755982988,0,-0.18308428,-0.43814975,-0.038236067,0.21897013,-0.021053176,1.37614,-0.22843494,-0.8151348,-1.7805778,0.10683484,-0.072321326,0.06586996,1.2458755,1.6781442
0.0,0.1,1.1999999999999997,0.0,-0.5235987755982988,0,-0.18225875,-0.438177,-0.03798494,0.22546205,0.002729254,1.4229387,-0.9549297,-0.82228214,-1.7880793,0.05597334,-0.043253135,-0.09505729,1.1909349,1.4264311
0.0,0.1,1.1999999999999997,0.0,-0.5235987755982988,0,-0.18238613,-0.43801188,-0.037963953,0.23106655,-0.12861401,1.391907,-0.5352305,-0.81185985,-1.7856655,0.09290785,-0.07243502,0.049137685,1.2369434,-0.16182655
0.0,0.1,1.1999999999999997,0.0,-0.5235987755982988,0,-0.18221372,-0.43814752,-0.036863018,0.21311158,-0.13859218,1.3325077,-0.781226,-0.81861126,-1.7746838,0.18895674,-0.06615257,-0.09044005,1.2243448,1.023613
0.0,0.1,1.1999999999999997,0.0,-0.5235987755982988,0,-0.18200792,-0.43825245,-0.040730454,0.20560727,0.4006556,1.3261993,-1.2646395,-0.8139306,-1.7900158,0.09206533,-0.06673849,-0.0230352,1.2151898,1.2678274
0.0,0.1,1.1999999999999997,0.0,-0.5235987755982988,0,-0.18206912,-0.43812487,-0.035188057,0.19994499,0.012604744,1.3966658,-0.2067292,-0.82665014,-1.7886536,0.068437815,-0.069261484,-0.0035815318,1.2025317,0.8090342
0.0,0.1,1.1999999999999997,0.0,-0.5235987755982988,0,-0.18226957,-0.43811506,-0.0384953,0.23928261,0.19984843,1.3846064,-0.39533883,-0.8238993,-1.784232,0.16831581,-0.06770362,-0.08112738,1.2022685,0.8054567
0.0,0.1,1.1999999999999997,0.0,-0.5235987755982988,0,-0.1826776,-0.43792373,-0.038623646,0.19474217,-0.030600166,1.3799025,-0.6842758,-0.8259949,-1.7901839,0.071349785,-0.057270505,-0.19099241,1.2204909,1.1269294
0.0,0.1,1.1999999999999997,0.0,-0.5235987755982988,0,-0.1825429,-0.43854174,-0.03588844,0.18882532,0.45019016,1.3640691,-0.12917921,-0.8185426,-1.7857236,0.07158064,-0.076536216,-0.025525095,1.3049505,1.1542343
0.0,0.1,1.1999999999999997,0.0,-0.5235987755982988,0,-0.18200284,-0.43828484,-0.042083006,0.20176436,-0.27876595,1.4263268,-0.39454406,-0.81343853,-1.779847,0.064242676,-0.07864299,0.05407567,1.2258489,0.7254644
0.0,0.1,1.1999999999999997,0.0,-0.5235987755982988,0,-0.18243922,-0.4382128,-0.037438937,0.18903948,0.35447094,1.4188533,-0.22703321,-0.8278581,-1.7752194,0.16929017,-0.05140448,0.01519069,1.2132429,0.7557939
0.0,0.1,1.1999999999999997,0.0,-0.5235987755982988,0,-0.18229203,-0.43809462,-0.037553307,0.19756117,-0.012935503,1.4307473,-0.86616087,-0.81581414,-1.7909027,0.04304672,-0.04908268,0.04275786,1.2310766,-2.053487
0.0,0.1,1.1999999999999997,0.0,-0.5235987755982988,0,-0.18313009,-0.43801698,-0.03575015,0.17274751,-0.14535765,1.3854761,-0.661493,-0.82565314,-1.785504,-0.053283505,-0.049042217,-0.009919512,1.2458854,0.16708384
0.0,0.1,1.1999999999999997,0.0,-0.5235987755982988,0,-0.18230993,-0.437997,-0.04028023,0.25146428,0.2120893,1.3887172,0.060815714,-0.8217931,-1.7845219,0.16058417,-0.057256773,-0.09290726,1.2688708,0.119548574
0.0,0.1,1.1999999999999997,0.0,-0.5235987755982988,0,-0.18247627,-0.43851393,-0.039211046,0.2333746,-0.0597736,1.4209596,-0.782121,-0.8134571,-1.7803743,-0.03604599,-0.017869977,0.01789271,1.2428551,0.7109722
0.0,0.1,1.1999999999999997,0.0,-0.5235987755982988,0,-0.18229724,-0.4382235,-0.037871886,0.24190408,0.19187304,1.3816707,-1.1244999,-0.8250676,-1.7887782,0.02723472,-0.05909041,-0.08612255,1.2354985,0.6408231
0.0,0.1,1.1999999999999997,0.0,-0.5235987755982988,0,-0.18161882,-0.43819582,-0.03918004,0.22656995,-0.14071408,1.358335,-0.43884456,-0.8146291,-1.7867981,0.057712425,-0.05019634,-0.075638264,1.2137041,1.015609
0.0,0.1,1.1999999999999997,0.0,-0.5235987755982988,0,-0.18212225,-0.43810096,-0.03557045,0.24846853,-0.30777386,1.4030669,-1.0431752,-0.819179,-1.7760041,0.025371008,-0.04946506,-0.048597287,1.2395809,0.5623504
0.0,0.1,1.1999999999999997,0.0,-0.5235987755982988,0,-0.18222266,-0.43780887,-0.039508462,0.24156229,0.34753522,1.4350823,-0.34665838,-0.8162246,-1.7833718,0.054836463,-0.05059265,-0.032166388,1.2671574,-0.6979355
0.0,0.1,1.1999999999999997,0.0,-0.5235987755982988,0,-0.1825796,-0.43823755,-0.036632873,0.2038846,0.21224737,1.3818072,-0.27385777,-0.8225713,-1.7742397,0.078790635,-0.055358566,-0.09554891,1.1982981,1.07099
0.0,0.1,1.1999999999999997,0.0,-0.5235987755982988,0,-0.18299323,-0.43817964,-0.03493159,0.22371,0.13557263,1.4378144,-0.5848349,-0.8126735,-1.7796415,-0.005346835,-0.073716976,0.04329422,1.163417,0.67779183
0.0,0.1,1.1999999999999997,0.0,-0.5235987755982988,0,-0.18221705,-0.43809006,-0.03735575,0.18631092,-0.14743519,1.4063674,-0.55619025,-0.81905735,-1.7895237,0.041484434,-0.035747156,0.017961577,1.2127806,0.82973355
0.0,0.1,1.1999999999999997,0.0,-0.5235987755982988,0,-0.18201354,-0.43800327,-0.037880637,0.21869494,0.23939903,1.3799974,-0.13996938,-0.8233997,-1.7917612,0.21772029,-0.039544534,0.043886315,1.24861,0.58269775
0.0,0.1,1.1999999999999997,0.0,-0.5235987755982988,0,-0.18234618,-0.4383063,-0.03777036,0.1938742,0.2571719,1.3830266,-0.451117,-0.81043184,-1.7831475,-0.049891848,-0.05735366,0.16719835,1.2333392,0.25041768
0.0,0.1,1.1999999999999997,0.0,-0.5235987755982988,0,-0.18256776,-0.4380822,-0.038230717,0.17736872,0.12783405,1.3568804,-1.5418503,-0.8166204,-1.7782149,0.06356185,-0.062916555,-0.12212955,1.1995846,1.1858686
0.0,0.1,1.1999999999999997,0.0,-0.5235987755982988,0,-0.18238108,-0.43808913,-0.036330726,0.17413971,0.07305128,1.3815491,-0.7053991,-0.82744884,-1.7745361,0.15178193,-0.069917105,-0.095973715,1.1998686,0.6966357
0.0,0.1,1.1999999999999997,0.0,-0.5235987755982988,0,-0.18214102,-0.4381709,-0.037585612,0.19278549,0.10662613,1.3662559,-0.22204356,-0.826241,-1.7833662,-0.0029210504,-0.059539836,-0.05006233,1.2278806,-0.39558563
0.0,0.1,1.1999999999999997,0.0,-0.5235987755982988,0,-0.18245186,-0.4381663,-0.033778872,0.16615784,-0.19888498,1.4116014,-0.34442624,-0.8144387,-1.776331,0.08007045,-0.09807444,-0.11068235,1.2513798,0.36034232
0.0,0.1,1.1999999999999997,0.0,-0.5235987755982988,0,-0.18234,-0.43807214,-0.03936601,0.20173316,0.23948656,1.3455381,-0.10210463,-0.8244634,-1.785694,0.0064975796,-0.08535881,-0.030379567,1.2051187,1.128785
0.0,0.1,1.1999999999999997,0.0,-0.5235987755982988,0,-0.18240543,-0.4384315,-0.03487179,0.25605786,0.1843303,1.3988763,-0.8748198,-0.8139733,-1.7803493,0.14364569,-0.09267982,0.07014713,1.2432882,1.2865837
0.0,0.1,1.1999999999999997,0.0,-0.5235987755982988,0,-0.1822423,-0.4380786,-0.037970897,0.20117441,0.3034571,1.3784449,-0.2636415,-0.8060933,-1.7850823,0.054288335,-0.09878424,0.010025176,1.2192439,0.6068366
0.0,0.1,1.1999999999999997,0.0,-0.5235987755982988,0,-0.1815319,-0.43811148,-0.0381134,0.1983876,0.33355457,1.4505208,-0.21766792,-0.8198649,-1.7899818,0.08376243,-0.07325787,0.055764224,1.2727324,1.073223
0.0,0.1,1.1999999999999997,0.0,-0.5235987755982988,0,-0.18227957,-0.43844104,-0.03911881,0.18678072,0.075023904,1.3426154,-1.3587773,-0.8329375,-1.7779293,0.15889353,-0.067625314,0.0009465343,1.1732635,-0.16716912
0.0,0.1,1.1999999999999997,0.0,-0.5235987755982988,0,-0.18218341,-0.4384982,-0.0373241,0.18284938,0.094817095,1.4047562,-0.066341236,-0.8190232,-1.7747259,0.053051643,-0.08398455,0.14923996,1.2201662,0.7129102
0.0,0.1,1.1999999999999997,0.0,-0.5235987755982988,0,-0.1820272,-0.4380228,-0.03841937,0.18977633,-0.050068557,1.4523482,-0.63600653,-0.8148074,-1.7874734,0.11150741,-0.063033246,-0.031331386,1.2281522,1.1309986
0.0,0.1,1.1999999999999997,0.0,-0.5235987755982988,0,-0.18214463,-0.43820822,-0.038651988,0.23914133,0.21860224,1.4485787,-0.3073233,-0.8264319,-1.7846284,0.04276771,-0.07808487,-0.06735937,1.2483343,1.0494099
0.0,0.1,1.1999999999999997,0.0,-0.5235987755982988,0,-0.18220603,-0.4381896,-0.037004735,0.22398674,0.08510269,1.416033,-1.0214865,-0.8049,-1.7815858,0.23249178,-0.07591877,-0.024734726,1.2143941,-0.62200546
0.0,0.1,1.1999999999999997,0.0,-0.5235987755982988,0,-0.18217592,-0.438483,-0.036102347,0.18800907,-0.10182164,1.4381342,0.19140798,-0.8116056,-1.7831844,0.029802496,-0.08830857,-0.0555762,1.2348046,-1.6715872
0.0,0.1,1.1999999999999997,0.0,-0.5235987755982988,0,-0.18212332,-0.43811762,-0.038489617,0.18880409,-0.11079647,1.4533684,-0.27754882,-0.8116574,-1.7829126,0.0114643555,-0.05390989,-0.026820565,1.2547956,1.3888398
0.0,0.1,1.1999999999999997,0.0,-0.5235987755982988,0,-0.1821273,-0.43833968,-0.03781502,0.15195517,0.21886869,1.3916324,0.019624904,-0.83136237,-1.7918891,0.080258526,-0.048558667,-0.044445816,1.2363477,-0.40430617
0.0,0.1,1.1999999999999997,0.0,-0.5235987755982988,0,-0.18205822,-0.43799537,-0.034579832,0.23330458,0.40933463,1.395411,-1.1616669,-0.8206015,-1.779122,0.013315626,-0.103705995,-0.05328701,1.2529079,-0.24540587
0.0,0.1,1.1999999999999997,0.0,-0.5235987755982988,0,-0.18212992,-0.43813795,-0.03971066,0.18581875,0.05067173,1.3521358,-0.9507746,-0.821901,-1.7829072,0.1253102,-0.067755006,0.011135488,1.1762801,1.178119
0.0,0.1,1.1999999999999997,0.0,-0.5235987755982988,0,-0.18213736,-0.4381596,-0.040898707,0.19325994,0.15275559,1.3705015,-0.35152915,-0.82792604,-1.779428,0.15349603,-0.04943754,0.037363254,1.1997031,0.47708738
0.0,0.1,1.1999999999999997,0.0,-0.5235987755982988,0,-0.18211257,-0.43824032,-0.037355144,0.14798616,-0.20560083,1.3509991,-0.99894226,-0.8137444,-1.792309,0.0650903,-0.08984126,-0.09891815,1.2269785,0.43419358
0.0,0.1,1.1999999999999997,0.0,-0.5235987755982988,0,-0.18286084,-0.43827847,-0.03486985,0.25500205,0.019796148,1.3738768,-0.48541805,-0.82450056,-1.7852106,0.037686806,-0.0687508,-0.105325386,1.2337983,-0.70713633
0.0,0.1,1.1999999999999997,0.0,-0.5235987755982988,0,-0.1820914,-0.43827775,-0.03558495,0.21982555,0.3959646,1.379747,-0.09751354,-0.8250056,-1.7907163,0.08306947,-0.074437596,-0.010615144,1.2073363,0.41903865
0.0,0.1,1.1999999999999997,0.0,-0.5235987755982988,0,-0.18226911,-0.43819085,-0.037294827,0.18135142,0.26476368,1.3970841,-1.6883835,-0.82425207,-1.7845681,0.17601736,-0.070110515,-0.053361822,1.2625203,-0.50977784
0.0,0.1,1.1999999999999997,0.0,-0.5235987755982988,0,-0.18254082,-0.43808016,-0.038211305,0.15425517,-0.03403652,1.4156741,-0.9062688,-0.8146392,-1.7812042,0.10273827,-0.06710977,-0.05644897,1.200027,0.64870685
0.0,0.1,1.1999999999999997,0.0,-0.5235987755982988,0,-0.18227014,-0.43807468,-0.03341948,0.17831548,-0.008140921,1.4316138,-0.09256386,-0.8205839,-1.7804546,0.018057197,-0.023201257,0.09064676,1.1931895,0.26274005
0.0,0.1,1.1999999999999997,0.0,-0.5235987755982988,0,-0.18262179,-0.43857706,-0.0373989,0.15879002,0.16135679,1.3847421,-1.555732,-0.8108656,-1.7795154,0.17625175,-0.082104355,-0.024832357,1.1914654,-0.06920211
0.0,0.1,1.1999999999999997,0.0,-0.5235987755982988,0,-0.18233575,-0.43810546,-0.038251992,0.20829406,0.0041920547,1.4295533,-0.08159854,-0.81782085,-1.7814593,-0.011922383,-0.08938564,-0.08618746,1.2207578,-0.4916567
0.0,0.1,1.1999999999999997,0.0,-0.5235987755982988,0,-0.18204108,-0.43840635,-0.041103344,0.18866284,0.35551903,1.4284636,-0.0008661065,-0.8287625,-1.7831112,0.037573483,-0.08191083,0.14869376,1.2574931,0.34230083
0.0,0.1,1.1999999999999997,0.0,-0.5235987755982988,0,-0.18237135,-0.43825468,-0.04015337,0.17740414,0.25204113,1.3593063,-1.3629981,-0.8108777,-1.7813438,0.016656559,-0.06509538,0.028723964,1.2659707,0.58718354
0.0,0.1,1.1999999999999997,0.0,-0.5235987755982988,0,-0.18225095,-0.4381032,-0.037085567,0.19167878,0.22789395,1.3701699,-0.9246421,-0.81479853,-1.773964,0.023505474,-0.083273485,-0.098755136,1.2005279,-0.3791766
0.0,0.1,1.1999999999999997,0.0,-0.5235987755982988,0,-0.18264835,-0.43840584,-0.037148245,0.20079984,-0.020048566,1.3990073,-0.34272936,-0.8278424,-1.7808533,-0.07702192,-0.07394609,0.0033451058,1.198721,1.125162
0.0,0.1,1.1999999999999997,0.0,-0.5235987755982988,0,-0.18253526,-0.43850332,-0.037625596,0.16067532,-0.22754481,1.4118719,-0.099340804,-0.81041104,-1.7880821,-0.031033495,-0.07962038,-0.08404264,1.2333755,1.8017777
0.0,0.1,1.1999999999999997,0.0,-0.5235987755982988,0,-0.18246143,-0.43816182,-0.033752475,0.20939466,0.123236135,1.3708187,-1.034672,-0.82281274,-1.7814304,0.055319127,-0.0744192,-0.079886116,1.2329185,0.09555307
0.0,0.1,1.1999999999999997,0.0,-0.5235987755982988,0,-0.1815211,-0.43823567,-0.03718522,0.20853244,-0.099878564,1.3612562,-0.9308548,-0.81818235,-1.7698795,0.12588125,-0.039111316,-0.11021345,1.2926344,-0.38770086
0.0,0.1,1.1999999999999997,0.0,-0.5235987755982988,0,-0.1825537,-0.43815002,-0.038532235,0.16673937,0.24483909,1.3763176,-0.5072077,-0.8088099,-1.7754332,-0.012399232,-0.116751865,-0.061461393,1.2668785,1.162213
0.0,0.1,1.1999999999999997,0.0,-0.5235987755982988,0,-0.18210162,-0.4381939,-0.037463386,0.1755695,-0.0006445052,1.3875442,-1.6019683,-0.812092,-1.7844002,0.010932314,-0.06967995,-0.013047004,1.2244557,1.1315869
0.0,0.1,1.1999999999999997,0.0,-0.5235987755982988,0,-0.18180043,-0.43820307,-0.035988472,0.20265906,0.07510156,1.394429,-0.12184769,-0.81565803,-1.7795385,-0.08577349,-0.059348904,-0.12630026,1.2396764,0.99409515
0.0,0.1,1.1999999999999997,0.0,-0.5235987755982988,0,-0.18227552,-0.4380104,-0.041223112,0.202253,-0.06903188,1.3818338,-0.49778324,-0.8222097,-1.7773187,0.05078482,-0.060697354,-0.099985324,1.2446588,0.94398284
0.0,0.1,1.1999999999999997,0.0,-0.5235987755982988,0,-0.18247576,-0.4385562,-0.0385548,0.19980417,-0.08201255,1.3489482,-0.73214966,-0.8226979,-1.7789947,0.05686797,-0.060042076,-0.112723164,1.2311263,-0.5326617
0.0,0.1,1.1999999999999997,0.0,-0.5235987755982988,0,-0.18175232,-0.43821368,-0.03472654,0.21202469,0.19663614,1.3653744,-0.5848952,-0.8205624,-1.7721678,0.02773117,-0.07351701,-0.023235118,1.2338437,1.2288474
0.0,0.1,1.1999999999999997,0.0,-0.5235987755982988,0,-0.1825469,-0.43831468,-0.03869286,0.20984732,0.26584136,1.3852029,-0.6849659,-0.8199147,-1.7884995,0.01182599,-0.06559822,-0.09430061,1.1927592,-0.8626519
0.0,0.1,1.1999999999999997,0.0,-0.5235987755982988,0,-0.18268502,-0.4380272,-0.035865285,0.18882889,-0.15632704,1.377129,-0.06203466,-0.8196747,-1.7799516,0.02346769,-0.04669947,-0.047837123,1.2206689,1.7956139
0.0,0.1,1.1999999999999997,0.0,-0.5235987755982988,0,-0.18170232,-0.43846503,-0.038576715,0.19829181,-0.14432135,1.3788886,-0.5523789,-0.80902094,-1.7794012,0.09140752,-0.0837943,-0.013294703,1.2402653,1.1949195
0.0,0.1,1.1999999999999997,0.0,-0.5235987755982988,0,-0.18202735,-0.4382567,-0.0356589,0.17781617,-0.12261654,1.4326482,-0.5385993,-0.8077538,-1.7886373,0.09223052,-0.06916366,0.021090215,1.2380213,0.9430974
0.0,0.1,1.1999999999999997,0.0,-0.5235987755982988,0,-0.18212591,-0.43848357,-0.034923412,0.15293288,-0.10370673,1.3548384,-0.9957085,-0.8243751,-1.7803047,0.04248352,-0.06124539,-0.0031996113,1.2391056,-1.1003187
0.0,0.1,1.1999999999999997,0.0,-0.5235987755982988,0,-0.18302783,-0.4384769,-0.03748747,0.19286418,0.16619304,1.3930494,0.18426101,-0.81584173,-1.7800182,0.078065224,-0.06308352,0.032182675,1.2114239,-0.14176212
0.0,0.1,1.1999999999999997,0.0,-0.5235987755982988,0,-0.18180272,-0.4379997,-0.033724558,0.21529444,0.30372065,1.3853288,-1.3894128,-0.8132307,-1.7710068,0.016151454,-0.047152247,-0.001171895,1.2101208,1.1740057
0.0,0.1,1.1999999999999997,0.0,-0.5235987755982988,0,-0.18237585,-0.43853006,-0.039712645,0.21616638,0.013028206,1.4138992,-0.3191952,-0.8126602,-1.7798698,-0.01930764,-0.04246711,-0.03651874,1.262951,0.07093159
0.0,0.1,1.1999999999999997,0.0,-0.5235987755982988,0,-0.18301322,-0.4382147,-0.03796926,0.19976202,0.07801162,1.4290435,0.042079452,-0.8140165,-1.7817761,0.06953861,-0.087425105,0.003977004,1.214169,1.0888697
0.0,0.1,1.1999999999999997,0.0,-0.5235987755982988,0,-0.18256363,-0.43819344,-0.038247596,0.2672045,-0.05837997,1.3687555,-0.59858304,-0.828706,-1.7706798,-0.0031852333,-0.038574934,0.051609874,1.2566473,0.43819508
0.0,0.1,1.1999999999999997,0.0,-0.5235987755982988,0,-0.18237765,-0.43834287,-0.040349413,0.13670972,0.23100981,1.3783643,-0.6254703,-0.8197714,-1.7873131,0.08927493,-0.060740102,0.0106587475,1.2336993,0.3501357
0.0,0.1,1.1999999999999997,0.0,-0.5235987755982988,0,-0.18268974,-0.4383739,-0.038491283,0.24257842,0.24078465,1.384254,-0.6694907,-0.83372056,-1.76577,0.041745614,-0.07397051,0.080798835,1.2291855,0.44966155
0.0,0.1,1.1999999999999997,0.0,-0.5235987755982988,0,-0.18226583,-0.43814555,-0.03678044,0.23424102,0.18693402,1.3508681,0.26140845,-0.83084965,-1.781856,0.10257627,-0.021684617,0.014776637,1.2500359,0.6102732
0.0,0.1,1.1999999999999997,0.0,-0.5235987755982988,0,-0.18265122,-0.43814737,-0.038996592,0.21497144,-0.29545656,1.3915825,-0.27448726,-0.82181966,-1.7802013,0.10849303,-0.08317069,0.037894566,1.2462572,-0.675396
0.0,0.1,1.1999999999999997,0.0,-0.5235987755982988,0,-0.18231942,-0.43801484,-0.0369103,0.25371343,0.3190712,1.4525746,-0.68280864,-0.82169604,-1.7709035,0.03610514,-0.067055024,0.03177091,1.2450103,1.2324396
0.0,0.1,1.1999999999999997,0.0,-0.5235987755982988,0,-0.18273829,-0.43819344,-0.036136467,0.17529619,0.23046984,1.3977047,-0.8636662,-0.812,-1.7872528,0.052344725,-0.0652781,0.026061067,1.2018437,0.013151333
0.0,0.1,1.1999999999999997,0.0,-0.5235987755982988,0,-0.1821886,-0.43854806,-0.039649524,0.1865568,0.13183583,1.3978679,-0.26329634,-0.8195646,-1.7855802,0.02905127,-0.02195428,0.04243734,1.2021471,-0.10190033
0.0,0.1,1.1999999999999997,0.0,-0.5235987755982988,0,-0.1820619,-0.4380639,-0.03590082,0.18014604,0.36094487,1.3946735,-1.1305678,-0.82215035,-1.7852092,0.0923951,-0.06290541,0.119077295,1.1769178,1.5621184
0.0,0.1,1.1999999999999997,0.0,-0.5235987755982988,0,-0.183389,-0.43823737,-0.040910214,0.20640601,0.109313644,1.4676967,-0.5307733,-0.82630163,-1.7861123,0.1187876,-0.061552517,-0.0038823318,1.2337881,0.34779277
0.0,0.1,1.1999999999999997,0.0,-0.5235987755982988,0,-0.1821859,-0.438036,-0.036084376,0.16572878,0.17848024,1.3804035,-0.38847178,-0.818644,-1.7747703,0.03111328,-0.107869394,-0.08476284,1.2735591,0.51660633
0.0,0.1,1.1999999999999997,0.0,-0.5235987755982988,0,-0.1822359,-0.4381906,-0.037500545,0.14798528,-0.09286549,1.3594116,-0.55485344,-0.8272461,-1.7767079,0.045813195,-0.06489178,0.0105206305,1.2276943,0.49644893
0.0,0.1,1.1999999999999997,0.0,-0.5235987755982988,0,-0.18192755,-0.43808934,-0.038457807,0.21997085,0.29517093,1.4237555,-0.08358343,-0.8134332,-1.785351,0.060569037,-0.06793082,0.15817378,1.1819613,0.993438
0.0,0.1,1.1999999999999997,0.0,-0.5235987755982988,0,-0.18202165,-0.4384724,-0.039019234,0.20496905,0.23725723,1.3967116,-0.8930088,-0.82285315,-1.7865388,0.10455208,-0.059406467,-0.047754932,1.2022359,1.3802896
0.0,0.1,1.1999999999999997,0.0,-0.5235987755982988,0,-0.18227303,-0.43834358,-0.03735129,0.18535666,0.15988101,1.3997315,-0.7453294,-0.81637067,-1.776137,0.04138609,-0.06147154,0.003944088,1.2563045,0.16196463
0.0,0.1,1.1999999999999997,0.0,-0.5235987755982988,0,-0.18217117,-0.4381778,-0.0396989,0.17786424,0.17850293,1.3965172,-0.7068666,-0.82276726,-1.7784806,0.08186233,-0.03184021,-0.11205715,1.2374992,0.6353332
0.0,0.1,1.1999999999999997,0.0,-0.5235987755982988,0,-0.18213099,-0.43836108,-0.03422986,0.21197528,0.02310637,1.4164866,-1.3451607,-0.8141135,-1.7800397,0.011693076,-0.077801526,0.06237164,1.25932,0.25034413
0.0,0.1,1.1999999999999997,0.0,-0.5235987755982988,0,-0.18231505,-0.4379764,-0.036827285,0.19955616,0.12036432,1.4006622,-0.8036936,-0.8191491,-1.7871301,0.033461016,-0.022026183,0.005790743,1.2482367,0.6620528
0.0,0.1,1.1999999999999997,0.0,-0.5235987755982988,0,-0.18251273,-0.4383571,-0.03497196,0.22264747,0.04330703,1.3963684,-0.7819606,-0.82219225,-1.7883095,-0.009186238,-0.051057372,-0.023292044,1.2072977,0.36188573
0.0,0.1,1.1999999999999997,0.0,-0.5235987755982988,0,-0.1826483,-0.43840554,-0.034681227,0.20153476,-0.072811246,1.4587778,-0.38447475,-0.81227684,-1.7738372,0.07915296,-0.06393563,-0.069485895,1.2219138,0.7201325
0.0,0.1,1.1999999999999997,0.0,-0.5235987755982988,0,-0.18247248,-0.43825072,-0.03618004,0.16506101,-0.23828897,1.3829088,-0.89952177,-0.82006323,-1.7868675,0.015433558,-0.07531684,-0.037698466,1.200845,0.20131476
0.0,0.1,1.1999999999999997,0.0,-0.5235987755982988,0,-0.18213011,-0.4381102,-0.038567133,0.24632753,0.06619699,1.4355128,-1.6669902,-0.82622015,-1.7709826,0.110951364,-0.030588597,0.11834371,1.2541623,-0.0003609475
0.0,0.1,1.1999999999999997,0.0,-0.5235987755982988,0,-0.1822756,-0.4381655,-0.03659184,0.21380858,-0.3066131,1.3903991,-0.39393935,-0.81758076,-1.7792908,0.058015145,-0.062161308,-0.12523326,1.2428237,0.78918684
0.0,0.1,1.1999999999999997,0.0,-0.5235987755982988,0,-0.18225768,-0.43832377,-0.03469736,0.17583102,0.12505819,1.4328928,-1.1596761,-0.82823294,-1.7886144,0.025763178,-0.053586137,-0.03830684,1.2310027,0.59813005
0.0,0.1,1.1999999999999997,0.0,-0.5235987755982988,0,-0.18238862,-0.43823272,-0.03546474,0.21779226,-0.116148055,1.4245372,-0.32529053,-0.81061065,-1.7809573,0.02986023,-0.07152842,0.028958054,1.266463,1.1459137
0.0,0.1,1.1999999999999997,0.0,-0.5235987755982988,0,-0.18259005,-0.4380712,-0.037612572,0.17366107,-0.0026315968,1.4227914,-0.43335763,-0.8170878,-1.7721193,0.056033712,-0.08084621,-0.008530792,1.2292123,-0.88936603
0.0,0.1,1.1999999999999997,0.0,-0.5235987755982988,0,-0.18286355,-0.4382114,-0.035397597,0.20440504,0.31269333,1.4146004,0.12487099,-0.8174542,-1.7728403,0.09709437,-0.07190982,-0.14948994,1.1956452,0.75848234
0.0,0.1,1.1999999999999997,0.0,-0.5235987755982988,0,-0.18188123,-0.4383036,-0.03756317,0.19502403,-0.17570162,1.4419086,0.13610587,-0.82140625,-1.782116,0.13285738,-0.03528803,-0.045917384,1.1976154,0.44180676
0.0,0.1,1.1999999999999997,0.0,-0.5235987755982988,0,-0.182002,-0.43883878,-0.040403966,0.1953698,0.0358046,1.3832228,-0.48374125,-0.81201524,-1.7716907,0.058958802,-0.057825506,-0.005318253,1.2149394,0.097789116
0.0,0.1,1.1999999999999997,0.0,-0.5235987755982988,0,-0.18200937,-0.43847224,-0.036695503,0.19807655,-0.22532648,1.4196036,-1.1953489,-0.8231653,-1.7756441,0.07319906,-0.092433564,0.023306416,1.2380297,0.86054283
0.0,0.1,1.1999999999999997,0.0,-0.5235987755982988,0,-0.18252125,-0.4382785,-0.038170055,0.16709746,-0.116715334,1.3824522,-1.3701454,-0.8195246,-1.7743717,0.031141335,-0.023024935,0.080176644,1.2537335,0.13085604
0.0,0.1,1.1999999999999997,0.0,-0.5235987755982988,0,-0.18241477,-0.4382136,-0.037734903,0.20606345,0.17449547,1.4242806,-0.4481432,-0.81767595,-1.7847108,-0.04598786,-0.07008701,0.08836799,1.255051,1.2532617
0.0,0.1,1.1999999999999997,0.0,-0.5235987755982988,0,-0.1827218,-0.43829656,-0.036923762,0.21649961,0.57377917,1.4032539,-1.0208156,-0.82206875,-1.7742832,0.05736348,-0.098943755,-0.048735175,1.2370982,1.2894249
0.0,0.1,1.1999999999999997,0.0,-0.5235987755982988,0,-0.18222284,-0.4382434,-0.040930912,0.22734755,-0.16356635,1.3853346,-0.98122555,-0.82144624,-1.7867961,0.0549152,-0.062103484,-0.022180298,1.2089363,1.1943765
0.0,0.1,1.1999999999999997,0.0,-0.5235987755982988,0,-0.18274702,-0.43831435,-0.039927315,0.23033419,0.22976981,1.2977111,-0.069843546,-0.8149745,-1.7871377,-0.0026529084,-0.089387044,0.009130713,1.2126635,2.329125
0.0,0.1,1.1999999999999997,0.0,-0.5235987755982988,0,-0.18206067,-0.43831727,-0.034581926,0.21466574,0.2160159,1.3956308,-0.71977204,-0.8134559,-1.7818606,0.07304287,-0.080915794,-0.16973938,1.2529197,-0.09268931
0.0,0.1,1.1999999999999997,0.0,-0.5235987755982988,0,-0.18223391,-0.43836156,-0.035748404,0.1966862,0.27337235,1.4396912,-0.691881,-0.8185279,-1.7774593,0.05067331,-0.0580871,-0.10380595,1.2147825,-0.09051099
0.0,0.1,1.1999999999999997,0.0,-0.5235987755982988,0,-0.18199854,-0.4382529,-0.03585802,0.18098669,0.52537906,1.4466581,-0.4329881,-0.8360029,-1.7849721,0.16597234,-0.1230966,-0.054173898,1.2144257,0.66009265
0.0,0.1,1.1999999999999997,0.0,-0.5235987755982988,0,-0.18162297,-0.43822417,-0.037632633,0.19183476,0.21482505,1.3751839,-0.9097339,-0.82501185,-1.7870979,0.17649984,-0.07811118,0.089728944,1.2148312,0.30096343
0.0,0.1,1.1999999999999997,0.0,-0.5235987755982988,0,-0.18122284,-0.43820018,-0.037101384,0.19816084,0.09094657,1.4199597,-0.37844554,-0.83027864,-1.7771051,0.017301926,-0.05535711,0.07060333,1.2539877,0.4179287
0.0,0.1,1.1999999999999997,0.0,-0.5235987755982988,0,-0.18252657,-0.43784124,-0.03577336,0.19681716,0.007271706,1.3269502,-0.65974694,-0.8203678,-1.7855055,0.08343264,-0.0793705,0.066874295,1.2461419,1.3349121
0.0,0.1,1.1999999999999997,0.0,-0.5235987755982988,0,-0.18192615,-0.43839568,-0.039902776,0.20600852,0.15273969,1.4413085,0.33792588,-0.8149339,-1.7823194,0.020063525,-0.07415193,0.1557503,1.2217332,0.4369256
0.0,0.1,1.1999999999999997,0.0,-0.5235987755982988,0,-0.18260717,-0.43839508,-0.038255606,0.1937908,0.30774963,1.4102489,-0.046846423,-0.80933297,-1.775784,0.05654826,-0.027241506,0.108522475,1.1961128,-0.22930393
0.0,0.1,1.1999999999999997,0.0,-0.5235987755982988,0,-0.18225099,-0.43815884,-0.035640497,0.15911716,0.060031526,1.3941647,-1.1833712,-0.8034431,-1.7719901,0.028338088,-0.08391235,-0.02416404,1.2011069,1.9462575
0.0,0.1,1.1999999999999997,0.0,-0.5235987755982988,0,-0.1813383,-0.43828538,-0.03727109,0.20821373,-0.01816681,1.3687165,-0.783024,-0.8208219,-1.7748823,0.015024199,-0.10419204,-0.04693976,1.2574366,-0.17079498
0.0,0.1,1.1999999999999997,0.0,-0.5235987755982988,0,-0.18168627,-0.43821293,-0.03711661,0.19649597,0.121992454,1.3513485,-0.74833405,-0.81324327,-1.7788582,0.021074641,-0.0664452,0.11365044,1.2596259,1.8066032
0.0,0.1,1.1999999999999997,0.0,-0.5235987755982988,0,-0.18138875,-0.43832317,-0.038151927,0.19063433,-0.010782088,1.4605252,-0.28062263,-0.8226685,-1.7781923,0.040245343,-0.0634273,-0.028999168,1.216821,0.5432598
