sanky1234/BimanualDexCatch/isaacgymenvs/cem_results/football_pose_0.1_-0.1_0.8999999999999999_0.0_0.5235987755982988_0_2025-05-26.csv
x,y,z,roll,pitch,yaw,robot1/joint1,robot1/joint2,robot1/joint3,robot1/joint4,robot1/joint5,robot1/joint6,robot1/joint7,robot2/joint1,robot2/joint2,robot2/joint3,robot2/joint4,robot2/joint5,robot2/joint6,robot2/joint7
0.1,-0.1,0.8999999999999999,0.0,0.5235987755982988,0,-2.2563348,1.1075289,-0.6955421,0.09064918,0.38433614,1.402566,0.19776179,-0.41225696,1.6407778,1.976231,0.99316055,-0.6255784,1.4417094,-1.6331462
0.1,-0.1,0.8999999999999999,0.0,0.5235987755982988,0,-2.2702403,1.0618634,-0.6849468,0.019492868,0.35134834,1.3253708,0.14908268,-0.407625,1.6242723,1.9244648,1.0700468,-0.55175316,1.3751397,-1.1157225
0.1,-0.1,0.8999999999999999,0.0,0.5235987755982988,0,-2.2609928,1.0665385,-0.71479976,0.061690867,0.47312054,1.4171791,0.28850415,-0.42438713,1.632449,2.0147357,1.0210037,-0.6584755,1.3302921,-1.5466636
0.1,-0.1,0.8999999999999999,0.0,0.5235987755982988,0,-2.2576525,1.1122712,-0.73707026,0.05973314,0.34776187,1.4376959,0.045637205,-0.3826386,1.6091504,1.9446253,1.0109134,-0.56905603,1.4112467,-1.2749839
0.1,-0.1,0.8999999999999999,0.0,0.5235987755982988,0,-2.2516944,1.088217,-0.7260323,0.07105338,0.38661587,1.4061834,0.28653178,-0.42580208,1.6643054,2.027559,1.0366805,-0.63396513,1.3785267,-1.4845716
0.1,-0.1,0.8999999999999999,0.0,0.5235987755982988,0,-2.245919,1.1088817,-0.71444875,0.058392547,0.3831969,1.3363173,0.23578882,-0.5128893,1.6217564,2.0184917,1.0118797,-0.54265755,1.4557735,-1.6653794
0.1,-0.1,0.8999999999999999,0.0,0.5235987755982988,0,-2.2656887,1.0802947,-0.70301014,0.047400568,0.42638132,1.4340384,0.30987552,-0.46450895,1.6542258,2.044845,0.99521744,-0.48488533,1.4867783,-1.6650887
0.1,-0.1,0.8999999999999999,0.0,0.5235987755982988,0,-2.326202,1.1379379,-0.7131678,0.057305112,0.3847356,1.3515831,0.21410939,-0.4025201,1.6654835,1.9009079,1.0655887,-0.58695686,1.356505,-1.2803378
0.1,-0.1,0.8999999999999999,0.0,0.5235987755982988,0,-2.2840176,1.1103239,-0.7397401,0.08887082,0.36101606,1.3356239,0.28642368,-0.39408594,1.6216626,2.0227668,1.0347146,-0.60511965,1.4800379,-1.4466808
0.1,-0.1,0.8999999999999999,0.0,0.5235987755982988,0,-2.225934,1.0670638,-0.7177882,0.03540284,0.37531886,1.3795379,0.21192753,-0.4399623,1.6189307,1.8985549,1.0643384,-0.54068756,1.4003019,-1.3679141
0.1,-0.1,0.8999999999999999,0.0,0.5235987755982988,0,-2.2458158,1.1259347,-0.65608066,0.101878494,0.42130533,1.402088,0.3839432,-0.44744352,1.6695088,1.9621394,1.0313716,-0.50241584,1.5055666,-1.331264
0.1,-0.1,0.8999999999999999,0.0,0.5235987755982988,0,-2.2583284,1.1352515,-0.685215,0.10303277,0.42504454,1.4096754,0.327584,-0.40383714,1.64455,2.0768473,0.9942871,-0.55334425,1.378885,-1.196446
0.1,-0.1,0.8999999999999999,0.0,0.5235987755982988,0,-2.2535074,1.1173453,-0.76022,0.0797358,0.3455364,1.3501594,0.32749334,-0.44079682,1.624324,1.982925,1.0528777,-0.65757555,1.3513705,-1.2921164
0.1,-0.1,0.8999999999999999,0.0,0.5235987755982988,0,-2.2487173,1.1119654,-0.7016137,0.093395896,0.39201945,1.4116728,0.14592315,-0.42764437,1.5919718,1.9923602,1.0676636,-0.4470558,1.5244356,-1.8608637
0.1,-0.1,0.8999999999999999,0.0,0.5235987755982988,0,-2.25349,1.0912864,-0.704253,0.10585351,0.42995998,1.4020954,0.22463824,-0.4440615,1.6013305,1.9163202,1.0918027,-0.4389518,1.4032158,-1.1774652
0.1,-0.1,0.8999999999999999,0.0,0.5235987755982988,0,-2.2211971,1.0902157,-0.67162454,0.103788026,0.35876423,1.3770201,0.39207816,-0.41769198,1.6433225,1.9964772,1.0606589,-0.5668596,1.4774559,-1.409917
0.1,-0.1,0.8999999999999999,0.0,0.5235987755982988,0,-2.2357953,0.99065024,-0.6878474,0.097621076,0.35879984,1.3903604,0.34074774,-0.4141159,1.634416,1.9365768,1.0237299,-0.42025703,1.3524307,-1.3714
0.1,-0.1,0.8999999999999999,0.0,0.5235987755982988,0,-2.2406323,0.9848465,-0.7237853,0.11817773,0.40556428,1.4115274,0.24555154,-0.46924213,1.6479652,2.001659,1.0389655,-0.40094116,1.4063209,-0.87920517
0.1,-0.1,0.8999999999999999,0.0,0.5235987755982988,0,-2.2437513,1.1657027,-0.6715529,0.04802881,0.4042303,1.4200395,0.401913,-0.37810507,1.6410004,1.948742,1.0472502,-0.6134142,1.5337305,-1.5788525
0.1,-0.1,0.8999999999999999,0.0,0.5235987755982988,0,-2.263716,1.0772232,-0.6716301,0.08705431,0.37490323,1.4171412,0.33957386,-0.45238304,1.6466851,1.974506,1.0781626,-0.48760533,1.3188053,-1.3689781
0.1,-0.1,0.8999999999999999,0.0,0.5235987755982988,0,-2.2641985,1.1525202,-0.6763166,0.06912077,0.37653717,1.3747792,-0.12610517,-0.4236442,1.657597,2.0314715,1.0876988,-0.53331363,1.526516,-1.6783978
0.1,-0.1,0.8999999999999999,0.0,0.5235987755982988,0,-2.2294722,1.0919316,-0.69493717,0.08666551,0.389385,1.3616242,0.37195465,-0.45885867,1.6290674,1.9547247,1.0656242,-0.54603475,1.4447051,-1.0733988
0.1,-0.1,0.8999999999999999,0.0,0.5235987755982988,0,-2.2558243,1.0093969,-0.73167217,0.13097794,0.3702952,1.417212,0.20841983,-0.4622398,1.6917073,2.041249,1.0864617,-0.54037887,1.3896633,-1.4322307
0.1,-0.1,0.8999999999999999,0.0,0.5235987755982988,0,-2.2676055,1.0668265,-0.69333583,0.041236572,0.354148,1.4706864,0.3090329,-0.40282452,1.6467923,1.9880326,1.0331018,-0.5038231,1.4811063,-1.2759118
0.1,-0.1,0.8999999999999999,0.0,0.5235987755982988,0,-2.2501361,1.0530949,-0.70144504,-0.0045183282,0.41488272,1.3675907,0.18311712,-0.35839233,1.6538836,2.010236,1.010073,-0.4680993,1.3867425,-1.5258647
0.1,-0.1,0.8999999999999999,0.0,0.5235987755982988,0,-2.2281654,1.1316466,-0.6657258,0.017941518,0.41400054,1.4124014,0.014651044,-0.42948663,1.6492597,1.8932399,1.0943896,-0.4361945,1.4024825,-1.3253276
0.1,-0.1,0.8999999999999999,0.0,0.5235987755982988,0,-2.2167583,1.0900818,-0.70147204,-0.030606085,0.3670797,1.4001858,0.1598438,-0.4626653,1.6567003,2.000644,1.095181,-0.45330322,1.4596723,-1.4049556
0.1,-0.1,0.8999999999999999,0.0,0.5235987755982988,0,-2.257931,1.0677633,-0.6950167,0.06888623,0.3072259,1.4337517,0.4697952,-0.40476957,1.6517006,1.9896314,1.049211,-0.66061455,1.4740443,-1.5663784
0.1,-0.1,0.8999999999999999,0.0,0.5235987755982988,0,-2.2258596,1.1100241,-0.7010548,0.12541366,0.4440676,1.4213024,0.15095569,-0.40523443,1.6205465,2.024814,1.0194371,-0.6481571,1.4345951,-1.328763
0.1,-0.1,0.8999999999999999,0.0,0.5235987755982988,0,-2.2363927,1.0616217,-0.72656405,0.100475445,0.37112844,1.3984174,0.5019344,-0.49963656,1.6669302,1.9531497,1.0141743,-0.5200414,1.4893204,-1.2261462
0.1,-0.1,0.8999999999999999,0.0,0.5235987755982988,0,-2.2656188,1.1595162,-0.68172294,0.07723642,0.38296804,1.3776838,0.36232868,-0.42674932,1.6050582,1.9108374,1.070093,-0.68437266,1.3642434,-1.1399573
0.1,-0.1,0.8999999999999999,0.0,0.5235987755982988,0,-2.2485745,1.0897944,-0.7308439,0.06442686,0.34845564,1.3387282,0.36395928,-0.43381622,1.6147497,1.9586235,1.0014404,-0.50258213,1.3526365,-1.2443045
0.1,-0.1,0.8999999999999999,0.0,0.5235987755982988,0,-2.2679572,1.0808768,-0.68792725,0.102658205,0.38891274,1.3638456,0.24026217,-0.43221802,1.6471579,2.015496,0.9599127,-0.4957148,1.4633298,-1.4682381
0.1,-0.1,0.8999999999999999,0.0,0.5235987755982988,0,-2.2505896,1.081157,-0.67865646,0.068954065,0.39464113,1.355093,0.3787763,-0.45671725,1.6831563,1.9794494,1.0282884,-0.4604844,1.5690184,-1.7958298
0.1,-0.1,0.8999999999999999,0.0,0.5235987755982988,0,-2.238482,1.1207141,-0.7217921,0.08274134,0.34819728,1.3546187,0.3256419,-0.45684502,1.6461045,2.027203,1.0242527,-0.60281056,1.4086252,-1.4765996
0.1,-0.1,0.8999999999999999,0.0,0.5235987755982988,0,-2.2868516,1.071766,-0.6674797,0.108805574,0.3950278,1.3234372,0.32279462,-0.4711609,1.6201373,1.9572548,0.97517407,-0.49801913,1.4760431,-1.5763103
0.1,-0.1,0.8999999999999999,0.0,0.5235987755982988,0,-2.2363875,1.162046,-0.7066099,0.07321458,0.3764119,1.4265735,0.15361138,-0.4267221,1.6268516,1.9689043,1.0680186,-0.5791303,1.4306655,-1.2575767
0.1,-0.1,0.8999999999999999,0.0,0.5235987755982988,0,-2.2229831,1.1407571,-0.66883343,0.014054203,0.40159172,1.3574287,0.1953895,-0.40771177,1.5989454,1.9957526,1.040214,-0.5035724,1.4040226,-1.4378127
0.1,-0.1,0.8999999999999999,0.0,0.5235987755982988,0,-2.2588065,1.1046396,-0.6473084,0.056918107,0.39551726,1.3893715,0.38556114,-0.42240497,1.6933942,1.9465641,1.024428,-0.59004766,1.4667625,-1.4033922
0.1,-0.1,0.8999999999999999,0.0,0.5235987755982988,0,-2.2837386,1.0750111,-0.71623397,0.107244745,0.37697396,1.421956,0.084379844,-0.45643038,1.6248314,1.9171269,1.0377597,-0.53815913,1.4669065,-1.5456697
0.1,-0.1,0.8999999999999999,0.0,0.5235987755982988,0,-2.2274282,1.1066437,-0.730077,0.1286824,0.3614916,1.3722366,0.25441697,-0.45812958,1.6367686,1.9862545,1.0396327,-0.51271325,1.5657434,-1.3494656
0.1,-0.1,0.8999999999999999,0.0,0.5235987755982988,0,-2.257454,1.102921,-0.7414723,0.082704864,0.30674183,1.3928697,0.4302228,-0.46202767,1.60782,1.9712608,1.0746827,-0.56339616,1.3853005,-1.5125109
0.1,-0.1,0.8999999999999999,0.0,0.5235987755982988,0,-2.2425442,1.105602,-0.69581765,0.122178674,0.3854979,1.3629069,0.3334237,-0.42631817,1.6068965,1.8124563,1.0448331,-0.53462917,1.4351356,-1.3565183
0.1,-0.1,0.8999999999999999,0.0,0.5235987755982988,0,-2.2338061,1.11044,-0.70198447,0.08891795,0.3970822,1.4185407,0.15579912,-0.41133115,1.6055826,1.9347991,1.0522842,-0.551509,1.4544789,-1.3384647
0.1,-0.1,0.8999999999999999,0.0,0.5235987755982988,0,-2.265519,1.111553,-0.69259816,0.058881104,0.42081368,1.4393082,0.15634955,-0.40683824,1.6256937,1.9815319,1.0189016,-0.5891149,1.4385506,-1.7013713
0.1,-0.1,0.8999999999999999,0.0,0.5235987755982988,0,-2.25583,0.99726,-0.7163131,0.056452762,0.32573143,1.4317117,0.45989108,-0.45001835,1.5911486,1.9257677,1.0007397,-0.5011877,1.3246684,-1.4518706
0.1,-0.1,0.8999999999999999,0.0,0.5235987755982988,0,-2.254837,1.0836428,-0.6715986,0.06162131,0.37444487,1.3562894,0.27048346,-0.44259903,1.6550832,1.986669,1.0157126,-0.5435636,1.437775,-1.128787
0.1,-0.1,0.8999999999999999,0.0,0.5235987755982988,0,-2.2574387,1.0256534,-0.71949875,0.06204951,0.3772552,1.3945386,0.28225222,-0.41490942,1.6834283,1.9445472,1.006584,-0.50197494,1.4530535,-1.1294516
0.1,-0.1,0.8999999999999999,0.0,0.5235987755982988,0,-2.2630775,1.0760852,-0.7120528,0.07162094,0.35887966,1.3921117,0.4604086,-0.43852648,1.6428382,1.9823731,1.0067381,-0.49009842,1.4397829,-1.5207441
0.1,-0.1,0.8999999999999999,0.0,0.5235987755982988,0,-2.2263212,1.1365005,-0.66787815,0.055671316,0.36832386,1.3901656,0.23038852,-0.5053249,1.6099093,1.9558175,1.03728,-0.5695133,1.3919718,-1.6154851
0.1,-0.1,0.8999999999999999,0.0,0.5235987755982988,0,-2.2568455,1.1555418,-0.7059981,0.05048617,0.35209206,1.4644767,0.42014277,-0.44664142,1.6540222,1.9055965,1.0740559,-0.60430706,1.4569519,-1.4848534
0.1,-0.1,0.8999999999999999,0.0,0.5235987755982988,0,-2.2725508,1.123773,-0.6558277,0.031108879,0.37851995,1.320467,0.30308542,-0.44806597,1.5983974,2.029632,1.0194659,-0.5567576,1.396387,-1.2762078
0.1,-0.1,0.8999999999999999,0.0,0.5235987755982988,0,-2.2209268,1.1360768,-0.70903206,0.090243995,0.36076632,1.3773646,0.15348573,-0.45066208,1.6445818,2.0381217,1.0713931,-0.5145871,1.5338885,-1.418986
0.1,-0.1,0.8999999999999999,0.0,0.5235987755982988,0,-2.2719002,1.0919577,-0.64886695,0.04765816,0.31082305,1.388191,0.3179126,-0.4506832,1.6724932,1.9117445,1.0810264,-0.54811597,1.4533863,-1.204588
0.1,-0.1,0.8999999999999999,0.0,0.5235987755982988,0,-2.2464774,1.0597224,-0.68676543,0.055297796,0.34400317,1.3872962,0.17577995,-0.4291122,1.6589115,2.0036323,1.0223554,-0.5790048,1.345968,-1.3561593
0.1,-0.1,0.8999999999999999,0.0,0.5235987755982988,0,-2.2599182,1.1652735,-0.6508589,0.11343319,0.3377731,1.369569,0.13778035,-0.4266636,1.5540452,1.8831668,1.0346729,-0.6131434,1.3844157,-1.6008224
0.1,-0.1,0.8999999999999999,0.0,0.5235987755982988,0,-2.2725327,1.0700271,-0.72516924,0.087693386,0.35602102,1.4002995,0.2740214,-0.39752188,1.6390731,2.0075746,0.99886596,-0.57579905,1.4273038,-1.5282421
0.1,-0.1,0.8999999999999999,0.0,0.5235987755982988,0,-2.266903,1.0953416,-0.7273982,0.058323525,0.36626065,1.4280167,0.22111274,-0.48630503,1.643384,1.9360582,1.0831175,-0.5509533,1.4112151,-1.2819115
0.1,-0.1,0.8999999999999999,0.0,0.5235987755982988,0,-2.2589252,1.1451888,-0.6962189,0.040287774,0.36139843,1.3879317,0.2969335,-0.4099288,1.6123352,1.9376888,0.97334135,-0.5129881,1.5148057,-1.2226446
0.1,-0.1,0.8999999999999999,0.0,0.5235987755982988,0,-2.2629242,1.2380371,-0.6787667,0.06561171,0.3483836,1.3586152,-0.08151486,-0.45008433,1.641149,1.8781272,1.090294,-0.59990007,1.4382616,-1.4992855
0.1,-0.1,0.8999999999999999,0.0,0.5235987755982988,0,-2.278418,1.0630327,-0.72216177,0.15719825,0.39000618,1.3297219,0.3070511,-0.41484985,1.6358647,2.0551903,1.0220146,-0.5615304,1.4561808,-1.5081521
0.1,-0.1,0.8999999999999999,0.0,0.5235987755982988,0,-2.2788699,1.0727926,-0.6830349,0.037492882,0.40114945,1.3655635,0.24549757,-0.42526966,1.6220565,1.9830211,1.0071414,-0.46537068,1.3605411,-1.3635705
0.1,-0.1,0.8999999999999999,0.0,0.5235987755982988,0,-2.247182,1.0795792,-0.6822751,0.06003227,0.34256566,1.4331728,0.28155914,-0.44796592,1.6642991,1.9408613,0.9710474,-0.5664167,1.4582694,-1.5906278
0.1,-0.1,0.8999999999999999,0.0,0.5235987755982988,0,-2.265681,1.0694275,-0.7046781,0.07464384,0.40802154,1.385846,0.112427704,-0.40062693,1.6256006,1.9369887,1.0337234,-0.55754375,1.415451,-1.2368586
0.1,-0.1,0.8999999999999999,0.0,0.5235987755982988,0,-2.3021286,1.1386657,-0.72760856,0.0804602,0.35550088,1.3842257,0.3240545,-0.47087267,1.6287501,1.9754376,0.99098986,-0.53948677,1.3910506,-1.3952428
0.1,-0.1,0.8999999999999999,0.0,0.5235987755982988,0,-2.2591608,1.093674,-0.70637566,0.082396984,0.38228908,1.3850685,0.24177185,-0.4249309,1.6279135,1.9599648,1.0016344,-0.624832,1.4283918,-1.821812
0.1,-0.1,0.8999999999999999,0.0,0.5235987755982988,0,-2.2702487,1.0611544,-0.69346833,0.06896642,0.37804028,1.3598515,0.3023802,-0.39850032,1.6202902,2.0110636,1.0660441,-0.47143567,1.4714088,-1.4330845
0.1,-0.1,0.8999999999999999,0.0,0.5235987755982988,0,-2.2415864,1.145289,-0.70791173,0.10463815,0.451105,1.3586886,0.1746497,-0.46203655,1.6554648,1.8937091,1.1081587,-0.63006514,1.4151239,-1.5366709
0.1,-0.1,0.8999999999999999,0.0,0.5235987755982988,0,-2.2526689,1.0895541,-0.7421111,0.13840482,0.3734437,1.3815409,0.04753084,-0.46149772,1.6644545,2.0056581,1.0754125,-0.5400476,1.485612,-1.5132779
0.1,-0.1,0.8999999999999999,0.0,0.5235987755982988,0,-2.2591603,1.0531094,-0.6967554,0.09849994,0.40649894,1.4005222,0.36059284,-0.4540363,1.6180182,1.9957787,1.055408,-0.6174762,1.4568017,-1.4306052
0.1,-0.1,0.8999999999999999,0.0,0.5235987755982988,0,-2.2528698,1.0970666,-0.7567931,0.044864066,0.3341728,1.3225676,0.35119548,-0.41789472,1.6520319,2.0604515,1.028903,-0.6035034,1.3715734,-1.5610327
0.1,-0.1,0.8999999999999999,0.0,0.5235987755982988,0,-2.248795,1.1373795,-0.6816433,0.022176476,0.32414168,1.4149507,0.34642136,-0.42044753,1.6604556,1.9651598,1.0203972,-0.56132615,1.4988488,-1.4581249
0.1,-0.1,0.8999999999999999,0.0,0.5235987755982988,0,-2.2688355,1.1537808,-0.7120784,0.070528634,0.37570256,1.4354935,0.12822217,-0.50289625,1.6627252,1.9550699,1.0772775,-0.6814901,1.3695581,-1.5286299
0.1,-0.1,0.8999999999999999,0.0,0.5235987755982988,0,-2.2594397,1.0426452,-0.7024871,0.13561417,0.30749023,1.3694361,0.24566412,-0.40764558,1.6220933,1.949725,1.02707,-0.5276696,1.4478843,-1.7333574
0.1,-0.1,0.8999999999999999,0.0,0.5235987755982988,0,-2.290763,1.1464558,-0.6881355,0.020708693,0.36139345,1.3883133,0.3287937,-0.4316455,1.6709265,1.9659576,1.0400287,-0.52824056,1.4712481,-1.387973
0.1,-0.1,0.8999999999999999,0.0,0.5235987755982988,0,-2.2696378,1.0694333,-0.6848909,0.05379431,0.42004853,1.3512982,0.18583615,-0.46815255,1.6326056,2.0110173,1.0631636,-0.5957379,1.3845046,-1.5119915
0.1,-0.1,0.8999999999999999,0.0,0.5235987755982988,0,-2.244227,1.0790442,-0.77305996,0.05783174,0.3764278,1.3613787,0.45037812,-0.42908877,1.6446689,1.9966781,1.001085,-0.48397982,1.5487255,-1.6647582
0.1,-0.1,0.8999999999999999,0.0,0.5235987755982988,0,-2.216922,1.0443497,-0.7269084,0.06423187,0.36450177,1.3766419,0.25702414,-0.44873932,1.62118,1.9485794,1.0306298,-0.49947578,1.387858,-1.2132647
0.1,-0.1,0.8999999999999999,0.0,0.5235987755982988,0,-2.2422473,1.118368,-0.7110108,0.098132536,0.39832357,1.3813983,0.17409286,-0.46291804,1.6814013,1.9402332,1.045181,-0.6256463,1.4332486,-1.4454535
0.1,-0.1,0.8999999999999999,0.0,0.5235987755982988,0,-2.274123,1.0581881,-0.6776748,0.11318813,0.37736842,1.3357524,0.36914894,-0.42672753,1.6032187,1.9818026,1.0915648,-0.51830393,1.5094781,-1.9292835
0.1,-0.1,0.8999999999999999,0.0,0.5235987755982988,0,-2.2515123,1.1368191,-0.69657373,0.034824003,0.37787035,1.3334117,0.29869598,-0.45206308,1.6567867,2.004603,1.1117947,-0.5178428,1.5507722,-1.9539387
0.1,-0.1,0.8999999999999999,0.0,0.5235987755982988,0,-2.2166622,1.0726119,-0.733731,0.054863084,0.39707708,1.3929877,0.16704911,-0.43190703,1.690243,1.8932358,1.0458415,-0.59990937,1.421703,-1.4295943
0.1,-0.1,0.8999999999999999,0.0,0.5235987755982988,0,-2.2741203,1.1441253,-0.6732903,0.056177955,0.39088452,1.3246517,0.13409989,-0.46909747,1.6136061,1.8664043,1.0765725,-0.49916953,1.4254483,-1.2727399
0.1,-0.1,0.8999999999999999,0.0,0.5235987755982988,0,-2.245684,1.1858991,-0.8075978,0.11893309,0.33669987,1.3379865,0.22068149,-0.42673966,1.612091,1.9243457,1.0116744,-0.5919245,1.4561162,-1.4071388
0.1,-0.1,0.8999999999999999,0.0,0.5235987755982988,0,-2.2333848,1.0929152,-0.72106624,0.11738068,0.4170181,1.4240034,0.31542394,-0.473369,1.6527896,1.9104947,1.0210667,-0.5327335,1.4217945,-1.3895804
0.1,-0.1,0.8999999999999999,0.0,0.5235987755982988,0,-2.2559774,1.1031185,-0.6988282,0.057867758,0.39223328,1.4369214,0.32827827,-0.42157793,1.6455368,1.9349666,0.9974663,-0.46850365,1.4714317,-1.5258834
0.1,-0.1,0.8999999999999999,0.0,0.5235987755982988,0,-2.253488,1.1066731,-0.6937455,0.12043076,0.3200332,1.3704506,0.23997936,-0.44260356,1.6719877,2.0342965,1.025247,-0.46591488,1.4197736,-1.4857181
0.1,-0.1,0.8999999999999999,0.0,0.5235987755982988,0,-2.2296185,1.0772038,-0.65729356,0.16325523,0.36692217,1.3986757,0.18158236,-0.4854165,1.6341616,1.9730556,1.0967332,-0.52527046,1.3723463,-1.2970811
0.1,-0.1,0.8999999999999999,0.0,0.5235987755982988,0,-2.247388,1.1009008,-0.6457763,0.102984406,0.3254671,1.4347588,0.19410545,-0.4704912,1.6319237,1.9736236,1.067911,-0.56685066,1.4529687,-1.626985
0.1,-0.1,0.8999999999999999,0.0,0.5235987755982988,0,-2.2395623,1.1361687,-0.69774044,0.06701316,0.4347824,1.4045122,0.08073851,-0.4307492,1.6278106,2.0663555,1.0189275,-0.42040482,1.5386413,-1.4278252
0.1,-0.1,0.8999999999999999,0.0,0.5235987755982988,0,-2.2719684,1.1260401,-0.6894953,0.07922679,0.37291452,1.3684163,0.31804883,-0.4327387,1.6034724,2.011935,1.0361123,-0.44431812,1.4992967,-1.7117574
0.1,-0.1,0.8999999999999999,0.0,0.5235987755982988,0,-2.2224104,1.0364776,-0.6699921,0.045482665,0.32937482,1.358425,0.17683621,-0.44341424,1.5930555,1.9093584,1.0161183,-0.5783492,1.3099058,-1.4162508
0.1,-0.1,0.8999999999999999,0.0,0.5235987755982988,0,-2.2526712,1.0950209,-0.6712336,0.06535083,0.39126956,1.3787965,0.22517529,-0.46012756,1.5896719,1.9444715,1.013584,-0.47392583,1.5201058,-1.4517776
0.1,-0.1,0.8999999999999999,0.0,0.5235987755982988,0,-2.2599351,1.0196015,-0.6692691,0.1372085,0.3616202,1.3945768,0.15014286,-0.42485812,1.5876454,1.9312779,1.0052879,-0.4570505,1.3842436,-1.6588188
0.1,-0.1,0.8999999999999999,0.0,0.5235987755982988,0,-2.262447,1.0363348,-0.6359041,0.065286115,0.42941347,1.4292078,0.20716438,-0.4263711,1.6671056,1.9840258,1.0429941,-0.5189542,1.4091072,-1.3809377
0.1,-0.1,0.8999999999999999,0.0,0.5235987755982988,0,-2.258061,1.1100293,-0.7242942,0.110890165,0.36000228,1.4038703,0.37874532,-0.4936862,1.6331162,2.0478246,1.0299004,-0.48816952,1.4776064,-1.6009614
0.1,-0.1,0.8999999999999999,0.0,0.5235987755982988,0,-2.2432299,1.0867331,-0.7222468,0.11473062,0.4264934,1.4156678,0.41501153,-0.500512,1.6300757,1.969012,1.0138749,-0.4138381,1.5152596,-1.2375462
0.1,-0.1,0.8999999999999999,0.0,0.5235987755982988,0,-2.2440298,1.1010991,-0.64521605,0.1021735,0.40572062,1.408715,0.2207271,-0.39386567,1.6060123,1.954362,1.0338205,-0.5016295,1.5559736,-1.2093047
0.1,-0.1,0.8999999999999999,0.0,0.5235987755982988,0,-2.2455888,1.0340096,-0.6949347,0.1251251,0.35084897,1.3811232,0.14122736,-0.4314645,1.6128027,1.9792734,0.98098856,-0.44022983,1.5714953,-1.3862975
0.1,-0.1,0.8999999999999999,0.0,0.5235987755982988,0,-2.2712684,1.0222917,-0.73429227,0.051638074,0.39159212,1.4391805,0.31087646,-0.3884733,1.6271755,2.0088372,1.0641534,-0.56632364,1.4017272,-1.5192349
0.1,-0.1,0.8999999999999999,0.0,0.5235987755982988,0,-2.2471616,1.099369,-0.7036529,0.15617841,0.34192625,1.4472247,0.19542962,-0.46226773,1.5816525,1.9877701,1.0301425,-0.5433838,1.3858223,-1.5104214
0.1,-0.1,0.8999999999999999,0.0,0.5235987755982988,0,-2.2282906,1.0919539,-0.64841247,0.12020507,0.3689953,1.3818656,0.24650316,-0.46785375,1.593373,1.9346175,1.0130363,-0.4608876,1.4228576,-1.0264217
0.1,-0.1,0.8999999999999999,0.0,0.5235987755982988,0,-2.2428317,1.1472267,-0.6724306,0.111825444,0.35736313,1.4194698,0.17540757,-0.41893953,1.6490937,2.0165424,1.0249466,-0.5948706,1.4191313,-1.3595802
0.1,-0.1,0.8999999999999999,0.0,0.5235987755982988,0,-2.2649324,1.1158373,-0.6367991,0.079443626,0.42748612,1.3531402,0.33946264,-0.4327056,1.6815052,1.9698938,0.9726251,-0.6386526,1.343262,-1.2753601
0.1,-0.1,0.8999999999999999,0.0,0.5235987755982988,0,-2.2487662,1.0770289,-0.7069155,0.062597595,0.35187626,1.3769859,0.31622174,-0.44428328,1.7134503,1.9080974,1.04695,-0.47901332,1.5445409,-1.4119389
0.1,-0.1,0.8999999999999999,0.0,0.5235987755982988,0,-2.281457,1.0568575,-0.69543195,0.0933034,0.3481028,1.406189,0.2025108,-0.46640918,1.6475245,1.927427,1.0483851,-0.4877124,1.4067436,-1.1956593
0.1,-0.1,0.8999999999999999,0.0,0.5235987755982988,0,-2.2564971,1.1199999,-0.6894936,0.105126075,0.38604206,1.3802779,0.12759337,-0.4534324,1.5822533,2.0304003,0.9281043,-0.4389067,1.4926913,-1.3345199
0.1,-0.1,0.8999999999999999,0.0,0.5235987755982988,0,-2.261474,1.0821108,-0.7329437,0.069435544,0.40578,1.4367226,0.31741232,-0.46423087,1.649989,1.9768095,1.1120349,-0.58128357,1.3658215,-1.4387335
0.1,-0.1,0.8999999999999999,0.0,0.5235987755982988,0,-2.2263646,1.1854471,-0.72589886,0.062097013,0.33162078,1.3596686,0.33955994,-0.40785512,1.6236242,1.9402268,1.0682846,-0.64748836,1.4909981,-1.407235
0.1,-0.1,0.8999999999999999,0.0,0.5235987755982988,0,-2.2352765,1.1337456,-0.69735247,0.09683398,0.38358614,1.3647712,0.19152136,-0.41172674,1.635057,1.9792953,1.049642,-0.5672064,1.5294257,-1.4788976
0.1,-0.1,0.8999999999999999,0.0,0.5235987755982988,0,-2.2559001,1.0950645,-0.73149055,0.077084504,0.38946858,1.4192312,0.29538092,-0.43252435,1.6180873,2.0802255,1.069124,-0.53471714,1.4851625,-1.7073791
0.1,-0.1,0.8999999999999999,0.0,0.5235987755982988,0,-2.2300715,1.1315308,-0.7226305,0.08996871,0.37517807,1.4146883,0.23181349,-0.43167672,1.7086743,1.8857676,1.1001058,-0.64201397,1.4031625,-1.3145508
0.1,-0.1,0.8999999999999999,0.0,0.5235987755982988,0,-2.2404938,1.172783,-0.70191866,0.0920649,0.36474714,1.408795,0.13069746,-0.41186935,1.6218811,2.0436928,0.9148845,-0.5046018,1.5359199,-1.2916477
0.1,-0.1,0.8999999999999999,0.0,0.5235987755982988,0,-2.229969,1.1089025,-0.73196995,0.027855778,0.36619657,1.4072282,0.22575109,-0.46561122,1.641987,1.9913404,1.0805761,-0.5554884,1.3837922,-1.361487
0.1,-0.1,0.8999999999999999,0.0,0.5235987755982988,0,-2.260401,1.1405118,-0.6748065,0.06776074,0.2951112,1.3859056,0.20676449,-0.47345728,1.6215221,1.9941036,0.9539791,-0.47101715,1.5715554,-1.2629478
0.1,-0.1,0.8999999999999999,0.0,0.5235987755982988,0,-2.2825441,1.0703607,-0.70952153,0.010194475,0.3674382,1.3669081,0.23474519,-0.4299415,1.623759,2.0208814,1.0532076,-0.5606572,1.4009982,-1.3008555
0.1,-0.1,0.8999999999999999,0.0,0.5235987755982988,0,-2.2420683,1.0292362,-0.6854791,0.113175236,0.3724063,1.3629553,0.22284846,-0.3868789,1.708793,1.9692341,1.0437552,-0.63052726,1.4506664,-1.3852775
0.1,-0.1,0.8999999999999999,0.0,0.5235987755982988,0,-2.2496855,1.1269424,-0.71079874,0.04569069,0.3341576,1.3390859,0.17223686,-0.43529874,1.6491117,2.0618255,1.0336004,-0.6077595,1.4249672,-1.8070643
0.1,-0.1,0.8999999999999999,0.0,0.5235987755982988,0,-2.2466562,1.1125987,-0.7678301,0.12757063,0.3430352,1.407398,0.3565708,-0.44422325,1.6473798,2.0242584,1.0310159,-0.5165115,1.468482,-1.4472251
0.1,-0.1,0.8999999999999999,0.0,0.5235987755982988,0,-2.2382674,1.154867,-0.71154773,0.066680625,0.3869218,1.3288455,0.31900966,-0.39199588,1.6739975,1.9838567,0.97300607,-0.5882045,1.3924717,-0.93970335
0.1,-0.1,0.8999999999999999,0.0,0.5235987755982988,0,-2.243646,1.1508775,-0.6873899,0.10462548,0.41558582,1.3506972,0.2401973,-0.41706136,1.5779495,1.8601313,1.0109323,-0.5925019,1.5182835,-1.4811205
0.1,-0.1,0.8999999999999999,0.0,0.5235987755982988,0,-2.235736,1.1038496,-0.70039904,0.026030902,0.34161505,1.3497703,0.21111065,-0.42203155,1.6556976,1.9772924,1.0418099,-0.57047886,1.4823605,-1.7497212
0.1,-0.1,0.8999999999999999,0.0,0.5235987755982988,0,-2.2577515,1.0757908,-0.71052676,0.045454044,0.41998667,1.3546237,0.13845977,-0.44024354,1.6062009,2.0467901,1.0494573,-0.58737427,1.4285758,-1.5941561
0.1,-0.1,0.8999999999999999,0.0,0.5235987755982988,0,-2.2434433,1.0808764,-0.72542506,0.10605426,0.35291365,1.4091145,0.46318015,-0.42129403,1.6563945,1.9641174,1.0613047,-0.5824038,1.4847674,-1.7435076
0.1,-0.1,0.8999999999999999,0.0,0.5235987755982988,0,-2.2739828,1.0641518,-0.7058237,0.0709621,0.45101464,1.3832176,0.40979013,-0.37815776,1.6473422,2.0907953,1.0302618,-0.62472475,1.3836505,-1.0775188
0.1,-0.1,0.8999999999999999,0.0,0.5235987755982988,0,-2.2516084,1.070685,-0.72814006,0.04039716,0.33271345,1.3322642,0.16752075,-0.4741912,1.6482633,2.0054302,1.0604632,-0.4597816,1.5006198,-1.5947609
0.1,-0.1,0.8999999999999999,0.0,0.5235987755982988,0,-2.2351744,1.0558867,-0.6686728,0.08050777,0.37909368,1.4186695,0.2269395,-0.46257883,1.6678913,1.9796078,1.0460249,-0.4527026,1.4420482,-1.5533185
0.1,-0.1,0.8999999999999999,0.0,0.5235987755982988,0,-2.240924,1.1195061,-0.7273514,0.10719852,0.36728525,1.4142321,0.28864765,-0.4107411,1.6161016,2.0993512,1.0150288,-0.5253559,1.4920238,-1.4953576
0.1,-0.1,0.8999999999999999,0.0,0.5235987755982988,0,-2.2318673,1.0120199,-0.6727323,0.11765616,0.31502756,1.4321831,0.20537566,-0.45318133,1.6189911,1.9477295,1.0362952,-0.4347611,1.4159218,-1.5107994
0.1,-0.1,0.8999999999999999,0.0,0.5235987755982988,0,-2.2482326,0.97013205,-0.6092661,0.121570855,0.35110524,1.3678889,0.31787708,-0.42222804,1.6609745,1.942925,1.0388694,-0.52736986,1.410101,-1.2630363
0.1,-0.1,0.8999999999999999,0.0,0.5235987755982988,0,-2.2425027,1.0449988,-0.6797365,0.08309649,0.29799095,1.4531584,0.33444864,-0.47505358,1.6627746,1.9417589,1.036984,-0.6237197,1.4555016,-1.506909
0.1,-0.1,0.8999999999999999,0.0,0.5235987755982988,0,-2.2477725,1.126238,-0.7053974,0.09866133,0.31943342,1.5438497,0.27761942,-0.41359213,1.6100984,1.960093,1.026751,-0.53338784,1.4183948,-1.2094165
0.1,-0.1,0.8999999999999999,0.0,0.5235987755982988,0,-2.2237096,1.080746,-0.6913376,0.08704844,0.40823624,1.3643734,0.018631067,-0.4429167,1.6082308,2.0215068,1.0201154,-0.38714302,1.4154029,-1.5329336
0.1,-0.1,0.8999999999999999,0.0,0.5235987755982988,0,-2.221567,1.0453463,-0.69135624,0.054720547,0.40349606,1.4071252,0.19732885,-0.39864877,1.6139631,1.9459516,1.0842197,-0.48533383,1.40781,-1.3651587
0.1,-0.1,0.8999999999999999,0.0,0.5235987755982988,0,-2.2319243,1.0719236,-0.6916816,0.091762885,0.34169704,1.4087585,0.28766343,-0.44844344,1.6373597,1.900369,1.0590953,-0.5109066,1.5101454,-1.6536919
0.1,-0.1,0.8999999999999999,0.0,0.5235987755982988,0,-2.251964,1.1026083,-0.69096106,0.13014495,0.4262352,1.4331222,0.09721405,-0.40112418,1.6268272,1.9471376,1.0450108,-0.49625286,1.5129173,-1.2459104
0.1,-0.1,0.8999999999999999,0.0,0.5235987755982988,0,-2.2363932,1.0842663,-0.6764492,0.07929184,0.4176407,1.4850211,0.12630719,-0.43299308,1.6525519,1.9988391,1.076672,-0.6286806,1.450653,-1.4362152
0.1,-0.1,0.8999999999999999,0.0,0.5235987755982988,0,-2.236527,1.1092858,-0.6656065,0.10934128,0.39378667,1.3648729,0.3836387,-0.4588468,1.5434728,1.9149557,1.0677876,-0.4842274,1.4759027,-1.9030274
0.1,-0.1,0.8999999999999999,0.0,0.5235987755982988,0,-2.2604492,1.077135,-0.65487343,0.05768994,0.3367273,1.441893,0.11860216,-0.43991157,1.6201447,1.9465369,1.0230479,-0.58390146,1.417827,-1.2783498
0.1,-0.1,0.8999999999999999,0.0,0.5235987755982988,0,-2.2316616,1.1009641,-0.7142887,0.10446511,0.35659948,1.4091647,0.29452616,-0.4272695,1.6853235,1.96343,1.0541182,-0.5117603,1.3914227,-1.2649779
0.1,-0.1,0.8999999999999999,0.0,0.5235987755982988,0,-2.2541938,1.0784905,-0.7419137,0.10957063,0.3849279,1.4282693,0.3380526,-0.46219808,1.5964435,1.954015,1.066763,-0.61627537,1.4520961,-1.5027118
0.1,-0.1,0.8999999999999999,0.0,0.5235987755982988,0,-2.237627,1.0337716,-0.6882035,0.07347,0.3813989,1.4058155,0.405669,-0.49553913,1.6509101,2.038878,1.0731152,-0.5188949,1.4617898,-1.475121
0.1,-0.1,0.8999999999999999,0.0,0.5235987755982988,0,-2.263188,1.1249831,-0.6307737,0.115654245,0.36765385,1.3983902,0.3776257,-0.43941024,1.6223578,1.917699,1.0436946,-0.5883001,1.4383658,-1.1834018
0.1,-0.1,0.8999999999999999,0.0,0.5235987755982988,0,-2.2214222,1.1423507,-0.68853617,0.070065044,0.36006778,1.4263802,0.19924518,-0.42177987,1.6039478,2.0352836,1.0600479,-0.46668938,1.3464167,-1.402003
0.1,-0.1,0.8999999999999999,0.0,0.5235987755982988,0,-2.2277498,1.0392373,-0.72987103,0.1277071,0.39867616,1.3947046,0.2719586,-0.4282842,1.6691452,2.0339987,1.0365292,-0.5733184,1.3728049,-1.3303136
0.1,-0.1,0.8999999999999999,0.0,0.5235987755982988,0,-2.2432435,1.0233896,-0.72648716,0.04444781,0.335724,1.4502653,0.1248592,-0.42579696,1.6418277,1.9861803,1.0203668,-0.4649947,1.4594516,-1.3823428
0.1,-0.1,0.8999999999999999,0.0,0.5235987755982988,0,-2.2674632,1.0370339,-0.70746857,0.11534513,0.44341838,1.4351891,0.20114064,-0.42611718,1.6327415,2.098474,1.0384073,-0.4308959,1.4899616,-1.3008617
0.1,-0.1,0.8999999999999999,0.0,0.5235987755982988,0,-2.2583518,1.1082101,-0.70227855,0.08964848,0.383407,1.4214606,0.30448323,-0.45807278,1.6557384,1.9760678,1.0103518,-0.5642996,1.3978691,-1.5330828
0.1,-0.1,0.8999999999999999,0.0,0.5235987755982988,0,-2.2241988,1.1257229,-0.68338096,0.11531879,0.31612578,1.4232819,0.11502185,-0.39948133,1.6039578,2.103081,1.0313119,-0.576074,1.4119117,-1.6355582
0.1,-0.1,0.8999999999999999,0.0,0.5235987755982988,0,-2.2721198,1.0990881,-0.6754144,0.05853125,0.36374718,1.4080762,0.16802764,-0.4594467,1.6107507,1.9012625,1.0081778,-0.5824125,1.4185312,-1.6919851
0.1,-0.1,0.8999999999999999,0.0,0.5235987755982988,0,-2.2230468,1.1207057,-0.67986286,0.067901544,0.42273724,1.386196,0.2765209,-0.4420532,1.5973618,1.9274995,1.0097581,-0.5783381,1.4257871,-1.6595713
0.1,-0.1,0.8999999999999999,0.0,0.5235987755982988,0,-2.2647328,1.0822809,-0.69359964,0.13904272,0.43878457,1.4059796,0.2648605,-0.44684684,1.6437745,1.9898909,1.0562614,-0.6175455,1.4479202,-1.7353549
0.1,-0.1,0.8999999999999999,0.0,0.5235987755982988,0,-2.2635946,1.1018475,-0.6856155,0.05976119,0.31050533,1.3442367,0.44961843,-0.38519877,1.6143223,2.011492,1.0470623,-0.5776866,1.4829441,-1.3911384
0.1,-0.1,0.8999999999999999,0.0,0.5235987755982988,0,-2.2744553,1.0699977,-0.68435574,0.123765215,0.36670244,1.390532,0.11806502,-0.438483,1.6774714,2.0056703,1.0272694,-0.5103674,1.571456,-1.7640301
0.1,-0.1,0.8999999999999999,0.0,0.5235987755982988,0,-2.284416,1.1013187,-0.70014644,0.075073674,0.37121928,1.3238068,0.3133081,-0.41988954,1.6372261,1.993149,0.978758,-0.6061535,1.3687356,-1.2777523
0.1,-0.1,0.8999999999999999,0.0,0.5235987755982988,0,-2.2367601,1.1514213,-0.66101134,0.11135918,0.30147433,1.4354799,0.43484008,-0.4571409,1.6970301,2.019621,1.0500005,-0.6408309,1.48091,-1.5946374
0.1,-0.1,0.8999999999999999,0.0,0.5235987755982988,0,-2.240248,1.0735826,-0.68807054,0.06382633,0.3722161,1.4042594,0.19927505,-0.40064552,1.6440669,2.086792,0.99258864,-0.4240473,1.4703071,-1.2256032
0.1,-0.1,0.8999999999999999,0.0,0.5235987755982988,0,-2.2620938,1.1486614,-0.6785289,0.11130434,0.4211833,1.4157515,0.19539574,-0.473323,1.6095167,2.035051,0.9893839,-0.40782112,1.5437932,-1.2127022
0.1,-0.1,0.8999999999999999,0.0,0.5235987755982988,0,-2.2513356,1.0474324,-0.71939445,0.0814523,0.369913,1.3888247,0.3195916,-0.45167416,1.6951518,1.9537736,1.0751094,-0.5371183,1.4531245,-1.3689026
0.1,-0.1,0.8999999999999999,0.0,0.5235987755982988,0,-2.2816887,1.069074,-0.69983155,0.11606212,0.41739538,1.4230812,0.2058317,-0.48648575,1.7075936,1.9724894,1.0206957,-0.5086177,1.4488363,-1.5557737
0.1,-0.1,0.8999999999999999,0.0,0.5235987755982988,0,-2.2472143,1.1121576,-0.7121563,0.07558088,0.3855658,1.3873671,0.20013148,-0.4582772,1.619082,1.9832294,1.0471784,-0.6244427,1.348292,-1.3816016
0.1,-0.1,0.8999999999999999,0.0,0.5235987755982988,0,-2.2597783,1.0646166,-0.7145014,0.06301764,0.37905806,1.4084448,0.36595747,-0.46335745,1.6878774,1.9309863,1.0455953,-0.49749696,1.5158808,-1.5766448
0.1,-0.1,0.8999999999999999,0.0,0.5235987755982988,0,-2.2357197,1.1006731,-0.7394705,0.09136681,0.3872865,1.3915465,0.32814357,-0.41580522,1.6366509,1.9653872,1.0137585,-0.55678064,1.4556787,-1.2319856
0.1,-0.1,0.8999999999999999,0.0,0.5235987755982988,0,-2.2571943,1.077128,-0.72694355,0.108482055,0.34972492,1.458327,0.34960032,-0.44980738,1.6485412,1.9835405,1.0528498,-0.5813944,1.3785393,-0.99657404
0.1,-0.1,0.8999999999999999,0.0,0.5235987755982988,0,-2.2524145,1.1169684,-0.68919975,0.06997677,0.3303541,1.4050611,0.16562606,-0.42831814,1.6436225,2.0108807,1.04765,-0.5886596,1.4489279,-1.4118237
0.1,-0.1,0.8999999999999999,0.0,0.5235987755982988,0,-2.245995,1.066984,-0.72454786,0.09743092,0.38949794,1.4204558,0.2926825,-0.4203727,1.6692475,1.9795258,1.0641977,-0.580198,1.4056975,-1.1543946
0.1,-0.1,0.8999999999999999,0.0,0.5235987755982988,0,-2.2366226,1.0650373,-0.7111058,0.04121811,0.35998243,1.3473803,0.18508421,-0.48346272,1.6615735,1.9599574,1.0786718,-0.52768683,1.3868856,-1.5128593
0.1,-0.1,0.8999999999999999,0.0,0.5235987755982988,0,-2.255871,1.0975658,-0.7298629,0.08116723,0.39047578,1.4287616,0.024801532,-0.4962755,1.6165364,1.9729234,1.0529842,-0.5209975,1.4096758,-1.4403085
0.1,-0.1,0.8999999999999999,0.0,0.5235987755982988,0,-2.2619538,1.177985,-0.71069497,0.11607942,0.3947826,1.4195553,0.20421772,-0.47312933,1.6425387,1.9207885,1.0600165,-0.7305786,1.4156725,-1.564501
0.1,-0.1,0.8999999999999999,0.0,0.5235987755982988,0,-2.2630243,1.1183441,-0.6899837,0.045055762,0.40833902,1.417235,0.17087638,-0.44862682,1.6622471,1.980643,1.0421252,-0.5533533,1.4641554,-1.4365215
0.1,-0.1,0.8999999999999999,0.0,0.5235987755982988,0,-2.2857614,1.082624,-0.68940663,0.11741773,0.35370538,1.4312392,0.1903032,-0.4309155,1.6685761,2.008453,0.99121624,-0.61153436,1.4224464,-1.7599247
0.1,-0.1,0.8999999999999999,0.0,0.5235987755982988,0,-2.2589638,1.0985411,-0.716304,0.13271931,0.34940046,1.4033684,0.45485675,-0.4368726,1.5820891,1.9418087,0.94440055,-0.5323542,1.4415437,-1.3535392
0.1,-0.1,0.8999999999999999,0.0,0.5235987755982988,0,-2.2471359,1.0951582,-0.67654246,0.06250147,0.35958537,1.3643743,0.21593273,-0.430524,1.6467248,1.9266871,1.0893152,-0.49492308,1.3901924,-0.8927755
0.1,-0.1,0.8999999999999999,0.0,0.5235987755982988,0,-2.2612066,1.0012566,-0.7360068,0.1285849,0.39019206,1.3445716,0.18950169,-0.4226556,1.6508533,1.9754417,1.0782639,-0.48251846,1.3898985,-1.1970009
0.1,-0.1,0.8999999999999999,0.0,0.5235987755982988,0,-2.2330167,1.0734465,-0.6491311,0.061726734,0.39223027,1.3460176,0.24209131,-0.4260097,1.6238395,1.9571749,1.0433638,-0.5460242,1.4359276,-1.5581812
0.1,-0.1,0.8999999999999999,0.0,0.5235987755982988,0,-2.252224,1.1410536,-0.6628878,0.100794315,0.387644,1.429564,0.32369512,-0.39363965,1.6664193,2.0059502,1.0776178,-0.7113166,1.4066645,-1.3756626
0.1,-0.1,0.8999999999999999,0.0,0.5235987755982988,0,-2.269025,1.1274745,-0.6893261,0.057519086,0.38020563,1.4267819,0.36292168,-0.47960308,1.6316061,1.9870151,1.0217383,-0.56015867,1.375948,-1.5618585
0.1,-0.1,0.8999999999999999,0.0,0.5235987755982988,0,-2.2335832,1.0887375,-0.7083983,0.06913874,0.4048353,1.3882475,0.24397123,-0.42885944,1.678932,2.0022528,1.006874,-0.4933215,1.4793658,-1.2713987
0.1,-0.1,0.8999999999999999,0.0,0.5235987755982988,0,-2.2548635,1.1391753,-0.6861769,0.13570864,0.401533,1.3903397,0.33745813,-0.4531374,1.617353,1.9399,1.0616149,-0.6907506,1.438645,-1.6856682
0.1,-0.1,0.8999999999999999,0.0,0.5235987755982988,0,-2.2379327,1.1199642,-0.6669925,0.041697726,0.32214203,1.4231226,0.30312893,-0.4287413,1.6281358,2.014277,1.0474563,-0.5261299,1.444313,-1.2180331
0.1,-0.1,0.8999999999999999,0.0,0.5235987755982988,0,-2.2494512,1.0622056,-0.74332386,0.13402005,0.36844382,1.3495777,0.4800506,-0.4258352,1.6906295,1.9494574,1.0015438,-0.5655091,1.4866836,-1.2723165
0.1,-0.1,0.8999999999999999,0.0,0.5235987755982988,0,-2.222636,1.1016715,-0.7512433,0.041629184,0.38893268,1.384345,0.25400335,-0.48703587,1.6695185,1.9358046,1.082754,-0.49363247,1.3336889,-1.0321051
0.1,-0.1,0.8999999999999999,0.0,0.5235987755982988,0,-2.22991,1.1514187,-0.6921838,0.062823914,0.36975303,1.3826921,0.31245425,-0.46968493,1.6195389,1.9639548,1.055317,-0.49697328,1.4708011,-1.1608859
0.1,-0.1,0.8999999999999999,0.0,0.5235987755982988,0,-2.235823,1.0656337,-0.6973266,0.043908417,0.33955517,1.3695449,0.26699448,-0.45012844,1.707572,1.9472244,1.0926343,-0.4776858,1.383857,-1.389455
0.1,-0.1,0.8999999999999999,0.0,0.5235987755982988,0,-2.2550473,1.1364951,-0.67904985,0.042977523,0.36955947,1.388362,0.056720097,-0.43785784,1.631054,1.9551198,1.0910608,-0.5742464,1.4744692,-1.7106941
0.1,-0.1,0.8999999999999999,0.0,0.5235987755982988,0,-2.2574928,1.159273,-0.67245823,0.111921266,0.40630642,1.3556789,0.35584843,-0.4526597,1.6462475,1.9381758,1.0077411,-0.5577719,1.5715417,-1.4583077
0.1,-0.1,0.8999999999999999,0.0,0.5235987755982988,0,-2.2691267,1.1019384,-0.7009284,0.110154994,0.35073733,1.4061165,0.25152776,-0.41882822,1.6500266,1.9648097,1.0594616,-0.59087896,1.489788,-1.3637818
0.1,-0.1,0.8999999999999999,0.0,0.5235987755982988,0,-2.2436945,1.1037395,-0.70887417,0.07600983,0.38045675,1.435645,0.23843561,-0.40950316,1.6358358,1.9639995,1.0471299,-0.42615062,1.464935,-1.2585499
0.1,-0.1,0.8999999999999999,0.0,0.5235987755982988,0,-2.273269,1.1331214,-0.682537,0.10671885,0.370538,1.4114977,0.17469314,-0.4545964,1.6690785,1.9292109,1.0100569,-0.6115393,1.469661,-1.4414909
0.1,-0.1,0.8999999999999999,0.0,0.5235987755982988,0,-2.2582664,1.0558866,-0.7230456,0.08620481,0.3147259,1.3685946,0.29706854,-0.45597726,1.608894,1.9435511,1.0778404,-0.53560644,1.4394355,-1.303939
0.1,-0.1,0.8999999999999999,0.0,0.5235987755982988,0,-2.2566223,1.1451609,-0.7227218,0.07618457,0.372165,1.442932,0.110273845,-0.43145198,1.5900321,1.9957047,1.0452441,-0.45770782,1.5339115,-1.2823582
0.1,-0.1,0.8999999999999999,0.0,0.5235987755982988,0,-2.2647064,1.1317254,-0.68302345,0.032738842,0.31812567,1.4201787,0.33308306,-0.398214,1.6489522,1.9506924,1.0641001,-0.6419003,1.4364064,-1.4141049
0.1,-0.1,0.8999999999999999,0.0,0.5235987755982988,0,-2.256759,1.1087786,-0.7292447,0.051103476,0.4167626,1.4285173,0.3622743,-0.39303443,1.6218594,1.8930149,1.0264213,-0.53223866,1.3861395,-1.3128248
0.1,-0.1,0.8999999999999999,0.0,0.5235987755982988,0,-2.2602262,1.0702534,-0.74206257,0.1134285,0.35943323,1.4062932,0.22634457,-0.37920064,1.6291491,1.9698107,1.0472623,-0.55167174,1.4614967,-1.3953222
0.1,-0.1,0.8999999999999999,0.0,0.5235987755982988,0,-2.2621346,1.1483018,-0.6886313,0.07052059,0.43261874,1.421969,0.1388079,-0.49573064,1.6502417,1.9997332,1.0060866,-0.5154372,1.5716679,-1.6042659
0.1,-0.1,0.8999999999999999,0.0,0.5235987755982988,0,-2.2679503,1.1211094,-0.702314,0.11165706,0.41102007,1.3824315,0.25304747,-0.43964723,1.644179,1.9631338,1.0618198,-0.62465596,1.4579643,-1.4953413
0.1,-0.1,0.8999999999999999,0.0,0.5235987755982988,0,-2.2676926,1.1194025,-0.6928816,0.073715284,0.39005178,1.3790393,0.2977044,-0.44646376,1.5877211,1.9916604,0.9906438,-0.53361505,1.4296199,-1.4661764
0.1,-0.1,0.8999999999999999,0.0,0.5235987755982988,0,-2.242731,1.0317883,-0.6801606,0.14288233,0.3721421,1.3678093,0.36690357,-0.43847412,1.6344436,2.0389016,0.9716347,-0.49953666,1.4140503,-1.4279784
0.1,-0.1,0.8999999999999999,0.0,0.5235987755982988,0,-2.2622674,1.13231,-0.70876276,0.053523954,0.37551552,1.4044929,0.29462948,-0.42554748,1.6425105,2.0136259,1.0668334,-0.56531185,1.4726177,-1.2853818
0.1,-0.1,0.8999999999999999,0.0,0.5235987755982988,0,-2.2589598,1.1652013,-0.6812218,0.10328623,0.3269333,1.3700653,0.22660318,-0.42460042,1.6880511,1.9849498,1.0655164,-0.6285467,1.4761009,-1.429569
0.1,-0.1,0.8999999999999999,0.0,0.5235987755982988,0,-2.2376266,1.06037,-0.69833463,0.11328916,0.32928792,1.4698639,-0.031064872,-0.39770174,1.595421,2.1053407,1.0684601,-0.50679827,1.386939,-1.0150161
0.1,-0.1,0.8999999999999999,0.0,0.5235987755982988,0,-2.257929,1.0556386,-0.6402632,0.009241729,0.38320628,1.4274572,0.32660982,-0.46844733,1.6269364,2.0034816,1.0522801,-0.52678597,1.4307199,-1.4968637
0.1,-0.1,0.8999999999999999,0.0,0.5235987755982988,0,-2.2471879,1.0760524,-0.6387517,0.08802414,0.3496014,1.4221268,0.058676142,-0.43898693,1.6184237,1.9933796,1.1200228,-0.5421471,1.38927,-1.3338908
0.1,-0.1,0.8999999999999999,0.0,0.5235987755982988,0,-2.2746334,1.0535498,-0.71335346,0.10620462,0.31859866,1.3664097,0.23693158,-0.4539862,1.6816862,2.004821,1.0560794,-0.59719014,1.4051652,-1.5087126
0.1,-0.1,0.8999999999999999,0.0,0.5235987755982988,0,-2.256216,1.1295179,-0.75352657,0.09839154,0.40405104,1.3522184,0.21074703,-0.47468185,1.6692406,1.913349,1.0339098,-0.48746094,1.5177989,-1.1091659
0.1,-0.1,0.8999999999999999,0.0,0.5235987755982988,0,-2.2695708,1.0491556,-0.6769255,0.1083691,0.36662984,1.3579369,0.2549697,-0.43890426,1.6094153,2.0844996,0.995054,-0.49686044,1.470958,-1.39346
0.1,-0.1,0.8999999999999999,0.0,0.5235987755982988,0,-2.24127,1.1063238,-0.67542183,0.0909282,0.39424407,1.406304,0.15940109,-0.46122023,1.6545198,1.943345,1.0071195,-0.5198899,1.5018058,-1.1970627
0.1,-0.1,0.8999999999999999,0.0,0.5235987755982988,0,-2.2644544,1.060924,-0.67271405,0.12733652,0.3587625,1.3316989,0.26557297,-0.43719247,1.616823,1.9587339,1.0293095,-0.4573553,1.4446282,-1.5926784
0.1,-0.1,0.8999999999999999,0.0,0.5235987755982988,0,-2.2356827,1.1210451,-0.6798424,0.106519885,0.31516513,1.311429,0.27561098,-0.47262987,1.6152494,1.9515445,1.0541568,-0.46723768,1.4802256,-1.2462376
0.1,-0.1,0.8999999999999999,0.0,0.5235987755982988,0,-2.2348027,1.14136,-0.6866488,0.050981026,0.38311464,1.3437485,0.21495007,-0.42868856,1.631229,1.9107617,1.0254718,-0.5843975,1.4382337,-1.502652
0.1,-0.1,0.8999999999999999,0.0,0.5235987755982988,0,-2.2279227,1.1253625,-0.69454485,0.090793125,0.421361,1.3982805,0.14444892,-0.4563308,1.6419638,1.9793143,1.0691767,-0.5025043,1.4748188,-1.5395867
0.1,-0.1,0.8999999999999999,0.0,0.5235987755982988,0,-2.2800906,1.1730733,-0.6890816,0.083632685,0.31711286,1.3975191,0.42273337,-0.42181352,1.6565183,2.0497606,1.0225152,-0.62293994,1.4501717,-1.3447082
0.1,-0.1,0.8999999999999999,0.0,0.5235987755982988,0,-2.2395275,1.1624168,-0.74335134,0.03774051,0.39674532,1.3895426,0.3510987,-0.43429017,1.634694,1.9592314,1.0497192,-0.52513236,1.5285063,-1.268454
0.1,-0.1,0.8999999999999999,0.0,0.5235987755982988,0,-2.273645,1.1062167,-0.6962529,0.07385045,0.38090363,1.376379,0.13350765,-0.40999746,1.6206678,2.1095235,1.03102,-0.5575602,1.5353469,-1.4352442
0.1,-0.1,0.8999999999999999,0.0,0.5235987755982988,0,-2.2303686,1.1603829,-0.68958056,0.05614532,0.3683475,1.3316431,0.3394758,-0.47132835,1.6305887,2.0247865,1.081396,-0.49434844,1.571058,-1.437025
0.1,-0.1,0.8999999999999999,0.0,0.5235987755982988,0,-2.2327662,1.1587175,-0.6739746,0.07679231,0.37496126,1.402882,0.12504365,-0.45490715,1.6484166,2.0263307,1.018377,-0.56771505,1.455499,-1.359084
0.1,-0.1,0.8999999999999999,0.0,0.5235987755982988,0,-2.2568974,1.1511903,-0.7403192,0.07086892,0.3376324,1.3879611,0.32282794,-0.46853516,1.6634076,2.0392444,1.0135398,-0.5374002,1.4501325,-1.2509986
0.1,-0.1,0.8999999999999999,0.0,0.5235987755982988,0,-2.2543354,1.0930159,-0.7083236,0.073616646,0.38365284,1.3687667,0.11300904,-0.43571433,1.6509597,2.02871,1.0478511,-0.48600063,1.4493177,-1.1895763
0.1,-0.1,0.8999999999999999,0.0,0.5235987755982988,0,-2.2406044,1.1278085,-0.70645803,0.043525442,0.3467055,1.3847202,0.19075213,-0.4646852,1.578843,2.073711,0.9817102,-0.54087853,1.4787874,-1.3657948
0.1,-0.1,0.8999999999999999,0.0,0.5235987755982988,0,-2.2477813,1.1177392,-0.6744554,0.06326652,0.33797362,1.331797,0.14126965,-0.45139962,1.6127455,1.9976761,1.0469831,-0.5195531,1.4902096,-1.2081177
0.1,-0.1,0.8999999999999999,0.0,0.5235987755982988,0,-2.2641892,1.1118205,-0.67097193,0.085206956,0.38109466,1.354777,0.29468372,-0.4640251,1.6283809,2.0737684,1.0319862,-0.5036408,1.4891622,-1.043627
0.1,-0.1,0.8999999999999999,0.0,0.5235987755982988,0,-2.2562382,1.1279157,-0.74149626,0.109077975,0.32465053,1.3582288,0.27143595,-0.44433343,1.579195,1.9154189,1.0241333,-0.4966859,1.564005,-1.535969
0.1,-0.1,0.8999999999999999,0.0,0.5235987755982988,0,-2.2166443,1.0778143,-0.67549783,0.0838595,0.31120774,1.3755105,0.369968,-0.47439146,1.6222049,1.925338,1.0102707,-0.53297114,1.3687135,-1.3200872
0.1,-0.1,0.8999999999999999,0.0,0.5235987755982988,0,-2.2904048,1.1467581,-0.6640146,0.08569731,0.37311587,1.4278957,0.1684784,-0.4459393,1.646146,1.9660156,1.0011724,-0.52747816,1.5681934,-1.4635438
0.1,-0.1,0.8999999999999999,0.0,0.5235987755982988,0,-2.2369456,1.151824,-0.6612445,0.12549397,0.3411632,1.4391509,0.19674413,-0.43590698,1.6357068,2.0298083,1.0487593,-0.56926495,1.4704684,-1.3742789
0.1,-0.1,0.8999999999999999,0.0,0.5235987755982988,0,-2.2277846,1.094602,-0.7018211,0.15475236,0.42652202,1.4008688,0.09545926,-0.4693858,1.6017752,1.9408464,1.0540624,-0.4297767,1.4984894,-1.3962454
0.1,-0.1,0.8999999999999999,0.0,0.5235987755982988,0,-2.2466328,1.1126276,-0.72958845,0.112203114,0.33633405,1.3884081,0.21764132,-0.43383858,1.625948,1.9900054,1.0591525,-0.47893262,1.4331055,-1.6475077
0.1,-0.1,0.8999999999999999,0.0,0.5235987755982988,0,-2.265572,1.083218,-0.6974573,0.1833155,0.35812023,1.378975,0.08576096,-0.44995585,1.6421182,1.971871,1.118439,-0.5213062,1.4955038,-1.3582469
0.1,-0.1,0.8999999999999999,0.0,0.5235987755982988,0,-2.2330937,1.1132793,-0.662664,0.09349508,0.39570886,1.4083911,0.23893389,-0.4500725,1.615869,1.9623241,1.0453727,-0.57094026,1.4338971,-1.6246824
0.1,-0.1,0.8999999999999999,0.0,0.5235987755982988,0,-2.2655396,1.1609659,-0.67363507,0.12635833,0.34023416,1.3997161,0.2811901,-0.4371535,1.636508,1.960772,1.0688362,-0.6075659,1.5293884,-1.6880019
0.1,-0.1,0.8999999999999999,0.0,0.5235987755982988,0,-2.2397597,1.0581225,-0.6783054,0.08769929,0.4167765,1.3693682,0.04679187,-0.4172049,1.6189668,2.0094604,1.0412971,-0.6005303,1.4604917,-1.2028983
0.1,-0.1,0.8999999999999999,0.0,0.5235987755982988,0,-2.2437043,1.0966084,-0.6629134,0.10318879,0.40118954,1.4239076,0.20583718,-0.46706071,1.6306425,1.9485545,1.0913802,-0.5469032,1.4491463,-1.3179699
0.1,-0.1,0.8999999999999999,0.0,0.5235987755982988,0,-2.2711873,1.130371,-0.6611744,0.069140844,0.31278762,1.3354496,0.11702277,-0.42468408,1.5880342,1.8677665,1.0160645,-0.5341145,1.3983201,-1.3134887
0.1,-0.1,0.8999999999999999,0.0,0.5235987755982988,0,-2.2411757,1.0790253,-0.72550076,0.060007785,0.42343536,1.453909,0.04298157,-0.4570893,1.674222,1.8585049,0.9629828,-0.45110118,1.4628681,-1.081675
0.1,-0.1,0.8999999999999999,0.0,0.5235987755982988,0,-2.2426057,1.170379,-0.7189989,0.112943985,0.35781983,1.3732401,0.11964016,-0.41707143,1.6537575,1.9797882,1.0751997,-0.48940983,1.5034851,-1.3206843
0.1,-0.1,0.8999999999999999,0.0,0.5235987755982988,0,-2.2370756,1.0586882,-0.6879008,0.05877539,0.35866782,1.4085696,0.30376446,-0.41666904,1.6909003,2.006921,1.083223,-0.53460675,1.4414374,-1.0162027
0.1,-0.1,0.8999999999999999,0.0,0.5235987755982988,0,-2.224175,1.1393725,-0.6980539,0.10522496,0.36226365,1.3777546,0.13781318,-0.3715186,1.6214061,1.9089547,1.041193,-0.59340155,1.3819499,-1.4882526
0.1,-0.1,0.8999999999999999,0.0,0.5235987755982988,0,-2.2515807,1.0728126,-0.68135536,0.063613586,0.3623834,1.4259684,0.24810508,-0.4970559,1.6358309,1.9958876,1.0741969,-0.4869673,1.4014299,-1.2577819
0.1,-0.1,0.8999999999999999,0.0,0.5235987755982988,0,-2.2817988,1.0829179,-0.63345265,0.10909064,0.34846002,1.3946979,0.09421169,-0.4149424,1.5960281,2.0287938,1.0189459,-0.518051,1.48796,-1.6015565
0.1,-0.1,0.8999999999999999,0.0,0.5235987755982988,0,-2.2511792,1.1316286,-0.7176136,0.1203031,0.36783618,1.3983773,0.16613436,-0.39278522,1.6072963,2.0068998,1.0345896,-0.5365544,1.403388,-1.3323066
0.1,-0.1,0.8999999999999999,0.0,0.5235987755982988,0,-2.240714,1.1920091,-0.6964557,0.080018535,0.36546674,1.4212193,0.15238328,-0.44838202,1.6208701,1.9941425,1.0562323,-0.51526976,1.4481554,-1.3719954
0.1,-0.1,0.8999999999999999,0.0,0.5235987755982988,0,-2.2323465,1.075595,-0.72579896,0.1009652,0.3446666,1.4407791,0.16268198,-0.40387022,1.5932467,1.9897243,1.0682545,-0.5355396,1.4385893,-1.5751436
0.1,-0.1,0.8999999999999999,0.0,0.5235987755982988,0,-2.2415264,1.0385032,-0.73046696,0.034917135,0.39850074,1.424541,0.23665904,-0.4298646,1.6631476,1.9818914,1.0822643,-0.51630455,1.3982235,-0.9937295
0.1,-0.1,0.8999999999999999,0.0,0.5235987755982988,0,-2.26684,1.0769935,-0.73650223,0.11113518,0.3626532,1.4261118,0.34315383,-0.42879057,1.6234428,2.0527256,1.0459785,-0.5300402,1.4141861,-1.2269633
0.1,-0.1,0.8999999999999999,0.0,0.5235987755982988,0,-2.2530634,1.1136218,-0.6831969,0.05832738,0.412516,1.4783585,0.22145322,-0.42650786,1.6011834,1.9249437,1.0119044,-0.5480841,1.459149,-1.3066806
0.1,-0.1,0.8999999999999999,0.0,0.5235987755982988,0,-2.23661,1.1590266,-0.7295832,0.16129729,0.38408294,1.3748341,0.09067242,-0.4183283,1.6131805,1.9424342,1.0070233,-0.5111551,1.5716174,-1.2247697
0.1,-0.1,0.8999999999999999,0.0,0.5235987755982988,0,-2.238002,1.1264794,-0.6720161,0.06699089,0.40529975,1.38695,0.14365675,-0.4645899,1.652033,2.070183,1.0770693,-0.5477294,1.4208176,-1.2673542
0.1,-0.1,0.8999999999999999,0.0,0.5235987755982988,0,-2.2599401,1.0905728,-0.6846657,0.060849052,0.4080101,1.4163129,0.13677311,-0.39141837,1.6810212,2.0086555,1.0773158,-0.5644571,1.4891077,-1.4582069
0.1,-0.1,0.8999999999999999,0.0,0.5235987755982988,0,-2.254142,1.0887401,-0.70426965,0.13882312,0.34824905,1.3609742,0.296768,-0.4322724,1.6347487,2.021798,1.0082582,-0.53245294,1.4182905,-1.4841044
0.1,-0.1,0.8999999999999999,0.0,0.5235987755982988,0,-2.2434022,1.1075038,-0.74578774,0.13229007,0.30630818,1.3585668,0.32310537,-0.4277658,1.6782877,1.9634795,1.032028,-0.5607225,1.4250898,-1.3962919
0.1,-0.1,0.8999999999999999,0.0,0.5235987755982988,0,-2.2157574,1.08833,-0.67596835,0.06170016,0.3241126,1.4155928,0.35526645,-0.4788742,1.6088377,2.0074782,1.0535516,-0.55797905,1.4029763,-1.5655545
0.1,-0.1,0.8999999999999999,0.0,0.5235987755982988,0,-2.2668886,1.1606843,-0.69106084,0.08922944,0.44021535,1.3873982,0.31254718,-0.4302166,1.6402146,1.9887515,1.0016203,-0.5781198,1.4596218,-1.2478521
0.1,-0.1,0.8999999999999999,0.0,0.5235987755982988,0,-2.2261665,1.106825,-0.7402647,0.05156394,0.35044375,1.4287868,0.18838288,-0.43529746,1.6228448,1.8930522,1.0017302,-0.47231096,1.3858632,-1.3110286
0.1,-0.1,0.8999999999999999,0.0,0.5235987755982988,0,-2.267744,1.0606595,-0.7160683,0.13681296,0.32375005,1.3644007,0.22068429,-0.43110976,1.6217159,1.9406371,1.0469022,-0.4691967,1.5391878,-1.5116985
0.1,-0.1,0.8999999999999999,0.0,0.5235987755982988,0,-2.2508767,1.1538467,-0.7387527,0.056989517,0.34229988,1.3933518,0.17679605,-0.5007079,1.6128299,2.012441,1.0391365,-0.45356697,1.5714896,-1.5388023
0.1,-0.1,0.8999999999999999,0.0,0.5235987755982988,0,-2.266504,1.1266613,-0.66054535,0.089295834,0.36795855,1.3239588,0.30489674,-0.40240505,1.6436077,1.9033794,1.0574337,-0.54128087,1.544546,-1.2438165
