sanky1234/BimanualDexCatch/isaacgymenvs/cem_results/football_pose_0.1_0.0_0.9999999999999999_0.0_0.5235987755982988_0_2025-05-26.csv
x,y,z,roll,pitch,yaw,robot1/joint1,robot1/joint2,robot1/joint3,robot1/joint4,robot1/joint5,robot1/joint6,robot1/joint7,robot2/joint1,robot2/joint2,robot2/joint3,robot2/joint4,robot2/joint5,robot2/joint6,robot2/joint7
0.1,0.0,0.9999999999999999,0.0,0.5235987755982988,0,-0.5086526,0.99980575,-0.80241394,0.6889181,-0.5604192,0.7133012,-1.744607,0.3975178,1.3177928,-0.112140834,-0.05655127,0.02101777,1.2906588,-1.3659501
0.1,0.0,0.9999999999999999,0.0,0.5235987755982988,0,-0.5106251,0.994444,-0.8045427,0.6885758,-0.5619144,0.7138576,-1.7609836,-0.6077402,1.1991148,-0.21377113,-0.046987243,0.06609737,1.2931907,-0.23153807
0.1,0.0,0.9999999999999999,0.0,0.5235987755982988,0,-0.50909203,0.9939589,-0.80086654,0.6889245,-0.5621855,0.71319014,-1.7557275,-0.42033988,1.3231013,-0.038461555,-0.047770035,0.054393154,1.1989832,0.23983914
0.1,0.0,0.9999999999999999,0.0,0.5235987755982988,0,-0.50913805,0.99075836,-0.80303395,0.6885707,-0.5569553,0.7132972,-1.761262,0.9864229,1.3038515,0.027020711,-0.09774924,-0.0073358305,1.2204001,-0.8734292
0.1,0.0,0.9999999999999999,0.0,0.5235987755982988,0,-0.50822365,0.99213266,-0.79996306,0.6884565,-0.56074965,0.71349066,-1.7516533,0.044137795,1.4270571,0.17167898,-0.017699651,0.118474424,1.3034502,-2.0302627
0.1,0.0,0.9999999999999999,0.0,0.5235987755982988,0,-0.50972813,0.9909978,-0.80450815,0.6883001,-0.560895,0.71408814,-1.7572198,0.18264051,1.2878,0.5366016,0.011069464,0.21757346,1.2966926,0.707691
0.1,0.0,0.9999999999999999,0.0,0.5235987755982988,0,-0.50880504,0.99855894,-0.8026004,0.6889082,-0.5590723,0.7134872,-1.752196,0.53253096,1.242837,-0.077187136,-0.09235064,-0.102299154,1.1446029,0.6665981
0.1,0.0,0.9999999999999999,0.0,0.5235987755982988,0,-0.50786334,0.9954493,-0.80132383,0.6886498,-0.5589679,0.71279544,-1.7574378,-0.038856994,1.2603593,0.15551835,-0.074379824,0.24727383,1.1891016,0.0032794764
0.1,0.0,0.9999999999999999,0.0,0.5235987755982988,0,-0.50920033,0.99315083,-0.80245095,0.6883732,-0.5605934,0.7130104,-1.7512418,-0.11098176,1.2371935,0.047476575,-0.008291475,0.09860891,1.2272598,-0.08762495
0.1,0.0,0.9999999999999999,0.0,0.5235987755982988,0,-0.5099573,0.99465567,-0.8035771,0.68870556,-0.56096023,0.7131531,-1.7476228,-0.51428795,1.349221,0.3696037,-0.117880076,0.15709467,1.1118513,-0.033900533
0.1,0.0,0.9999999999999999,0.0,0.5235987755982988,0,-0.5086083,0.9931683,-0.801039,0.6885592,-0.561695,0.7133238,-1.7542436,-0.5437469,1.2253879,0.023911512,-0.03379803,0.17725569,1.278593,-1.6490425
0.1,0.0,0.9999999999999999,0.0,0.5235987755982988,0,-0.50733185,0.99450254,-0.8032326,0.6883016,-0.5602812,0.71295255,-1.7541245,-0.4165352,1.2618757,-0.1568565,-0.09183769,0.16989702,1.1793902,-0.4913106
0.1,0.0,0.9999999999999999,0.0,0.5235987755982988,0,-0.5083234,0.9935204,-0.8018064,0.6879915,-0.55954593,0.71342874,-1.748842,1.4206417,1.4101903,0.33072093,-0.037114643,-0.35807687,1.1643224,-1.5387542
0.1,0.0,0.9999999999999999,0.0,0.5235987755982988,0,-0.507219,0.9957293,-0.8024712,0.68820345,-0.55609524,0.71264577,-1.7587601,0.27256554,1.2352765,0.12006382,-0.061266903,0.11422688,1.1628665,-1.5651253
0.1,0.0,0.9999999999999999,0.0,0.5235987755982988,0,-0.5081522,0.99334705,-0.8056656,0.6883237,-0.56015384,0.7126597,-1.7533153,0.8846567,1.2047943,0.21663089,-0.08481421,0.015605783,1.2452847,-0.2987882
0.1,0.0,0.9999999999999999,0.0,0.5235987755982988,0,-0.5084075,0.99385023,-0.8039921,0.68828654,-0.55947536,0.7130345,-1.7579069,-0.30361536,1.3560956,-0.34104428,-0.038045183,-0.0008994277,1.1163352,-1.0723604
0.1,0.0,0.9999999999999999,0.0,0.5235987755982988,0,-0.5081039,0.9932934,-0.80185705,0.6883697,-0.5578838,0.7133925,-1.7600447,0.12309712,1.2349294,0.10221624,-0.13324659,0.11126163,1.2223511,-0.13673311
0.1,0.0,0.9999999999999999,0.0,0.5235987755982988,0,-0.50906163,0.9949184,-0.8039816,0.6886412,-0.56024015,0.71294254,-1.7548611,1.0266445,1.2842044,-0.13987568,-0.06381514,-0.035490658,1.1695378,-0.576326
0.1,0.0,0.9999999999999999,0.0,0.5235987755982988,0,-0.5086445,0.9921505,-0.8023193,0.6884315,-0.55840814,0.7130876,-1.7559876,-0.7288585,1.1677096,0.0894319,-0.09431925,0.09844343,1.0417625,0.44724703
0.1,0.0,0.9999999999999999,0.0,0.5235987755982988,0,-0.5083094,0.9942026,-0.8023502,0.68798345,-0.55958736,0.71363246,-1.7582898,0.61454135,1.3378404,0.31156364,-0.016769305,0.16409636,1.266608,-1.5865536
0.1,0.0,0.9999999999999999,0.0,0.5235987755982988,0,-0.50655913,0.9926963,-0.8034451,0.68820024,-0.5592779,0.7129031,-1.7574376,1.4513276,1.1875968,-0.05927029,-0.11159448,0.15840887,1.181315,-1.0301119
0.1,0.0,0.9999999999999999,0.0,0.5235987755982988,0,-0.50820863,0.99499017,-0.80290705,0.6884222,-0.5594198,0.7130302,-1.7486881,-0.047726624,1.3142561,0.14922948,-0.0055180676,0.1992546,1.1004218,-0.42006686
0.1,0.0,0.9999999999999999,0.0,0.5235987755982988,0,-0.5081634,0.9912352,-0.8014233,0.68835014,-0.5589408,0.7139164,-1.7535768,0.2363637,1.3599145,-0.13094659,-0.09706027,0.5234821,1.1687443,0.7551936
0.1,0.0,0.9999999999999999,0.0,0.5235987755982988,0,-0.5093735,0.99393725,-0.8016175,0.688696,-0.5592552,0.713244,-1.7448575,1.3187369,1.3217719,0.14853907,-0.019184982,0.25254905,1.4146596,0.031892445
0.1,0.0,0.9999999999999999,0.0,0.5235987755982988,0,-0.51027143,0.99407756,-0.80150855,0.68848133,-0.5574518,0.7137134,-1.7575526,0.32387018,1.2794099,-0.24822761,-0.091953784,0.25834963,1.0967265,-0.14151467
0.1,0.0,0.9999999999999999,0.0,0.5235987755982988,0,-0.5085621,0.9924163,-0.80561763,0.6883807,-0.5609212,0.7137117,-1.7541378,-0.4232416,1.4029955,-0.022809144,0.008692694,0.032672513,1.215426,-0.5055607
0.1,0.0,0.9999999999999999,0.0,0.5235987755982988,0,-0.5099248,0.9911829,-0.8026123,0.68811613,-0.5622253,0.7137778,-1.7558854,-0.088346034,1.4417278,-0.006575341,-0.09106295,0.15918458,1.18383,-0.8663958
0.1,0.0,0.9999999999999999,0.0,0.5235987755982988,0,-0.5096206,0.99404776,-0.8013678,0.6885537,-0.5609477,0.7131934,-1.7507702,-0.081986666,1.3312283,-0.22385027,-0.13368973,0.050482348,1.3092111,-1.9831318
0.1,0.0,0.9999999999999999,0.0,0.5235987755982988,0,-0.5090079,0.9921788,-0.80163085,0.68834573,-0.56007177,0.7137003,-1.7550145,0.086857,1.2207735,0.22851233,-0.15020135,-0.024766266,1.2259078,-2.207798
0.1,0.0,0.9999999999999999,0.0,0.5235987755982988,0,-0.5090008,0.9969437,-0.8033312,0.6890646,-0.55846393,0.713402,-1.7541672,0.5796542,1.4219706,0.49258783,-0.015420348,0.24436677,1.091067,-0.5252755
0.1,0.0,0.9999999999999999,0.0,0.5235987755982988,0,-0.5101752,0.9900011,-0.8020684,0.68778306,-0.56032014,0.71318436,-1.7492466,0.30966726,1.3277488,-0.2609804,-0.09114526,-0.123679124,1.304601,-1.345396
0.1,0.0,0.9999999999999999,0.0,0.5235987755982988,0,-0.5101418,0.99435115,-0.801819,0.688238,-0.5600255,0.7132019,-1.7433547,0.40737772,1.3535963,0.0064969044,-0.10337967,0.31557623,1.3484176,-1.2514608
0.1,0.0,0.9999999999999999,0.0,0.5235987755982988,0,-0.50779957,0.9953255,-0.8027415,0.68849105,-0.5618203,0.713162,-1.747816,1.1027727,1.3622023,0.10754401,-0.03871876,0.14705305,1.0636948,-1.6440941
0.1,0.0,0.9999999999999999,0.0,0.5235987755982988,0,-0.5080651,0.9944088,-0.80265397,0.68868476,-0.55971235,0.71374166,-1.7512813,-0.43275258,1.1357605,0.30535316,-0.063263774,0.40513608,1.1523031,-1.8320173
0.1,0.0,0.9999999999999999,0.0,0.5235987755982988,0,-0.5095398,0.9943439,-0.8034324,0.6883089,-0.5593848,0.71365595,-1.757796,1.1323451,1.3313102,0.0358547,-0.055484504,-0.034509715,1.1459882,-1.8043526
0.1,0.0,0.9999999999999999,0.0,0.5235987755982988,0,-0.5087871,0.9899708,-0.801768,0.6885097,-0.5589016,0.7136432,-1.7604266,-0.33885905,1.2752906,-0.0009390061,-0.065955594,-0.026363412,1.2027136,-2.869295
0.1,0.0,0.9999999999999999,0.0,0.5235987755982988,0,-0.5085188,0.9918358,-0.80298406,0.68834203,-0.5601795,0.7139133,-1.7537405,-0.52311313,1.4721625,0.007231227,-0.11936355,0.086852014,1.2260044,-1.6159434
0.1,0.0,0.9999999999999999,0.0,0.5235987755982988,0,-0.50745815,0.9949048,-0.80149275,0.6888457,-0.5590507,0.71380043,-1.7560858,-0.33586192,1.2829525,0.36419836,-0.13026528,0.0761647,1.1912606,-0.67224896
0.1,0.0,0.9999999999999999,0.0,0.5235987755982988,0,-0.5096704,0.9904483,-0.8026201,0.68818474,-0.5606764,0.71327126,-1.7482188,0.12276104,1.2823166,-0.043798227,0.04043672,0.08726203,1.2095517,-2.1575124
0.1,0.0,0.9999999999999999,0.0,0.5235987755982988,0,-0.50568956,0.9947958,-0.8036199,0.6887268,-0.5604681,0.7128383,-1.7550423,1.2449329,1.3007939,-0.13650788,-0.07325851,-0.09056824,1.10288,-1.5646889
0.1,0.0,0.9999999999999999,0.0,0.5235987755982988,0,-0.50973284,0.99415964,-0.8026676,0.6889107,-0.5589305,0.71289766,-1.7480365,-0.811749,1.2962191,0.06445076,-0.13739343,0.15845802,1.2864071,-1.6649021
0.1,0.0,0.9999999999999999,0.0,0.5235987755982988,0,-0.50845045,0.9952692,-0.80328596,0.68874216,-0.55939895,0.7134949,-1.7579131,-0.13262695,1.3019683,0.045852102,-0.1337411,-0.0787371,1.2029141,-1.1664865
0.1,0.0,0.9999999999999999,0.0,0.5235987755982988,0,-0.5075235,0.99253714,-0.8016748,0.6886965,-0.56176233,0.71358496,-1.754357,0.34214965,1.338111,0.11102272,-0.05787601,0.22345775,1.2396612,-1.108052
0.1,0.0,0.9999999999999999,0.0,0.5235987755982988,0,-0.50735337,0.99543184,-0.8022685,0.6878755,-0.55981165,0.7139528,-1.7571026,-0.19393037,1.3977809,-0.30856955,-0.12275672,0.0063819923,1.2607828,0.068013854
0.1,0.0,0.9999999999999999,0.0,0.5235987755982988,0,-0.50964785,0.9907411,-0.8025386,0.6882665,-0.5609856,0.7131521,-1.7490469,0.8052573,1.2615095,0.055956505,-0.028359283,-0.010428105,1.1468521,-1.4596238
0.1,0.0,0.9999999999999999,0.0,0.5235987755982988,0,-0.5099349,0.99292445,-0.80260247,0.68853635,-0.55898523,0.71354604,-1.744335,1.2930098,1.3538233,0.19783685,-0.08836069,0.210373,1.3183078,-1.763264
0.1,0.0,0.9999999999999999,0.0,0.5235987755982988,0,-0.5095314,0.99396056,-0.802769,0.68898296,-0.55969936,0.71365225,-1.7513523,0.3800772,1.1450481,0.22512525,-0.06525279,-0.060097862,1.2364972,-0.5662462
0.1,0.0,0.9999999999999999,0.0,0.5235987755982988,0,-0.50926,0.9949832,-0.80285275,0.68847513,-0.5595901,0.7140801,-1.748748,0.60236835,1.3482671,0.17453992,-0.12623572,0.33901075,1.3513067,0.29499224
0.1,0.0,0.9999999999999999,0.0,0.5235987755982988,0,-0.5094049,0.9944875,-0.8014442,0.6886035,-0.5590848,0.71376616,-1.7601055,0.79006225,1.3468959,-0.020841982,-0.068021275,-0.054651435,1.2480376,-0.9426461
0.1,0.0,0.9999999999999999,0.0,0.5235987755982988,0,-0.5101897,0.9965742,-0.802281,0.68818945,-0.55719393,0.7134888,-1.7513119,-0.23391381,1.2573438,0.09181562,-0.059623554,0.111222,1.2338647,0.14646727
0.1,0.0,0.9999999999999999,0.0,0.5235987755982988,0,-0.50978255,0.9933527,-0.80345327,0.6885752,-0.55964273,0.7130031,-1.7495074,-0.06014,1.2054921,0.21396369,-0.016668864,-0.033479966,1.235566,0.38755745
0.1,0.0,0.9999999999999999,0.0,0.5235987755982988,0,-0.509885,0.9964491,-0.8012114,0.68897355,-0.5594341,0.7135199,-1.7510911,-0.17592126,1.30206,0.17716852,-0.07860395,-0.124832295,1.3058581,-0.32923546
0.1,0.0,0.9999999999999999,0.0,0.5235987755982988,0,-0.51069856,0.9956148,-0.8032643,0.6885011,-0.5587298,0.71382064,-1.7573255,0.6425455,1.3246493,0.093991585,-0.04729915,0.108242586,1.0990871,-1.6122315
0.1,0.0,0.9999999999999999,0.0,0.5235987755982988,0,-0.50961167,0.9931396,-0.8019486,0.6883935,-0.5624077,0.71377075,-1.7493502,-0.36299,1.2588506,0.114034064,-0.05886681,0.12814589,1.2645289,0.1249362
0.1,0.0,0.9999999999999999,0.0,0.5235987755982988,0,-0.50996584,0.99756503,-0.80258554,0.68853736,-0.5585435,0.71398526,-1.7574193,0.22915493,1.3026128,0.13071388,-0.038042128,0.13221645,1.2240334,-0.9442518
0.1,0.0,0.9999999999999999,0.0,0.5235987755982988,0,-0.50824594,0.99381816,-0.80181813,0.6889424,-0.559863,0.7138385,-1.7552949,0.36961588,1.2740769,0.095362514,-0.024961956,-0.055518728,1.1120158,-0.14633524
0.1,0.0,0.9999999999999999,0.0,0.5235987755982988,0,-0.50952464,0.9960314,-0.80188453,0.68821216,-0.5606921,0.7141058,-1.7453817,0.6243363,1.4224917,0.115906365,-0.093075536,0.15190458,1.1754341,0.13067222
0.1,0.0,0.9999999999999999,0.0,0.5235987755982988,0,-0.50824857,0.9966424,-0.8020088,0.6884745,-0.55958015,0.7134011,-1.7530118,0.050981823,1.2689489,0.3743251,-0.024014357,0.26034182,1.2006596,-1.4393498
0.1,0.0,0.9999999999999999,0.0,0.5235987755982988,0,-0.50751233,0.9950094,-0.8026156,0.6884283,-0.55797046,0.7130525,-1.7497363,0.63972956,1.3987817,0.21445104,-0.07041573,0.27472955,1.2419155,-0.112087235
0.1,0.0,0.9999999999999999,0.0,0.5235987755982988,0,-0.50942516,0.9978368,-0.8031027,0.6886232,-0.5603861,0.7135446,-1.7437228,-0.26856577,1.3709906,0.14620209,-0.03700086,0.048422307,1.0622638,-1.542142
0.1,0.0,0.9999999999999999,0.0,0.5235987755982988,0,-0.5072883,0.9912559,-0.8016683,0.6889095,-0.559869,0.71334094,-1.7580749,0.076597184,1.2682916,0.2860393,-0.034369808,0.022386938,1.0923408,0.088880695
0.1,0.0,0.9999999999999999,0.0,0.5235987755982988,0,-0.5085221,0.9948617,-0.8052455,0.6891273,-0.560803,0.7132657,-1.7521417,-0.16172448,1.253318,0.0050306623,-0.02489415,0.32168552,1.2528702,-0.7547476
0.1,0.0,0.9999999999999999,0.0,0.5235987755982988,0,-0.50801325,0.99202216,-0.8029503,0.6886211,-0.55999035,0.7130123,-1.7535946,1.0264065,1.4034154,0.07037591,-0.045637146,0.16540736,1.3105836,-0.392598
0.1,0.0,0.9999999999999999,0.0,0.5235987755982988,0,-0.50796545,0.9909456,-0.8034965,0.6888517,-0.55845404,0.7133215,-1.7479929,-1.6291988,1.2376937,-0.19316237,-0.08023818,0.03336699,1.2457464,-0.48125774
0.1,0.0,0.9999999999999999,0.0,0.5235987755982988,0,-0.5090639,0.997737,-0.8030897,0.6887886,-0.5610739,0.71373,-1.7496415,0.28570235,1.2308562,-0.04451711,-0.09624427,0.075299904,1.1553714,0.9066449
0.1,0.0,0.9999999999999999,0.0,0.5235987755982988,0,-0.50715214,0.99518603,-0.8017964,0.6888947,-0.55997795,0.7133082,-1.751059,1.0125787,1.240742,-0.04680441,-0.111462966,0.17898625,1.0909938,-1.0987982
0.1,0.0,0.9999999999999999,0.0,0.5235987755982988,0,-0.50854117,0.9930088,-0.8030292,0.6887384,-0.5602477,0.7134387,-1.7586749,0.1961889,1.2257308,-0.13509199,-0.08930978,-0.15676057,1.1321054,-1.4739506
0.1,0.0,0.9999999999999999,0.0,0.5235987755982988,0,-0.5085406,0.99463964,-0.8017161,0.68864083,-0.5581635,0.71322274,-1.7536756,-1.1139091,1.3608032,0.14424448,0.01831403,0.07261355,1.2057827,-1.5338907
0.1,0.0,0.9999999999999999,0.0,0.5235987755982988,0,-0.50876164,0.99263495,-0.80329126,0.68866175,-0.5599915,0.71323234,-1.7587318,0.2118691,1.3891518,0.03811531,-0.04187871,-0.25392422,1.1937004,0.0827202
0.1,0.0,0.9999999999999999,0.0,0.5235987755982988,0,-0.50792104,0.9943794,-0.8019645,0.6881882,-0.5612016,0.7142519,-1.7542493,0.9150208,1.1410115,-0.1273776,-0.06881855,-0.08458669,1.2333356,-1.8969455
0.1,0.0,0.9999999999999999,0.0,0.5235987755982988,0,-0.50894845,0.9918469,-0.8011288,0.68879,-0.5591786,0.71407986,-1.7521938,0.017772956,1.3095535,-0.057059493,-0.16695252,0.046232555,1.2375888,-1.7782686
0.1,0.0,0.9999999999999999,0.0,0.5235987755982988,0,-0.50719285,0.99111634,-0.804352,0.6887765,-0.55924046,0.71314996,-1.745192,0.5137489,1.3256255,0.14713223,-0.041077558,0.12327587,1.1692655,-0.3352262
0.1,0.0,0.9999999999999999,0.0,0.5235987755982988,0,-0.50911355,0.99365455,-0.80392176,0.6885892,-0.5608246,0.71431607,-1.759723,1.5991414,1.2734205,-0.10205392,-0.08356924,0.034283556,1.2781421,-1.1047602
0.1,0.0,0.9999999999999999,0.0,0.5235987755982988,0,-0.5080654,0.99250233,-0.80306584,0.6885251,-0.55792093,0.71395874,-1.7519014,0.3105245,1.3002067,0.1387167,-0.0024345776,0.30242676,1.1497978,0.12973505
0.1,0.0,0.9999999999999999,0.0,0.5235987755982988,0,-0.5080651,0.99361116,-0.8018292,0.68876755,-0.5588351,0.713419,-1.750051,1.1789253,1.2768564,0.22468758,-0.06908644,0.097079664,1.1104542,-0.80279285
0.1,0.0,0.9999999999999999,0.0,0.5235987755982988,0,-0.5086545,0.99296266,-0.8032274,0.68893063,-0.5585482,0.7133482,-1.7450514,1.1049258,1.246295,0.14144588,-0.056828994,0.14471343,1.2230302,0.39025754
0.1,0.0,0.9999999999999999,0.0,0.5235987755982988,0,-0.5084885,0.9932341,-0.80140245,0.68860793,-0.55894536,0.7135715,-1.7508383,-0.11074765,1.265633,0.13356327,-0.08716751,0.01328337,1.2420946,-1.4692934
0.1,0.0,0.9999999999999999,0.0,0.5235987755982988,0,-0.5105892,0.9946172,-0.80112475,0.6883811,-0.55879164,0.7135473,-1.7446786,0.8961019,1.3173913,0.32040402,-0.122777246,0.024333065,1.1783319,-0.20767054
0.1,0.0,0.9999999999999999,0.0,0.5235987755982988,0,-0.5087073,0.991957,-0.80236715,0.6886978,-0.55839854,0.7133447,-1.7460799,1.4598217,1.2373306,0.4968617,-0.080717936,0.119594894,1.1345578,-0.62735647
0.1,0.0,0.9999999999999999,0.0,0.5235987755982988,0,-0.508192,0.99806803,-0.8017888,0.68891996,-0.55957365,0.7140506,-1.7541898,-0.13196144,1.4151988,-0.060463727,-0.09197215,0.15218441,1.0944324,-1.4813243
0.1,0.0,0.9999999999999999,0.0,0.5235987755982988,0,-0.50816256,0.9929785,-0.80296767,0.6885037,-0.5594924,0.7142522,-1.7537417,-1.0854392,1.3619608,0.28572503,-0.08364694,0.10584245,1.2344217,-1.0792079
0.1,0.0,0.9999999999999999,0.0,0.5235987755982988,0,-0.50963867,0.9934587,-0.80276746,0.6885822,-0.5571122,0.7132363,-1.7554172,-1.1132687,1.3515452,0.089774705,-0.005322769,-0.059235502,1.2105204,-0.8589421
0.1,0.0,0.9999999999999999,0.0,0.5235987755982988,0,-0.508361,0.99600464,-0.80269045,0.68883604,-0.5606593,0.7133022,-1.7508037,0.10011382,1.1789205,0.1596632,-0.07489535,0.37116244,1.1679094,-0.396157
0.1,0.0,0.9999999999999999,0.0,0.5235987755982988,0,-0.5095844,0.9919837,-0.80297196,0.68842137,-0.5596771,0.7136911,-1.743976,0.0626873,1.1693192,0.2941269,-0.2040208,0.35888913,1.2574023,0.3517226
0.1,0.0,0.9999999999999999,0.0,0.5235987755982988,0,-0.50842404,0.9942034,-0.80344695,0.6887842,-0.5597171,0.7133159,-1.7545753,1.4078531,1.3188742,-0.1548175,-0.07474165,0.12399187,1.2420018,-0.30997762
0.1,0.0,0.9999999999999999,0.0,0.5235987755982988,0,-0.5095937,0.9958654,-0.80242884,0.6883338,-0.558409,0.71316195,-1.7514126,0.8330655,1.3778434,0.06130941,-0.09913152,-0.017970935,1.1970046,0.33738244
0.1,0.0,0.9999999999999999,0.0,0.5235987755982988,0,-0.5087117,0.99591905,-0.804248,0.6882863,-0.5597814,0.7139129,-1.7567503,1.2828776,1.285857,0.1667179,-0.07747066,0.24769515,1.2591882,-1.7599145
0.1,0.0,0.9999999999999999,0.0,0.5235987755982988,0,-0.5100151,0.99811155,-0.80065453,0.68858224,-0.55866534,0.7135245,-1.7589638,0.026138127,1.2531024,-0.053536005,-0.14562005,0.3799728,1.1995214,-1.5407113
0.1,0.0,0.9999999999999999,0.0,0.5235987755982988,0,-0.50943,0.997186,-0.80372584,0.68828607,-0.55922467,0.71429527,-1.7581413,-0.55295277,1.3284171,-0.13307185,-0.03828646,0.18233821,1.1096395,-0.6838815
0.1,0.0,0.9999999999999999,0.0,0.5235987755982988,0,-0.50918126,0.99556184,-0.8052701,0.6883651,-0.5594772,0.71354985,-1.7563193,0.98875916,1.3263743,0.0004153307,-0.14476854,-0.19098306,1.2309278,-1.2139176
0.1,0.0,0.9999999999999999,0.0,0.5235987755982988,0,-0.50945276,0.99103636,-0.80338764,0.6883648,-0.5588336,0.7137993,-1.7514727,-0.4658578,1.3868887,0.14545025,0.01646336,0.22683708,1.2598047,-1.7933497
0.1,0.0,0.9999999999999999,0.0,0.5235987755982988,0,-0.50916487,0.9959449,-0.80549747,0.6880138,-0.5602341,0.7139023,-1.7545962,-0.41904148,1.2945948,0.20885833,-0.036096517,0.05617398,1.3208613,-0.88912547
0.1,0.0,0.9999999999999999,0.0,0.5235987755982988,0,-0.50932753,0.9941213,-0.8040165,0.6889392,-0.55857295,0.71384895,-1.7548449,1.0245117,1.3171903,0.19363615,-0.06074048,0.11491182,1.1784644,-1.8741158
0.1,0.0,0.9999999999999999,0.0,0.5235987755982988,0,-0.508034,0.99151176,-0.80310065,0.68861234,-0.5612911,0.7123389,-1.751395,0.5365544,1.4099084,0.058934856,-0.052018184,-0.03893594,1.1905593,-0.52188957
0.1,0.0,0.9999999999999999,0.0,0.5235987755982988,0,-0.5104987,0.9936924,-0.80311763,0.68892777,-0.5603806,0.71262527,-1.7546217,-1.053107,1.2692864,-0.020664044,-0.036203064,-0.04017874,1.2138199,-0.7381551
0.1,0.0,0.9999999999999999,0.0,0.5235987755982988,0,-0.50987184,0.99768794,-0.80129755,0.688551,-0.56180423,0.71436334,-1.7432894,0.24969417,1.2331746,0.28985217,-0.038117006,-0.098055705,1.1305591,-1.5739019
0.1,0.0,0.9999999999999999,0.0,0.5235987755982988,0,-0.5078842,0.9961932,-0.8040203,0.68866533,-0.5585235,0.71366245,-1.7491508,1.110997,1.1535966,0.09400453,-0.07575028,0.038375888,1.1835808,-0.41943228
0.1,0.0,0.9999999999999999,0.0,0.5235987755982988,0,-0.5102793,0.9943836,-0.80305815,0.6882291,-0.5597752,0.7139517,-1.7502636,0.52628374,1.2673048,-0.025788687,-0.109001085,-0.009022893,1.2227125,-0.62359065
0.1,0.0,0.9999999999999999,0.0,0.5235987755982988,0,-0.50992686,0.9946986,-0.80388135,0.6880336,-0.5603599,0.71409816,-1.7548175,0.2664809,1.2573471,0.17698665,-0.11903761,0.16923161,1.1583772,-0.50467044
0.1,0.0,0.9999999999999999,0.0,0.5235987755982988,0,-0.50783706,0.9945784,-0.8044423,0.6884942,-0.5578033,0.7138124,-1.7489502,0.26974654,1.4039972,-0.0048559015,-0.011863696,0.09142582,1.2989334,-0.11319015
0.1,0.0,0.9999999999999999,0.0,0.5235987755982988,0,-0.5081842,0.9956004,-0.801544,0.68855,-0.56044704,0.71259546,-1.7554709,0.30490595,1.4020028,0.23885843,-0.110966034,0.12435583,1.1585379,0.37290445
0.1,0.0,0.9999999999999999,0.0,0.5235987755982988,0,-0.5109022,0.996308,-0.8019324,0.6883313,-0.5601769,0.7131621,-1.7509918,0.67856765,1.234753,0.40526238,-0.056664042,-0.1353707,1.1918888,-1.5783226
0.1,0.0,0.9999999999999999,0.0,0.5235987755982988,0,-0.5087248,0.99447227,-0.8043377,0.68849385,-0.5605104,0.7141019,-1.7458252,-0.20207301,1.2484058,0.26177305,-0.10619552,-0.14274971,1.0898368,-0.46320274
0.1,0.0,0.9999999999999999,0.0,0.5235987755982988,0,-0.50858694,0.99632156,-0.80222154,0.68826807,-0.56073445,0.7133467,-1.7486203,0.6188531,1.2320546,-0.22338213,-0.034668934,-0.17680314,1.247709,0.094772965
0.1,0.0,0.9999999999999999,0.0,0.5235987755982988,0,-0.5082241,0.9952336,-0.8031039,0.6888492,-0.5588283,0.7123402,-1.7505575,0.18613783,1.2681912,0.3682153,-0.0048453473,0.0677945,1.121945,-0.37761602
0.1,0.0,0.9999999999999999,0.0,0.5235987755982988,0,-0.5092412,0.9966894,-0.8017206,0.6882836,-0.55931145,0.7133705,-1.7534894,0.6244685,1.1856129,0.19742034,-0.053340152,0.080368675,1.1859546,-2.3182461
0.1,0.0,0.9999999999999999,0.0,0.5235987755982988,0,-0.508773,0.99491304,-0.8034481,0.6889544,-0.560032,0.7144708,-1.7508461,-0.74697334,1.254309,0.17582048,-0.022481387,-0.107204944,1.1699576,-1.1953683
0.1,0.0,0.9999999999999999,0.0,0.5235987755982988,0,-0.510912,0.9912357,-0.80443954,0.6888375,-0.5618903,0.71321756,-1.756569,-0.040955283,1.2384468,0.26611027,-0.12371014,0.11065383,1.1119179,-2.0676029
0.1,0.0,0.9999999999999999,0.0,0.5235987755982988,0,-0.5082567,0.9940547,-0.8036609,0.68880713,-0.5605059,0.7129131,-1.7546673,0.4554618,1.4058044,0.5977636,-0.05756683,-0.010444564,1.2543895,-0.8201781
0.1,0.0,0.9999999999999999,0.0,0.5235987755982988,0,-0.5092077,0.9941491,-0.8027593,0.68825966,-0.5590606,0.7123627,-1.7446761,0.69510704,1.2563125,0.15910932,-0.15037133,0.1634999,1.2652817,-0.5213167
0.1,0.0,0.9999999999999999,0.0,0.5235987755982988,0,-0.509086,0.99511236,-0.8047973,0.6885733,-0.55968684,0.71317995,-1.7588818,-0.86253744,1.2777957,-0.09955964,-0.10925429,-0.12792814,1.1760144,-1.7474056
0.1,0.0,0.9999999999999999,0.0,0.5235987755982988,0,-0.5112687,0.9884674,-0.80478245,0.68867713,-0.56270677,0.71331644,-1.7549531,0.84128153,1.3912562,-0.1530171,-0.06003785,-0.06308729,1.3060118,-0.89320827
0.1,0.0,0.9999999999999999,0.0,0.5235987755982988,0,-0.5071334,0.99537003,-0.8036298,0.6885649,-0.5591091,0.71329725,-1.7569824,1.2217957,1.2808466,-0.14348264,-0.02732426,0.27015403,1.1819105,-0.51078606
0.1,0.0,0.9999999999999999,0.0,0.5235987755982988,0,-0.5117354,0.9947449,-0.80339295,0.6885342,-0.56070685,0.7135595,-1.7475773,0.7110994,1.321935,0.32469475,-0.08637361,0.012602563,1.1270206,1.2860225
0.1,0.0,0.9999999999999999,0.0,0.5235987755982988,0,-0.5074973,0.9927914,-0.80203545,0.68826574,-0.5596309,0.71383834,-1.7502534,1.7196592,1.4362627,-0.095250316,-0.12100827,0.08143443,1.2645086,-0.94673496
0.1,0.0,0.9999999999999999,0.0,0.5235987755982988,0,-0.50933635,0.9933337,-0.8031885,0.68880045,-0.56082785,0.71309,-1.7574931,1.7527281,1.3858039,0.03254484,-0.060456917,0.20566082,1.1745898,-1.8331031
0.1,0.0,0.9999999999999999,0.0,0.5235987755982988,0,-0.50730443,0.99061257,-0.80245876,0.6884322,-0.5614039,0.7136631,-1.7518134,1.7282526,1.2799783,0.15151069,-0.034166604,0.21190012,1.0816895,-1.6621711
0.1,0.0,0.9999999999999999,0.0,0.5235987755982988,0,-0.5089193,0.99805677,-0.80266064,0.68846023,-0.5613133,0.71301943,-1.7508036,0.24456663,1.2815694,0.18162481,-0.05847032,0.2147121,1.3465765,-1.3273923
0.1,0.0,0.9999999999999999,0.0,0.5235987755982988,0,-0.50848866,0.99865913,-0.8019789,0.6886669,-0.5623822,0.71355134,-1.7598358,1.0204111,1.3309412,-0.3067104,-0.08344811,0.045491338,1.2422849,-0.3875022
0.1,0.0,0.9999999999999999,0.0,0.5235987755982988,0,-0.51070565,0.9957826,-0.8012638,0.6882343,-0.5585194,0.71297014,-1.7560823,-1.0959291,1.1509997,0.15141109,-0.033672195,0.25930363,1.1468891,-0.9965378
0.1,0.0,0.9999999999999999,0.0,0.5235987755982988,0,-0.51091015,0.9926705,-0.80136305,0.68797845,-0.5581721,0.71330446,-1.760087,-0.1605113,1.2322526,0.04412779,-0.0064767604,-0.21719398,1.16421,-0.44212842
0.1,0.0,0.9999999999999999,0.0,0.5235987755982988,0,-0.5088542,0.9930068,-0.8015095,0.6888059,-0.56058556,0.71272033,-1.746953,-0.30447406,1.221728,-0.4143023,-0.11804053,0.35537735,1.2533557,-0.3816463
0.1,0.0,0.9999999999999999,0.0,0.5235987755982988,0,-0.50986165,0.9918576,-0.8015359,0.6882885,-0.5592811,0.7130383,-1.7488369,-0.9333785,1.3285135,0.35529315,-0.05757632,0.3080886,1.1805389,-0.6702063
0.1,0.0,0.9999999999999999,0.0,0.5235987755982988,0,-0.5077981,0.9973784,-0.8028245,0.6884764,-0.56161267,0.7131751,-1.7517534,-0.38740513,1.2053252,0.060398802,-0.086841226,0.08536619,1.2252915,-1.5588436
0.1,0.0,0.9999999999999999,0.0,0.5235987755982988,0,-0.5074999,0.9967678,-0.8021866,0.68884176,-0.5597539,0.7126324,-1.7593008,-0.21650024,1.3190973,0.071302004,-0.07427452,0.041089933,1.1466643,-1.0100925
0.1,0.0,0.9999999999999999,0.0,0.5235987755982988,0,-0.50917244,0.9949288,-0.8025639,0.6886558,-0.559654,0.71336,-1.750771,0.5243706,1.2148128,0.4063107,-0.0377616,0.22424093,1.1446074,-2.448429
0.1,0.0,0.9999999999999999,0.0,0.5235987755982988,0,-0.5093624,0.99648505,-0.8032786,0.68823785,-0.56026757,0.71235365,-1.7495196,1.3606476,1.2614869,0.20352712,-0.039879832,0.29900512,1.2262812,-0.5697706
0.1,0.0,0.9999999999999999,0.0,0.5235987755982988,0,-0.50766164,0.99403906,-0.80254465,0.6882635,-0.5585307,0.71365786,-1.7520908,0.7860673,1.2434918,-0.08532498,-0.04726601,0.32536426,1.2799381,-0.76728016
0.1,0.0,0.9999999999999999,0.0,0.5235987755982988,0,-0.5075947,0.9976418,-0.80262685,0.68854547,-0.5589656,0.71345335,-1.7555505,0.33046636,1.2358644,-0.19857745,-0.0097390795,0.2798579,1.2605343,-0.0017081155
0.1,0.0,0.9999999999999999,0.0,0.5235987755982988,0,-0.5093787,0.9947401,-0.80205727,0.68848836,-0.55999345,0.71383387,-1.7548107,-1.3681271,1.3140653,-0.11260223,-0.08821567,0.2170234,1.1200206,0.8397691
0.1,0.0,0.9999999999999999,0.0,0.5235987755982988,0,-0.50854194,0.9958741,-0.80211604,0.6882319,-0.55941546,0.7131488,-1.7485819,-0.59678745,1.1835392,-0.00052896957,-0.0935503,0.3459141,1.1695739,-1.7250116
0.1,0.0,0.9999999999999999,0.0,0.5235987755982988,0,-0.5088948,0.9927588,-0.80237585,0.6885302,-0.5602901,0.71249396,-1.7474016,-0.44036832,1.193778,0.2437097,-0.07159525,0.17583038,1.1712823,-1.1287313
0.1,0.0,0.9999999999999999,0.0,0.5235987755982988,0,-0.5099805,0.9908596,-0.8022322,0.6889114,-0.55695844,0.7132075,-1.7547393,0.09538931,1.1063945,0.18466999,-0.056588277,0.01793442,1.1916337,-0.40229252
0.1,0.0,0.9999999999999999,0.0,0.5235987755982988,0,-0.5089385,0.9970573,-0.80042803,0.68810403,-0.56256264,0.713738,-1.7492129,0.4641514,1.2285287,0.2249397,-0.13571191,0.074622616,1.1252441,0.5666153
0.1,0.0,0.9999999999999999,0.0,0.5235987755982988,0,-0.50854117,0.99579483,-0.80334175,0.68814737,-0.56106246,0.7132039,-1.75058,-1.9609447,1.2964988,-0.034392737,-0.034065887,-0.017678712,1.2246603,-1.0412502
0.1,0.0,0.9999999999999999,0.0,0.5235987755982988,0,-0.51044565,0.9933844,-0.80259264,0.68805075,-0.55838627,0.7134433,-1.7567146,-1.053247,1.3012348,0.039270364,-0.036686607,-0.018487226,1.2422463,-1.4429191
0.1,0.0,0.9999999999999999,0.0,0.5235987755982988,0,-0.5078734,0.99493337,-0.80095756,0.6882848,-0.560501,0.7131082,-1.748176,-0.51070106,1.2247717,-0.22644326,-0.045972418,0.13893367,1.2124046,-0.91625696
0.1,0.0,0.9999999999999999,0.0,0.5235987755982988,0,-0.5083337,0.991105,-0.80306834,0.68814486,-0.5581983,0.7123861,-1.7568017,-0.077842146,1.2919248,0.038178246,-0.008553433,0.1950642,1.1291795,-1.2167373
0.1,0.0,0.9999999999999999,0.0,0.5235987755982988,0,-0.51021034,0.99707067,-0.8017161,0.68816626,-0.5596692,0.71317285,-1.7554394,0.87150705,1.3031521,0.05139863,-0.062014434,0.047641862,1.1856791,-1.3582627
0.1,0.0,0.9999999999999999,0.0,0.5235987755982988,0,-0.508708,0.9955335,-0.80235654,0.6881803,-0.56074333,0.7132547,-1.7543681,1.1919955,1.4231814,0.19758727,-0.09767663,0.07043118,1.2919058,-0.62133116
0.1,0.0,0.9999999999999999,0.0,0.5235987755982988,0,-0.5095232,0.9942836,-0.8037415,0.68830884,-0.55760103,0.71348596,-1.7570394,-0.6550341,1.2986066,0.16387752,-0.019234205,-0.02103922,1.3002107,-0.5916057
0.1,0.0,0.9999999999999999,0.0,0.5235987755982988,0,-0.5095582,0.9921291,-0.8031607,0.68853015,-0.55861014,0.7131944,-1.7595675,1.4468743,1.3239537,-0.042621676,-0.053908397,0.17089847,1.111882,0.48140502
0.1,0.0,0.9999999999999999,0.0,0.5235987755982988,0,-0.50926524,0.998255,-0.80434126,0.68875396,-0.5616015,0.7133843,-1.759631,1.0445775,1.2578756,-0.01383021,-0.1144014,0.115105964,1.2537354,-0.44101965
0.1,0.0,0.9999999999999999,0.0,0.5235987755982988,0,-0.508891,0.992005,-0.8017818,0.68855226,-0.55860806,0.7127718,-1.7523892,0.68121135,1.2188617,0.14599928,-0.006026773,0.055403277,1.1962711,-0.7587092
0.1,0.0,0.9999999999999999,0.0,0.5235987755982988,0,-0.5080647,0.9933748,-0.8022762,0.6887753,-0.5606034,0.71354204,-1.7589995,-0.6337416,1.2455578,0.2106208,-0.06344237,-0.051300697,1.1633173,0.41977832
0.1,0.0,0.9999999999999999,0.0,0.5235987755982988,0,-0.5082776,0.99562514,-0.8037176,0.68849736,-0.5624455,0.7126848,-1.7506593,-0.13317992,1.3456677,0.066399984,-0.035296306,-0.192369,1.2216803,-1.8348663
0.1,0.0,0.9999999999999999,0.0,0.5235987755982988,0,-0.50785553,0.9958702,-0.803756,0.6889352,-0.56091446,0.7132299,-1.7564701,-0.29170808,1.2816687,0.24878256,-0.11131585,0.33398354,1.2621791,-0.3772573
0.1,0.0,0.9999999999999999,0.0,0.5235987755982988,0,-0.5101116,0.9922105,-0.80336326,0.68867534,-0.5599576,0.7133842,-1.7524521,0.66909915,1.3146206,0.25288537,-0.0645991,-0.12369038,1.1840646,-1.552244
0.1,0.0,0.9999999999999999,0.0,0.5235987755982988,0,-0.50891614,0.9952405,-0.8038477,0.6883124,-0.56067777,0.71350235,-1.7526541,1.0004916,1.2656754,0.042695407,0.015569687,0.28672954,1.222742,-2.3402126
0.1,0.0,0.9999999999999999,0.0,0.5235987755982988,0,-0.5106952,0.9923674,-0.803868,0.688775,-0.56199515,0.7133217,-1.7557459,0.09230386,1.4084228,0.18802673,-0.10026149,0.21404828,1.176537,-2.0565712
0.1,0.0,0.9999999999999999,0.0,0.5235987755982988,0,-0.50877166,0.9958937,-0.8033129,0.6888113,-0.56063956,0.7128125,-1.7606411,-0.47111937,1.4040878,0.14501023,-0.07372329,-0.14869982,1.0960733,0.024681693
0.1,0.0,0.9999999999999999,0.0,0.5235987755982988,0,-0.5090475,0.99766505,-0.8011531,0.68864065,-0.5581365,0.7131496,-1.7531581,-0.9886577,1.3375853,-0.015713634,-0.09238424,-0.1256712,1.1246035,-0.5819209
0.1,0.0,0.9999999999999999,0.0,0.5235987755982988,0,-0.50706136,0.99398696,-0.80085623,0.68840456,-0.5597671,0.71305996,-1.7514735,0.26342127,1.288018,0.0881802,-0.018089151,0.2690781,1.1904131,-1.5681177
0.1,0.0,0.9999999999999999,0.0,0.5235987755982988,0,-0.5083761,0.9994309,-0.8037869,0.68824327,-0.56185347,0.7134658,-1.7612232,0.043158475,1.1973836,0.0009894419,-0.08957184,0.11793807,1.2412122,-0.8478624
0.1,0.0,0.9999999999999999,0.0,0.5235987755982988,0,-0.5085299,0.99296737,-0.80243003,0.6884724,-0.5596182,0.71285754,-1.7501605,-0.01649114,1.3324758,0.042215783,-0.056104388,0.11939944,1.3150221,-2.4286935
0.1,0.0,0.9999999999999999,0.0,0.5235987755982988,0,-0.5089896,0.9958451,-0.8022565,0.6885,-0.5586454,0.71385604,-1.7512841,-0.5250975,1.3567849,0.15616791,-0.032422144,-0.15253733,1.2099029,-1.4317133
0.1,0.0,0.9999999999999999,0.0,0.5235987755982988,0,-0.5090385,0.9940977,-0.80396575,0.6882566,-0.5601573,0.71351665,-1.7607012,0.39221552,1.2928104,-0.09725588,-0.11744675,0.07745715,1.1826832,-0.57880855
0.1,0.0,0.9999999999999999,0.0,0.5235987755982988,0,-0.5095172,0.9930649,-0.8025346,0.6885045,-0.5582791,0.71363944,-1.7493051,0.106397316,1.2637894,0.15784042,-0.06526961,0.27846017,1.2301658,-0.4558164
0.1,0.0,0.9999999999999999,0.0,0.5235987755982988,0,-0.50860053,0.9933558,-0.8017035,0.6888339,-0.56067324,0.71220404,-1.7545726,0.9474869,1.2559314,0.18189809,-0.07880431,0.2731367,1.275523,-0.15558386
0.1,0.0,0.9999999999999999,0.0,0.5235987755982988,0,-0.5092485,0.9899371,-0.8051273,0.688338,-0.5587115,0.71284705,-1.7516627,0.5852478,1.1788193,0.029501604,-0.056941375,0.36423567,1.2252641,-0.17319681
0.1,0.0,0.9999999999999999,0.0,0.5235987755982988,0,-0.5086194,0.9948069,-0.8003038,0.68876153,-0.5592095,0.71337366,-1.7490094,0.44980183,1.3125284,0.0131735355,-0.081081666,-0.06846444,1.2683719,-0.92461574
0.1,0.0,0.9999999999999999,0.0,0.5235987755982988,0,-0.50898856,0.9962362,-0.80275834,0.68833745,-0.55845284,0.7142528,-1.7518288,-0.75071615,1.2728006,0.04142211,-0.08744942,-0.016508013,1.3422152,-0.6790444
0.1,0.0,0.9999999999999999,0.0,0.5235987755982988,0,-0.508518,0.99650407,-0.7999517,0.68852025,-0.55978805,0.7142447,-1.7502675,-0.7947061,1.3175001,-0.052838337,-0.07178683,0.11092193,1.3427644,0.5620254
0.1,0.0,0.9999999999999999,0.0,0.5235987755982988,0,-0.50711316,0.99282193,-0.8023843,0.6889064,-0.5591801,0.7129569,-1.7589524,1.10811,1.2625873,0.091247134,-0.0827961,-0.030747278,1.2725352,-0.6483577
0.1,0.0,0.9999999999999999,0.0,0.5235987755982988,0,-0.5087971,0.99241745,-0.8018448,0.6886134,-0.5595337,0.71342206,-1.7547327,-0.4836707,1.3440046,0.06464452,-0.1405718,-0.3820821,1.1382877,-0.99587923
0.1,0.0,0.9999999999999999,0.0,0.5235987755982988,0,-0.5083115,0.99768144,-0.8031241,0.6882444,-0.5599883,0.71410114,-1.7555529,0.037888683,1.2422152,-0.06711088,-0.0031290194,0.17449264,1.1255404,-1.920683
0.1,0.0,0.9999999999999999,0.0,0.5235987755982988,0,-0.510213,0.99413735,-0.8037939,0.68853563,-0.5596905,0.7136195,-1.7599623,0.3990649,1.2330176,0.2431832,-0.117139004,0.3719235,1.2088702,-0.4435187
0.1,0.0,0.9999999999999999,0.0,0.5235987755982988,0,-0.5085238,0.99521405,-0.8037705,0.6882385,-0.56130356,0.7132036,-1.7533998,0.7723741,1.3569661,0.049956486,-0.10095513,0.03916137,1.236541,-0.34902725
0.1,0.0,0.9999999999999999,0.0,0.5235987755982988,0,-0.50756186,0.9944795,-0.8041952,0.68853223,-0.56033826,0.71246403,-1.7523832,0.24703762,1.1666627,0.019822957,-0.112598605,0.055087436,1.1817832,-1.0302099
0.1,0.0,0.9999999999999999,0.0,0.5235987755982988,0,-0.50820506,0.9944618,-0.8024526,0.68835706,-0.55887836,0.71274495,-1.7514745,-0.64394695,1.2916586,0.010472026,-0.06538839,0.042315684,1.195045,-0.5400409
0.1,0.0,0.9999999999999999,0.0,0.5235987755982988,0,-0.50967306,0.9945743,-0.8022432,0.68861103,-0.55687606,0.71304727,-1.7506795,-0.96225876,1.259206,0.24514285,-0.099290006,0.26538604,1.1374865,-0.7037474
0.1,0.0,0.9999999999999999,0.0,0.5235987755982988,0,-0.50862736,0.989697,-0.801828,0.68852323,-0.5593145,0.7129294,-1.7605042,0.4809557,1.2239078,-0.21088497,-0.012029874,0.06677334,1.2141689,-0.38528803
0.1,0.0,0.9999999999999999,0.0,0.5235987755982988,0,-0.5091688,0.9946086,-0.80328155,0.68850464,-0.55974144,0.71405315,-1.7518952,-0.55849755,1.3403661,0.20556964,-0.041899238,-0.040624253,1.1602774,-0.07332919
0.1,0.0,0.9999999999999999,0.0,0.5235987755982988,0,-0.5085962,0.99285775,-0.8042446,0.6884129,-0.5596132,0.71349704,-1.7547301,0.09399557,1.3333933,0.005029618,-0.09847834,-0.14762004,1.3047252,-1.5042728
0.1,0.0,0.9999999999999999,0.0,0.5235987755982988,0,-0.5073516,0.9931332,-0.80384,0.68829733,-0.56030244,0.7133812,-1.7590573,-0.088171415,1.1964271,0.26726672,-0.054421984,0.272514,1.2990581,-0.24088976
0.1,0.0,0.9999999999999999,0.0,0.5235987755982988,0,-0.5094091,0.9967927,-0.80255324,0.6886754,-0.55881363,0.7133417,-1.7537664,0.81492174,1.2805775,0.15843847,-0.1652798,0.14189576,1.2353915,-1.1625471
0.1,0.0,0.9999999999999999,0.0,0.5235987755982988,0,-0.5073594,0.9945044,-0.8035069,0.688689,-0.5620199,0.712684,-1.7469041,-0.016365325,1.2184595,0.41906962,-0.12846984,0.2164985,1.1684036,-2.0665128
0.1,0.0,0.9999999999999999,0.0,0.5235987755982988,0,-0.50783825,0.99438334,-0.80283785,0.68784195,-0.5619776,0.7136798,-1.752446,0.51657194,1.295773,0.011456585,-0.02225886,0.02657953,1.2618694,-0.7933699
0.1,0.0,0.9999999999999999,0.0,0.5235987755982988,0,-0.5089903,0.99394554,-0.80473995,0.68860686,-0.55934036,0.7133086,-1.7471404,-0.8349099,1.3090956,0.014888915,-0.06986281,0.118417054,1.1375935,-0.09785888
0.1,0.0,0.9999999999999999,0.0,0.5235987755982988,0,-0.50796133,0.9939467,-0.80075973,0.6883745,-0.56145686,0.71391255,-1.7524779,-0.4063877,1.2927065,0.22844857,-0.071719535,0.15549625,1.1661706,-1.7316718
0.1,0.0,0.9999999999999999,0.0,0.5235987755982988,0,-0.50849277,0.9926905,-0.80243313,0.688384,-0.5589756,0.71324426,-1.7501619,1.2766719,1.3018436,0.14957216,0.037508577,0.19406478,1.1740398,0.06558051
0.1,0.0,0.9999999999999999,0.0,0.5235987755982988,0,-0.50819206,0.99237263,-0.801882,0.68835294,-0.5593849,0.71413237,-1.7546124,-0.52349967,1.2822672,-0.06557093,-0.012144134,0.18705252,1.2934295,-0.7690873
0.1,0.0,0.9999999999999999,0.0,0.5235987755982988,0,-0.508182,0.9945627,-0.80318713,0.68890136,-0.5581275,0.7129444,-1.7553133,0.05527479,1.3409989,0.06390401,-0.15860848,0.23176809,1.1511632,-1.7840067
0.1,0.0,0.9999999999999999,0.0,0.5235987755982988,0,-0.51002926,0.99261236,-0.8010108,0.6884729,-0.5605597,0.71378535,-1.7525784,-0.51200235,1.3060212,0.04988329,0.007491798,0.0052644005,1.1249442,-1.0016515
0.1,0.0,0.9999999999999999,0.0,0.5235987755982988,0,-0.5098905,0.9985491,-0.80177844,0.6884779,-0.5589335,0.71459335,-1.7526171,0.4153711,1.2024305,-0.012416472,-0.091399066,0.24590603,1.1704025,-0.41330403
0.1,0.0,0.9999999999999999,0.0,0.5235987755982988,0,-0.5084053,0.99811506,-0.80406386,0.6882309,-0.5587683,0.71385187,-1.7517412,1.1097026,1.3316177,-0.3889901,-0.0024170883,-0.089906454,1.2836738,-2.008019
0.1,0.0,0.9999999999999999,0.0,0.5235987755982988,0,-0.5079034,0.9964309,-0.80105335,0.68867093,-0.5577518,0.7131038,-1.7483821,1.0085125,1.3157156,-0.20769523,-0.055575848,0.31264564,1.25445,-0.65245104
0.1,0.0,0.9999999999999999,0.0,0.5235987755982988,0,-0.5087388,0.9937018,-0.8039905,0.68854237,-0.55809003,0.7131593,-1.7521785,-0.22084863,1.3179607,-0.13560335,-0.10862859,0.294534,1.2122326,-1.9288741
0.1,0.0,0.9999999999999999,0.0,0.5235987755982988,0,-0.51083446,0.9937521,-0.8027918,0.68846,-0.5588331,0.7136799,-1.7554107,0.49036127,1.4104289,0.0158559,-0.07873586,0.25300133,1.25943,-0.23833674
0.1,0.0,0.9999999999999999,0.0,0.5235987755982988,0,-0.5084159,0.99336135,-0.8037141,0.68890023,-0.5586535,0.7134238,-1.7566993,0.010592132,1.23956,0.25401047,-0.094792955,0.16810806,1.1171762,-1.0311375
0.1,0.0,0.9999999999999999,0.0,0.5235987755982988,0,-0.5100247,0.992564,-0.80243844,0.68819106,-0.5572753,0.71366286,-1.7527666,0.3861732,1.2110898,0.031771727,-0.06854829,0.14387259,1.1988753,-0.5698405
0.1,0.0,0.9999999999999999,0.0,0.5235987755982988,0,-0.50834477,0.99595773,-0.80510485,0.68866426,-0.5590938,0.7134757,-1.7537436,-1.7714738,1.3416679,0.4045955,-0.11256151,0.21194434,1.2648349,-0.850968
0.1,0.0,0.9999999999999999,0.0,0.5235987755982988,0,-0.50798243,0.9971562,-0.80160415,0.6888027,-0.5591002,0.71338904,-1.7469705,-0.35557887,1.2818625,0.32874435,-0.06604576,-0.023747914,1.0576917,-0.22325517
0.1,0.0,0.9999999999999999,0.0,0.5235987755982988,0,-0.5081986,0.9924972,-0.80264366,0.68826866,-0.55952877,0.71247166,-1.754525,-0.6176669,1.3858336,0.3540135,-0.1464769,0.12222251,1.2468331,-1.9135429
0.1,0.0,0.9999999999999999,0.0,0.5235987755982988,0,-0.50977564,0.99472463,-0.80423665,0.6885315,-0.5591574,0.71310675,-1.75788,-1.0614514,1.3162097,0.11641816,-0.024713662,-0.11556781,1.1825196,-1.852341
0.1,0.0,0.9999999999999999,0.0,0.5235987755982988,0,-0.50915015,0.99492884,-0.8032679,0.68898666,-0.5598385,0.71244574,-1.7605557,-0.1651494,1.2075274,-0.21727647,-0.05382033,0.32739785,1.1590117,-0.7806157
0.1,0.0,0.9999999999999999,0.0,0.5235987755982988,0,-0.5074196,0.99308676,-0.8040792,0.68856674,-0.5604601,0.71413094,-1.7526699,0.36801186,1.4349997,-0.056977954,-0.038799938,0.1625121,1.1127722,0.43270284
0.1,0.0,0.9999999999999999,0.0,0.5235987755982988,0,-0.50937176,0.9956602,-0.80353594,0.68835914,-0.56206274,0.71465313,-1.7487806,0.8036228,1.302696,-0.02909847,-0.06612143,0.08221323,1.1172323,-0.05778295
0.1,0.0,0.9999999999999999,0.0,0.5235987755982988,0,-0.5089159,0.9939406,-0.8040134,0.6885878,-0.5579397,0.7134935,-1.7488831,-0.6909073,1.3634952,-0.19195881,-0.18734795,0.11343753,1.236518,0.32492232
0.1,0.0,0.9999999999999999,0.0,0.5235987755982988,0,-0.5083699,0.9946991,-0.8042348,0.68874824,-0.5615674,0.7131692,-1.752272,0.95763195,1.2498208,-0.23964995,-0.053033378,0.055814274,1.2077248,-1.2114612
0.1,0.0,0.9999999999999999,0.0,0.5235987755982988,0,-0.5078277,0.9975911,-0.8019049,0.68796235,-0.55901676,0.7133953,-1.7513483,0.7033972,1.3477851,0.21240598,0.02157565,0.12904216,1.3298699,-1.286041
0.1,0.0,0.9999999999999999,0.0,0.5235987755982988,0,-0.5106049,0.99171543,-0.80204517,0.6886524,-0.55836767,0.71348715,-1.7443323,0.55031186,1.2478765,0.2694461,-0.06400557,0.24530567,1.1487439,-2.6270523
0.1,0.0,0.9999999999999999,0.0,0.5235987755982988,0,-0.50760627,0.9977585,-0.8012608,0.688469,-0.5599173,0.712608,-1.7549436,0.9998707,1.2227561,0.18129945,-0.09136992,0.32065937,1.2612852,-0.5959268
0.1,0.0,0.9999999999999999,0.0,0.5235987755982988,0,-0.5064889,0.9939289,-0.8025585,0.68834215,-0.5582057,0.71375024,-1.7535427,0.3610938,1.2652466,-0.057535395,-0.01688454,-0.06909806,1.2274977,-1.7737522
0.1,0.0,0.9999999999999999,0.0,0.5235987755982988,0,-0.5083774,0.99675983,-0.8022408,0.6883942,-0.55883825,0.7132651,-1.7524403,-0.37166548,1.2758174,-0.043917928,-0.025868716,0.33201388,1.1776042,-1.0577154
0.1,0.0,0.9999999999999999,0.0,0.5235987755982988,0,-0.50744593,0.9955988,-0.80237055,0.6888352,-0.56022227,0.71427506,-1.7509793,0.76173013,1.402919,-0.17485745,-0.09318495,-0.17320342,1.1704642,0.006605268
0.1,0.0,0.9999999999999999,0.0,0.5235987755982988,0,-0.50833493,0.9953927,-0.8018087,0.68829453,-0.56121993,0.71270233,-1.7535031,1.123197,1.2717133,-0.057323102,-0.057457644,0.25805584,1.1249195,-1.0041791
0.1,0.0,0.9999999999999999,0.0,0.5235987755982988,0,-0.51043355,0.9946451,-0.8032965,0.6879938,-0.557832,0.71276146,-1.7519433,-1.3525686,1.3394817,-0.08525591,-0.053204305,0.30406383,1.2704332,-1.4863832
0.1,0.0,0.9999999999999999,0.0,0.5235987755982988,0,-0.50838876,0.99733216,-0.8016893,0.6886547,-0.56069267,0.7131647,-1.7547791,-0.4523607,1.3234947,0.12250619,-0.07519115,-0.008683328,1.1606908,-0.59004813
0.1,0.0,0.9999999999999999,0.0,0.5235987755982988,0,-0.5103686,0.9941282,-0.80223835,0.6883776,-0.55783117,0.71278846,-1.7604346,-0.051334836,1.1942561,-0.20378235,-0.0543147,0.20577045,1.2376148,-0.36254975
0.1,0.0,0.9999999999999999,0.0,0.5235987755982988,0,-0.5073467,0.9958783,-0.8008514,0.68862987,-0.56136495,0.7134703,-1.7494991,-0.10601059,1.2969114,0.13317811,-0.10173506,0.1630853,1.2753364,-0.98509955
0.1,0.0,0.9999999999999999,0.0,0.5235987755982988,0,-0.50674015,0.99798584,-0.803319,0.68884426,-0.561349,0.7133807,-1.7466825,-0.5471694,1.2964704,-0.25232714,-0.020184781,0.034036726,1.2063749,-1.2987455
0.1,0.0,0.9999999999999999,0.0,0.5235987755982988,0,-0.5090071,0.99281204,-0.8018063,0.68821377,-0.56018287,0.71360576,-1.7516288,-0.29073668,1.375612,-0.044075407,-0.12510718,-0.022147533,1.1186751,-0.6814346
0.1,0.0,0.9999999999999999,0.0,0.5235987755982988,0,-0.5083545,0.9937232,-0.8011811,0.688587,-0.5593569,0.7133425,-1.7577691,0.41635638,1.3073775,-0.00012443405,-0.030752389,0.22144923,1.2466336,-2.1566806
0.1,0.0,0.9999999999999999,0.0,0.5235987755982988,0,-0.51074415,0.996893,-0.80233586,0.688509,-0.5589293,0.71391094,-1.7570584,-0.9086504,1.3416809,0.5950849,-0.052741222,0.44022185,1.3200841,-0.15515092
0.1,0.0,0.9999999999999999,0.0,0.5235987755982988,0,-0.51023996,0.99230164,-0.8023294,0.68847066,-0.55957216,0.7130656,-1.7470038,0.4181785,1.2536141,0.32501286,-0.010580541,-0.16646832,1.2028877,-0.0010684069
0.1,0.0,0.9999999999999999,0.0,0.5235987755982988,0,-0.50724405,0.9989351,-0.80301344,0.6888536,-0.5610125,0.7136639,-1.756108,-0.5736608,1.3708891,0.16078894,-0.06159743,0.29847276,1.2791233,-1.7914073
0.1,0.0,0.9999999999999999,0.0,0.5235987755982988,0,-0.5090868,0.99587315,-0.8042316,0.6880699,-0.5566641,0.7126138,-1.7539233,-0.93982387,1.2048587,-0.021127915,-0.059600312,0.11810027,1.2951301,-1.2923543
0.1,0.0,0.9999999999999999,0.0,0.5235987755982988,0,-0.50886273,0.9935989,-0.8039046,0.688666,-0.5614736,0.7132183,-1.7507056,-0.2754146,1.343495,0.25717583,-0.073206805,-0.1696717,1.1886188,-1.3764108
0.1,0.0,0.9999999999999999,0.0,0.5235987755982988,0,-0.50893337,0.9930748,-0.8014539,0.68827254,-0.5607621,0.71286917,-1.7520113,0.5885405,1.3612144,0.25223115,-0.11469441,0.048007213,1.2759804,-0.5895478
0.1,0.0,0.9999999999999999,0.0,0.5235987755982988,0,-0.5088687,0.9913127,-0.8010274,0.687962,-0.5586054,0.71429825,-1.7551014,0.08975933,1.260558,0.09939655,-0.015238438,0.14495985,1.1923246,-0.69809335
0.1,0.0,0.9999999999999999,0.0,0.5235987755982988,0,-0.50919765,0.9955886,-0.8017673,0.6887301,-0.55690676,0.7130418,-1.754881,0.06289417,1.453615,-0.13900082,-0.013411858,0.10953603,1.2964364,-1.3895639
0.1,0.0,0.9999999999999999,0.0,0.5235987755982988,0,-0.50976276,0.991039,-0.8041513,0.6884832,-0.5596023,0.71347785,-1.7467291,0.84057206,1.3773993,-0.044603437,-0.048960604,-0.11397865,1.1766106,-0.26928967
0.1,0.0,0.9999999999999999,0.0,0.5235987755982988,0,-0.5098057,0.9938486,-0.7996519,0.6883557,-0.5607782,0.714217,-1.7540509,0.51714766,1.2873805,0.007376344,-0.04753019,0.20720705,1.1819769,-0.40992796
0.1,0.0,0.9999999999999999,0.0,0.5235987755982988,0,-0.5081542,0.99369174,-0.80221915,0.6886976,-0.55909824,0.71281093,-1.7562824,0.0046324125,1.2967321,0.115761176,-0.076219164,-0.019232461,1.1708089,-1.4428895
0.1,0.0,0.9999999999999999,0.0,0.5235987755982988,0,-0.5094053,0.99380535,-0.801404,0.68816864,-0.5603458,0.7135292,-1.7511967,0.7716756,1.2629292,0.16216664,-0.05969315,0.31232965,1.2428629,-0.16048163
0.1,0.0,0.9999999999999999,0.0,0.5235987755982988,0,-0.50964344,0.99179935,-0.80192685,0.6888409,-0.5609146,0.71366704,-1.749284,0.046923295,1.304288,-0.11157416,-0.034085214,0.14573511,1.2450067,-0.39984554
0.1,0.0,0.9999999999999999,0.0,0.5235987755982988,0,-0.5065422,0.9942539,-0.8023021,0.6881189,-0.5592172,0.7129924,-1.7524703,-0.46220303,1.2118862,-0.028711848,-0.019096497,0.28241986,1.1891378,-1.5425249
0.1,0.0,0.9999999999999999,0.0,0.5235987755982988,0,-0.5096535,0.99483985,-0.80419797,0.68854594,-0.55850154,0.71289843,-1.7460634,-0.120394535,1.3249476,-0.22998743,-0.053594235,0.2519523,1.1040212,-0.10662899
0.1,0.0,0.9999999999999999,0.0,0.5235987755982988,0,-0.51040107,0.9931788,-0.8027068,0.6884933,-0.5590215,0.71315295,-1.7474223,-0.5058121,1.1571417,0.023253096,-0.041061845,0.3811755,1.095084,0.72444963
0.1,0.0,0.9999999999999999,0.0,0.5235987755982988,0,-0.5093523,0.99482125,-0.80334246,0.6885909,-0.56001455,0.7135739,-1.7492839,1.3213379,1.3242514,-0.015383631,-0.06795428,-0.037077934,1.1562443,-0.86137027
0.1,0.0,0.9999999999999999,0.0,0.5235987755982988,0,-0.5108546,0.98967373,-0.8025508,0.68857515,-0.55810547,0.7127502,-1.747767,-0.79150426,1.3403336,0.3727898,-0.05237983,0.038631637,1.1453989,-0.95181865
0.1,0.0,0.9999999999999999,0.0,0.5235987755982988,0,-0.5082224,0.9926525,-0.8032081,0.68861276,-0.5571291,0.7137353,-1.7601483,0.26754215,1.3019253,-0.20523201,-0.07549144,0.16576667,1.3212247,-0.18353438
0.1,0.0,0.9999999999999999,0.0,0.5235987755982988,0,-0.50933266,0.99324036,-0.8049476,0.6887539,-0.55939627,0.71437603,-1.7512246,0.26600078,1.3880466,-0.025891801,-0.082373306,0.0637492,1.141199,-1.4547861
0.1,0.0,0.9999999999999999,0.0,0.5235987755982988,0,-0.5090596,0.9948646,-0.80359095,0.6886131,-0.55877125,0.7122846,-1.7539526,1.7011025,1.3110846,0.07061249,-0.031367935,0.17221268,1.2538295,-0.6424163
0.1,0.0,0.9999999999999999,0.0,0.5235987755982988,0,-0.5090806,0.9945156,-0.80277383,0.6887185,-0.5573605,0.7132186,-1.7589517,-1.449077,1.3412256,0.12607546,-0.07343141,0.19437984,1.2334267,-1.2553599
0.1,0.0,0.9999999999999999,0.0,0.5235987755982988,0,-0.50868803,0.9910879,-0.8035456,0.6883048,-0.55943805,0.7129444,-1.7627788,0.2718052,1.3598096,0.09136072,-0.048397526,0.06488234,1.1893258,-1.331143
0.1,0.0,0.9999999999999999,0.0,0.5235987755982988,0,-0.50677264,0.9941399,-0.80330217,0.6887402,-0.55953616,0.71304333,-1.7475042,0.7736204,1.2235544,-0.063102745,-0.062293027,-0.070177026,1.2718427,-0.8795279
0.1,0.0,0.9999999999999999,0.0,0.5235987755982988,0,-0.5073228,0.99662954,-0.8014909,0.6891481,-0.5589902,0.7124201,-1.7538261,-1.1713183,1.3604017,-0.06358289,-0.029501613,-0.03316545,1.2824717,-0.05120825
0.1,0.0,0.9999999999999999,0.0,0.5235987755982988,0,-0.5095944,0.99114674,-0.8033176,0.68789476,-0.5612488,0.71343243,-1.7458831,0.055545364,1.2920997,-0.007120474,-0.064872555,0.09066026,1.1120459,-1.2773039
0.1,0.0,0.9999999999999999,0.0,0.5235987755982988,0,-0.5073896,0.9967099,-0.8044305,0.68796664,-0.56217664,0.7130127,-1.7493025,-0.24491993,1.3185856,0.45833987,-0.07189204,0.43018374,1.2629641,0.32280487
0.1,0.0,0.9999999999999999,0.0,0.5235987755982988,0,-0.51023114,0.99194145,-0.8021838,0.68850225,-0.5590982,0.71386003,-1.7505943,0.79091066,1.4208192,-0.037717637,-0.06522292,0.22870022,1.2189246,-0.56118643
0.1,0.0,0.9999999999999999,0.0,0.5235987755982988,0,-0.5100126,0.9913626,-0.80089295,0.68835676,-0.5597154,0.7131474,-1.7541158,-0.36877185,1.3121005,0.034117483,-0.01856076,0.007445752,1.2226412,-0.9843246
0.1,0.0,0.9999999999999999,0.0,0.5235987755982988,0,-0.509394,0.99258316,-0.80101204,0.6884208,-0.5610903,0.713011,-1.7489185,-0.107348494,1.3455125,0.17113696,-0.080738105,0.2932949,1.1816369,-1.0407444
0.1,0.0,0.9999999999999999,0.0,0.5235987755982988,0,-0.5102951,0.9978163,-0.80263484,0.68850183,-0.5594534,0.7137102,-1.7452786,-0.1449292,1.3561286,-0.25469282,0.0007851145,0.2644025,1.1021485,1.023367
0.1,0.0,0.9999999999999999,0.0,0.5235987755982988,0,-0.5082449,0.9956725,-0.80185044,0.6887735,-0.5589626,0.7137573,-1.7545438,1.0405718,1.3318946,0.2333817,-0.091707796,0.1409788,1.1450379,-0.014704442
0.1,0.0,0.9999999999999999,0.0,0.5235987755982988,0,-0.5077334,0.99186504,-0.8024958,0.68836546,-0.5638981,0.7130039,-1.74942,1.4541923,1.259323,0.42834535,-0.10891406,0.31390518,1.2398442,-2.0562148
0.1,0.0,0.9999999999999999,0.0,0.5235987755982988,0,-0.50712925,0.9944,-0.80231655,0.68838066,-0.55966645,0.71280634,-1.7547907,-1.551019,1.3421516,0.060223,-0.090102434,0.14047869,1.2882844,-1.1032401
0.1,0.0,0.9999999999999999,0.0,0.5235987755982988,0,-0.50665313,0.9944795,-0.80256975,0.6884527,-0.55867624,0.7134452,-1.7594596,-0.56392616,1.3289111,0.030261325,-0.048235383,0.1885127,1.2389588,-0.17245136
0.1,0.0,0.9999999999999999,0.0,0.5235987755982988,0,-0.508362,0.99777764,-0.8015028,0.6882214,-0.5599049,0.7140719,-1.7617053,0.7465838,1.3969941,0.028410176,-0.1275248,0.17514245,1.265522,0.16092291
0.1,0.0,0.9999999999999999,0.0,0.5235987755982988,0,-0.50965065,0.9923907,-0.80146515,0.6886801,-0.56028485,0.71325845,-1.7541955,0.6395159,1.3056686,0.11143189,-0.06751554,0.1599102,1.259097,-0.96159196
0.1,0.0,0.9999999999999999,0.0,0.5235987755982988,0,-0.50716007,0.99694866,-0.8034321,0.6884706,-0.55921847,0.7127763,-1.7601023,0.25673854,1.2273185,0.11969169,-0.14955164,0.08104053,1.0779707,0.40502396
0.1,0.0,0.9999999999999999,0.0,0.5235987755982988,0,-0.5093079,0.9948482,-0.8025534,0.68855673,-0.560582,0.713754,-1.7547772,1.6952429,1.2376645,0.26289788,-0.089478105,-0.12131265,1.2553213,-1.5608786
0.1,0.0,0.9999999999999999,0.0,0.5235987755982988,0,-0.5083043,0.99271816,-0.8032311,0.68844473,-0.5624145,0.7124131,-1.7486565,0.12097281,1.4497632,0.477603,0.026641045,0.056467675,1.3100785,-1.1072085
0.1,0.0,0.9999999999999999,0.0,0.5235987755982988,0,-0.5094902,0.9963526,-0.80298704,0.6882821,-0.5616199,0.7131526,-1.7474847,-0.33551556,1.189315,0.28351355,-0.03713515,0.41071773,1.2441876,-0.8442748
0.1,0.0,0.9999999999999999,0.0,0.5235987755982988,0,-0.50888586,0.9954473,-0.80438393,0.6883057,-0.56214577,0.7133762,-1.7550491,0.9954717,1.2254546,-0.19918078,-0.051608674,-0.18219414,1.3555535,-0.043394048
