sanky1234/BimanualDexCatch/isaacgymenvs/cem_results/football_pose_-0.2_0.10000000000000003_0.6_-0.5235987755982988_-0.5235987755982988_0_2025-05-25.csv
x,y,z,roll,pitch,yaw,robot1/joint1,robot1/joint2,robot1/joint3,robot1/joint4,robot1/joint5,robot1/joint6,robot1/joint7,robot2/joint1,robot2/joint2,robot2/joint3,robot2/joint4,robot2/joint5,robot2/joint6,robot2/joint7
-0.2,0.10000000000000003,0.6,-0.5235987755982988,-0.5235987755982988,0,0.5242234,1.8195596,0.32209784,-1.0649003,0.36393514,1.5245479,-0.5524515,-1.5665876,1.3962408,0.7357134,0.007747501,-0.59514385,1.3062019,0.7424928
-0.2,0.10000000000000003,0.6,-0.5235987755982988,-0.5235987755982988,0,0.50832325,1.8077766,0.32185963,-1.0023092,0.3641826,1.5249788,-0.62354976,-1.5584408,1.4068142,0.7515629,-0.030095775,-0.61754507,1.2986336,0.81681883
-0.2,0.10000000000000003,0.6,-0.5235987755982988,-0.5235987755982988,0,0.5318179,1.7673851,0.33635747,-1.0512772,0.37747613,1.5574408,-0.6269369,-1.5833902,1.4123204,0.78129447,-0.02824987,-0.6303011,1.3361835,0.7787535
-0.2,0.10000000000000003,0.6,-0.5235987755982988,-0.5235987755982988,0,0.50435185,1.808739,0.33210996,-1.0676143,0.3196513,1.5607184,-0.5596565,-1.5842993,1.3832406,0.75902593,-0.03763404,-0.58581144,1.3332798,0.8733907
-0.2,0.10000000000000003,0.6,-0.5235987755982988,-0.5235987755982988,0,0.5242218,1.74776,0.31346795,-1.0377983,0.3228958,1.5481026,-0.8092853,-1.567165,1.4175919,0.7550639,-0.041912276,-0.61469877,1.3161157,0.775304
-0.2,0.10000000000000003,0.6,-0.5235987755982988,-0.5235987755982988,0,0.45135882,1.7731597,0.34348407,-0.9725943,0.352913,1.5111579,-0.6111564,-1.5622206,1.4090786,0.7341101,-0.012825483,-0.6024466,1.3038298,0.7380358
-0.2,0.10000000000000003,0.6,-0.5235987755982988,-0.5235987755982988,0,0.5370564,1.7930237,0.3056049,-1.0387946,0.40302363,1.5210311,-0.4984119,-1.5791526,1.4176043,0.71543515,-0.034098238,-0.5902274,1.2794081,0.8932641
-0.2,0.10000000000000003,0.6,-0.5235987755982988,-0.5235987755982988,0,0.45376688,1.8171072,0.34382933,-1.0228393,0.35518765,1.5205495,-0.51937336,-1.5855992,1.4307774,0.72583276,-0.03421246,-0.60622627,1.3087339,0.7920142
-0.2,0.10000000000000003,0.6,-0.5235987755982988,-0.5235987755982988,0,0.4435778,1.8231955,0.36318097,-1.0316286,0.34254372,1.56024,-0.50673366,-1.5781553,1.405304,0.7336691,-0.058571044,-0.59056854,1.3261867,0.83008355
-0.2,0.10000000000000003,0.6,-0.5235987755982988,-0.5235987755982988,0,0.47003555,1.8632182,0.3221655,-1.0446119,0.36553943,1.5437406,-0.860717,-1.5680418,1.3828413,0.75553674,-0.03763494,-0.63581324,1.2872268,0.8716392
-0.2,0.10000000000000003,0.6,-0.5235987755982988,-0.5235987755982988,0,0.47920585,1.8118402,0.3705599,-1.0445778,0.38564557,1.5399234,-0.64722663,-1.5896307,1.4135326,0.75980616,-0.05870155,-0.6151593,1.3113639,0.89854443
-0.2,0.10000000000000003,0.6,-0.5235987755982988,-0.5235987755982988,0,0.45232257,1.8167392,0.35733074,-1.0441349,0.37787235,1.5389284,-0.73916245,-1.5424099,1.3784181,0.7335569,-0.008274862,-0.61197895,1.2947087,0.7620265
-0.2,0.10000000000000003,0.6,-0.5235987755982988,-0.5235987755982988,0,0.5343263,1.7988074,0.33470505,-1.0740831,0.36904153,1.5265684,-0.75961894,-1.5937389,1.4133033,0.75332874,-0.022627842,-0.6003602,1.3088645,0.7991031
-0.2,0.10000000000000003,0.6,-0.5235987755982988,-0.5235987755982988,0,0.44928193,1.7772528,0.3141926,-1.0455439,0.3142768,1.5219045,-0.84329456,-1.6244899,1.3766853,0.71625656,-0.026891595,-0.61722285,1.3214178,0.865358
-0.2,0.10000000000000003,0.6,-0.5235987755982988,-0.5235987755982988,0,0.5355428,1.7594705,0.33885136,-1.0125566,0.30789995,1.4917262,-0.653414,-1.5205023,1.4003559,0.7205995,-0.024608465,-0.6252477,1.2967008,0.87933904
-0.2,0.10000000000000003,0.6,-0.5235987755982988,-0.5235987755982988,0,0.495026,1.848783,0.31291968,-1.0627961,0.36505243,1.5284708,-0.37977576,-1.5599545,1.4175469,0.72413254,-0.020723704,-0.61547977,1.303822,0.91693723
-0.2,0.10000000000000003,0.6,-0.5235987755982988,-0.5235987755982988,0,0.46904522,1.7872694,0.32584608,-1.0148884,0.3661058,1.5395004,-0.4886695,-1.5905788,1.3966899,0.76470643,-0.0418163,-0.6358301,1.3028201,0.84668356
-0.2,0.10000000000000003,0.6,-0.5235987755982988,-0.5235987755982988,0,0.47127402,1.8055211,0.34304762,-1.0277725,0.3415727,1.5159075,-0.5581675,-1.5660042,1.384001,0.747985,-0.03630583,-0.6194591,1.2864516,0.8239193
-0.2,0.10000000000000003,0.6,-0.5235987755982988,-0.5235987755982988,0,0.48373696,1.8426265,0.32935405,-1.0597303,0.38624245,1.5448332,-0.61775017,-1.5256869,1.4157033,0.73876077,-0.027265118,-0.6146901,1.3075734,0.92692715
-0.2,0.10000000000000003,0.6,-0.5235987755982988,-0.5235987755982988,0,0.5387284,1.7842852,0.3231684,-1.0474284,0.35859,1.5322068,-0.45093757,-1.5501949,1.3924696,0.76442266,-0.02433563,-0.6357295,1.3148342,0.9190059
-0.2,0.10000000000000003,0.6,-0.5235987755982988,-0.5235987755982988,0,0.45335177,1.8003585,0.33844793,-0.9908804,0.35934934,1.5259446,-0.54856104,-1.568035,1.4011433,0.7475585,-0.012601613,-0.60873675,1.2852693,0.80362296
-0.2,0.10000000000000003,0.6,-0.5235987755982988,-0.5235987755982988,0,0.46433517,1.8233546,0.35323656,-1.0351387,0.33797976,1.5278455,-0.67177004,-1.5353762,1.4240686,0.7066906,-0.056582235,-0.59247094,1.279904,0.75477916
-0.2,0.10000000000000003,0.6,-0.5235987755982988,-0.5235987755982988,0,0.4663849,1.8127735,0.321666,-0.98855746,0.31100604,1.5221946,-0.9397217,-1.5826392,1.4013213,0.7942116,-0.039887138,-0.6494255,1.3325638,0.8724829
-0.2,0.10000000000000003,0.6,-0.5235987755982988,-0.5235987755982988,0,0.5055369,1.8160856,0.32367325,-1.0312163,0.30689064,1.5184853,-0.41940686,-1.5646598,1.4207121,0.7560413,-0.03037994,-0.61844677,1.2969805,0.78553855
-0.2,0.10000000000000003,0.6,-0.5235987755982988,-0.5235987755982988,0,0.5038542,1.7734172,0.3283259,-1.0008931,0.34718075,1.5130774,-0.44064686,-1.5280259,1.4213766,0.7227179,-0.06325724,-0.5961038,1.3203905,0.76226753
-0.2,0.10000000000000003,0.6,-0.5235987755982988,-0.5235987755982988,0,0.44690862,1.8277822,0.33170584,-0.99047786,0.30451936,1.5316443,-0.484795,-1.5632037,1.4052407,0.73214924,-0.0052218493,-0.6030064,1.2801392,0.75547457
-0.2,0.10000000000000003,0.6,-0.5235987755982988,-0.5235987755982988,0,0.4886124,1.8428499,0.33855364,-1.0415835,0.3311998,1.528297,-0.94609517,-1.5701568,1.4134511,0.7331706,-0.0056895767,-0.61804795,1.3273157,0.84239626
-0.2,0.10000000000000003,0.6,-0.5235987755982988,-0.5235987755982988,0,0.5289065,1.8436221,0.3102393,-1.0290606,0.35502324,1.5331517,-0.4978868,-1.5932037,1.3926325,0.7536212,-0.05263323,-0.6195769,1.3194062,0.7284123
-0.2,0.10000000000000003,0.6,-0.5235987755982988,-0.5235987755982988,0,0.49738786,1.7826622,0.29682398,-1.1029099,0.33790392,1.5231923,-0.81583124,-1.5422055,1.4127828,0.6915683,-0.018759802,-0.63168055,1.3226879,0.798232
-0.2,0.10000000000000003,0.6,-0.5235987755982988,-0.5235987755982988,0,0.3963096,1.8122133,0.33927757,-0.9835143,0.36383176,1.5397378,-0.5368151,-1.5574347,1.4180391,0.70718205,-0.024137123,-0.59644014,1.3131558,0.8062704
-0.2,0.10000000000000003,0.6,-0.5235987755982988,-0.5235987755982988,0,0.40156388,1.8171309,0.3491708,-0.9716623,0.33012405,1.5275097,-0.40924522,-1.5647773,1.4156783,0.7191214,0.0054997248,-0.6085859,1.322607,0.77670133
-0.2,0.10000000000000003,0.6,-0.5235987755982988,-0.5235987755982988,0,0.48779783,1.723248,0.3403678,-1.0052927,0.27871704,1.5438566,-0.8466412,-1.5871692,1.4022683,0.66835415,0.00079734524,-0.5999664,1.3018034,0.91876256
-0.2,0.10000000000000003,0.6,-0.5235987755982988,-0.5235987755982988,0,0.47733077,1.8417944,0.33663407,-1.0139982,0.358549,1.5186176,-0.4523686,-1.5216227,1.3882122,0.6704052,-0.015534534,-0.61727077,1.3028278,0.8344436
-0.2,0.10000000000000003,0.6,-0.5235987755982988,-0.5235987755982988,0,0.4342926,1.8091644,0.3029489,-0.99850667,0.33863434,1.5413711,-0.3445631,-1.5393941,1.408708,0.65243214,-0.02049921,-0.60423934,1.298314,0.8783168
-0.2,0.10000000000000003,0.6,-0.5235987755982988,-0.5235987755982988,0,0.50987506,1.8322623,0.3407057,-1.1122912,0.34800044,1.5500382,-0.6959812,-1.5772034,1.4066072,0.6358827,0.015869796,-0.61671835,1.3000854,0.85492206
-0.2,0.10000000000000003,0.6,-0.5235987755982988,-0.5235987755982988,0,0.5017322,1.814304,0.29669684,-1.1172016,0.34366518,1.5451297,-1.1131147,-1.6149288,1.3969332,0.66624904,0.0106090605,-0.62061256,1.3313941,0.9514439
-0.2,0.10000000000000003,0.6,-0.5235987755982988,-0.5235987755982988,0,0.5576594,1.8008069,0.33905932,-1.1233858,0.3102074,1.5238584,-0.73671174,-1.5649145,1.4066854,0.61546504,-0.012566878,-0.6134986,1.2950475,0.90412545
-0.2,0.10000000000000003,0.6,-0.5235987755982988,-0.5235987755982988,0,0.4772366,1.8194126,0.33323318,-0.99207336,0.3239915,1.4920382,-1.1068765,-1.5978696,1.4061444,0.63316584,-0.029554572,-0.62553585,1.3149161,0.76549506
-0.2,0.10000000000000003,0.6,-0.5235987755982988,-0.5235987755982988,0,0.5076275,1.7591033,0.3464016,-1.0274776,0.34771097,1.532018,-0.6877299,-1.5632172,1.4197757,0.71150076,0.029864868,-0.6103306,1.3087804,0.8470334
-0.2,0.10000000000000003,0.6,-0.5235987755982988,-0.5235987755982988,0,0.41787973,1.8662984,0.3373042,-1.0277939,0.30619913,1.5399989,-0.7262553,-1.5711099,1.4156564,0.63708735,-0.042628385,-0.6152957,1.3183899,0.81942594
-0.2,0.10000000000000003,0.6,-0.5235987755982988,-0.5235987755982988,0,0.4478474,1.8473545,0.31668591,-1.0120816,0.33060643,1.5182105,-0.9073558,-1.5603939,1.406152,0.6564692,-0.036511254,-0.5999455,1.3041588,0.83225226
-0.2,0.10000000000000003,0.6,-0.5235987755982988,-0.5235987755982988,0,0.5640378,1.836185,0.31158996,-1.1623919,0.34036326,1.55659,-0.78088856,-1.5820453,1.4016469,0.74029934,-0.057507627,-0.619829,1.3629193,0.8854119
-0.2,0.10000000000000003,0.6,-0.5235987755982988,-0.5235987755982988,0,0.46930632,1.7843016,0.33059424,-1.0212232,0.34754023,1.5356573,-0.737982,-1.5938561,1.393431,0.6616512,-0.05714925,-0.5816356,1.3066972,0.78662163
-0.2,0.10000000000000003,0.6,-0.5235987755982988,-0.5235987755982988,0,0.51186013,1.7667814,0.35019433,-1.024576,0.28669968,1.5485365,-0.7282813,-1.5788726,1.4008774,0.62004876,0.00013243489,-0.5789701,1.2838383,0.8266269
-0.2,0.10000000000000003,0.6,-0.5235987755982988,-0.5235987755982988,0,0.50554377,1.8243482,0.30714056,-1.0627416,0.42463765,1.5552768,-0.654288,-1.57991,1.4027834,0.71394444,0.0031618767,-0.6089288,1.2952071,0.80226004
-0.2,0.10000000000000003,0.6,-0.5235987755982988,-0.5235987755982988,0,0.4906667,1.8138807,0.32644632,-1.0645485,0.33522666,1.568608,-1.0430042,-1.5676898,1.4142209,0.66208786,-0.005313779,-0.6137242,1.3178586,0.91839206
-0.2,0.10000000000000003,0.6,-0.5235987755982988,-0.5235987755982988,0,0.5493735,1.8179212,0.34007457,-1.0567411,0.31062427,1.4999036,-0.7252004,-1.6009188,1.4160395,0.6791848,0.019890096,-0.6214988,1.3179433,0.80965054
-0.2,0.10000000000000003,0.6,-0.5235987755982988,-0.5235987755982988,0,0.46626386,1.7601733,0.33181718,-0.9733706,0.3335508,1.522592,-0.7016149,-1.5960834,1.3905,0.7061927,-0.010537179,-0.6209321,1.315273,0.83056706
-0.2,0.10000000000000003,0.6,-0.5235987755982988,-0.5235987755982988,0,0.48175356,1.821744,0.33538,-1.0790999,0.33937585,1.5506641,-0.67940766,-1.5690254,1.4234425,0.74874026,0.03230833,-0.64818984,1.3066181,0.86188877
-0.2,0.10000000000000003,0.6,-0.5235987755982988,-0.5235987755982988,0,0.5328539,1.7649264,0.35180706,-1.0255393,0.2916104,1.5291865,-0.8171912,-1.5770761,1.4075142,0.6723275,-0.025294611,-0.61216533,1.3185668,0.8503838
-0.2,0.10000000000000003,0.6,-0.5235987755982988,-0.5235987755982988,0,0.47402358,1.8418306,0.30556667,-1.0481447,0.3588,1.5144165,-0.6838829,-1.5819079,1.3860959,0.67249787,-0.02522251,-0.6064644,1.3059175,0.75610083
-0.2,0.10000000000000003,0.6,-0.5235987755982988,-0.5235987755982988,0,0.5528018,1.8254195,0.33577737,-1.0873374,0.31911677,1.5170025,-0.59586024,-1.586719,1.4015324,0.70763004,0.015010336,-0.6018785,1.2959185,0.8939778
-0.2,0.10000000000000003,0.6,-0.5235987755982988,-0.5235987755982988,0,0.5444585,1.787806,0.3119327,-1.079903,0.34805515,1.5352709,-0.62364274,-1.5670326,1.4220642,0.724722,-0.035171114,-0.6028757,1.3240933,0.9093735
-0.2,0.10000000000000003,0.6,-0.5235987755982988,-0.5235987755982988,0,0.42719427,1.7685148,0.32753202,-1.0749989,0.33136222,1.5373924,-0.50190836,-1.5508395,1.4107864,0.64966464,-0.01211904,-0.61559016,1.3443905,0.8630668
-0.2,0.10000000000000003,0.6,-0.5235987755982988,-0.5235987755982988,0,0.5210469,1.7904571,0.32088447,-1.0569923,0.2821116,1.5435686,-0.93809724,-1.586049,1.4033233,0.77719575,-0.02390226,-0.6280256,1.3150084,0.8376932
-0.2,0.10000000000000003,0.6,-0.5235987755982988,-0.5235987755982988,0,0.5214502,1.8199067,0.32848987,-1.0714381,0.3775388,1.5355129,-0.26438785,-1.5563784,1.3871214,0.7032794,0.0033412434,-0.6145113,1.3223665,0.7275572
-0.2,0.10000000000000003,0.6,-0.5235987755982988,-0.5235987755982988,0,0.47803643,1.7735032,0.33394116,-1.0116013,0.3355754,1.5232087,-0.5598281,-1.5327854,1.4095737,0.7450153,-0.06042883,-0.6248926,1.3275186,0.8490075
-0.2,0.10000000000000003,0.6,-0.5235987755982988,-0.5235987755982988,0,0.5824731,1.7653286,0.31895718,-1.0480875,0.34764585,1.5097842,-0.46220496,-1.5683664,1.4136871,0.7463428,-0.03794477,-0.62016296,1.2709851,0.8554182
-0.2,0.10000000000000003,0.6,-0.5235987755982988,-0.5235987755982988,0,0.4040747,1.7952117,0.32972455,-0.97304696,0.36359447,1.5234064,-0.59942394,-1.5431007,1.3859653,0.7325038,-0.04475769,-0.6338931,1.3142045,0.81225556
-0.2,0.10000000000000003,0.6,-0.5235987755982988,-0.5235987755982988,0,0.4842942,1.8752308,0.30614823,-1.0171943,0.2944041,1.5142956,-0.769377,-1.5685031,1.398958,0.69873774,-0.021074684,-0.6257007,1.3209293,0.7847908
-0.2,0.10000000000000003,0.6,-0.5235987755982988,-0.5235987755982988,0,0.49931142,1.803317,0.3356272,-0.99415773,0.29962558,1.4582033,-0.735661,-1.5746819,1.3979824,0.69130105,0.01598207,-0.59811175,1.331768,0.8153364
-0.2,0.10000000000000003,0.6,-0.5235987755982988,-0.5235987755982988,0,0.512241,1.8291929,0.3409033,-1.0548971,0.3502374,1.5496835,-1.0446239,-1.5415547,1.3990676,0.7501878,-0.023539558,-0.6417457,1.3256979,0.82728404
-0.2,0.10000000000000003,0.6,-0.5235987755982988,-0.5235987755982988,0,0.46561256,1.809907,0.33728507,-1.0748823,0.31971002,1.5243815,-0.72978884,-1.5986128,1.4132357,0.6951863,-0.025661625,-0.618629,1.2912357,0.85764474
-0.2,0.10000000000000003,0.6,-0.5235987755982988,-0.5235987755982988,0,0.54806215,1.8430407,0.3258148,-1.1090965,0.37265176,1.5161785,-0.8745622,-1.5702183,1.4227058,0.68311226,-0.0043242057,-0.59369123,1.326797,0.7935592
-0.2,0.10000000000000003,0.6,-0.5235987755982988,-0.5235987755982988,0,0.4757858,1.7547473,0.3428431,-0.97817725,0.32884067,1.5227284,-0.71296614,-1.5488659,1.3819001,0.7643173,-0.013018391,-0.6261861,1.2983613,0.89676565
-0.2,0.10000000000000003,0.6,-0.5235987755982988,-0.5235987755982988,0,0.48859763,1.8064425,0.3400664,-1.038773,0.28837883,1.5519924,-0.8203797,-1.5838652,1.3938626,0.7757471,-0.010521874,-0.6153756,1.3137671,0.87414014
-0.2,0.10000000000000003,0.6,-0.5235987755982988,-0.5235987755982988,0,0.49837816,1.7524871,0.3123932,-1.0738639,0.310718,1.5072579,-0.53645474,-1.5710075,1.4205042,0.6343987,0.0018968284,-0.5941998,1.323056,0.8671817
-0.2,0.10000000000000003,0.6,-0.5235987755982988,-0.5235987755982988,0,0.48676378,1.7897794,0.36344013,-1.0494195,0.36572,1.5340871,-0.6839082,-1.5553395,1.4087076,0.7474594,-0.06273973,-0.6347022,1.291662,0.79315805
-0.2,0.10000000000000003,0.6,-0.5235987755982988,-0.5235987755982988,0,0.47778216,1.7965907,0.34644267,-1.0278041,0.27689984,1.5545857,-0.59179354,-1.5441974,1.3970685,0.6705868,-0.028754225,-0.6129615,1.2947868,0.8647638
-0.2,0.10000000000000003,0.6,-0.5235987755982988,-0.5235987755982988,0,0.51153076,1.7940749,0.30034274,-1.0560411,0.38775405,1.5144889,-0.84281176,-1.5781571,1.395334,0.6972661,-0.026491784,-0.61897075,1.3160552,0.8702721
-0.2,0.10000000000000003,0.6,-0.5235987755982988,-0.5235987755982988,0,0.51818603,1.8532411,0.29994512,-1.0593656,0.36357304,1.5116197,-0.7109284,-1.6054323,1.3920072,0.7126403,-0.062868826,-0.6034126,1.2902756,0.8276787
-0.2,0.10000000000000003,0.6,-0.5235987755982988,-0.5235987755982988,0,0.510611,1.7830244,0.34415874,-1.0583898,0.34709603,1.543193,-0.6950215,-1.5595845,1.4013138,0.72614634,0.03386179,-0.59754795,1.3262302,0.81210804
-0.2,0.10000000000000003,0.6,-0.5235987755982988,-0.5235987755982988,0,0.46996853,1.8336511,0.32505253,-0.9936072,0.3429347,1.5192413,-0.75944203,-1.561956,1.4182695,0.6951247,0.0035683808,-0.6004131,1.3172609,0.80127597
-0.2,0.10000000000000003,0.6,-0.5235987755982988,-0.5235987755982988,0,0.49309933,1.7897563,0.3642693,-1.0504926,0.3507785,1.5274483,-0.86453134,-1.5734696,1.4125255,0.773097,-0.009275005,-0.6482751,1.3097175,0.82303196
-0.2,0.10000000000000003,0.6,-0.5235987755982988,-0.5235987755982988,0,0.507754,1.7833228,0.3419419,-1.0603057,0.3329803,1.5674008,-0.7478225,-1.545766,1.4277216,0.7440437,0.010199508,-0.6105782,1.3233234,0.85645634
-0.2,0.10000000000000003,0.6,-0.5235987755982988,-0.5235987755982988,0,0.47790223,1.802408,0.33222622,-1.0104104,0.2920239,1.5069307,-0.87205356,-1.590049,1.4102322,0.70001245,-0.04291713,-0.60822976,1.3245105,0.8696784
-0.2,0.10000000000000003,0.6,-0.5235987755982988,-0.5235987755982988,0,0.51409924,1.7807063,0.34725255,-1.030968,0.30796853,1.5259124,-0.53575766,-1.5512954,1.4094739,0.74774,-0.069631405,-0.62023854,1.3165435,0.834792
-0.2,0.10000000000000003,0.6,-0.5235987755982988,-0.5235987755982988,0,0.55869144,1.7733804,0.35700658,-1.0686339,0.32543957,1.5261599,-0.6598412,-1.5499376,1.405515,0.75360525,-0.027816495,-0.63470525,1.2888952,0.8211754
-0.2,0.10000000000000003,0.6,-0.5235987755982988,-0.5235987755982988,0,0.48956552,1.79058,0.33174446,-1.050423,0.29510126,1.5457848,-0.83449215,-1.5376176,1.4047446,0.7320476,-0.054924633,-0.6255659,1.2913183,0.86766535
-0.2,0.10000000000000003,0.6,-0.5235987755982988,-0.5235987755982988,0,0.5232626,1.775233,0.33613434,-1.0277668,0.39976004,1.520117,-0.23902752,-1.5250391,1.4058751,0.74020493,-0.010274254,-0.6325683,1.322569,0.84682214
-0.2,0.10000000000000003,0.6,-0.5235987755982988,-0.5235987755982988,0,0.5290348,1.7529651,0.32011172,-1.0365196,0.33697525,1.5333085,-0.51453465,-1.6055647,1.4009022,0.79145515,-0.024734477,-0.65619004,1.3097442,0.88874716
-0.2,0.10000000000000003,0.6,-0.5235987755982988,-0.5235987755982988,0,0.47835895,1.8039844,0.35013255,-0.9992072,0.3426133,1.5266408,-0.5995294,-1.6086459,1.4052,0.7637319,-0.04496863,-0.60814434,1.3030055,0.88759774
-0.2,0.10000000000000003,0.6,-0.5235987755982988,-0.5235987755982988,0,0.49077037,1.759982,0.3842318,-0.9909003,0.32003695,1.4939473,-0.95107526,-1.545926,1.3990632,0.67387813,-0.02130362,-0.60735434,1.3197734,0.88574517
-0.2,0.10000000000000003,0.6,-0.5235987755982988,-0.5235987755982988,0,0.49241728,1.761214,0.30651993,-0.9967106,0.3618214,1.5312349,-0.505526,-1.5591406,1.4160777,0.75366706,-0.05723978,-0.6365938,1.2950083,0.7760216
-0.2,0.10000000000000003,0.6,-0.5235987755982988,-0.5235987755982988,0,0.48218462,1.804994,0.3024152,-1.0114523,0.35566804,1.5452609,-0.7608435,-1.5571728,1.405085,0.75242907,-0.05020316,-0.6063324,1.3182436,0.86007047
-0.2,0.10000000000000003,0.6,-0.5235987755982988,-0.5235987755982988,0,0.45706794,1.7683731,0.3265133,-0.95470804,0.34932038,1.493983,-0.57609963,-1.5686848,1.4060732,0.7576338,-0.026619328,-0.6163847,1.3028524,0.8199102
-0.2,0.10000000000000003,0.6,-0.5235987755982988,-0.5235987755982988,0,0.5339184,1.7855093,0.31398514,-1.0605309,0.38123456,1.5276667,-0.60930157,-1.5374343,1.4011947,0.74682665,-0.031017084,-0.62785864,1.3052524,0.78178376
-0.2,0.10000000000000003,0.6,-0.5235987755982988,-0.5235987755982988,0,0.54065883,1.7379656,0.32398802,-1.020267,0.40239182,1.511314,-1.0916755,-1.5582073,1.4151527,0.7444981,-0.063784525,-0.59776247,1.3186839,0.8197473
-0.2,0.10000000000000003,0.6,-0.5235987755982988,-0.5235987755982988,0,0.46638918,1.7705777,0.31112486,-0.9895186,0.2907748,1.481648,-0.87721086,-1.5857215,1.4173075,0.6738553,-0.037055466,-0.59298223,1.3181429,0.8149352
-0.2,0.10000000000000003,0.6,-0.5235987755982988,-0.5235987755982988,0,0.4891247,1.8060542,0.31404606,-1.0249866,0.26243064,1.5642372,-0.8801072,-1.568854,1.3950971,0.752089,-0.03409692,-0.6232773,1.3014742,0.75662804
-0.2,0.10000000000000003,0.6,-0.5235987755982988,-0.5235987755982988,0,0.49198171,1.784502,0.3247377,-1.0226533,0.34724596,1.5361946,-0.64474636,-1.5582423,1.4078838,0.76207566,-0.029060211,-0.63435596,1.2920883,0.82027376
-0.2,0.10000000000000003,0.6,-0.5235987755982988,-0.5235987755982988,0,0.4742758,1.7955165,0.3417574,-1.088461,0.3369659,1.5573766,-0.79836273,-1.5286946,1.3823477,0.7297935,-0.018057087,-0.58101535,1.3318899,0.8443275
-0.2,0.10000000000000003,0.6,-0.5235987755982988,-0.5235987755982988,0,0.45381325,1.7806844,0.3447762,-1.0312883,0.32632476,1.538629,-0.82677144,-1.5574595,1.4103559,0.6952143,-0.043180116,-0.60808146,1.3107706,0.92039764
-0.2,0.10000000000000003,0.6,-0.5235987755982988,-0.5235987755982988,0,0.4357237,1.7790669,0.3435821,-0.98929137,0.31592694,1.5111821,-0.6762746,-1.5454406,1.4066459,0.70562243,-0.019348359,-0.60970616,1.3156147,0.77337456
-0.2,0.10000000000000003,0.6,-0.5235987755982988,-0.5235987755982988,0,0.46441066,1.7645328,0.34130076,-1.0086637,0.3214613,1.5066383,-0.5475211,-1.589799,1.4014893,0.7013064,-0.02962931,-0.6454341,1.300969,0.7981183
-0.2,0.10000000000000003,0.6,-0.5235987755982988,-0.5235987755982988,0,0.46083644,1.7518803,0.3396521,-0.9903403,0.36736062,1.5414821,-0.3746313,-1.5658581,1.3936309,0.732867,-0.00644717,-0.63116604,1.277445,0.80945545
-0.2,0.10000000000000003,0.6,-0.5235987755982988,-0.5235987755982988,0,0.4618116,1.7278247,0.3362519,-0.97180957,0.34849134,1.5117522,-0.6743398,-1.5534608,1.412058,0.6522055,-0.011568463,-0.6169988,1.3036509,0.7882864
-0.2,0.10000000000000003,0.6,-0.5235987755982988,-0.5235987755982988,0,0.44743612,1.8382366,0.31991717,-0.98490953,0.34671205,1.5171555,-0.35419878,-1.543885,1.4139001,0.67656386,-0.023612084,-0.5842691,1.2831959,0.8555765
-0.2,0.10000000000000003,0.6,-0.5235987755982988,-0.5235987755982988,0,0.51682013,1.865444,0.3620764,-1.0540829,0.33804128,1.4857271,-0.71833944,-1.555,1.40555,0.6583479,-0.053130604,-0.6167431,1.3052868,0.86834484
-0.2,0.10000000000000003,0.6,-0.5235987755982988,-0.5235987755982988,0,0.4666122,1.786557,0.32677484,-1.0051879,0.34244347,1.5307505,-0.61043507,-1.5564432,1.4013991,0.6403443,-0.012488201,-0.61062086,1.3152057,0.84229493
-0.2,0.10000000000000003,0.6,-0.5235987755982988,-0.5235987755982988,0,0.5500246,1.7599827,0.3341715,-1.0843877,0.33467302,1.5359111,-0.9030821,-1.5759503,1.3915372,0.71463656,-0.033416647,-0.61848754,1.3252922,0.8684617
-0.2,0.10000000000000003,0.6,-0.5235987755982988,-0.5235987755982988,0,0.4566998,1.7876278,0.3126191,-1.0014181,0.3354187,1.5218186,-0.38558474,-1.5642954,1.405942,0.71214956,-0.057632234,-0.6002324,1.3088094,0.83733696
-0.2,0.10000000000000003,0.6,-0.5235987755982988,-0.5235987755982988,0,0.5446131,1.783476,0.30632234,-1.0557302,0.3536863,1.5110149,-0.64025676,-1.5692422,1.4084136,0.59772074,-0.012475806,-0.60558736,1.2935785,0.76917833
-0.2,0.10000000000000003,0.6,-0.5235987755982988,-0.5235987755982988,0,0.49055663,1.8061141,0.3233836,-1.020725,0.34313932,1.5272174,-0.62142384,-1.5588624,1.4200017,0.67409396,-0.039840486,-0.61947715,1.309004,0.804043
-0.2,0.10000000000000003,0.6,-0.5235987755982988,-0.5235987755982988,0,0.5532043,1.8247856,0.36049357,-1.1506495,0.3527064,1.5386374,-0.7234922,-1.5385118,1.3998162,0.6890299,-0.032122854,-0.62612545,1.3109767,0.7842874
-0.2,0.10000000000000003,0.6,-0.5235987755982988,-0.5235987755982988,0,0.4725581,1.7899308,0.3224692,-1.0184815,0.34788096,1.5368049,-0.48442677,-1.5632374,1.3957053,0.66998994,-0.027773622,-0.6178761,1.3248004,0.76835877
-0.2,0.10000000000000003,0.6,-0.5235987755982988,-0.5235987755982988,0,0.47876987,1.8097466,0.3392463,-1.0370343,0.34371495,1.5546238,-0.69077843,-1.590004,1.3967595,0.708467,0.004811371,-0.6354116,1.3167259,0.8121134
-0.2,0.10000000000000003,0.6,-0.5235987755982988,-0.5235987755982988,0,0.5132287,1.8249817,0.35282356,-1.0697078,0.2745616,1.5154836,-0.72243947,-1.603445,1.3900319,0.7299836,-0.03235614,-0.6293475,1.3091918,0.73272556
-0.2,0.10000000000000003,0.6,-0.5235987755982988,-0.5235987755982988,0,0.49859372,1.7964919,0.3167812,-1.0183371,0.34588945,1.5153674,-0.68092895,-1.60299,1.4074996,0.6538385,-0.011740935,-0.5875927,1.3179187,0.8763823
-0.2,0.10000000000000003,0.6,-0.5235987755982988,-0.5235987755982988,0,0.48728526,1.7547734,0.32909486,-0.9739728,0.32597157,1.5143442,-0.7725129,-1.5829072,1.4141917,0.6951966,-0.0071245604,-0.6122242,1.3203238,0.8479484
-0.2,0.10000000000000003,0.6,-0.5235987755982988,-0.5235987755982988,0,0.53331584,1.7835863,0.3341688,-1.0614328,0.38324925,1.5394094,-0.921395,-1.5750958,1.4049935,0.7267738,-0.021855496,-0.6253525,1.3213083,0.8864836
-0.2,0.10000000000000003,0.6,-0.5235987755982988,-0.5235987755982988,0,0.5289321,1.8629683,0.3124576,-1.0186824,0.35929278,1.5231786,-0.6716702,-1.5895017,1.4192232,0.6699463,-0.03435739,-0.62179977,1.2941724,0.90355515
-0.2,0.10000000000000003,0.6,-0.5235987755982988,-0.5235987755982988,0,0.49096143,1.8276833,0.32541612,-1.0936049,0.32974288,1.5482879,-0.7965353,-1.5632504,1.3682373,0.6719963,0.0070312484,-0.62830746,1.313906,0.82209074
-0.2,0.10000000000000003,0.6,-0.5235987755982988,-0.5235987755982988,0,0.54664123,1.836497,0.3254351,-1.07195,0.27242658,1.511079,-0.9335619,-1.5651153,1.3953696,0.65582925,-0.021321677,-0.61674917,1.2912157,0.8749167
-0.2,0.10000000000000003,0.6,-0.5235987755982988,-0.5235987755982988,0,0.52357864,1.7845881,0.34803113,-1.0395329,0.3409327,1.525927,-0.7258767,-1.5755862,1.3826873,0.6485012,-0.035383258,-0.60637957,1.2951027,0.854917
-0.2,0.10000000000000003,0.6,-0.5235987755982988,-0.5235987755982988,0,0.53362477,1.786435,0.32613328,-1.0185724,0.3955252,1.4797213,-0.64570045,-1.5689157,1.4112045,0.7351431,0.024193475,-0.6268139,1.2903185,0.85942125
-0.2,0.10000000000000003,0.6,-0.5235987755982988,-0.5235987755982988,0,0.5373482,1.7520155,0.35154447,-1.026475,0.29824948,1.5196838,-0.8341102,-1.5723573,1.4097754,0.6463958,-0.028921282,-0.6039269,1.3040379,0.9151259
-0.2,0.10000000000000003,0.6,-0.5235987755982988,-0.5235987755982988,0,0.58508444,1.8060285,0.35808423,-1.0708672,0.37818098,1.5449619,-0.80511236,-1.563185,1.4126145,0.7378626,0.013727574,-0.62938756,1.3149585,0.85067874
-0.2,0.10000000000000003,0.6,-0.5235987755982988,-0.5235987755982988,0,0.5017125,1.7884977,0.36377484,-1.0303181,0.37427732,1.5549355,-1.0267286,-1.5997362,1.4134226,0.785361,-0.024822364,-0.6191953,1.306835,0.89109707
-0.2,0.10000000000000003,0.6,-0.5235987755982988,-0.5235987755982988,0,0.48412752,1.8167725,0.35659727,-1.0562841,0.3430401,1.5422599,-0.7877741,-1.5771599,1.4061316,0.6707019,-0.027497744,-0.57281816,1.3098783,0.77724254
-0.2,0.10000000000000003,0.6,-0.5235987755982988,-0.5235987755982988,0,0.4349233,1.8484403,0.33161846,-0.9991732,0.36700457,1.5401864,-0.7000259,-1.5723733,1.4201741,0.6973326,-0.038113333,-0.6100439,1.3009889,0.7453159
-0.2,0.10000000000000003,0.6,-0.5235987755982988,-0.5235987755982988,0,0.4520549,1.8155819,0.32033738,-1.0513933,0.31383762,1.5548315,-0.31407118,-1.5729663,1.4152044,0.6902533,-0.027972946,-0.6264218,1.3058294,0.84551394
-0.2,0.10000000000000003,0.6,-0.5235987755982988,-0.5235987755982988,0,0.45253637,1.7860641,0.33577245,-0.993589,0.31252617,1.5307674,-0.80566233,-1.5619239,1.3939806,0.70493686,-0.027450757,-0.61694777,1.3134222,0.8623006
-0.2,0.10000000000000003,0.6,-0.5235987755982988,-0.5235987755982988,0,0.5731351,1.8190881,0.33045638,-1.1051277,0.329506,1.5174603,-0.6531737,-1.5888435,1.4092861,0.6838806,0.01898493,-0.60631233,1.2804698,0.8600317
-0.2,0.10000000000000003,0.6,-0.5235987755982988,-0.5235987755982988,0,0.5272101,1.8534262,0.33648226,-1.0074682,0.38984612,1.4153436,-0.8230409,-1.5233963,1.3943014,0.6322938,-0.032083627,-0.63493425,1.3276916,0.8255622
-0.2,0.10000000000000003,0.6,-0.5235987755982988,-0.5235987755982988,0,0.5331926,1.7744678,0.3299002,-1.0419643,0.2988273,1.5143696,-0.5763809,-1.5944046,1.390294,0.7263576,0.0040875096,-0.6199936,1.3414009,0.86158943
-0.2,0.10000000000000003,0.6,-0.5235987755982988,-0.5235987755982988,0,0.45500228,1.843014,0.31059244,-1.036797,0.35686338,1.555312,-0.5965185,-1.5569543,1.4102886,0.7069832,-0.0031163462,-0.59735626,1.3167369,0.88384664
-0.2,0.10000000000000003,0.6,-0.5235987755982988,-0.5235987755982988,0,0.47881234,1.8400906,0.33530152,-1.079501,0.3066131,1.5693785,-0.71324694,-1.5560311,1.4118702,0.6661978,-0.032330092,-0.6107636,1.2944986,0.9227524
-0.2,0.10000000000000003,0.6,-0.5235987755982988,-0.5235987755982988,0,0.48375863,1.7665237,0.31397092,-0.9781458,0.30481908,1.47107,-0.7738937,-1.5458199,1.4031638,0.64680684,-0.025374938,-0.6191077,1.3030523,0.9006576
-0.2,0.10000000000000003,0.6,-0.5235987755982988,-0.5235987755982988,0,0.47232834,1.7867248,0.32641602,-1.0504283,0.33824825,1.543249,-0.442963,-1.5880517,1.3935792,0.67802763,-0.00052966777,-0.6074515,1.3109978,0.7740016
-0.2,0.10000000000000003,0.6,-0.5235987755982988,-0.5235987755982988,0,0.4889337,1.8150289,0.28860417,-1.0519896,0.33644408,1.5415754,-0.96632564,-1.5606788,1.4148475,0.68897635,-0.014917688,-0.6409349,1.3247136,0.8481706
-0.2,0.10000000000000003,0.6,-0.5235987755982988,-0.5235987755982988,0,0.42531177,1.81203,0.34895763,-1.0240579,0.3437536,1.5306227,-0.46567595,-1.5423714,1.4163396,0.69789046,-0.022830721,-0.6255823,1.3077298,0.7621492
-0.2,0.10000000000000003,0.6,-0.5235987755982988,-0.5235987755982988,0,0.47523487,1.8486171,0.30599344,-1.0175588,0.36804336,1.5189469,-0.8178177,-1.5709794,1.3936169,0.69539124,-0.0385341,-0.59886813,1.3273714,0.843713
-0.2,0.10000000000000003,0.6,-0.5235987755982988,-0.5235987755982988,0,0.49052003,1.8536444,0.35915893,-1.0537368,0.30816376,1.516588,-0.82269293,-1.5445795,1.3989623,0.67012876,-0.02548936,-0.6146301,1.3242714,0.8334785
-0.2,0.10000000000000003,0.6,-0.5235987755982988,-0.5235987755982988,0,0.4979511,1.8052323,0.36354893,-1.0370952,0.30929583,1.5447387,-0.68220884,-1.5673422,1.4136392,0.67463523,-0.020936258,-0.6098092,1.3320096,0.82823133
-0.2,0.10000000000000003,0.6,-0.5235987755982988,-0.5235987755982988,0,0.4961406,1.8374307,0.32320377,-1.0424429,0.36871994,1.4994094,-0.5943423,-1.5913703,1.4022498,0.70781493,-0.037301388,-0.6352949,1.325133,0.8119936
-0.2,0.10000000000000003,0.6,-0.5235987755982988,-0.5235987755982988,0,0.5043615,1.7978395,0.33861256,-1.0364487,0.33327913,1.5185568,-0.8665081,-1.55205,1.4150193,0.65928274,-0.024895247,-0.61186475,1.2914646,0.867286
-0.2,0.10000000000000003,0.6,-0.5235987755982988,-0.5235987755982988,0,0.5100375,1.8171468,0.3387984,-1.0440472,0.38563234,1.5342989,-0.6757519,-1.564617,1.4075917,0.65965265,-0.004226723,-0.59841436,1.3181515,0.88768154
-0.2,0.10000000000000003,0.6,-0.5235987755982988,-0.5235987755982988,0,0.44385192,1.8199002,0.33990282,-1.0074608,0.3708086,1.5366126,-0.44748703,-1.5748186,1.411515,0.71189785,-0.01606672,-0.58094037,1.307935,0.81342447
-0.2,0.10000000000000003,0.6,-0.5235987755982988,-0.5235987755982988,0,0.5122668,1.7892346,0.3407862,-1.0505965,0.35323453,1.5656989,-0.56441754,-1.5149263,1.4064234,0.76054955,-0.044536106,-0.6309125,1.3050226,0.84535605
-0.2,0.10000000000000003,0.6,-0.5235987755982988,-0.5235987755982988,0,0.5294843,1.7782339,0.35980213,-1.0483828,0.34003115,1.5382776,-0.79753566,-1.5963013,1.4064467,0.73957056,-0.019034008,-0.6031549,1.2927924,0.86795497
-0.2,0.10000000000000003,0.6,-0.5235987755982988,-0.5235987755982988,0,0.53137916,1.8184642,0.33514205,-1.0386562,0.34029734,1.5588825,-0.2981642,-1.5669879,1.4037467,0.7319694,0.0013456295,-0.6148145,1.3401285,0.7883046
-0.2,0.10000000000000003,0.6,-0.5235987755982988,-0.5235987755982988,0,0.49894938,1.8046759,0.35323572,-1.0294875,0.32142937,1.5389327,-0.7157713,-1.5404077,1.4054517,0.68315655,-0.025572455,-0.6015484,1.319458,0.8509375
-0.2,0.10000000000000003,0.6,-0.5235987755982988,-0.5235987755982988,0,0.44680628,1.7846397,0.31753904,-1.0304506,0.37409082,1.5358791,-0.68691003,-1.549167,1.3913987,0.6808369,-0.023532404,-0.6144681,1.3109525,0.7538213
-0.2,0.10000000000000003,0.6,-0.5235987755982988,-0.5235987755982988,0,0.49378225,1.7672303,0.34386024,-1.0663065,0.3338655,1.4943299,-0.74350035,-1.5552523,1.4101819,0.5961813,-0.07454381,-0.6608088,1.3163843,0.7492048
-0.2,0.10000000000000003,0.6,-0.5235987755982988,-0.5235987755982988,0,0.5094844,1.793018,0.31766617,-1.0426718,0.30690265,1.5601125,-1.049831,-1.6000814,1.4009644,0.64785826,-0.018131878,-0.6360094,1.3193809,0.71841127
-0.2,0.10000000000000003,0.6,-0.5235987755982988,-0.5235987755982988,0,0.4396042,1.8062804,0.2896569,-0.99550873,0.33180645,1.5186229,-0.7381761,-1.5498668,1.4249874,0.64645725,-0.012183833,-0.587075,1.3143353,0.8648735
-0.2,0.10000000000000003,0.6,-0.5235987755982988,-0.5235987755982988,0,0.48788777,1.7804365,0.34198436,-1.0535095,0.33041686,1.5392071,-0.7336552,-1.5656338,1.3931416,0.6094688,-0.016617548,-0.6229436,1.3261213,0.80817926
-0.2,0.10000000000000003,0.6,-0.5235987755982988,-0.5235987755982988,0,0.43705153,1.7907653,0.3215932,-0.99324614,0.35147828,1.5438622,-0.6699487,-1.5685725,1.4278334,0.7491225,-0.037342597,-0.6224396,1.3036966,0.7800946
-0.2,0.10000000000000003,0.6,-0.5235987755982988,-0.5235987755982988,0,0.36513102,1.8231751,0.35788667,-0.9573953,0.34034985,1.5683795,-0.5104346,-1.5504768,1.3935143,0.6042533,-0.02312011,-0.6076447,1.2791678,0.84158117
-0.2,0.10000000000000003,0.6,-0.5235987755982988,-0.5235987755982988,0,0.50517607,1.7795137,0.31295636,-1.054753,0.35955665,1.5399523,-0.5204253,-1.5716311,1.4064285,0.6311116,-0.039634638,-0.65498346,1.2948197,0.80985844
-0.2,0.10000000000000003,0.6,-0.5235987755982988,-0.5235987755982988,0,0.5793112,1.7980993,0.303669,-1.0959855,0.36591047,1.5255271,-0.69397444,-1.5627058,1.3986022,0.63324964,-0.0044233296,-0.6154618,1.2687587,0.70040756
-0.2,0.10000000000000003,0.6,-0.5235987755982988,-0.5235987755982988,0,0.46864372,1.7727506,0.3735424,-0.99005616,0.34900895,1.5124785,-0.4022212,-1.5770748,1.4069722,0.5596294,0.014132365,-0.60760707,1.2886671,0.9068451
-0.2,0.10000000000000003,0.6,-0.5235987755982988,-0.5235987755982988,0,0.53445303,1.8036379,0.3123364,-1.1064051,0.2895628,1.5482247,-0.4794285,-1.5981296,1.386765,0.6702727,-0.008901204,-0.6140648,1.3270428,0.9053682
-0.2,0.10000000000000003,0.6,-0.5235987755982988,-0.5235987755982988,0,0.5240616,1.8171388,0.3520882,-1.073473,0.3450467,1.5261382,-0.57934135,-1.594006,1.390832,0.6398182,-0.024816414,-0.6130521,1.3122846,0.84825253
-0.2,0.10000000000000003,0.6,-0.5235987755982988,-0.5235987755982988,0,0.48365858,1.820738,0.34895512,-1.0770553,0.2722229,1.5627358,-0.6749015,-1.5825865,1.406659,0.70497555,-0.05341983,-0.64241004,1.309249,0.90280426
-0.2,0.10000000000000003,0.6,-0.5235987755982988,-0.5235987755982988,0,0.50316924,1.8033779,0.32230487,-1.0690142,0.28606907,1.5553987,-0.3087967,-1.5448295,1.4186617,0.68411356,-0.023633976,-0.6364509,1.3418424,0.68784815
-0.2,0.10000000000000003,0.6,-0.5235987755982988,-0.5235987755982988,0,0.5108063,1.7654016,0.3207575,-0.9704375,0.34789598,1.5107864,-0.58840257,-1.5499051,1.4009746,0.6754321,-0.002039836,-0.61518455,1.3053648,0.80785215
-0.2,0.10000000000000003,0.6,-0.5235987755982988,-0.5235987755982988,0,0.45907006,1.7711664,0.34310466,-0.9907506,0.35311186,1.5443826,-0.60212606,-1.5628521,1.4077381,0.6879478,-0.03047313,-0.6139714,1.2948525,0.9136205
-0.2,0.10000000000000003,0.6,-0.5235987755982988,-0.5235987755982988,0,0.47856182,1.8064647,0.32943246,-0.99722564,0.33049235,1.4924475,-0.69626933,-1.5863495,1.4196947,0.679766,-6.873527e-06,-0.6306609,1.2981482,0.8134308
-0.2,0.10000000000000003,0.6,-0.5235987755982988,-0.5235987755982988,0,0.51847005,1.7936536,0.3543468,-1.0777925,0.3400535,1.5553343,-0.6662018,-1.6081765,1.3937508,0.70722044,-0.013528659,-0.65367514,1.3069723,0.8398234
-0.2,0.10000000000000003,0.6,-0.5235987755982988,-0.5235987755982988,0,0.4969911,1.8189665,0.34097114,-1.0479585,0.42708826,1.5193896,-0.6933411,-1.5554547,1.4086428,0.66538143,-0.030844353,-0.6360799,1.3188379,0.8691143
-0.2,0.10000000000000003,0.6,-0.5235987755982988,-0.5235987755982988,0,0.5076785,1.8130151,0.3283252,-1.0492908,0.37739006,1.5515553,-0.6953484,-1.5486112,1.4006957,0.69216543,-0.030938355,-0.5997567,1.3301904,0.8709873
-0.2,0.10000000000000003,0.6,-0.5235987755982988,-0.5235987755982988,0,0.5483963,1.7978271,0.31564006,-1.0754755,0.31576416,1.5396671,-0.7167,-1.5651118,1.4087238,0.6684209,-0.0021775903,-0.6139116,1.3202115,0.9170036
-0.2,0.10000000000000003,0.6,-0.5235987755982988,-0.5235987755982988,0,0.4876457,1.8212507,0.32435563,-1.004218,0.30060497,1.4982944,-0.5713524,-1.5602299,1.3952037,0.66598636,-0.004008951,-0.6144864,1.3259689,0.903794
-0.2,0.10000000000000003,0.6,-0.5235987755982988,-0.5235987755982988,0,0.4548385,1.7888892,0.33861104,-1.0036159,0.30169615,1.5341402,-0.7157187,-1.5940655,1.4046273,0.7329893,-0.0020449266,-0.6138522,1.3058895,0.83643717
-0.2,0.10000000000000003,0.6,-0.5235987755982988,-0.5235987755982988,0,0.49574727,1.8262311,0.34895846,-1.061219,0.33474404,1.546024,-0.60376865,-1.5214236,1.3929334,0.64886576,-0.014916083,-0.62497723,1.3071612,0.9068432
-0.2,0.10000000000000003,0.6,-0.5235987755982988,-0.5235987755982988,0,0.5092395,1.8174442,0.2811102,-1.0672841,0.37780875,1.5596168,-0.73107386,-1.572844,1.4008406,0.66688114,-0.016199766,-0.59292775,1.2999104,0.8188057
-0.2,0.10000000000000003,0.6,-0.5235987755982988,-0.5235987755982988,0,0.49072778,1.8379145,0.34827682,-1.0864861,0.31138292,1.5439656,-0.62629586,-1.5919648,1.3958675,0.65324837,0.016341709,-0.60598373,1.310236,0.81286633
-0.2,0.10000000000000003,0.6,-0.5235987755982988,-0.5235987755982988,0,0.5056534,1.8052464,0.3368604,-1.0337485,0.33059642,1.5181112,-0.7715694,-1.6366062,1.4113457,0.6977982,0.018304994,-0.6366205,1.301497,0.7680097
-0.2,0.10000000000000003,0.6,-0.5235987755982988,-0.5235987755982988,0,0.4033556,1.8276049,0.3539113,-1.0152882,0.32275265,1.496348,-0.5773664,-1.5813912,1.3880253,0.61473185,-0.01339351,-0.63389546,1.2878975,0.9032791
-0.2,0.10000000000000003,0.6,-0.5235987755982988,-0.5235987755982988,0,0.49972555,1.8049845,0.34145916,-1.0501971,0.34989083,1.5462106,-0.5247009,-1.5687318,1.4170535,0.702826,-0.032845613,-0.60824484,1.307598,0.79169416
-0.2,0.10000000000000003,0.6,-0.5235987755982988,-0.5235987755982988,0,0.49111718,1.8227623,0.32852125,-1.0587145,0.3319782,1.5330074,-0.63434607,-1.6065972,1.3945758,0.73781735,-0.013530711,-0.63788474,1.316334,0.84404176
-0.2,0.10000000000000003,0.6,-0.5235987755982988,-0.5235987755982988,0,0.4780148,1.8199345,0.36041242,-1.0458978,0.34330222,1.5185816,-0.8238342,-1.6017923,1.3982853,0.66349185,-0.019882416,-0.60082376,1.2721068,0.84750897
-0.2,0.10000000000000003,0.6,-0.5235987755982988,-0.5235987755982988,0,0.4700164,1.8064672,0.3366487,-1.0431467,0.33988154,1.5435677,-0.89347535,-1.6047474,1.3860618,0.7045024,-0.03745866,-0.6000363,1.3104869,0.84518784
-0.2,0.10000000000000003,0.6,-0.5235987755982988,-0.5235987755982988,0,0.5340997,1.7750084,0.3122448,-1.0099354,0.33442485,1.550229,-0.4823881,-1.6039335,1.3969532,0.70474625,-0.026468927,-0.59153974,1.315507,0.8349972
-0.2,0.10000000000000003,0.6,-0.5235987755982988,-0.5235987755982988,0,0.45506942,1.8092188,0.34290856,-1.0263474,0.38391265,1.5394692,-0.57408196,-1.603454,1.3994919,0.71736234,-0.007968351,-0.6212396,1.3396999,0.7964024
-0.2,0.10000000000000003,0.6,-0.5235987755982988,-0.5235987755982988,0,0.50081253,1.7925918,0.3593309,-1.0306702,0.28689635,1.5394576,-0.60987645,-1.5360531,1.4062536,0.68239594,-0.017479315,-0.6290773,1.3034223,0.8142085
-0.2,0.10000000000000003,0.6,-0.5235987755982988,-0.5235987755982988,0,0.5207183,1.8227141,0.30809504,-1.0576112,0.37741864,1.5323848,-0.6074611,-1.5754204,1.3918841,0.68975645,-0.0046676723,-0.61782336,1.3254133,0.879175
-0.2,0.10000000000000003,0.6,-0.5235987755982988,-0.5235987755982988,0,0.51395583,1.7794868,0.34184366,-1.0509021,0.41668501,1.5580709,-0.6266429,-1.602716,1.4133956,0.6802721,-0.022341454,-0.5752474,1.2967856,0.79379344
-0.2,0.10000000000000003,0.6,-0.5235987755982988,-0.5235987755982988,0,0.5011331,1.7939084,0.3632495,-0.98994094,0.34615502,1.4800825,-0.75800335,-1.5614529,1.3732896,0.6715192,-0.011906752,-0.58817494,1.3373486,0.8192416
-0.2,0.10000000000000003,0.6,-0.5235987755982988,-0.5235987755982988,0,0.52726793,1.7611924,0.30434275,-1.0242909,0.35641676,1.5357815,-0.6406374,-1.5703567,1.409094,0.66688055,-0.02635195,-0.624399,1.3043953,0.8325739
-0.2,0.10000000000000003,0.6,-0.5235987755982988,-0.5235987755982988,0,0.48315656,1.8176056,0.31884775,-1.0210952,0.31365725,1.5223581,-0.52106875,-1.4961706,1.4086949,0.6358872,0.0069113704,-0.62601024,1.3319545,0.8904051
-0.2,0.10000000000000003,0.6,-0.5235987755982988,-0.5235987755982988,0,0.4762426,1.8680736,0.34366938,-1.024186,0.31498066,1.5162846,-0.20097879,-1.5417498,1.4107696,0.67676175,-0.019925307,-0.60224926,1.3259846,0.8663075
-0.2,0.10000000000000003,0.6,-0.5235987755982988,-0.5235987755982988,0,0.49604338,1.7565092,0.29320118,-0.9829269,0.37586167,1.5142372,-0.71693957,-1.5905296,1.4188023,0.669116,-0.04292262,-0.60005677,1.3294013,0.78002256
-0.2,0.10000000000000003,0.6,-0.5235987755982988,-0.5235987755982988,0,0.55809265,1.8034847,0.3391582,-1.0866811,0.34455472,1.5161622,-0.53653926,-1.5639343,1.3968812,0.70968586,-0.020208811,-0.6148232,1.2919335,0.8057807
-0.2,0.10000000000000003,0.6,-0.5235987755982988,-0.5235987755982988,0,0.52113557,1.8394864,0.3252805,-1.0778792,0.3525831,1.526036,-0.95220745,-1.5983843,1.3958961,0.73218805,-0.0014684875,-0.62224776,1.3084229,0.858238
-0.2,0.10000000000000003,0.6,-0.5235987755982988,-0.5235987755982988,0,0.5460431,1.7683145,0.3329924,-1.0345831,0.3092165,1.5142944,-0.71262944,-1.5776103,1.4136038,0.68388134,-0.025079552,-0.6105876,1.323741,0.80762327
-0.2,0.10000000000000003,0.6,-0.5235987755982988,-0.5235987755982988,0,0.5055635,1.8383697,0.37478054,-1.0155281,0.3103745,1.5168154,-0.6200787,-1.5860848,1.3908141,0.62036216,-0.011819324,-0.60309,1.3223692,0.8637582
-0.2,0.10000000000000003,0.6,-0.5235987755982988,-0.5235987755982988,0,0.5048171,1.8074067,0.32010734,-1.040501,0.37407205,1.5213679,-0.76225376,-1.6054507,1.4120035,0.68968135,-0.044495534,-0.5929335,1.3137878,0.83543295
-0.2,0.10000000000000003,0.6,-0.5235987755982988,-0.5235987755982988,0,0.4492224,1.8535576,0.3066442,-0.99219465,0.33082417,1.5337791,-0.7507349,-1.5706935,1.4098445,0.6850645,-0.020255618,-0.6198837,1.2873423,0.7874339
-0.2,0.10000000000000003,0.6,-0.5235987755982988,-0.5235987755982988,0,0.50777036,1.7643576,0.29553092,-1.0068122,0.2847848,1.5227247,-0.5771934,-1.5406547,1.4213002,0.68532425,-0.016939567,-0.64737314,1.3197658,0.81152767
-0.2,0.10000000000000003,0.6,-0.5235987755982988,-0.5235987755982988,0,0.49283722,1.8646474,0.32384282,-1.0554463,0.38586134,1.5271956,-0.53568876,-1.5616333,1.4150542,0.6545624,-0.048721798,-0.60210216,1.3136995,0.7560415
-0.2,0.10000000000000003,0.6,-0.5235987755982988,-0.5235987755982988,0,0.489544,1.7968962,0.3305701,-1.0153136,0.3400262,1.5200707,-0.49795872,-1.5482516,1.4006879,0.68124163,-0.06388132,-0.62956136,1.3139049,0.8325259
-0.2,0.10000000000000003,0.6,-0.5235987755982988,-0.5235987755982988,0,0.557574,1.7571257,0.3112629,-1.0418785,0.30634913,1.5389961,-0.83928335,-1.5456845,1.4089013,0.64606416,-0.032475814,-0.6153223,1.3117367,0.9248302
-0.2,0.10000000000000003,0.6,-0.5235987755982988,-0.5235987755982988,0,0.44296432,1.832369,0.32970017,-0.97459906,0.32344994,1.5154383,-0.5242949,-1.5478845,1.3838449,0.70563924,-0.018532027,-0.6170889,1.295566,0.71865976
-0.2,0.10000000000000003,0.6,-0.5235987755982988,-0.5235987755982988,0,0.46790895,1.7249801,0.34936395,-0.97713035,0.33321735,1.5550776,-0.7238082,-1.6037486,1.4091558,0.7085906,-0.016431345,-0.61910796,1.2953286,0.88146836
-0.2,0.10000000000000003,0.6,-0.5235987755982988,-0.5235987755982988,0,0.42863318,1.8468475,0.31997228,-0.9732381,0.33546767,1.5326428,-0.823196,-1.5323317,1.4199911,0.72522426,0.0040166145,-0.6084078,1.3227084,0.77324176
-0.2,0.10000000000000003,0.6,-0.5235987755982988,-0.5235987755982988,0,0.47094762,1.8128396,0.34342632,-1.0678778,0.33024147,1.5538151,-0.8804305,-1.5195204,1.4167472,0.64126784,-0.0211643,-0.6218392,1.3211188,0.90134305
-0.2,0.10000000000000003,0.6,-0.5235987755982988,-0.5235987755982988,0,0.4850102,1.8050313,0.33638582,-1.0202444,0.30396882,1.5455383,-0.68393093,-1.5639993,1.3870535,0.61037195,-0.0065838164,-0.61126745,1.3189396,0.84472966
-0.2,0.10000000000000003,0.6,-0.5235987755982988,-0.5235987755982988,0,0.49877623,1.8281599,0.31774205,-1.0503596,0.38490465,1.5146036,-0.6453917,-1.5404724,1.4135102,0.6177807,-0.015374944,-0.58113825,1.3179547,0.81295246
-0.2,0.10000000000000003,0.6,-0.5235987755982988,-0.5235987755982988,0,0.5080736,1.8439375,0.36145163,-1.0817258,0.2968755,1.4952093,-0.48147303,-1.555831,1.3859093,0.6153642,-0.052586388,-0.6074645,1.3185836,0.8145247
-0.2,0.10000000000000003,0.6,-0.5235987755982988,-0.5235987755982988,0,0.48370036,1.7913795,0.34579265,-1.0126983,0.3341455,1.556617,-0.4574205,-1.600657,1.4120705,0.68897504,-0.011686936,-0.62424505,1.330297,0.88545597
-0.2,0.10000000000000003,0.6,-0.5235987755982988,-0.5235987755982988,0,0.48183194,1.7807051,0.3335093,-1.0171125,0.35459578,1.5134689,-0.48978215,-1.5957793,1.4173418,0.7033829,-0.017735744,-0.64520586,1.2984488,0.8191307
-0.2,0.10000000000000003,0.6,-0.5235987755982988,-0.5235987755982988,0,0.5225506,1.8238698,0.31271327,-1.0996428,0.39404026,1.5262139,-0.6052873,-1.6272842,1.3886769,0.6699802,-0.028863808,-0.6029967,1.3060628,0.8038888
-0.2,0.10000000000000003,0.6,-0.5235987755982988,-0.5235987755982988,0,0.5400987,1.7940179,0.31430125,-1.0790263,0.33996004,1.5340624,-0.51460695,-1.5571693,1.3969586,0.6468609,-0.023839874,-0.64342314,1.3021286,0.87797666
-0.2,0.10000000000000003,0.6,-0.5235987755982988,-0.5235987755982988,0,0.53354436,1.7693515,0.35409626,-1.0544192,0.40124413,1.5547713,-0.6663911,-1.5708401,1.4158328,0.7142522,-0.010021739,-0.6200944,1.3075165,0.8147454
-0.2,0.10000000000000003,0.6,-0.5235987755982988,-0.5235987755982988,0,0.45627272,1.8115785,0.35884625,-1.0148826,0.3307707,1.5498395,-0.524516,-1.5766641,1.400124,0.6734839,0.00639119,-0.60311294,1.3006742,0.8103958
-0.2,0.10000000000000003,0.6,-0.5235987755982988,-0.5235987755982988,0,0.5433234,1.8214366,0.32752284,-1.0529757,0.30275375,1.525588,-0.5349956,-1.5849041,1.4214376,0.6746623,-0.015263951,-0.6209014,1.31504,0.9810476
-0.2,0.10000000000000003,0.6,-0.5235987755982988,-0.5235987755982988,0,0.5564845,1.8035164,0.33980614,-1.0719153,0.39748934,1.5359762,-0.84283644,-1.6246046,1.403729,0.614936,-0.04965271,-0.60607,1.3194394,0.8555259
-0.2,0.10000000000000003,0.6,-0.5235987755982988,-0.5235987755982988,0,0.55089074,1.8254737,0.33614162,-1.07949,0.4063685,1.5375179,-0.41296273,-1.5283451,1.3952918,0.6200313,-0.017226882,-0.6078853,1.3023692,0.78558856
-0.2,0.10000000000000003,0.6,-0.5235987755982988,-0.5235987755982988,0,0.54372275,1.7990632,0.3656613,-1.0392658,0.34364346,1.5316699,-0.64878464,-1.5697821,1.4226333,0.6495313,-0.015148878,-0.5784615,1.311548,0.82514036
-0.2,0.10000000000000003,0.6,-0.5235987755982988,-0.5235987755982988,0,0.54065466,1.7738074,0.3306797,-1.0431372,0.39753905,1.5240769,-0.5183062,-1.5420527,1.3917536,0.617974,0.003967402,-0.6123099,1.3074118,0.8568671
-0.2,0.10000000000000003,0.6,-0.5235987755982988,-0.5235987755982988,0,0.5391929,1.8030794,0.37028846,-1.0312014,0.32613993,1.5290805,-0.43166408,-1.5665456,1.4089651,0.71702904,-0.021647552,-0.61581045,1.3303245,0.8795221
-0.2,0.10000000000000003,0.6,-0.5235987755982988,-0.5235987755982988,0,0.5018807,1.842861,0.3597914,-1.0621251,0.33436432,1.5212742,-0.57330036,-1.5559485,1.4340992,0.65653795,-0.017286114,-0.59352094,1.3224883,0.82147855
-0.2,0.10000000000000003,0.6,-0.5235987755982988,-0.5235987755982988,0,0.5603351,1.7956989,0.32741284,-1.018721,0.31541583,1.5117991,-0.4224678,-1.5973842,1.3996552,0.6678504,0.00022101645,-0.5869653,1.3095888,0.87669426
-0.2,0.10000000000000003,0.6,-0.5235987755982988,-0.5235987755982988,0,0.49218935,1.810276,0.32390362,-1.0633837,0.3289613,1.5498497,-0.7843206,-1.6034921,1.4094725,0.7189613,-0.00116493,-0.632652,1.3337519,0.79541445
-0.2,0.10000000000000003,0.6,-0.5235987755982988,-0.5235987755982988,0,0.5302412,1.7458729,0.3605389,-1.0113777,0.36163267,1.5152346,-0.74562347,-1.5429237,1.4072427,0.68660736,-0.018192898,-0.61612684,1.3078486,0.7955262
-0.2,0.10000000000000003,0.6,-0.5235987755982988,-0.5235987755982988,0,0.53208315,1.8118994,0.347168,-1.0403775,0.33473128,1.526564,-0.4731163,-1.5502093,1.4090563,0.6494273,-0.012194013,-0.6135139,1.3002595,0.8878884
-0.2,0.10000000000000003,0.6,-0.5235987755982988,-0.5235987755982988,0,0.50709987,1.8250742,0.31282184,-1.0555043,0.3366009,1.5218577,-0.5401144,-1.6081485,1.3928083,0.64407885,0.009374108,-0.60170734,1.3308927,0.7976237
-0.2,0.10000000000000003,0.6,-0.5235987755982988,-0.5235987755982988,0,0.39030778,1.8131818,0.3517066,-0.97385794,0.33408263,1.5550363,-0.67691857,-1.5695908,1.4040031,0.72387683,-0.020606946,-0.5967742,1.2832904,0.94593954
-0.2,0.10000000000000003,0.6,-0.5235987755982988,-0.5235987755982988,0,0.47523576,1.8172657,0.32625517,-0.99726343,0.31914997,1.5054488,-0.63261175,-1.56016,1.4000046,0.6457168,-0.009698549,-0.61414903,1.3193378,0.8731632
-0.2,0.10000000000000003,0.6,-0.5235987755982988,-0.5235987755982988,0,0.47841227,1.8293719,0.30997768,-1.0305836,0.33207202,1.5434792,-0.54422355,-1.5811472,1.4016212,0.67948914,-0.05129672,-0.618352,1.303231,0.7908444
-0.2,0.10000000000000003,0.6,-0.5235987755982988,-0.5235987755982988,0,0.45224726,1.7864351,0.31612366,-1.0063043,0.28704458,1.5072775,-0.5684756,-1.5597043,1.4110266,0.6881759,-0.0029634323,-0.6311496,1.2984,0.7567582
-0.2,0.10000000000000003,0.6,-0.5235987755982988,-0.5235987755982988,0,0.45174327,1.7976823,0.32024246,-1.0362648,0.31781346,1.5444393,-0.91653943,-1.5753458,1.419386,0.71270484,0.0014348016,-0.61595356,1.3094625,0.75822484
-0.2,0.10000000000000003,0.6,-0.5235987755982988,-0.5235987755982988,0,0.5076571,1.735387,0.34458795,-1.0339289,0.3312266,1.5142059,-0.9161495,-1.5484798,1.4114001,0.66111237,-0.025282545,-0.6263738,1.3050075,0.80855227
-0.2,0.10000000000000003,0.6,-0.5235987755982988,-0.5235987755982988,0,0.42927316,1.8053627,0.34642437,-0.98539734,0.32642776,1.5248828,-0.65527034,-1.5623904,1.424548,0.58075136,-0.0356722,-0.60423344,1.2958729,0.796062
-0.2,0.10000000000000003,0.6,-0.5235987755982988,-0.5235987755982988,0,0.42222401,1.78289,0.356171,-0.9864864,0.34160534,1.5385566,-0.52174693,-1.5889837,1.4127126,0.68963647,-0.019431667,-0.6138686,1.347578,0.6794602
-0.2,0.10000000000000003,0.6,-0.5235987755982988,-0.5235987755982988,0,0.5371004,1.7846178,0.32111168,-1.0638682,0.3019972,1.5506953,-0.6416233,-1.5796345,1.4006238,0.6070446,-0.06400499,-0.6246917,1.316582,0.8630323
-0.2,0.10000000000000003,0.6,-0.5235987755982988,-0.5235987755982988,0,0.4112381,1.8212378,0.35916334,-0.9995999,0.38894218,1.5187386,-0.5041823,-1.540693,1.3929932,0.6763458,0.015548489,-0.602061,1.3193367,0.74418443
-0.2,0.10000000000000003,0.6,-0.5235987755982988,-0.5235987755982988,0,0.48372483,1.800437,0.33361372,-1.0309788,0.3239235,1.545491,-0.7759498,-1.610076,1.4059812,0.64869386,-0.008816728,-0.63118976,1.3294233,0.7757861
-0.2,0.10000000000000003,0.6,-0.5235987755982988,-0.5235987755982988,0,0.5197087,1.7683643,0.33730122,-1.0461243,0.35937047,1.5354849,-0.71872777,-1.5700867,1.4073523,0.6258749,-0.031656556,-0.6326934,1.3402361,0.83497006
-0.2,0.10000000000000003,0.6,-0.5235987755982988,-0.5235987755982988,0,0.49843222,1.7804087,0.3330988,-1.0641702,0.36015996,1.5521986,-0.77825445,-1.5749902,1.406945,0.65116006,0.0038644301,-0.6130961,1.3076984,0.877474
-0.2,0.10000000000000003,0.6,-0.5235987755982988,-0.5235987755982988,0,0.43312946,1.7887145,0.2994565,-0.98882556,0.35423452,1.527136,-0.51834244,-1.5419698,1.3969804,0.6660816,-0.052014552,-0.634496,1.3152527,0.83776975
-0.2,0.10000000000000003,0.6,-0.5235987755982988,-0.5235987755982988,0,0.5515533,1.7658982,0.3464825,-1.0705478,0.34182432,1.5312445,-0.81999236,-1.5268044,1.420758,0.64373744,-0.016379166,-0.5959054,1.317263,0.918276
-0.2,0.10000000000000003,0.6,-0.5235987755982988,-0.5235987755982988,0,0.51489043,1.8059328,0.32626468,-1.074479,0.34662268,1.5530449,-0.7201072,-1.5429138,1.4121968,0.65399426,-0.03295397,-0.6054491,1.2954019,0.835173
-0.2,0.10000000000000003,0.6,-0.5235987755982988,-0.5235987755982988,0,0.4556734,1.8037959,0.3233871,-1.0033143,0.34742492,1.5427153,-0.4618706,-1.6249987,1.4055024,0.74684036,0.011294719,-0.6535988,1.3077353,0.7658845
-0.2,0.10000000000000003,0.6,-0.5235987755982988,-0.5235987755982988,0,0.48389027,1.7928964,0.32671753,-1.0621634,0.2961086,1.516602,-0.42499378,-1.5827053,1.3911561,0.63571525,0.0431539,-0.6087385,1.3107924,0.780294
-0.2,0.10000000000000003,0.6,-0.5235987755982988,-0.5235987755982988,0,0.49611488,1.7618604,0.34144154,-1.0268257,0.31247324,1.5510638,-0.8946366,-1.5668085,1.3896011,0.5794822,-0.019464795,-0.6102348,1.2986323,0.8204409
-0.2,0.10000000000000003,0.6,-0.5235987755982988,-0.5235987755982988,0,0.44323513,1.7815388,0.3205708,-1.0232557,0.33290517,1.5307145,-0.7675721,-1.5296613,1.4018469,0.6113382,0.003636911,-0.58264655,1.3226671,0.7615361
-0.2,0.10000000000000003,0.6,-0.5235987755982988,-0.5235987755982988,0,0.41670278,1.7974564,0.3296734,-0.9978406,0.34180418,1.5261422,-0.5098987,-1.5262119,1.41539,0.6985759,-0.051473506,-0.6310115,1.3146414,0.8914337
-0.2,0.10000000000000003,0.6,-0.5235987755982988,-0.5235987755982988,0,0.48622787,1.7722259,0.3293124,-1.0290807,0.3918033,1.564301,-0.45193905,-1.5951524,1.4235612,0.6041495,-0.013392358,-0.6391091,1.310516,0.8296224
-0.2,0.10000000000000003,0.6,-0.5235987755982988,-0.5235987755982988,0,0.48360586,1.7830951,0.31927514,-0.9920435,0.33105654,1.5539274,-0.6211713,-1.5848958,1.4071219,0.6630136,-0.030215105,-0.6266849,1.3134707,0.7477605
-0.2,0.10000000000000003,0.6,-0.5235987755982988,-0.5235987755982988,0,0.4578849,1.8152134,0.3225487,-1.0332944,0.31250563,1.5009855,-0.5518413,-1.580397,1.4037758,0.63446176,-0.039821144,-0.6387147,1.2930088,0.7827812
-0.2,0.10000000000000003,0.6,-0.5235987755982988,-0.5235987755982988,0,0.5209611,1.8064818,0.32411125,-1.0407352,0.37016988,1.5348957,-0.47821158,-1.5581986,1.4077556,0.62583137,-0.01691037,-0.62528694,1.3129573,0.81464154
-0.2,0.10000000000000003,0.6,-0.5235987755982988,-0.5235987755982988,0,0.492457,1.7959156,0.34545317,-1.0208077,0.31458846,1.5232189,-0.45758748,-1.5471396,1.4164119,0.62429905,-0.013731546,-0.61183244,1.3130502,0.8156081
-0.2,0.10000000000000003,0.6,-0.5235987755982988,-0.5235987755982988,0,0.5165659,1.7986301,0.35048833,-1.0461934,0.38739148,1.5349584,-0.72226554,-1.5923758,1.3982908,0.6837715,-0.021223776,-0.61952484,1.3301036,0.839117
-0.2,0.10000000000000003,0.6,-0.5235987755982988,-0.5235987755982988,0,0.42014647,1.8110325,0.31131017,-0.99791557,0.31776345,1.5241804,-0.17333464,-1.5733497,1.38838,0.6322154,-0.0070802853,-0.62148565,1.3199103,0.85419345
-0.2,0.10000000000000003,0.6,-0.5235987755982988,-0.5235987755982988,0,0.42978746,1.7958469,0.30340052,-0.9817251,0.33292148,1.5237539,-0.6143583,-1.5513684,1.3994734,0.6419937,-0.030511808,-0.62200606,1.3269266,0.8093907
-0.2,0.10000000000000003,0.6,-0.5235987755982988,-0.5235987755982988,0,0.4056731,1.8174281,0.33123755,-0.98666424,0.29429215,1.5283617,-0.26392102,-1.5536151,1.3967448,0.61922723,-0.0115754595,-0.62071925,1.3228474,0.8051213
-0.2,0.10000000000000003,0.6,-0.5235987755982988,-0.5235987755982988,0,0.4476895,1.7690865,0.32141104,-0.9787699,0.29422677,1.5362122,-1.079624,-1.5384493,1.4201648,0.6557447,-0.045622922,-0.6249988,1.299106,0.7933723
-0.2,0.10000000000000003,0.6,-0.5235987755982988,-0.5235987755982988,0,0.45025694,1.7902495,0.32000002,-0.9938279,0.35647136,1.5065072,-0.80889875,-1.5599349,1.4132392,0.6309945,-0.051407427,-0.59358084,1.3255644,0.8228468
-0.2,0.10000000000000003,0.6,-0.5235987755982988,-0.5235987755982988,0,0.5457271,1.7433214,0.32391867,-0.96668935,0.3290028,1.495926,-0.69957846,-1.5268003,1.3943812,0.6505914,-0.014521646,-0.6113204,1.3078226,0.77218175
-0.2,0.10000000000000003,0.6,-0.5235987755982988,-0.5235987755982988,0,0.41118997,1.8027333,0.3592406,-1.0092547,0.30283973,1.5504332,-0.7004477,-1.5245578,1.3948011,0.6449425,0.010488438,-0.6093053,1.3328209,0.91746455
-0.2,0.10000000000000003,0.6,-0.5235987755982988,-0.5235987755982988,0,0.41251305,1.7843871,0.37254888,-0.9765141,0.33047456,1.5369914,-0.694493,-1.6245246,1.4238622,0.66264814,-0.036041588,-0.6274965,1.2896897,0.8973827
-0.2,0.10000000000000003,0.6,-0.5235987755982988,-0.5235987755982988,0,0.40575036,1.8120552,0.31899437,-0.9795197,0.34469885,1.5437505,-0.60576034,-1.5448272,1.4041966,0.6228031,0.040129498,-0.6253578,1.3317978,0.8464811
