sanky1234/BimanualDexCatch/isaacgymenvs/cem_results/football_pose_-0.1_-0.1_0.7999999999999999_0.0_0.0_0_2025-05-25.csv
x,y,z,roll,pitch,yaw,robot1/joint1,robot1/joint2,robot1/joint3,robot1/joint4,robot1/joint5,robot1/joint6,robot1/joint7,robot2/joint1,robot2/joint2,robot2/joint3,robot2/joint4,robot2/joint5,robot2/joint6,robot2/joint7
-0.1,-0.1,0.7999999999999999,0.0,0.0,0,-2.9214194,1.6621859,-0.43013722,-0.3706454,0.12323363,1.0543358,-0.35669336,-0.5737894,1.0975887,0.044414997,-0.048882224,0.25043905,1.5224705,1.5149821
-0.1,-0.1,0.7999999999999999,0.0,0.0,0,-3.000775,1.6277364,-0.5722053,-0.2246937,-0.009108037,1.0580418,-0.119334325,-0.39625344,1.0679647,0.047615536,0.01655647,0.23611149,1.5278405,1.5581517
-0.1,-0.1,0.7999999999999999,0.0,0.0,0,-2.879005,1.6126126,-0.4586105,-0.2526392,-0.0802621,1.0455582,-0.19318658,-0.43035737,1.0908259,0.053443875,-0.009985865,0.29903546,1.5609314,1.573465
-0.1,-0.1,0.7999999999999999,0.0,0.0,0,-2.8014028,1.6431859,-0.5161258,-0.34414712,-0.108437456,1.0721099,0.24304627,-0.59117013,1.1126738,0.045778397,-0.022272656,0.28175384,1.5440964,1.5485175
-0.1,-0.1,0.7999999999999999,0.0,0.0,0,-2.7358065,1.6481358,-0.43402606,-0.28502515,0.057705715,1.0793912,-0.21097328,-0.48078665,1.0857093,0.026272217,-0.103734694,0.30201793,1.544473,1.5475497
-0.1,-0.1,0.7999999999999999,0.0,0.0,0,-2.911167,1.5742348,-0.3946213,-0.38908336,0.11720265,1.1707926,-0.124413945,-0.55917966,1.0625854,0.03594006,-0.07593907,0.17156425,1.5472561,1.5407704
-0.1,-0.1,0.7999999999999999,0.0,0.0,0,-2.753157,1.7152205,-0.4283622,-0.3880682,0.11108937,1.1153295,-0.31566945,-0.5478532,1.1065072,0.047386386,-0.11357052,0.24418326,1.5278094,1.5408415
-0.1,-0.1,0.7999999999999999,0.0,0.0,0,-2.8918402,1.6456864,-0.4295799,-0.285884,-0.097776,0.99580944,-0.19918676,-0.6344774,1.1069344,0.04142672,-0.13095237,0.18837637,1.5426357,1.5304813
-0.1,-0.1,0.7999999999999999,0.0,0.0,0,-2.9283392,1.6345062,-0.38480392,-0.33434933,-0.05937763,1.0867448,-0.11322154,-0.51682484,1.0995928,0.033063628,-0.11579461,0.28483927,1.5432472,1.5391662
-0.1,-0.1,0.7999999999999999,0.0,0.0,0,-2.8828292,1.6423801,-0.4423968,-0.2515389,-0.28619686,1.0945245,-0.11898298,-0.41242868,1.0932835,0.038761076,0.015455652,0.2544492,1.5551934,1.4996753
-0.1,-0.1,0.7999999999999999,0.0,0.0,0,-2.7614126,1.6376479,-0.48464802,-0.25045928,-0.03936795,1.0313282,0.036423005,-0.69190913,1.0793962,0.041221753,-0.20981528,0.15485808,1.5435965,1.5554632
-0.1,-0.1,0.7999999999999999,0.0,0.0,0,-2.8625257,1.7425632,-0.49000093,-0.36272168,-0.0002176689,1.0150474,-0.2630391,-0.5361169,1.053271,0.021011665,-0.098541014,0.34562585,1.5470114,1.5576731
-0.1,-0.1,0.7999999999999999,0.0,0.0,0,-2.9403918,1.4862975,-0.3695057,-0.24395108,0.07623916,1.0687628,-0.056470137,-0.6687397,1.1122874,0.057351112,-0.098301746,0.25785148,1.5366057,1.56489
-0.1,-0.1,0.7999999999999999,0.0,0.0,0,-2.91957,1.5617323,-0.29494354,-0.31931636,0.07760449,1.0358729,0.03457763,-0.59282094,1.094435,0.05870662,-0.09904744,0.23412015,1.5507779,1.5391942
-0.1,-0.1,0.7999999999999999,0.0,0.0,0,-2.9417865,1.6154989,-0.486108,-0.2525987,0.10837787,0.9451615,-0.22271809,-0.49600184,1.0635649,0.056042843,-0.083685346,0.27500883,1.5386201,1.5401317
-0.1,-0.1,0.7999999999999999,0.0,0.0,0,-2.9863963,1.6333313,-0.4528051,-0.29010606,0.049524922,0.94770414,-0.37199324,-0.5214061,1.0829717,0.06794567,-0.1178221,0.1622652,1.5225155,1.5165473
-0.1,-0.1,0.7999999999999999,0.0,0.0,0,-2.8488178,1.6112678,-0.41994613,-0.260362,0.24161854,1.040774,-0.30074516,-0.7122239,1.0864737,0.058959063,-0.14991377,0.30905533,1.52275,1.5478594
-0.1,-0.1,0.7999999999999999,0.0,0.0,0,-2.9889805,1.7400618,-0.39869577,-0.4624132,-0.11171626,1.1118914,0.12331386,-0.53029734,1.071287,0.033557873,-0.105289705,0.22841708,1.5451636,1.5317134
-0.1,-0.1,0.7999999999999999,0.0,0.0,0,-2.804397,1.5862962,-0.4382519,-0.3226819,0.14076935,1.0890316,0.0013720351,-0.5876982,1.0795906,0.04803616,0.0041183033,0.20595798,1.5453876,1.5794863
-0.1,-0.1,0.7999999999999999,0.0,0.0,0,-3.0809968,1.5584253,-0.5626918,-0.23942542,-0.05657277,1.1163611,-0.10372563,-0.49611112,1.0583544,0.032120027,0.02594757,0.3061739,1.536555,1.5244312
-0.1,-0.1,0.7999999999999999,0.0,0.0,0,-2.7888331,1.5961428,-0.38524297,-0.27591392,-0.063571155,1.061618,-0.23686558,-0.6790314,1.1141062,0.058981206,-0.054246645,0.27798223,1.5360432,1.4832886
-0.1,-0.1,0.7999999999999999,0.0,0.0,0,-2.99588,1.6326447,-0.3115238,-0.34400216,-0.08058543,1.0318251,-0.020043824,-0.6119581,1.1012808,0.046628565,-0.13687958,0.14793348,1.5665531,1.5180037
-0.1,-0.1,0.7999999999999999,0.0,0.0,0,-3.0050712,1.5921695,-0.5182088,-0.34327522,-0.04901096,1.060186,-0.19969289,-0.57566273,1.0716168,0.054537807,0.006787166,0.2306716,1.5432351,1.5381404
-0.1,-0.1,0.7999999999999999,0.0,0.0,0,-2.7796514,1.6923013,-0.42248607,-0.36637038,0.17157242,1.0284871,0.051098373,-0.48252505,1.0540904,0.0485977,-0.0014793926,0.2970566,1.5422409,1.5558232
-0.1,-0.1,0.7999999999999999,0.0,0.0,0,-2.9574528,1.5925432,-0.46340024,-0.29085207,0.075377785,1.0260696,-0.10862219,-0.4963749,1.0939813,0.049825538,-0.09150861,0.1494486,1.5469714,1.5677526
-0.1,-0.1,0.7999999999999999,0.0,0.0,0,-2.7159545,1.5935827,-0.4410727,-0.28863212,0.083302245,1.0684086,0.2582264,-0.6981715,1.069674,0.048296575,-0.13031153,0.19675669,1.5578984,1.5206947
-0.1,-0.1,0.7999999999999999,0.0,0.0,0,-2.8425436,1.549653,-0.31510812,-0.2578992,0.046199836,0.98385,0.018712936,-0.6173205,1.0760293,0.037823297,-0.092886046,0.30810815,1.547941,1.552748
-0.1,-0.1,0.7999999999999999,0.0,0.0,0,-2.7203774,1.6288525,-0.56754583,-0.20741537,-0.053566564,0.98377824,0.037546612,-0.584063,1.0949206,0.039086282,0.025062049,0.38485327,1.5423336,1.5373528
-0.1,-0.1,0.7999999999999999,0.0,0.0,0,-2.9051554,1.4986213,-0.3604575,-0.27183154,0.07383667,1.0322475,-0.1223405,-0.66386896,1.09133,0.043512847,0.037457347,0.25231913,1.552395,1.5447924
-0.1,-0.1,0.7999999999999999,0.0,0.0,0,-2.9415479,1.6710736,-0.45546472,-0.37990686,0.0919476,1.0780158,-0.2862791,-0.7035369,1.067468,0.047326785,-0.116475254,0.37048793,1.5381831,1.581913
-0.1,-0.1,0.7999999999999999,0.0,0.0,0,-3.0383081,1.5810447,-0.42749888,-0.29016784,-0.0522462,1.0094224,0.06733484,-0.50644153,1.0718029,0.07284101,-0.07543512,0.1794729,1.5241011,1.4959269
-0.1,-0.1,0.7999999999999999,0.0,0.0,0,-2.8557088,1.606321,-0.46587783,-0.2723258,0.08511025,0.9931168,-0.059788994,-0.54645056,1.0886114,0.017731288,-0.09552773,0.21462175,1.5491955,1.5361375
-0.1,-0.1,0.7999999999999999,0.0,0.0,0,-2.806148,1.7447971,-0.52609724,-0.35801756,-0.028615586,1.044227,-0.049966794,-0.61209,1.092126,0.040394317,-0.08434295,0.24541351,1.5444444,1.4941158
-0.1,-0.1,0.7999999999999999,0.0,0.0,0,-2.9352357,1.6399572,-0.49953374,-0.33477962,-0.08749852,1.0272311,-0.23156711,-0.6229502,1.0873351,0.035873007,-0.11152263,0.21562956,1.5493754,1.5362507
-0.1,-0.1,0.7999999999999999,0.0,0.0,0,-2.707529,1.7117414,-0.4177211,-0.37771237,-0.10005312,1.1414237,-0.07923898,-0.5127259,1.0816939,0.052520763,-0.10171715,0.23321602,1.5577507,1.5382404
-0.1,-0.1,0.7999999999999999,0.0,0.0,0,-2.7721562,1.6352988,-0.45109916,-0.3971978,0.14463764,1.0665432,-0.02433802,-0.67296356,1.0393693,0.047670476,0.015748858,0.2831178,1.5391259,1.5586187
-0.1,-0.1,0.7999999999999999,0.0,0.0,0,-2.9043827,1.6250293,-0.37605557,-0.3433178,-0.009363865,0.95964366,-0.26568714,-0.6412006,1.0772659,0.044872668,-0.052984077,0.19497077,1.5434244,1.584506
-0.1,-0.1,0.7999999999999999,0.0,0.0,0,-2.995668,1.6871967,-0.42419475,-0.34789592,0.05358228,0.9027871,0.057823505,-0.61340135,1.0847802,0.07285392,-0.048113737,0.24097341,1.531877,1.5699072
-0.1,-0.1,0.7999999999999999,0.0,0.0,0,-2.8547165,1.7139915,-0.402809,-0.4141309,0.020924693,0.9879445,-0.16755663,-0.6299071,1.0850928,0.04374725,0.06717243,0.18441181,1.5368956,1.5519631
-0.1,-0.1,0.7999999999999999,0.0,0.0,0,-2.855898,1.5915945,-0.5484343,-0.2738691,-0.14767341,1.0505315,0.21216169,-0.64851874,1.0790446,0.06042732,0.03069271,0.11672145,1.5279138,1.567315
-0.1,-0.1,0.7999999999999999,0.0,0.0,0,-3.0095327,1.6053548,-0.40897363,-0.38331828,-0.29723805,1.0558494,-0.33087495,-0.64786667,1.0794392,0.034907762,0.073046684,0.28858325,1.5530183,1.5528053
-0.1,-0.1,0.7999999999999999,0.0,0.0,0,-2.9177048,1.5686419,-0.51660234,-0.25112274,-0.025821503,1.0140443,-0.12600529,-0.5599678,1.0716321,0.057572827,-0.09996857,0.11302099,1.5545603,1.5297468
-0.1,-0.1,0.7999999999999999,0.0,0.0,0,-2.870625,1.5667776,-0.31212798,-0.29135573,0.056278512,1.0258274,0.122508004,-0.6311457,1.0864872,0.030287066,-0.058474477,0.35421348,1.5343137,1.5442748
-0.1,-0.1,0.7999999999999999,0.0,0.0,0,-2.908453,1.5232501,-0.36844158,-0.35736495,0.072194755,1.0936127,-0.04154493,-0.7231141,1.0300738,0.049870543,-0.018433657,0.14319663,1.5341345,1.5569912
-0.1,-0.1,0.7999999999999999,0.0,0.0,0,-2.768705,1.6109092,-0.41190913,-0.33070123,0.111471824,1.0509207,-0.012033509,-0.5988673,1.0731746,0.03957255,-0.024539348,0.32110864,1.542287,1.5517468
-0.1,-0.1,0.7999999999999999,0.0,0.0,0,-2.9212945,1.5924982,-0.53475016,-0.28512102,-0.037104346,1.0002829,0.055933394,-0.71637374,1.0939562,0.05213668,-0.03262838,0.1948985,1.5316919,1.5458021
-0.1,-0.1,0.7999999999999999,0.0,0.0,0,-2.8412628,1.5521841,-0.33858463,-0.26755166,-0.021268237,1.0790548,-0.095404476,-0.5901267,1.0721767,0.05950769,-0.02648457,0.38475457,1.5548973,1.5333667
-0.1,-0.1,0.7999999999999999,0.0,0.0,0,-2.7456386,1.5463141,-0.558157,-0.15598154,-0.10712699,0.9583124,0.25493875,-0.663054,1.0642473,0.048560232,0.0113084605,0.083803035,1.5283469,1.56205
-0.1,-0.1,0.7999999999999999,0.0,0.0,0,-2.6612313,1.6278229,-0.40010563,-0.27437222,0.030097954,1.026258,-0.11882184,-0.51806724,1.0851934,0.06006481,-0.03145402,0.19846353,1.5341752,1.519529
-0.1,-0.1,0.7999999999999999,0.0,0.0,0,-2.7438302,1.6462482,-0.45594457,-0.31810245,-0.069304936,1.0761985,-0.093781404,-0.5850001,1.0991257,0.046607424,-0.009397686,0.11534548,1.5223535,1.5515853
-0.1,-0.1,0.7999999999999999,0.0,0.0,0,-2.8682888,1.7295766,-0.46044615,-0.39348817,0.10241399,1.0064666,-0.17341486,-0.47569987,1.0663735,0.031595364,-0.033248994,0.2555047,1.5590189,1.5289186
-0.1,-0.1,0.7999999999999999,0.0,0.0,0,-2.9283133,1.5727427,-0.42752066,-0.25514692,-0.26383868,1.0728142,0.04671193,-0.5310935,1.0738796,0.054722648,-0.07851072,0.16669998,1.5571408,1.5428344
-0.1,-0.1,0.7999999999999999,0.0,0.0,0,-2.907916,1.6092769,-0.4996007,-0.3433879,0.06988412,1.0696844,-0.1384949,-0.57645684,1.0886135,0.02384808,-0.05979372,0.082895845,1.543856,1.5662553
-0.1,-0.1,0.7999999999999999,0.0,0.0,0,-2.982697,1.6362313,-0.61241615,-0.29194424,0.064274326,1.1412739,0.18535757,-0.56036377,1.0943004,0.05200058,-0.046022166,0.19218314,1.5252103,1.5497394
-0.1,-0.1,0.7999999999999999,0.0,0.0,0,-2.9649394,1.6232697,-0.36139488,-0.36246657,0.03600461,1.0196471,-0.105653726,-0.6119768,1.0667894,0.033137392,-0.15851241,0.14489277,1.5425707,1.5599419
-0.1,-0.1,0.7999999999999999,0.0,0.0,0,-2.8652153,1.4969532,-0.3827242,-0.23832926,0.05507245,1.0918524,-0.2617909,-0.63652074,1.0925648,0.050876938,-0.11585739,0.11478723,1.5377733,1.5120218
-0.1,-0.1,0.7999999999999999,0.0,0.0,0,-2.9752781,1.5661169,-0.4522343,-0.30174774,0.065403804,0.9771533,0.22445345,-0.70871025,1.0856658,0.048542924,-0.06725776,0.2707964,1.5534942,1.5966817
-0.1,-0.1,0.7999999999999999,0.0,0.0,0,-2.6875596,1.5991805,-0.4599528,-0.2605693,0.075043075,1.0739303,-0.03389091,-0.62442195,1.1061057,0.03250232,-0.009164048,0.2803109,1.5539936,1.5396216
-0.1,-0.1,0.7999999999999999,0.0,0.0,0,-2.792512,1.5396299,-0.40594476,-0.27452376,0.1020677,1.0353167,-0.02442403,-0.66849536,1.086174,0.042457048,-0.041884523,0.26952404,1.5482976,1.5548606
-0.1,-0.1,0.7999999999999999,0.0,0.0,0,-2.7927325,1.611371,-0.24152775,-0.2999661,-0.038165495,1.0588368,-0.021642158,-0.6327104,1.0800695,0.06434745,-0.103060946,0.2451062,1.5302835,1.5419178
-0.1,-0.1,0.7999999999999999,0.0,0.0,0,-2.8432944,1.6196986,-0.31267968,-0.3863548,0.052582376,1.0528319,-0.053362846,-0.5707429,1.0879991,0.0413353,0.04139538,0.18020858,1.5647967,1.5668758
-0.1,-0.1,0.7999999999999999,0.0,0.0,0,-2.7324824,1.6267021,-0.59008914,-0.24169166,-0.09126997,1.1172448,0.19940598,-0.558792,1.0642066,0.052386723,0.006497031,0.24956383,1.5605133,1.5457888
-0.1,-0.1,0.7999999999999999,0.0,0.0,0,-2.7203808,1.7179585,-0.37850094,-0.38846916,0.19791642,1.0279963,-0.06486513,-0.62644506,1.0645617,0.022519842,-0.08352498,0.231055,1.5569857,1.541596
-0.1,-0.1,0.7999999999999999,0.0,0.0,0,-2.8966095,1.7696828,-0.32436055,-0.491196,0.03933124,1.0532271,-0.17205982,-0.6116281,1.0830029,0.030179374,-0.037498392,0.23071837,1.5410116,1.5632572
-0.1,-0.1,0.7999999999999999,0.0,0.0,0,-2.7263958,1.6352237,-0.3137766,-0.34563655,0.071102835,1.0963475,-0.2722534,-0.60504466,1.0495882,0.04724927,-0.046424616,0.23974778,1.5536166,1.5363861
-0.1,-0.1,0.7999999999999999,0.0,0.0,0,-2.8167453,1.5842168,-0.25827733,-0.33194715,-0.018723197,1.0812472,-0.07505839,-0.5210325,1.0874324,0.024459274,0.041326795,0.19997922,1.5395311,1.5543205
-0.1,-0.1,0.7999999999999999,0.0,0.0,0,-2.7328596,1.6433687,-0.32591265,-0.36094147,-0.09513184,1.113715,0.20968768,-0.6199659,1.070173,0.04669715,-0.06832126,0.23855735,1.5617565,1.4912267
-0.1,-0.1,0.7999999999999999,0.0,0.0,0,-2.827463,1.555744,-0.21707633,-0.29130954,-0.041525513,1.0658631,-0.21005863,-0.72174245,1.069904,0.068757065,-0.013222093,0.24138439,1.5449337,1.5114607
-0.1,-0.1,0.7999999999999999,0.0,0.0,0,-2.959617,1.5006111,-0.31875083,-0.2680163,0.103909306,1.0336812,-0.20311673,-0.7126814,1.052685,0.054137774,-0.07484871,0.28211737,1.5539982,1.5624607
-0.1,-0.1,0.7999999999999999,0.0,0.0,0,-2.9472468,1.5906856,-0.41174346,-0.31180808,-0.09080546,1.0123755,0.5395904,-0.6209518,1.065279,0.013063776,-0.12569472,0.19372046,1.5373955,1.5434897
-0.1,-0.1,0.7999999999999999,0.0,0.0,0,-2.906769,1.5105407,-0.26050457,-0.31118524,0.11207372,1.0887579,-0.23439768,-0.6942128,1.0875721,0.060452778,-0.014000662,0.100557774,1.5458536,1.5242338
-0.1,-0.1,0.7999999999999999,0.0,0.0,0,-2.935461,1.4605302,-0.3735847,-0.2516169,0.11795445,1.0607625,-0.25062576,-0.6866413,1.0988587,0.03629329,0.012903999,0.19882031,1.5275617,1.5281487
-0.1,-0.1,0.7999999999999999,0.0,0.0,0,-2.699186,1.5314361,-0.32801163,-0.22531046,0.013201855,1.0065563,0.0069464417,-0.8149217,1.0659821,0.053918075,-0.047673702,0.20322181,1.5470526,1.5565103
-0.1,-0.1,0.7999999999999999,0.0,0.0,0,-2.8162549,1.5863382,-0.39868253,-0.3756433,0.14867283,1.1334021,-0.072291896,-0.7549298,1.0791559,0.0416113,0.01397875,0.3045215,1.5352005,1.5278115
-0.1,-0.1,0.7999999999999999,0.0,0.0,0,-2.9761293,1.5847001,-0.41696897,-0.32583764,0.12870671,0.9758105,0.16169353,-0.59755975,1.0845977,0.044957053,-0.11058499,0.07896066,1.539715,1.571901
-0.1,-0.1,0.7999999999999999,0.0,0.0,0,-3.0508718,1.6463491,-0.55655825,-0.35481834,-0.056395188,0.96603537,-0.17856549,-0.6618475,1.0783038,0.052394718,-0.041242044,0.23677526,1.5459493,1.5452905
-0.1,-0.1,0.7999999999999999,0.0,0.0,0,-2.7361414,1.7340704,-0.4373246,-0.44294593,0.047346253,1.0868632,0.32737374,-0.571716,1.0734996,0.075053856,-0.05253477,0.17667569,1.5432439,1.506002
-0.1,-0.1,0.7999999999999999,0.0,0.0,0,-2.8496962,1.5443853,-0.34062752,-0.34401572,0.09622173,1.1371058,-0.16451141,-0.68489724,1.0697737,0.039190717,0.02993737,0.23793969,1.534844,1.5581998
-0.1,-0.1,0.7999999999999999,0.0,0.0,0,-2.8930476,1.5111238,-0.39261988,-0.24651198,0.034659725,0.92272294,0.035096407,-0.6025478,1.0400409,0.044510685,0.0025081893,0.18487161,1.5308797,1.5333817
-0.1,-0.1,0.7999999999999999,0.0,0.0,0,-2.9521365,1.5743718,-0.38347715,-0.3682332,0.08007283,1.0506886,5.938084e-07,-0.66505057,1.0659324,0.03203484,0.05437423,0.30017534,1.5408021,1.5468757
-0.1,-0.1,0.7999999999999999,0.0,0.0,0,-2.9687378,1.5252157,-0.26355833,-0.29209188,-0.0140509885,0.9864723,-0.044744533,-0.6741168,1.0620481,0.013740029,-0.03933711,0.20018801,1.5436722,1.5442004
-0.1,-0.1,0.7999999999999999,0.0,0.0,0,-2.8240232,1.6949722,-0.57365745,-0.3645346,-0.09588705,1.0682434,-0.22773278,-0.63505435,1.0641353,0.050583083,0.0017476912,0.24451162,1.5190572,1.5249659
-0.1,-0.1,0.7999999999999999,0.0,0.0,0,-2.9993477,1.5766116,-0.4546101,-0.3083683,-0.097333856,1.0364702,-0.14523928,-0.59434026,1.0803068,0.04527777,-0.049726844,0.24085258,1.5519042,1.5941916
-0.1,-0.1,0.7999999999999999,0.0,0.0,0,-2.8307102,1.5629817,-0.34077412,-0.33047315,0.050944153,1.064056,-0.08185589,-0.553709,1.0757815,0.037942667,0.058898646,0.14051452,1.5343305,1.5147356
-0.1,-0.1,0.7999999999999999,0.0,0.0,0,-2.7689786,1.5797222,-0.3168765,-0.28296036,0.12633775,1.0305123,-0.18180878,-0.76447016,1.0962013,0.052918423,-0.11297153,0.16092113,1.5554756,1.5386906
-0.1,-0.1,0.7999999999999999,0.0,0.0,0,-2.685223,1.7277961,-0.4800401,-0.44684178,0.032284476,1.0374861,-0.08436428,-0.68588907,1.0691967,0.025827428,0.021854935,0.15139094,1.5378065,1.5071777
-0.1,-0.1,0.7999999999999999,0.0,0.0,0,-2.939344,1.6303253,-0.34243757,-0.45157325,-0.1351486,1.0406818,0.05559528,-0.7200562,1.0506685,0.029141406,0.05567486,0.18155071,1.5458716,1.5251203
-0.1,-0.1,0.7999999999999999,0.0,0.0,0,-2.8698518,1.7157483,-0.47515047,-0.30908892,-0.09819571,1.0291061,0.13221455,-0.47623777,1.0976644,0.019305121,-0.13256983,0.12344066,1.5390314,1.5161871
-0.1,-0.1,0.7999999999999999,0.0,0.0,0,-2.9126318,1.72966,-0.48279288,-0.3654485,0.019132322,1.077289,-0.09911437,-0.5397365,1.0576458,0.034585416,-0.048623875,0.45595542,1.5288198,1.5354222
-0.1,-0.1,0.7999999999999999,0.0,0.0,0,-2.860801,1.6942012,-0.41950318,-0.37513632,-0.059222862,1.0894798,0.040300645,-0.5804334,1.0552752,0.05282994,-0.04789288,0.45054862,1.5525546,1.5110279
-0.1,-0.1,0.7999999999999999,0.0,0.0,0,-2.845473,1.6349093,-0.38957366,-0.2803385,0.03192219,0.9905757,-0.095415406,-0.51056075,1.131016,0.04010329,-0.08875153,0.15435307,1.538488,1.5388547
-0.1,-0.1,0.7999999999999999,0.0,0.0,0,-2.8231323,1.7413735,-0.47071892,-0.37713975,-0.039854486,1.092389,-0.073968716,-0.616498,1.0987326,0.029695446,-0.076945305,0.48918095,1.548866,1.5209022
-0.1,-0.1,0.7999999999999999,0.0,0.0,0,-2.9433224,1.7031605,-0.36049843,-0.5637646,0.15291387,1.1762538,-0.050089557,-0.63719374,1.0984274,0.053174388,0.012311309,0.2618817,1.5542494,1.5633485
-0.1,-0.1,0.7999999999999999,0.0,0.0,0,-2.713151,1.7279776,-0.295682,-0.35693213,-0.04890088,1.0183159,0.07083468,-0.5864346,1.0530276,0.022579003,-0.08941414,0.28482938,1.5306406,1.5789673
-0.1,-0.1,0.7999999999999999,0.0,0.0,0,-2.8792233,1.6030482,-0.425712,-0.24095935,-0.073658146,0.98967713,-0.18683764,-0.60592926,1.0792054,0.039386258,-0.14447874,0.32700387,1.5519077,1.5361692
-0.1,-0.1,0.7999999999999999,0.0,0.0,0,-2.736783,1.6394415,-0.5034962,-0.30971125,0.027949248,0.92622924,0.09618013,-0.6709098,1.0714015,0.04812512,-0.021676473,0.16535287,1.5679387,1.552938
-0.1,-0.1,0.7999999999999999,0.0,0.0,0,-2.9011323,1.6912811,-0.45726532,-0.38884982,0.020553038,1.1102309,0.056696214,-0.4995067,1.0996848,0.03970543,-0.054825995,0.28154358,1.5473437,1.5362958
-0.1,-0.1,0.7999999999999999,0.0,0.0,0,-2.7975824,1.786563,-0.46643177,-0.36633143,-0.15952486,1.022317,-0.041293353,-0.5446483,1.0708468,0.030606586,-0.07908734,0.35930753,1.5524253,1.5590451
-0.1,-0.1,0.7999999999999999,0.0,0.0,0,-2.8629136,1.716813,-0.5823394,-0.2581714,-0.053645376,1.0304844,-0.4483127,-0.48711315,1.0744408,0.020050794,-0.07821784,0.33815324,1.5470083,1.5304334
-0.1,-0.1,0.7999999999999999,0.0,0.0,0,-2.9191751,1.5961738,-0.48823968,-0.23713548,0.00837172,1.0039569,-0.25741464,-0.43320394,1.1107063,0.02730371,-0.0697066,0.17457211,1.5579326,1.5301925
-0.1,-0.1,0.7999999999999999,0.0,0.0,0,-2.8099184,1.6536473,-0.55889684,-0.17771329,-0.098384544,1.0305109,0.06670253,-0.45638525,1.084762,0.0699455,-0.14652322,0.16484834,1.5517026,1.5416349
-0.1,-0.1,0.7999999999999999,0.0,0.0,0,-3.013328,1.6461457,-0.4680856,-0.31588694,-0.04751517,1.0167671,-0.09791846,-0.5506733,1.0961291,0.049942076,-0.08484429,0.24683306,1.5426354,1.5522939
-0.1,-0.1,0.7999999999999999,0.0,0.0,0,-2.9053848,1.5391885,-0.4977843,-0.3083133,0.08199454,1.0005035,-0.1539352,-0.6065493,1.0519884,0.0578861,0.068003535,0.1459377,1.5532166,1.5025247
-0.1,-0.1,0.7999999999999999,0.0,0.0,0,-2.8939526,1.7079877,-0.3665418,-0.3829988,-0.09578252,1.0742528,-0.03407015,-0.45500943,1.0465273,0.034949042,-0.08907914,0.3064224,1.5391647,1.5508668
-0.1,-0.1,0.7999999999999999,0.0,0.0,0,-2.8767333,1.6034112,-0.40908957,-0.24954571,-0.13787983,1.0245177,0.36005592,-0.45706776,1.0989902,0.051441897,0.021539576,0.3575648,1.5287324,1.5507513
-0.1,-0.1,0.7999999999999999,0.0,0.0,0,-2.8354928,1.6283522,-0.45182633,-0.30845863,0.07427777,0.97468334,-0.17458992,-0.79844064,1.1073822,0.034035802,-0.066020735,0.17515646,1.5342746,1.5004638
-0.1,-0.1,0.7999999999999999,0.0,0.0,0,-2.977253,1.5802634,-0.562889,-0.1948215,-0.1218804,1.0988631,-0.0022587574,-0.56246394,1.0578723,0.049018662,-0.047848154,0.36969128,1.5495077,1.5414901
-0.1,-0.1,0.7999999999999999,0.0,0.0,0,-2.8685348,1.7144682,-0.44243044,-0.40353715,0.033286028,1.0925353,0.15645152,-0.5821384,1.0909702,0.056253042,-0.14463255,0.2634874,1.5504154,1.5367166
-0.1,-0.1,0.7999999999999999,0.0,0.0,0,-2.980385,1.6430328,-0.50405496,-0.33613357,0.053217582,0.9796432,-0.31117934,-0.60342836,1.0680077,0.03749343,-0.07907369,0.3443322,1.5505396,1.5182868
-0.1,-0.1,0.7999999999999999,0.0,0.0,0,-3.024555,1.6269044,-0.38378686,-0.39473408,0.019867111,1.0700868,-0.2943236,-0.6273957,1.0813903,0.024103688,-0.13943847,0.15245873,1.5289657,1.5928609
-0.1,-0.1,0.7999999999999999,0.0,0.0,0,-2.8345919,1.5960072,-0.45018527,-0.30171612,-0.048367318,1.0173024,-0.20772019,-0.6295638,1.0989687,0.0819964,0.0033140806,0.2307585,1.5467875,1.521333
-0.1,-0.1,0.7999999999999999,0.0,0.0,0,-3.0184495,1.7145607,-0.54143465,-0.4148264,0.031987857,1.1358418,0.2655458,-0.59045565,1.1119959,0.04292915,-0.029979652,0.35761586,1.559837,1.562083
-0.1,-0.1,0.7999999999999999,0.0,0.0,0,-2.9476929,1.6447885,-0.3770398,-0.32472894,-0.094079815,1.0132183,0.14125781,-0.5975241,1.1034127,0.03510711,-0.08539632,0.20854563,1.5298572,1.5869797
-0.1,-0.1,0.7999999999999999,0.0,0.0,0,-2.935384,1.6534157,-0.38845614,-0.36629617,-0.0048136413,1.0212703,-0.0058221575,-0.7168643,1.083466,0.06630251,-0.09371652,0.26842684,1.5508822,1.5249974
-0.1,-0.1,0.7999999999999999,0.0,0.0,0,-2.9610407,1.6903628,-0.41094086,-0.43674445,0.17119414,1.1363376,-0.14395851,-0.5725937,1.0960844,0.04646151,-0.12497443,0.27666497,1.5477139,1.5362906
-0.1,-0.1,0.7999999999999999,0.0,0.0,0,-2.8017905,1.6127024,-0.5090554,-0.24832806,-0.020173889,0.95540607,-0.034775846,-0.7087021,1.054299,0.046896134,-0.098934166,0.27828988,1.5510396,1.5328053
-0.1,-0.1,0.7999999999999999,0.0,0.0,0,-2.8788772,1.6924614,-0.40769753,-0.3994428,-0.089483485,0.9940924,-0.23342176,-0.5751766,1.0719005,0.046987213,0.04132581,0.23371291,1.5525903,1.598081
-0.1,-0.1,0.7999999999999999,0.0,0.0,0,-2.8753724,1.6212854,-0.4642144,-0.28697893,-0.058852848,1.0327151,-0.10905204,-0.59951335,1.0759295,0.046028323,-0.12042339,0.29715335,1.5529289,1.49085
-0.1,-0.1,0.7999999999999999,0.0,0.0,0,-2.9067473,1.5846287,-0.28273007,-0.28175274,-0.20839237,1.0727992,-0.08799171,-0.5514718,1.1073569,0.056728706,-0.073178865,0.2313986,1.5584974,1.531932
-0.1,-0.1,0.7999999999999999,0.0,0.0,0,-2.8041408,1.707132,-0.4503698,-0.3200226,-0.10629937,0.9747801,-0.15172464,-0.6351946,1.0885805,0.047570057,-0.18853666,0.13730004,1.5594591,1.5453697
-0.1,-0.1,0.7999999999999999,0.0,0.0,0,-2.9056618,1.6304041,-0.40853578,-0.31557688,0.06966986,0.99516314,-0.084922805,-0.46306074,1.0281007,0.008380102,-0.101865314,0.26229176,1.5438074,1.5537897
-0.1,-0.1,0.7999999999999999,0.0,0.0,0,-2.952411,1.6508317,-0.4137109,-0.34474516,-0.032834247,1.021525,0.042241264,-0.50056905,1.0782195,0.018803308,-0.06802619,0.29703197,1.5558385,1.4936168
-0.1,-0.1,0.7999999999999999,0.0,0.0,0,-2.8304684,1.6936606,-0.45909506,-0.38579652,-0.027313463,1.1067468,-0.35937682,-0.5808121,1.0732118,0.027899861,-0.089963324,0.33627206,1.5524061,1.5554672
-0.1,-0.1,0.7999999999999999,0.0,0.0,0,-2.912247,1.6675303,-0.37599403,-0.36398524,0.046961837,1.0318497,0.030840319,-0.54217523,1.0779186,0.0459765,-0.09729982,0.21776554,1.5461584,1.5825348
-0.1,-0.1,0.7999999999999999,0.0,0.0,0,-2.6715095,1.5992928,-0.5674595,-0.16214086,-0.21567523,1.049369,-0.33935234,-0.54954666,1.0939072,0.04449174,0.062284447,0.30252504,1.550302,1.5278618
-0.1,-0.1,0.7999999999999999,0.0,0.0,0,-2.9325824,1.6323379,-0.48379079,-0.3642182,0.045976922,1.0409249,-0.10291784,-0.717501,1.0733426,0.041668337,-0.067629986,0.36668256,1.5573343,1.5402323
-0.1,-0.1,0.7999999999999999,0.0,0.0,0,-2.751652,1.6495247,-0.546435,-0.32290757,0.09594229,1.0474658,-0.15016419,-0.722361,1.0835749,0.038673032,-0.097596265,0.06275379,1.5360755,1.5251844
-0.1,-0.1,0.7999999999999999,0.0,0.0,0,-2.9185793,1.6749294,-0.5537419,-0.4066007,0.03919329,1.0890764,-0.039298452,-0.50378144,1.0682511,0.038428977,0.03341533,0.062491685,1.5420741,1.5312747
-0.1,-0.1,0.7999999999999999,0.0,0.0,0,-2.911048,1.6339889,-0.5091615,-0.28099367,0.085502684,0.95185405,0.14941192,-0.5691079,1.0743065,0.037294887,-0.092273235,0.26149297,1.5512834,1.5562693
-0.1,-0.1,0.7999999999999999,0.0,0.0,0,-2.9492497,1.6046852,-0.3829396,-0.3674552,-0.040451005,1.0478169,-0.017093876,-0.6676307,1.0655181,0.04186577,-0.072089404,0.336262,1.5672678,1.5424347
-0.1,-0.1,0.7999999999999999,0.0,0.0,0,-2.8449826,1.6126537,-0.31908458,-0.26405331,-0.11312475,0.98663616,-0.11369544,-0.53049594,1.0497698,0.02273457,-0.15563647,0.13131946,1.5558691,1.5274255
-0.1,-0.1,0.7999999999999999,0.0,0.0,0,-2.8447669,1.6552844,-0.4240823,-0.33409333,0.08542795,0.97322565,0.027782835,-0.5744236,1.0857847,0.02525916,0.016163878,0.32038364,1.5464977,1.551543
-0.1,-0.1,0.7999999999999999,0.0,0.0,0,-2.7366188,1.6225772,-0.51517105,-0.2756943,0.07186169,1.0553014,-0.12182712,-0.60879266,1.1223396,0.058571737,-0.010625627,0.16252638,1.5444684,1.5444865
-0.1,-0.1,0.7999999999999999,0.0,0.0,0,-2.768288,1.7010336,-0.3579808,-0.41495246,0.089418575,1.0392283,0.049888786,-0.6100873,1.0928131,0.03524434,-0.045088068,0.16857782,1.5453556,1.5369709
-0.1,-0.1,0.7999999999999999,0.0,0.0,0,-2.723675,1.6544448,-0.5010056,-0.29010555,-0.0027998139,1.0610937,-0.21427502,-0.57617605,1.0599891,0.017229803,-0.059082974,0.35542947,1.5598692,1.5608883
-0.1,-0.1,0.7999999999999999,0.0,0.0,0,-2.8394148,1.6367495,-0.49102944,-0.32487437,-0.0018168433,1.0966297,-0.035491653,-0.6001826,1.066025,0.06081622,-0.10487434,0.22237717,1.5355734,1.4922816
-0.1,-0.1,0.7999999999999999,0.0,0.0,0,-3.0154462,1.6297897,-0.44173262,-0.38035765,-0.015299737,1.0301933,-0.26727512,-0.55565286,1.0702257,0.04458554,0.04990364,0.34216893,1.5290188,1.5286331
-0.1,-0.1,0.7999999999999999,0.0,0.0,0,-2.8363974,1.6661813,-0.6259935,-0.24296667,-0.070563436,1.068085,-0.23332907,-0.65380603,1.100809,0.049290903,-0.08898915,0.09679513,1.5537167,1.5354124
-0.1,-0.1,0.7999999999999999,0.0,0.0,0,-3.0698636,1.5814,-0.30024424,-0.35228366,0.04606579,0.9935952,-0.15101054,-0.6613535,1.0702621,0.033671215,-0.04340357,0.24726538,1.5516344,1.5045811
-0.1,-0.1,0.7999999999999999,0.0,0.0,0,-3.0195167,1.5798858,-0.40592784,-0.3227373,-0.11659583,1.0723016,-0.05927399,-0.6303246,1.0923154,0.059584163,-0.08084828,0.15583417,1.5504532,1.5701386
-0.1,-0.1,0.7999999999999999,0.0,0.0,0,-3.0342474,1.5905675,-0.6224182,-0.24935381,0.00014943659,1.0378761,-0.13971007,-0.5440733,1.0644678,0.06751278,0.016906884,0.15294585,1.5599862,1.6019241
-0.1,-0.1,0.7999999999999999,0.0,0.0,0,-2.8116715,1.6265934,-0.36708975,-0.30651337,0.126758,0.9917185,-0.034331415,-0.62624043,1.0840373,0.020921415,-0.09569379,0.2430452,1.5394548,1.5593115
-0.1,-0.1,0.7999999999999999,0.0,0.0,0,-3.059925,1.6887653,-0.45134273,-0.38314608,0.003443049,0.9856708,0.1856827,-0.49689135,1.0613757,0.015051363,-0.040714152,0.2867693,1.5496372,1.5220016
-0.1,-0.1,0.7999999999999999,0.0,0.0,0,-2.95227,1.6208135,-0.34571347,-0.35294127,0.15445635,0.9982494,-0.03795501,-0.66944456,1.081328,0.02345663,-0.13678153,0.22925583,1.5470338,1.5513633
-0.1,-0.1,0.7999999999999999,0.0,0.0,0,-2.9654446,1.6691426,-0.47212765,-0.4055224,0.056089457,1.0506309,-0.15506689,-0.6375027,1.0753746,0.025214868,0.02954194,0.45499435,1.5422575,1.577801
-0.1,-0.1,0.7999999999999999,0.0,0.0,0,-2.8392763,1.6331708,-0.6617176,-0.21935353,-0.04808009,0.9828869,-0.0471158,-0.6282507,1.0752453,0.031150067,0.030626232,0.20850287,1.5601274,1.5594827
-0.1,-0.1,0.7999999999999999,0.0,0.0,0,-2.8377411,1.5944566,-0.4991086,-0.31597936,-0.016480662,1.0159183,-0.18326677,-0.6901095,1.0941219,0.039538108,0.022818118,0.17654744,1.5427215,1.5597055
-0.1,-0.1,0.7999999999999999,0.0,0.0,0,-2.896247,1.5765358,-0.3561485,-0.29286474,-0.056387197,1.0329711,-0.1766008,-0.5943574,1.1024601,0.043894727,-0.0704879,0.21494198,1.5313601,1.5458552
-0.1,-0.1,0.7999999999999999,0.0,0.0,0,-2.9257228,1.7107735,-0.32308745,-0.45823765,0.03769937,1.1208557,-0.3425885,-0.6845596,1.0269274,0.04050185,-0.19739442,0.15648392,1.5474516,1.5807891
-0.1,-0.1,0.7999999999999999,0.0,0.0,0,-2.8018672,1.6480502,-0.52016735,-0.37361678,-0.027718423,1.0915233,0.07411506,-0.6715958,1.0716028,0.045159273,-0.021061767,0.15189733,1.5556418,1.5746174
-0.1,-0.1,0.7999999999999999,0.0,0.0,0,-3.0100803,1.6877674,-0.4121441,-0.33361718,-0.07173035,0.9263602,-0.027172528,-0.53590065,1.0777481,0.060133345,-0.11872393,0.049871992,1.5413995,1.5729339
-0.1,-0.1,0.7999999999999999,0.0,0.0,0,-2.7484238,1.6570003,-0.5183472,-0.29038036,-0.0008445715,0.9573706,-0.13103867,-0.65335965,1.0951685,0.048894197,-0.027366072,0.22931916,1.5454088,1.4726524
-0.1,-0.1,0.7999999999999999,0.0,0.0,0,-2.8943193,1.6468226,-0.41593587,-0.4138611,-0.040941395,1.0736846,0.112938054,-0.57674855,1.0782919,0.034484774,0.02902956,0.21130052,1.5552914,1.5608703
-0.1,-0.1,0.7999999999999999,0.0,0.0,0,-2.863776,1.6931791,-0.4099034,-0.387745,0.06123653,1.0775427,-0.12635408,-0.57677734,1.0699328,0.0239983,-0.110871516,0.22793734,1.5339029,1.5560352
-0.1,-0.1,0.7999999999999999,0.0,0.0,0,-2.86481,1.7074378,-0.4545486,-0.36373797,0.03413144,0.98108375,-0.386122,-0.5896163,1.1021905,0.06176491,-0.004480156,0.37422475,1.5398276,1.5349091
-0.1,-0.1,0.7999999999999999,0.0,0.0,0,-2.6379278,1.7601335,-0.577507,-0.39829746,-0.05449353,1.1776915,-0.15871088,-0.57761216,1.0694795,0.050828896,-0.046351884,0.25459698,1.5618224,1.5388584
-0.1,-0.1,0.7999999999999999,0.0,0.0,0,-2.6751227,1.6392012,-0.37166595,-0.28928807,0.042502098,1.0413208,-0.19955468,-0.6602124,1.0754436,0.038074866,-0.10428316,0.22004296,1.5605239,1.5660615
-0.1,-0.1,0.7999999999999999,0.0,0.0,0,-2.9032276,1.583278,-0.40923095,-0.31466275,0.10525072,1.027259,-0.043308023,-0.6360721,1.0938445,0.029470075,-0.07277604,0.26662555,1.5535295,1.5410609
-0.1,-0.1,0.7999999999999999,0.0,0.0,0,-2.902938,1.6072377,-0.29122654,-0.32026926,0.01577924,1.0420728,-0.4445095,-0.6393961,1.0945708,0.048619267,-0.11793722,0.1669625,1.5444067,1.5253221
-0.1,-0.1,0.7999999999999999,0.0,0.0,0,-2.8319905,1.6316082,-0.59674096,-0.26400974,0.050425302,0.9793037,0.09416082,-0.5992532,1.0713385,0.041542925,0.01841829,0.27933154,1.5466486,1.5609574
-0.1,-0.1,0.7999999999999999,0.0,0.0,0,-3.0433528,1.6498915,-0.42263266,-0.353448,0.07917644,0.95644236,0.03017811,-0.68320274,1.0869769,0.007952948,-0.097622745,0.19067875,1.5437932,1.5600771
-0.1,-0.1,0.7999999999999999,0.0,0.0,0,-3.0353534,1.6489887,-0.42861086,-0.29962364,-0.11935999,0.8956164,-0.26900163,-0.59274226,1.0722655,0.05617514,-0.04127728,0.36415705,1.5452788,1.5425309
-0.1,-0.1,0.7999999999999999,0.0,0.0,0,-2.8719475,1.6106982,-0.4974439,-0.31441188,0.10877039,1.0297092,-0.3555685,-0.67911845,1.070383,0.04049853,-0.0855059,0.2850773,1.5468049,1.5575302
-0.1,-0.1,0.7999999999999999,0.0,0.0,0,-3.0176969,1.5416697,-0.37932885,-0.35330638,-0.08223519,1.0500627,0.045249343,-0.66870314,1.0565063,0.05461285,0.0060268394,0.25131285,1.5559409,1.5468217
-0.1,-0.1,0.7999999999999999,0.0,0.0,0,-2.9937246,1.5941958,-0.44181675,-0.36308283,0.037549417,1.0465171,0.045947358,-0.5920504,1.0625647,0.027910542,-0.055288076,0.2539789,1.5498718,1.5492625
-0.1,-0.1,0.7999999999999999,0.0,0.0,0,-3.0146213,1.577866,-0.20067246,-0.36060306,0.04801965,1.0917171,-0.21649808,-0.82208633,1.0747684,0.024196737,-0.13232389,0.35911277,1.5634909,1.5108376
-0.1,-0.1,0.7999999999999999,0.0,0.0,0,-2.7305138,1.6257402,-0.42014152,-0.3189561,-0.13300504,1.0680866,-0.07082256,-0.55363756,1.0608408,0.05462265,-0.01870622,0.22193788,1.547439,1.5460677
-0.1,-0.1,0.7999999999999999,0.0,0.0,0,-2.9510734,1.5727155,-0.51126087,-0.28378737,0.034925405,1.0624787,0.022492643,-0.5338662,1.0603125,0.020563273,-0.02458152,0.31912732,1.5496858,1.5063318
-0.1,-0.1,0.7999999999999999,0.0,0.0,0,-3.0134835,1.6563785,-0.60783845,-0.31887242,0.041091345,1.0266845,-0.06114106,-0.63587976,1.0562263,0.028021764,-0.06387519,0.24585636,1.5626063,1.5715892
-0.1,-0.1,0.7999999999999999,0.0,0.0,0,-2.7759852,1.6472107,-0.5302698,-0.3529026,0.014902414,1.1341679,-0.17114379,-0.62787545,1.096294,0.023068862,-0.022456454,0.29471323,1.5521688,1.5258262
-0.1,-0.1,0.7999999999999999,0.0,0.0,0,-2.9070127,1.6323272,-0.48840106,-0.35622928,0.060436234,1.0487143,-0.13667339,-0.61469084,1.0711365,0.046751298,-0.06425699,0.20939226,1.5474085,1.5534425
-0.1,-0.1,0.7999999999999999,0.0,0.0,0,-2.775952,1.7227564,-0.4316303,-0.4051347,0.04966751,0.9927935,0.18582115,-0.5911376,1.0575495,0.05451002,-0.018665267,0.21164183,1.5478421,1.5426989
-0.1,-0.1,0.7999999999999999,0.0,0.0,0,-2.902606,1.6243695,-0.4871533,-0.3211968,-0.0058373157,0.98422575,0.04123665,-0.7051855,1.0853256,0.057879485,-0.07673849,0.03139294,1.5308912,1.5281976
-0.1,-0.1,0.7999999999999999,0.0,0.0,0,-2.8131545,1.7370223,-0.42550105,-0.42909527,0.19815506,1.045901,-0.14129576,-0.643993,1.0512778,0.055794045,-0.09640653,0.18035541,1.5542496,1.5525832
-0.1,-0.1,0.7999999999999999,0.0,0.0,0,-2.909651,1.5943897,-0.41909257,-0.38391128,-0.08419836,1.0852212,-0.15016133,-0.6620945,1.0858442,0.035061195,0.023368452,0.0996199,1.570721,1.5192729
-0.1,-0.1,0.7999999999999999,0.0,0.0,0,-2.7942917,1.7578464,-0.4359229,-0.3918039,-0.03399903,0.977979,-0.26059747,-0.64113325,1.0989304,0.061248064,-0.08744952,0.10892291,1.5475826,1.5945206
-0.1,-0.1,0.7999999999999999,0.0,0.0,0,-2.6819456,1.6937292,-0.38412753,-0.35859007,0.015650822,1.0167516,0.028766999,-0.62518734,1.1240307,0.05944112,0.0847514,0.11311166,1.54974,1.5126438
-0.1,-0.1,0.7999999999999999,0.0,0.0,0,-2.8854628,1.6062475,-0.45635036,-0.3629077,-0.02002223,1.0427176,-0.04610068,-0.6966654,1.0324379,0.034260802,-0.017066868,0.24458987,1.5338511,1.5736063
-0.1,-0.1,0.7999999999999999,0.0,0.0,0,-2.7746692,1.7321557,-0.5609589,-0.38182327,-0.041429274,0.9985807,-0.36095682,-0.6661721,1.0690074,0.05030906,-0.06173004,0.09914183,1.5485836,1.5240644
-0.1,-0.1,0.7999999999999999,0.0,0.0,0,-2.780824,1.674223,-0.597045,-0.2869897,-0.087319374,0.9623897,0.23707302,-0.6390816,1.0729378,0.028913291,-0.013465286,0.07732835,1.5451784,1.5376462
-0.1,-0.1,0.7999999999999999,0.0,0.0,0,-2.9500175,1.6963727,-0.43174267,-0.35454097,0.034509677,0.97528535,0.06373245,-0.54099536,1.0342623,0.040155143,-0.06256463,0.3793952,1.5394564,1.4997072
-0.1,-0.1,0.7999999999999999,0.0,0.0,0,-2.8896027,1.6734178,-0.45600078,-0.30158043,-0.09219927,1.0514363,0.004559819,-0.412267,1.0977162,0.028270403,-0.07199547,0.18350512,1.5440332,1.5282133
-0.1,-0.1,0.7999999999999999,0.0,0.0,0,-2.8576608,1.625554,-0.33681798,-0.350003,-0.13743691,0.9561134,-0.028911283,-0.65510935,1.073527,0.02818856,-0.00047682403,0.18310854,1.5414828,1.550981
-0.1,-0.1,0.7999999999999999,0.0,0.0,0,-2.943616,1.6766036,-0.46880144,-0.33177376,0.15859796,0.9915369,-0.16080903,-0.5150082,1.0725572,0.042298112,-0.12800227,0.2652883,1.5532873,1.5433763
-0.1,-0.1,0.7999999999999999,0.0,0.0,0,-2.8767695,1.6424814,-0.36782715,-0.39456505,-0.036723267,0.97157705,0.0715826,-0.75756735,1.0870426,0.052216306,0.032747287,0.2183766,1.553124,1.5362145
-0.1,-0.1,0.7999999999999999,0.0,0.0,0,-2.8488877,1.5769585,-0.39939836,-0.21298954,-0.045882262,0.954278,-0.1535269,-0.4750335,1.0918884,0.046840712,-0.026239177,0.25032488,1.5274817,1.5349287
-0.1,-0.1,0.7999999999999999,0.0,0.0,0,-2.9348283,1.6497003,-0.35051164,-0.3800829,-0.029295048,1.0365688,-0.15073699,-0.6804586,1.0616193,0.055082373,-0.1339298,0.21781415,1.5483414,1.5559193
-0.1,-0.1,0.7999999999999999,0.0,0.0,0,-2.9040976,1.6800343,-0.38394418,-0.47408757,0.06776122,1.0938383,-0.43000135,-0.66035146,1.082625,0.048066035,0.03324593,0.17645565,1.5343225,1.526418
-0.1,-0.1,0.7999999999999999,0.0,0.0,0,-2.8511963,1.7187995,-0.35858583,-0.38298982,0.044072356,1.0086001,-0.0059653246,-0.47448358,1.0547158,0.01105285,-0.0025831165,0.39881372,1.5555427,1.5399159
-0.1,-0.1,0.7999999999999999,0.0,0.0,0,-2.8418655,1.5862436,-0.3752339,-0.28394496,0.024117809,1.0601872,-0.111225255,-0.56056833,1.123188,0.025962673,-0.012297858,0.36587802,1.5526644,1.5597183
-0.1,-0.1,0.7999999999999999,0.0,0.0,0,-2.881937,1.6712099,-0.43841684,-0.32258236,0.14873557,0.97518617,-0.07335394,-0.5836471,1.0700487,0.05655911,-0.075437084,0.32415792,1.5219377,1.5387343
-0.1,-0.1,0.7999999999999999,0.0,0.0,0,-3.0130494,1.6741127,-0.46269014,-0.39987123,0.037130956,1.0363898,0.40819883,-0.6702459,1.0862745,0.04236686,-0.08593745,0.32414517,1.5438874,1.5313469
-0.1,-0.1,0.7999999999999999,0.0,0.0,0,-2.9998171,1.7099228,-0.55275506,-0.32688624,-0.0927952,0.98811674,0.34089702,-0.507465,1.0776597,0.031556167,0.020463401,0.26015696,1.5654602,1.5561751
-0.1,-0.1,0.7999999999999999,0.0,0.0,0,-2.7710483,1.7476224,-0.62365544,-0.3102144,-0.029671848,1.0519422,0.15828666,-0.5330232,1.0740777,0.029735344,0.060195096,0.3220857,1.5461636,1.5401961
-0.1,-0.1,0.7999999999999999,0.0,0.0,0,-2.895127,1.6062373,-0.3882036,-0.2739761,0.039183874,0.9321958,-0.03890717,-0.631848,1.1091584,0.018496608,-0.05905994,0.29546025,1.5590976,1.5032244
-0.1,-0.1,0.7999999999999999,0.0,0.0,0,-2.9811401,1.6265876,-0.21591271,-0.32974327,0.03705401,1.0060087,-0.37033185,-0.7063286,1.0754027,0.03482923,-0.07526971,0.37488568,1.5497947,1.5274909
-0.1,-0.1,0.7999999999999999,0.0,0.0,0,-2.8669643,1.616767,-0.27005893,-0.42197657,0.09794565,1.1464735,-0.33989096,-0.5670697,1.1014032,0.07405769,0.08163467,0.19472426,1.5512614,1.5688959
-0.1,-0.1,0.7999999999999999,0.0,0.0,0,-2.9264207,1.6683326,-0.35844752,-0.3837086,-0.08521571,1.0389526,-0.050423026,-0.5595605,1.0287174,0.02338494,-0.08967103,0.24086966,1.5334303,1.5172201
-0.1,-0.1,0.7999999999999999,0.0,0.0,0,-2.8958094,1.5767545,-0.27724823,-0.29652917,-0.03223816,1.0284948,-0.32948923,-0.51700884,1.0662315,0.047857385,-0.06575699,0.22725876,1.551057,1.5540633
-0.1,-0.1,0.7999999999999999,0.0,0.0,0,-2.8817334,1.6935161,-0.27652562,-0.47032356,0.013094157,1.1303949,-0.28140688,-0.74315196,1.0750904,0.038753588,-0.07059691,0.13931824,1.5490857,1.5850691
-0.1,-0.1,0.7999999999999999,0.0,0.0,0,-2.7406962,1.6648427,-0.34349972,-0.36209768,-0.017093943,1.0782424,-0.228328,-0.67128927,1.0749242,0.03538524,-0.057165008,0.17928213,1.543853,1.5681993
-0.1,-0.1,0.7999999999999999,0.0,0.0,0,-2.955707,1.6144856,-0.2537387,-0.3285981,0.031293683,1.0471215,-0.25771216,-0.6205577,1.0818543,0.05006482,-0.07563393,0.29598162,1.5358571,1.5515392
-0.1,-0.1,0.7999999999999999,0.0,0.0,0,-2.9076738,1.5671473,-0.34394982,-0.29403624,0.09064916,1.0332625,-0.46233323,-0.72647935,1.1171435,0.040259212,-0.07250142,0.20320459,1.5408823,1.5050142
-0.1,-0.1,0.7999999999999999,0.0,0.0,0,-2.7633991,1.6200402,-0.38448676,-0.24774311,0.123168044,0.9628736,-0.081282176,-0.67545915,1.0787467,0.055961527,-0.15222658,0.18698192,1.5375621,1.5016701
-0.1,-0.1,0.7999999999999999,0.0,0.0,0,-2.9792712,1.6268734,-0.3730036,-0.40478966,-0.10434538,1.0465418,-0.40170917,-0.66297925,1.0826336,0.05247612,-0.047782715,0.14413041,1.5660236,1.5229331
-0.1,-0.1,0.7999999999999999,0.0,0.0,0,-2.98198,1.6812236,-0.44916666,-0.48548576,-0.026906645,1.0814859,0.48709968,-0.55211246,1.0783117,0.031197388,0.0002612915,0.1653515,1.544601,1.5652255
-0.1,-0.1,0.7999999999999999,0.0,0.0,0,-2.7361948,1.6364721,-0.42879632,-0.3217729,-0.03702173,0.9746359,-0.023685873,-0.63972723,1.0677264,0.041736286,0.027517887,0.19711494,1.5459646,1.5222015
-0.1,-0.1,0.7999999999999999,0.0,0.0,0,-2.8125844,1.6362835,-0.30192938,-0.3737331,0.0848926,1.0794291,-0.26295996,-0.61570483,1.0922831,0.05031787,-0.024721343,0.07896966,1.5358331,1.5104212
-0.1,-0.1,0.7999999999999999,0.0,0.0,0,-2.7627807,1.6481298,-0.40694112,-0.32109746,0.03287449,1.0534666,-0.29192597,-0.6774743,1.0487881,0.03831582,-0.08479742,0.28368375,1.5435337,1.5774069
-0.1,-0.1,0.7999999999999999,0.0,0.0,0,-2.936279,1.6078534,-0.40425453,-0.33875033,0.07531501,1.0239189,-0.12433183,-0.61937344,1.0569705,0.038890637,-0.032072864,0.25255004,1.5366056,1.543227
-0.1,-0.1,0.7999999999999999,0.0,0.0,0,-2.856034,1.719183,-0.530103,-0.40694436,-0.008531302,1.0229874,-0.06075373,-0.6553075,1.0924194,0.044586748,0.06943582,0.40584907,1.5401828,1.5477448
-0.1,-0.1,0.7999999999999999,0.0,0.0,0,-2.8812842,1.6601937,-0.41759172,-0.30758676,0.034974623,0.89905274,0.07793956,-0.6041994,1.0997629,0.028315641,-0.037959464,0.20446518,1.5418091,1.550906
-0.1,-0.1,0.7999999999999999,0.0,0.0,0,-2.8370144,1.6431047,-0.28120947,-0.33019456,-0.14918226,1.069217,-0.08527778,-0.58543664,1.0728829,0.03956806,-0.06468159,0.30887303,1.5378687,1.5794617
-0.1,-0.1,0.7999999999999999,0.0,0.0,0,-2.7069895,1.6996073,-0.408943,-0.34888592,0.05797265,1.0438219,0.014432493,-0.666408,1.0888557,0.05801275,-0.11031387,0.21994261,1.5430104,1.5275909
-0.1,-0.1,0.7999999999999999,0.0,0.0,0,-2.8247154,1.7110784,-0.5550388,-0.34506324,0.052308057,1.0267968,0.03397437,-0.6817192,1.1079607,0.048697922,-0.06820916,0.33000287,1.533866,1.5849395
-0.1,-0.1,0.7999999999999999,0.0,0.0,0,-2.8042111,1.6807659,-0.49971566,-0.31991717,0.07016851,0.9982403,0.0865651,-0.6537139,1.0587997,0.038376696,-0.048472326,0.32988748,1.526019,1.5560871
-0.1,-0.1,0.7999999999999999,0.0,0.0,0,-2.8756602,1.729679,-0.41302353,-0.44095427,0.053723857,1.0695888,-0.44124654,-0.6819292,1.0677736,0.047375783,-0.09451489,0.2654112,1.5524366,1.5353272
-0.1,-0.1,0.7999999999999999,0.0,0.0,0,-2.7329407,1.7156497,-0.4661979,-0.35265964,-0.11776598,1.0478759,-0.2791956,-0.649401,1.0594124,0.042766724,-0.07096798,0.32192945,1.5435373,1.5045297
-0.1,-0.1,0.7999999999999999,0.0,0.0,0,-2.9107692,1.5578306,-0.36549667,-0.32242414,0.19104642,1.0150359,-0.5302237,-0.6119151,1.0450786,0.05275257,0.06624361,0.1122597,1.5335182,1.5397288
-0.1,-0.1,0.7999999999999999,0.0,0.0,0,-2.6985817,1.7108461,-0.46978766,-0.36494234,0.030475724,0.9783783,-0.4148856,-0.7410572,1.0907235,0.020395517,0.013662681,0.090336815,1.5585289,1.5495783
-0.1,-0.1,0.7999999999999999,0.0,0.0,0,-2.8728063,1.6766044,-0.39293212,-0.3914853,0.053211905,0.9997396,-0.09830835,-0.6323502,1.0546542,0.034517374,-0.01687249,0.16702606,1.553681,1.5638106
-0.1,-0.1,0.7999999999999999,0.0,0.0,0,-3.0569575,1.6264187,-0.38038793,-0.39879686,-0.07534605,1.0319074,-0.074963585,-0.58550084,1.0795261,0.046078753,0.029690286,0.22420363,1.5447721,1.5014596
-0.1,-0.1,0.7999999999999999,0.0,0.0,0,-2.786697,1.5725039,-0.37798584,-0.2367273,0.018914206,0.9519588,-0.04504044,-0.629884,1.0921886,0.0713126,-0.038972314,0.17746374,1.5334814,1.5952373
-0.1,-0.1,0.7999999999999999,0.0,0.0,0,-2.8359456,1.6336246,-0.24933404,-0.31188607,-0.0862695,1.0121789,-0.09614044,-0.62231416,1.0785425,0.031597074,-0.113978244,0.10335701,1.5464547,1.5774263
-0.1,-0.1,0.7999999999999999,0.0,0.0,0,-2.7676463,1.6417946,-0.4056113,-0.33214173,0.061589796,0.9875476,0.16435649,-0.59688336,1.0685712,0.032703597,-0.0054430654,0.20943785,1.5338252,1.539585
-0.1,-0.1,0.7999999999999999,0.0,0.0,0,-2.85297,1.6218249,-0.32752717,-0.35898417,-0.014822298,1.0876555,-0.25705913,-0.58862484,1.0906417,0.024056382,-0.034659114,0.22067219,1.5414768,1.5132904
-0.1,-0.1,0.7999999999999999,0.0,0.0,0,-2.8186932,1.6084342,-0.33889204,-0.3260475,0.021727849,1.0633662,-0.37658474,-0.6695289,1.0877703,0.019293217,-0.026059145,0.38091642,1.5559285,1.5792087
-0.1,-0.1,0.7999999999999999,0.0,0.0,0,-3.0822468,1.5515836,-0.27680242,-0.3378855,0.051975247,1.0187569,-0.3818801,-0.5384206,1.053987,0.037283175,-0.043615285,0.11966469,1.5358514,1.5673432
-0.1,-0.1,0.7999999999999999,0.0,0.0,0,-2.9140737,1.6211444,-0.2649787,-0.3687817,0.0008518844,1.0515435,-0.045576,-0.59127605,1.0555651,0.051607348,-0.047234762,0.24136105,1.5608479,1.5599308
-0.1,-0.1,0.7999999999999999,0.0,0.0,0,-2.7880158,1.6044109,-0.34723696,-0.29006216,0.0046295454,0.9855193,-0.03198394,-0.6339143,1.0921458,0.036360595,-0.017974127,0.1668775,1.5255277,1.5364275
-0.1,-0.1,0.7999999999999999,0.0,0.0,0,-2.9733405,1.573814,-0.288079,-0.32878786,0.01795038,1.03218,-0.24736728,-0.63206106,1.0758781,0.030116687,-0.0131216,0.262777,1.5377045,1.559344
-0.1,-0.1,0.7999999999999999,0.0,0.0,0,-2.5959508,1.7007391,-0.44016635,-0.27983442,0.06149953,0.9706613,-0.015139932,-0.6878629,1.0680803,0.037332967,-0.08102374,0.18759018,1.5435026,1.537805
-0.1,-0.1,0.7999999999999999,0.0,0.0,0,-2.968071,1.6489531,-0.56778777,-0.32326937,0.08923384,0.9482777,-0.024945695,-0.60360193,1.0611043,0.056340273,-0.0202031,0.12921089,1.5298034,1.533636
-0.1,-0.1,0.7999999999999999,0.0,0.0,0,-2.8157759,1.6314609,-0.3765421,-0.3247252,0.017446421,1.0409793,-0.3585179,-0.61064017,1.0445184,0.053476363,-0.10046559,0.10501025,1.5435835,1.5059863
-0.1,-0.1,0.7999999999999999,0.0,0.0,0,-2.7156596,1.6654431,-0.49235132,-0.29148972,-0.05667081,0.89994156,0.113708645,-0.60777307,1.0900507,0.036431585,-0.02914471,0.122654796,1.5398121,1.5375885
-0.1,-0.1,0.7999999999999999,0.0,0.0,0,-2.948884,1.6465062,-0.43577367,-0.340679,0.08983811,1.0055141,-0.111179255,-0.5488042,1.1059703,0.063497484,0.0063650752,0.35334012,1.5465134,1.5387455
-0.1,-0.1,0.7999999999999999,0.0,0.0,0,-2.8167312,1.6655164,-0.37146917,-0.3193446,0.04878071,0.992043,-0.14526184,-0.56325656,1.0856414,0.03483977,-0.06922209,0.31455633,1.5526837,1.5252254
-0.1,-0.1,0.7999999999999999,0.0,0.0,0,-2.976561,1.7146155,-0.4149787,-0.40552214,-0.08960351,1.0537629,0.2433082,-0.4635601,1.0638872,0.045410164,0.04564736,0.3478901,1.5267483,1.5371362
-0.1,-0.1,0.7999999999999999,0.0,0.0,0,-2.78773,1.6376083,-0.30939865,-0.25300923,-0.06388664,0.91957355,-0.06254344,-0.61439025,1.094992,0.06329488,-0.14634024,0.11199435,1.544424,1.5272042
-0.1,-0.1,0.7999999999999999,0.0,0.0,0,-2.820307,1.7050902,-0.43014133,-0.40558872,0.088359036,1.0520744,-0.23617776,-0.56302845,1.0583082,0.05976263,-0.03109649,0.1701964,1.52787,1.5606371
-0.1,-0.1,0.7999999999999999,0.0,0.0,0,-2.9058604,1.7149116,-0.45973176,-0.36187935,-0.13590494,0.99891806,0.06150391,-0.5912482,1.0513273,0.028519701,-0.07108267,0.2648292,1.53764,1.4876989
-0.1,-0.1,0.7999999999999999,0.0,0.0,0,-2.682242,1.7327124,-0.39683047,-0.41447896,-0.07874709,1.0390693,-0.3873163,-0.69475055,1.11555,0.03644506,0.10337847,0.25475037,1.5396341,1.5660623
-0.1,-0.1,0.7999999999999999,0.0,0.0,0,-2.7410095,1.6943868,-0.38569033,-0.3590303,-0.0045246133,1.021708,-0.086329475,-0.6246025,1.0506575,0.06262954,-0.055721376,0.12191073,1.5376517,1.5270267
-0.1,-0.1,0.7999999999999999,0.0,0.0,0,-2.688063,1.712264,-0.41606084,-0.3489276,0.0551175,1.0212458,-0.20390688,-0.6724359,1.0572293,0.04048693,-0.09145082,0.21066155,1.5508274,1.53566
-0.1,-0.1,0.7999999999999999,0.0,0.0,0,-2.8984187,1.6932586,-0.34878778,-0.37317088,-0.033555098,0.9932551,-0.13603504,-0.6157353,1.0654874,0.04883963,-0.0065347534,0.3944717,1.557786,1.5359372
-0.1,-0.1,0.7999999999999999,0.0,0.0,0,-2.9107373,1.6817427,-0.36623135,-0.42275047,-0.02743668,1.0785478,-0.16169964,-0.5920214,1.0575025,0.031418983,-0.025632342,0.34080935,1.5499619,1.5290648
-0.1,-0.1,0.7999999999999999,0.0,0.0,0,-2.8238773,1.743778,-0.45406792,-0.3890159,0.035616558,0.9841143,0.042910352,-0.6599103,1.0818906,0.046277087,-0.10187074,0.18716878,1.5435908,1.5464367
-0.1,-0.1,0.7999999999999999,0.0,0.0,0,-2.8163853,1.6506145,-0.33836964,-0.34682012,-0.09931162,0.9868926,-0.113508694,-0.5991367,1.0603796,0.03223133,-0.012200598,0.08321311,1.5399748,1.540589
-0.1,-0.1,0.7999999999999999,0.0,0.0,0,-2.934998,1.6816864,-0.34642705,-0.43421635,-0.053202692,1.0404804,0.119018994,-0.6473872,1.0714118,0.04954962,-0.0962975,0.14767897,1.5531336,1.5386736
-0.1,-0.1,0.7999999999999999,0.0,0.0,0,-2.882482,1.6728228,-0.36857656,-0.4162246,0.036388066,1.0701444,-0.33139223,-0.6180904,1.0557892,0.07310748,0.02479553,0.24831162,1.5408183,1.4694263
-0.1,-0.1,0.7999999999999999,0.0,0.0,0,-2.9241738,1.7631134,-0.57386714,-0.3957401,-0.06733062,1.0279199,0.15760036,-0.6356637,1.0869862,0.054722864,-0.03537478,0.104174085,1.5401386,1.5510358
-0.1,-0.1,0.7999999999999999,0.0,0.0,0,-2.6873653,1.6294858,-0.3805365,-0.2759627,-0.17022914,0.9681279,-0.16151457,-0.67796004,1.0626014,0.040734906,0.04970045,0.26391622,1.5452988,1.5413979
-0.1,-0.1,0.7999999999999999,0.0,0.0,0,-2.8221178,1.7006276,-0.3689923,-0.37164593,-0.013087446,0.9971022,-0.010002448,-0.6122065,1.057631,0.064009875,-0.07370926,0.15995717,1.5401471,1.5333658
-0.1,-0.1,0.7999999999999999,0.0,0.0,0,-2.9692688,1.637898,-0.3467577,-0.3673435,0.06530276,0.9676999,-0.16373403,-0.68617445,1.0670067,0.058345053,-0.06705224,0.13174821,1.5439739,1.5359452
-0.1,-0.1,0.7999999999999999,0.0,0.0,0,-3.061666,1.6363208,-0.34797832,-0.45069945,0.17644466,1.0709563,-0.20617375,-0.5872266,1.0694578,0.04165711,0.004217717,0.22307152,1.5668355,1.5703923
-0.1,-0.1,0.7999999999999999,0.0,0.0,0,-2.9150608,1.5390369,-0.38460448,-0.18954511,0.1428479,0.81576705,-0.26378483,-0.70230955,1.065359,0.032262716,-0.056390632,0.17671175,1.5376858,1.5664897
