sanky1234/BimanualDexCatch/isaacgymenvs/cem_results/football_pose_-0.1_-0.2_1.4999999999999998_-0.5235987755982988_-0.5235987755982988_0_2025-05-25.csv
x,y,z,roll,pitch,yaw,robot1/joint1,robot1/joint2,robot1/joint3,robot1/joint4,robot1/joint5,robot1/joint6,robot1/joint7,robot2/joint1,robot2/joint2,robot2/joint3,robot2/joint4,robot2/joint5,robot2/joint6,robot2/joint7
-0.1,-0.2,1.4999999999999998,-0.5235987755982988,-0.5235987755982988,0,-0.3820144,-0.5215016,-0.21420504,-0.014212626,0.07008093,0.9154039,-0.43385136,-1.6782774,1.0054739,-0.65269977,1.051004,-0.6198821,0.5942312,-1.1549734
-0.1,-0.2,1.4999999999999998,-0.5235987755982988,-0.5235987755982988,0,-0.3756122,-0.53135335,0.07992357,0.088346384,0.5639082,1.088858,-0.99983627,-1.6774385,1.0050884,-0.65451056,1.0492421,-0.6233736,0.5893637,-1.1539975
-0.1,-0.2,1.4999999999999998,-0.5235987755982988,-0.5235987755982988,0,-0.3823547,-0.5349258,0.19955535,0.12861021,0.509222,1.1895219,-0.92583567,-1.6747364,1.0061553,-0.65691024,1.0519093,-0.62918746,0.591861,-1.1472242
-0.1,-0.2,1.4999999999999998,-0.5235987755982988,-0.5235987755982988,0,-0.39645457,-0.5546554,-0.8231277,0.25475407,0.23372154,1.2269177,-0.37095255,-1.6752251,1.0045246,-0.6553398,1.0536828,-0.62554,0.5853381,-1.128893
-0.1,-0.2,1.4999999999999998,-0.5235987755982988,-0.5235987755982988,0,-0.3307887,-0.5272275,-0.8791232,0.19089147,0.23496965,0.93131375,-1.1363748,-1.6747682,1.0035093,-0.6532401,1.0603244,-0.6298604,0.58970624,-1.1360537
-0.1,-0.2,1.4999999999999998,-0.5235987755982988,-0.5235987755982988,0,-0.404381,-0.52888596,0.35330325,-0.03384518,0.079137966,0.8062813,0.37390375,-1.6760933,1.0054042,-0.65810937,1.0503025,-0.6205948,0.5914755,-1.1425635
-0.1,-0.2,1.4999999999999998,-0.5235987755982988,-0.5235987755982988,0,-0.34975222,-0.5363274,0.07311852,-0.0119608445,0.69330966,0.8717908,-0.6998741,-1.6732869,1.0041597,-0.65734166,1.0667983,-0.62188107,0.58713984,-1.1360024
-0.1,-0.2,1.4999999999999998,-0.5235987755982988,-0.5235987755982988,0,-0.39669928,-0.52574056,0.0182337,0.24635577,0.31704327,1.0150355,1.0193634,-1.6736188,1.0043641,-0.65472233,1.0595833,-0.63803405,0.5917472,-1.1210427
-0.1,-0.2,1.4999999999999998,-0.5235987755982988,-0.5235987755982988,0,-0.4112612,-0.5464136,0.27740556,0.024650183,1.0635036,0.94941485,1.0400541,-1.6755017,1.0083106,-0.6556132,1.0546916,-0.6251476,0.5843416,-1.139311
-0.1,-0.2,1.4999999999999998,-0.5235987755982988,-0.5235987755982988,0,-0.3651814,-0.5425464,-0.013955136,0.19964038,0.5520527,0.9487959,-1.0533772,-1.675787,1.0037712,-0.65440434,1.0627182,-0.6286413,0.5888637,-1.1322349
-0.1,-0.2,1.4999999999999998,-0.5235987755982988,-0.5235987755982988,0,-0.362392,-0.5206771,0.20185004,0.12679112,-0.4854122,0.9743318,-0.7224499,-1.6778419,1.0062146,-0.6528997,1.0666956,-0.62496495,0.5897398,-1.1489455
-0.1,-0.2,1.4999999999999998,-0.5235987755982988,-0.5235987755982988,0,-0.38598382,-0.5236445,-0.78555197,0.08039706,-0.16594186,0.91485953,-1.844602,-1.6746266,1.0050721,-0.65371835,1.0655582,-0.6247306,0.5950056,-1.1343933
-0.1,-0.2,1.4999999999999998,-0.5235987755982988,-0.5235987755982988,0,-0.4184223,-0.52924544,-0.3792717,-0.014977577,0.4216038,0.67538315,0.35023507,-1.6742327,1.005418,-0.65188307,1.0525728,-0.61447287,0.5847639,-1.1460803
-0.1,-0.2,1.4999999999999998,-0.5235987755982988,-0.5235987755982988,0,-0.3848051,-0.52784854,0.47052616,0.41366416,0.24490096,1.0372229,0.90855014,-1.6758292,1.0028398,-0.6549402,1.0565202,-0.6116959,0.58906406,-1.1454213
-0.1,-0.2,1.4999999999999998,-0.5235987755982988,-0.5235987755982988,0,-0.35207474,-0.5430492,-0.76660484,-0.0064828424,-0.08195432,1.1378725,-0.13772371,-1.674954,1.0053877,-0.65127075,1.0611097,-0.62074137,0.5987597,-1.1473367
-0.1,-0.2,1.4999999999999998,-0.5235987755982988,-0.5235987755982988,0,-0.39157274,-0.520925,0.21516486,0.24610141,0.83626276,0.913822,0.8365036,-1.6739451,1.004901,-0.6541956,1.0587642,-0.64049214,0.5913888,-1.111801
-0.1,-0.2,1.4999999999999998,-0.5235987755982988,-0.5235987755982988,0,-0.43694177,-0.55231583,-0.6674367,0.12923416,0.20297232,0.8805144,-0.9626574,-1.6788385,1.0047959,-0.6568262,1.0547214,-0.6288353,0.58320516,-1.1365905
-0.1,-0.2,1.4999999999999998,-0.5235987755982988,-0.5235987755982988,0,-0.3718328,-0.54319143,0.45850235,0.0696338,0.020054692,0.99310344,0.7545785,-1.6771084,1.0050927,-0.65342903,1.0558592,-0.6223312,0.59264934,-1.1518134
-0.1,-0.2,1.4999999999999998,-0.5235987755982988,-0.5235987755982988,0,-0.3816412,-0.55883014,-0.7261539,0.162831,-0.16582786,0.75869095,0.5016298,-1.6759119,1.005338,-0.65489,1.0597359,-0.6271616,0.5908265,-1.1390041
-0.1,-0.2,1.4999999999999998,-0.5235987755982988,-0.5235987755982988,0,-0.3644916,-0.5324969,-0.73789054,0.11133878,0.28736252,1.1575234,0.36930066,-1.672568,1.0046508,-0.65452033,1.0543785,-0.62018406,0.59092164,-1.1479517
-0.1,-0.2,1.4999999999999998,-0.5235987755982988,-0.5235987755982988,0,-0.3976576,-0.5344451,-0.44293293,0.31050852,-0.18926658,1.0011656,0.73305213,-1.674924,1.0066302,-0.65429235,1.054224,-0.6353354,0.5895459,-1.1412272
-0.1,-0.2,1.4999999999999998,-0.5235987755982988,-0.5235987755982988,0,-0.40634537,-0.528245,0.2824586,0.3375822,0.7559677,0.9934279,-0.86879915,-1.674846,1.0051094,-0.65399367,1.0553916,-0.6227274,0.58962643,-1.1310418
-0.1,-0.2,1.4999999999999998,-0.5235987755982988,-0.5235987755982988,0,-0.35579777,-0.5585261,-0.17472562,0.13544697,0.27834985,1.0285084,-0.74624175,-1.6769671,1.0053706,-0.6542016,1.0622641,-0.6356251,0.5872349,-1.136459
-0.1,-0.2,1.4999999999999998,-0.5235987755982988,-0.5235987755982988,0,-0.36721617,-0.5356301,-0.34775016,0.26594365,0.0663996,0.9378703,-0.05354579,-1.678646,1.0050433,-0.65528774,1.0610266,-0.6315206,0.59322864,-1.1800907
-0.1,-0.2,1.4999999999999998,-0.5235987755982988,-0.5235987755982988,0,-0.3724332,-0.51725465,-0.68348694,0.01349914,0.70538414,0.88436794,-0.07887923,-1.6779165,1.0065527,-0.6566337,1.0575278,-0.6284548,0.59008753,-1.1502961
-0.1,-0.2,1.4999999999999998,-0.5235987755982988,-0.5235987755982988,0,-0.32432863,-0.5383178,0.6815514,0.10148234,0.08170637,0.8740611,-0.6066235,-1.6762445,1.0067819,-0.6519431,1.0548928,-0.63400936,0.58694845,-1.124783
-0.1,-0.2,1.4999999999999998,-0.5235987755982988,-0.5235987755982988,0,-0.3661428,-0.566825,-0.6688721,0.24797441,0.40109804,1.2200981,-1.6703603,-1.6813426,1.0038189,-0.65306866,1.0515904,-0.6459815,0.5866821,-1.1450678
-0.1,-0.2,1.4999999999999998,-0.5235987755982988,-0.5235987755982988,0,-0.3667113,-0.5172354,-0.8858838,0.045361448,0.15470265,1.197839,-0.4447676,-1.6788974,1.004224,-0.65396684,1.0602777,-0.6193335,0.5998603,-1.1264807
-0.1,-0.2,1.4999999999999998,-0.5235987755982988,-0.5235987755982988,0,-0.38601813,-0.5400611,0.31131104,0.11970815,0.23594216,1.0513016,-0.64416003,-1.6777618,1.006622,-0.6570737,1.0553353,-0.63120323,0.58755046,-1.135147
-0.1,-0.2,1.4999999999999998,-0.5235987755982988,-0.5235987755982988,0,-0.36628956,-0.5547872,0.005098897,0.09364602,0.18418483,0.7635611,-0.3889823,-1.6756257,1.0073788,-0.6566076,1.0599056,-0.62805897,0.5846256,-1.149186
-0.1,-0.2,1.4999999999999998,-0.5235987755982988,-0.5235987755982988,0,-0.38066602,-0.51997644,0.44508094,0.15606396,0.5041543,1.1117281,1.074871,-1.6759024,1.0051463,-0.65685225,1.0597941,-0.6261476,0.591622,-1.133781
-0.1,-0.2,1.4999999999999998,-0.5235987755982988,-0.5235987755982988,0,-0.41318846,-0.5189709,-0.413156,-0.09523333,0.04186246,1.0173582,-1.2204432,-1.6764749,1.0046539,-0.65422326,1.0621336,-0.625693,0.59294903,-1.1402411
-0.1,-0.2,1.4999999999999998,-0.5235987755982988,-0.5235987755982988,0,-0.36735272,-0.52069193,-0.38855615,0.16685921,-0.44971436,1.20641,0.6888283,-1.6745468,1.0033902,-0.6553199,1.0545444,-0.6261453,0.59414905,-1.1277636
-0.1,-0.2,1.4999999999999998,-0.5235987755982988,-0.5235987755982988,0,-0.3824125,-0.530686,-0.18718794,-0.041286338,0.7172507,1.0676001,0.3276533,-1.6757689,1.0061216,-0.6569037,1.0581654,-0.6204924,0.59128815,-1.1503042
-0.1,-0.2,1.4999999999999998,-0.5235987755982988,-0.5235987755982988,0,-0.40630555,-0.5332488,-0.40982285,0.10171373,0.5569833,1.07434,-0.1461106,-1.6755059,1.0052972,-0.6538291,1.0604846,-0.62646407,0.5786867,-1.130452
-0.1,-0.2,1.4999999999999998,-0.5235987755982988,-0.5235987755982988,0,-0.38580275,-0.5409947,-0.02901293,-0.02884778,-0.5244394,1.1327478,0.23490131,-1.6756538,1.004087,-0.6541837,1.0552362,-0.62612814,0.5862596,-1.1264622
-0.1,-0.2,1.4999999999999998,-0.5235987755982988,-0.5235987755982988,0,-0.3594383,-0.5482446,-0.06666966,-0.0025154809,0.27473375,0.9090574,-1.5286896,-1.6775826,1.004084,-0.65657717,1.0567467,-0.63446015,0.58445895,-1.1261878
-0.1,-0.2,1.4999999999999998,-0.5235987755982988,-0.5235987755982988,0,-0.37957194,-0.52468574,-0.74256164,0.18063268,0.081248865,1.1905496,-0.27316016,-1.6727797,1.0039226,-0.6547432,1.0622922,-0.6253562,0.5903249,-1.1148732
-0.1,-0.2,1.4999999999999998,-0.5235987755982988,-0.5235987755982988,0,-0.45294365,-0.5425108,0.20389129,0.2692333,0.21430661,0.9334985,-1.141764,-1.6758572,1.0067718,-0.6530021,1.0543954,-0.62514347,0.592161,-1.1658052
-0.1,-0.2,1.4999999999999998,-0.5235987755982988,-0.5235987755982988,0,-0.38483334,-0.5444981,-0.5976014,0.07460062,0.3574568,1.1977814,-0.6898564,-1.6749101,1.0031418,-0.6558141,1.0512033,-0.614064,0.5822301,-1.0914271
-0.1,-0.2,1.4999999999999998,-0.5235987755982988,-0.5235987755982988,0,-0.33856657,-0.5409156,0.18997371,0.39838806,0.5452929,1.0575618,-0.0055123423,-1.675683,1.0056328,-0.65492374,1.0575514,-0.6299088,0.5869336,-1.1437601
-0.1,-0.2,1.4999999999999998,-0.5235987755982988,-0.5235987755982988,0,-0.42720884,-0.53543335,-0.4477182,0.20292652,0.19338022,1.0964066,0.4969333,-1.6747745,1.006148,-0.6562181,1.0520754,-0.61427927,0.5865724,-1.1387374
-0.1,-0.2,1.4999999999999998,-0.5235987755982988,-0.5235987755982988,0,-0.39456373,-0.52996653,0.058608565,0.08487462,-0.13965832,0.8204277,0.16051115,-1.6766298,1.0039324,-0.65888095,1.0619817,-0.6309122,0.5949154,-1.1239781
-0.1,-0.2,1.4999999999999998,-0.5235987755982988,-0.5235987755982988,0,-0.35492983,-0.54686457,-0.37039775,0.04392806,0.3472132,0.8071828,-1.8386133,-1.6762142,1.0065433,-0.6542548,1.0525379,-0.6321727,0.5876765,-1.133351
-0.1,-0.2,1.4999999999999998,-0.5235987755982988,-0.5235987755982988,0,-0.37915263,-0.5673778,-0.022401242,0.10410999,-0.27770704,1.1074584,-0.354124,-1.677161,1.0045656,-0.6550785,1.0559059,-0.62463486,0.58758074,-1.1256778
-0.1,-0.2,1.4999999999999998,-0.5235987755982988,-0.5235987755982988,0,-0.38861427,-0.54877764,0.07675345,0.1586736,-0.110104956,0.81200546,0.16797708,-1.6749219,1.0053741,-0.65510976,1.0604799,-0.6172696,0.5934975,-1.1436504
-0.1,-0.2,1.4999999999999998,-0.5235987755982988,-0.5235987755982988,0,-0.36010906,-0.54223657,-0.40654,0.11416194,0.7695817,1.0127472,-0.7220555,-1.6750319,1.0031976,-0.6564992,1.0576669,-0.6330383,0.58495086,-1.1210952
-0.1,-0.2,1.4999999999999998,-0.5235987755982988,-0.5235987755982988,0,-0.33187678,-0.5516869,-0.055379994,0.19106902,0.03460378,1.0617025,-1.4734248,-1.6748093,1.0070817,-0.65323967,1.0566341,-0.62667155,0.58951795,-1.1453446
-0.1,-0.2,1.4999999999999998,-0.5235987755982988,-0.5235987755982988,0,-0.41506144,-0.52913123,-0.6078245,0.23816068,0.30985555,1.1036944,0.10247649,-1.6744845,1.006413,-0.66041315,1.0609343,-0.61482596,0.59828955,-1.1332481
-0.1,-0.2,1.4999999999999998,-0.5235987755982988,-0.5235987755982988,0,-0.35986567,-0.53972304,-0.2310661,0.15205808,0.17804134,0.8495589,-0.50863796,-1.6776373,1.003907,-0.65483415,1.0596626,-0.61599934,0.5868862,-1.144014
-0.1,-0.2,1.4999999999999998,-0.5235987755982988,-0.5235987755982988,0,-0.35345495,-0.53537846,-0.44491777,0.1498539,0.35338917,1.1551636,-0.7308584,-1.6753166,1.0070542,-0.65650976,1.0555851,-0.6167879,0.58139795,-1.1081862
-0.1,-0.2,1.4999999999999998,-0.5235987755982988,-0.5235987755982988,0,-0.3467684,-0.5628884,-0.44270635,-0.15010417,-0.48441094,1.1172605,-0.14625402,-1.6747143,1.0067912,-0.6522096,1.0560427,-0.63634646,0.58838874,-1.1354163
-0.1,-0.2,1.4999999999999998,-0.5235987755982988,-0.5235987755982988,0,-0.29452366,-0.52183783,-0.62006533,0.11166651,0.27786562,1.1559361,0.40355504,-1.6797979,1.0052059,-0.6546447,1.0486684,-0.63125086,0.5898008,-1.1234491
-0.1,-0.2,1.4999999999999998,-0.5235987755982988,-0.5235987755982988,0,-0.40403795,-0.53787273,-0.8673201,0.380423,0.5193192,0.77283096,-0.8142958,-1.6761973,1.0062181,-0.65475297,1.054051,-0.6166628,0.59358793,-1.1388395
-0.1,-0.2,1.4999999999999998,-0.5235987755982988,-0.5235987755982988,0,-0.32523093,-0.5408581,-0.9883925,0.35264936,0.2852598,1.2865492,-2.029486,-1.677112,1.0050427,-0.6526301,1.060445,-0.6303798,0.5912565,-1.1442401
-0.1,-0.2,1.4999999999999998,-0.5235987755982988,-0.5235987755982988,0,-0.37915766,-0.52423674,-0.08356125,0.13435526,-0.26588666,1.2239922,-0.02019585,-1.6760561,1.0042927,-0.65201116,1.0569974,-0.60488975,0.58514583,-1.1193079
-0.1,-0.2,1.4999999999999998,-0.5235987755982988,-0.5235987755982988,0,-0.41561076,-0.54231614,-0.3670859,0.36557305,0.0514503,0.66840667,0.22818604,-1.6729672,1.004275,-0.65384126,1.0623,-0.6203884,0.58208525,-1.1401086
-0.1,-0.2,1.4999999999999998,-0.5235987755982988,-0.5235987755982988,0,-0.37636775,-0.5289832,0.09655409,0.05878025,-0.31524095,1.238415,0.72283787,-1.6751294,1.0053419,-0.6537848,1.059742,-0.62029237,0.5927855,-1.1297582
-0.1,-0.2,1.4999999999999998,-0.5235987755982988,-0.5235987755982988,0,-0.38127723,-0.5407464,-0.46207482,0.24551532,0.35002542,1.1550804,-1.1174438,-1.6775215,1.0047271,-0.65507627,1.0574515,-0.6333069,0.59114647,-1.1337179
-0.1,-0.2,1.4999999999999998,-0.5235987755982988,-0.5235987755982988,0,-0.40102148,-0.5385338,-0.11833609,0.22199896,0.3616522,1.2651219,0.5530469,-1.6742573,1.0044788,-0.6551064,1.0641341,-0.6349569,0.58635,-1.1249156
-0.1,-0.2,1.4999999999999998,-0.5235987755982988,-0.5235987755982988,0,-0.39850238,-0.56159794,-0.5089829,0.16519505,0.43738377,0.93780345,-1.3407712,-1.674515,1.003267,-0.6554962,1.0528831,-0.627654,0.59473604,-1.1205571
-0.1,-0.2,1.4999999999999998,-0.5235987755982988,-0.5235987755982988,0,-0.39958543,-0.5304357,-0.30149952,0.14503238,-0.132515,1.4326802,0.47201693,-1.6754413,1.0064385,-0.65702933,1.0551685,-0.6372733,0.58426034,-1.1195676
-0.1,-0.2,1.4999999999999998,-0.5235987755982988,-0.5235987755982988,0,-0.3863796,-0.5392958,-0.21233101,0.13421325,0.36070395,0.970013,-0.15511458,-1.6747087,1.0059773,-0.6549186,1.0641446,-0.63879126,0.5932422,-1.1203547
-0.1,-0.2,1.4999999999999998,-0.5235987755982988,-0.5235987755982988,0,-0.37651297,-0.5557809,0.48553446,0.44455865,0.19121854,1.037083,-0.96324766,-1.6735249,1.0064899,-0.6544542,1.0608578,-0.63256186,0.5869485,-1.1165959
-0.1,-0.2,1.4999999999999998,-0.5235987755982988,-0.5235987755982988,0,-0.36969206,-0.5470328,-1.1394339,-0.13451837,0.003783895,0.99632853,-0.68834394,-1.6766974,1.0024,-0.6558535,1.0528518,-0.63159233,0.5879985,-1.11117
-0.1,-0.2,1.4999999999999998,-0.5235987755982988,-0.5235987755982988,0,-0.38949132,-0.5329273,-0.16367224,0.055007957,0.068597585,1.2453173,-1.9424736,-1.6738743,1.0062766,-0.65723175,1.0583482,-0.6366765,0.5850864,-1.1454403
-0.1,-0.2,1.4999999999999998,-0.5235987755982988,-0.5235987755982988,0,-0.3853095,-0.5340025,-0.108646445,0.3340906,0.3458758,1.0352094,-0.22438379,-1.6764107,1.005353,-0.65431887,1.0566684,-0.6390253,0.5901441,-1.1119587
-0.1,-0.2,1.4999999999999998,-0.5235987755982988,-0.5235987755982988,0,-0.42031732,-0.53506255,-0.025957955,0.07948406,0.20116344,1.0543729,-0.09239565,-1.6771207,1.0047001,-0.6527815,1.0529628,-0.6212804,0.5862517,-1.1366427
-0.1,-0.2,1.4999999999999998,-0.5235987755982988,-0.5235987755982988,0,-0.41807297,-0.5441525,-0.054485854,0.07166031,0.29847497,0.8981722,-0.7527424,-1.6781876,1.0051639,-0.6550819,1.0544989,-0.63591665,0.5911213,-1.1268356
-0.1,-0.2,1.4999999999999998,-0.5235987755982988,-0.5235987755982988,0,-0.46359903,-0.5534338,-0.21937542,0.07473944,0.2616844,0.7890448,-0.5008541,-1.6799527,1.0034204,-0.6537664,1.0533409,-0.6168836,0.58644766,-1.1347699
-0.1,-0.2,1.4999999999999998,-0.5235987755982988,-0.5235987755982988,0,-0.36045295,-0.53431714,0.030336754,0.42702565,0.2928716,0.9602317,-1.2026577,-1.6764646,1.0048414,-0.6513929,1.0572317,-0.6312137,0.5837063,-1.1276886
-0.1,-0.2,1.4999999999999998,-0.5235987755982988,-0.5235987755982988,0,-0.40838444,-0.53504264,0.15352768,0.15533313,0.9125186,0.82648736,-0.049209036,-1.6749467,1.0042695,-0.65194756,1.0592092,-0.61325586,0.59188426,-1.1271734
-0.1,-0.2,1.4999999999999998,-0.5235987755982988,-0.5235987755982988,0,-0.37581706,-0.5566957,0.11114752,0.045027804,0.25148097,1.1067216,-0.8482674,-1.6759363,1.0045439,-0.65316117,1.0500342,-0.6289471,0.58535874,-1.1527637
-0.1,-0.2,1.4999999999999998,-0.5235987755982988,-0.5235987755982988,0,-0.45069328,-0.55316204,-0.27183133,0.25215027,-0.66358185,0.9967291,0.6637148,-1.676291,1.00337,-0.65433955,1.0514824,-0.62147844,0.5795055,-1.1313837
-0.1,-0.2,1.4999999999999998,-0.5235987755982988,-0.5235987755982988,0,-0.38247353,-0.5378517,-0.06485892,0.3287102,0.12116008,1.0725328,0.086883,-1.6736964,1.0053265,-0.6550353,1.0524174,-0.61980075,0.5896675,-1.1695988
-0.1,-0.2,1.4999999999999998,-0.5235987755982988,-0.5235987755982988,0,-0.39332065,-0.5487554,0.52740127,0.23732148,0.8505368,1.235777,0.20390362,-1.6755517,1.005566,-0.6545733,1.0498127,-0.6231434,0.5899459,-1.1318978
-0.1,-0.2,1.4999999999999998,-0.5235987755982988,-0.5235987755982988,0,-0.41060978,-0.5599831,-0.05342618,-0.048906896,0.12382115,0.9509549,-0.7155006,-1.6736647,1.0042921,-0.6551088,1.0594635,-0.62551403,0.57755166,-1.1310477
-0.1,-0.2,1.4999999999999998,-0.5235987755982988,-0.5235987755982988,0,-0.3980686,-0.5187312,-0.015724203,0.25474223,-0.061032277,0.980837,0.33830288,-1.67943,1.0041739,-0.655499,1.0474368,-0.6404331,0.5916337,-1.117942
-0.1,-0.2,1.4999999999999998,-0.5235987755982988,-0.5235987755982988,0,-0.41473126,-0.55875796,0.36670563,0.13751353,-0.0626215,0.8950237,0.14489321,-1.6776209,1.005822,-0.6564443,1.0570008,-0.6342309,0.5925924,-1.1396775
-0.1,-0.2,1.4999999999999998,-0.5235987755982988,-0.5235987755982988,0,-0.39133587,-0.53745836,-0.88133967,0.2826314,-0.019156625,0.74068034,-0.40705425,-1.6761439,1.0045749,-0.660959,1.0539438,-0.63158035,0.5844406,-1.095875
-0.1,-0.2,1.4999999999999998,-0.5235987755982988,-0.5235987755982988,0,-0.34337395,-0.5627355,-0.42161188,0.15019009,0.69606626,0.67268854,-0.55769855,-1.6724327,1.0059896,-0.65175664,1.0519034,-0.625528,0.58586115,-1.1028439
-0.1,-0.2,1.4999999999999998,-0.5235987755982988,-0.5235987755982988,0,-0.38310048,-0.54613847,-0.23244712,0.37682143,0.38299462,1.1021112,0.5673407,-1.6777111,1.0059851,-0.65413463,1.0617882,-0.61796194,0.596535,-1.1343951
-0.1,-0.2,1.4999999999999998,-0.5235987755982988,-0.5235987755982988,0,-0.3949756,-0.5432173,-0.052046433,0.27410656,0.38658732,1.1357641,-2.0596297,-1.6761452,1.0036267,-0.65248334,1.0615605,-0.6457552,0.5994091,-1.1233754
-0.1,-0.2,1.4999999999999998,-0.5235987755982988,-0.5235987755982988,0,-0.35739666,-0.540332,0.3272494,0.23203473,0.24644613,0.97481024,0.0691631,-1.675178,1.0044776,-0.6532355,1.0516758,-0.6199392,0.5918088,-1.1271796
-0.1,-0.2,1.4999999999999998,-0.5235987755982988,-0.5235987755982988,0,-0.41102287,-0.52686924,-0.15483111,-0.006237142,-0.032586183,1.0384583,-1.1785437,-1.6762451,1.0053072,-0.6546981,1.0600761,-0.6189006,0.5890603,-1.1439495
-0.1,-0.2,1.4999999999999998,-0.5235987755982988,-0.5235987755982988,0,-0.4027158,-0.52899057,0.19986284,0.33651382,0.28272903,1.4115511,-0.8536558,-1.6719484,1.0046654,-0.65730935,1.0620576,-0.61853564,0.587253,-1.141846
-0.1,-0.2,1.4999999999999998,-0.5235987755982988,-0.5235987755982988,0,-0.36023057,-0.57212013,-0.06254881,0.35024583,0.15536577,1.2227592,0.011016545,-1.6735123,1.0060112,-0.6571891,1.0528805,-0.62399834,0.5889968,-1.1346948
-0.1,-0.2,1.4999999999999998,-0.5235987755982988,-0.5235987755982988,0,-0.39604324,-0.52953243,0.20271023,0.2009605,0.10032887,0.84866005,-0.41414586,-1.6766577,1.004485,-0.6537809,1.0587336,-0.62704414,0.59548575,-1.1222672
-0.1,-0.2,1.4999999999999998,-0.5235987755982988,-0.5235987755982988,0,-0.42643332,-0.52700955,0.18273592,0.18570042,0.26982203,0.8722339,-1.4635496,-1.6758435,1.0052335,-0.6532314,1.0578735,-0.61985517,0.5878994,-1.0917246
-0.1,-0.2,1.4999999999999998,-0.5235987755982988,-0.5235987755982988,0,-0.39307866,-0.54505336,-0.47577256,0.40026432,-0.2765217,0.7751601,-0.5615505,-1.6779145,1.006377,-0.65599364,1.0634035,-0.6244355,0.58901864,-1.1336418
-0.1,-0.2,1.4999999999999998,-0.5235987755982988,-0.5235987755982988,0,-0.38713464,-0.5320788,-0.16167656,0.1942299,0.6638003,1.0454633,1.2396191,-1.6758399,1.0044507,-0.6539212,1.0578349,-0.62326074,0.59370244,-1.1065972
-0.1,-0.2,1.4999999999999998,-0.5235987755982988,-0.5235987755982988,0,-0.40704727,-0.54275084,-0.24863018,0.31965086,0.44949362,1.0624002,-2.103888,-1.6757426,1.002322,-0.6534432,1.0538299,-0.6193573,0.5886511,-1.1230289
-0.1,-0.2,1.4999999999999998,-0.5235987755982988,-0.5235987755982988,0,-0.42352006,-0.5234148,-0.5358502,0.11404223,0.14747731,1.2127156,-0.44283837,-1.6757884,1.0049833,-0.65633786,1.054872,-0.6292201,0.58412206,-1.155245
-0.1,-0.2,1.4999999999999998,-0.5235987755982988,-0.5235987755982988,0,-0.38470182,-0.5507273,-0.1782293,0.12262175,0.25713575,1.2158387,-0.9406807,-1.6772527,1.0060613,-0.6527687,1.061003,-0.63493764,0.58944726,-1.1247039
-0.1,-0.2,1.4999999999999998,-0.5235987755982988,-0.5235987755982988,0,-0.3809993,-0.5407524,0.007948163,0.030772706,0.30711788,0.93811595,0.4238883,-1.6762427,1.0052049,-0.6521485,1.0591209,-0.6238927,0.58776855,-1.1309379
-0.1,-0.2,1.4999999999999998,-0.5235987755982988,-0.5235987755982988,0,-0.3619257,-0.54943216,-0.14437637,0.19466305,0.3227728,0.9968691,-0.43334714,-1.6729858,1.0047238,-0.65484077,1.0601159,-0.63579273,0.5853618,-1.1218917
-0.1,-0.2,1.4999999999999998,-0.5235987755982988,-0.5235987755982988,0,-0.38272956,-0.54223144,-0.12867324,0.44691268,0.12863074,1.1824055,-0.5463423,-1.6743549,1.0077703,-0.6539711,1.0606618,-0.6310321,0.584165,-1.1280135
-0.1,-0.2,1.4999999999999998,-0.5235987755982988,-0.5235987755982988,0,-0.3471056,-0.54735595,0.5487248,0.22228633,0.76049465,0.99552214,-0.1508689,-1.6774906,1.0041382,-0.6551212,1.0505399,-0.62297106,0.5939446,-1.1180025
-0.1,-0.2,1.4999999999999998,-0.5235987755982988,-0.5235987755982988,0,-0.36569297,-0.53820217,-1.1252931,-0.30086008,0.032185834,1.094395,0.24019015,-1.67082,1.0062128,-0.65417373,1.0580903,-0.62640774,0.5809545,-1.1135341
-0.1,-0.2,1.4999999999999998,-0.5235987755982988,-0.5235987755982988,0,-0.34325862,-0.5325506,0.25049657,0.17472607,0.5181985,0.90598327,-0.34701288,-1.6753455,1.0045671,-0.65346086,1.0500389,-0.60603607,0.5940816,-1.1222285
-0.1,-0.2,1.4999999999999998,-0.5235987755982988,-0.5235987755982988,0,-0.39451113,-0.5346691,-0.9302012,0.15843187,0.6519313,0.6922749,-0.79975957,-1.6725411,1.0050372,-0.6513476,1.0558317,-0.62137234,0.5927243,-1.1171422
-0.1,-0.2,1.4999999999999998,-0.5235987755982988,-0.5235987755982988,0,-0.3798097,-0.55428904,0.036274828,0.28136593,-0.014773169,1.0527009,-1.4175022,-1.6766943,1.0056058,-0.6538224,1.0593942,-0.6239919,0.58800226,-1.1407466
-0.1,-0.2,1.4999999999999998,-0.5235987755982988,-0.5235987755982988,0,-0.3880173,-0.53735465,-0.87810785,0.34993714,0.31631014,0.8333015,-0.23524785,-1.6750525,1.0019603,-0.65526825,1.0545017,-0.62494075,0.5945536,-1.1672527
-0.1,-0.2,1.4999999999999998,-0.5235987755982988,-0.5235987755982988,0,-0.40147132,-0.5361488,-0.4397266,-0.12098238,0.0533933,1.1712645,-0.81311345,-1.673527,1.0020579,-0.6535693,1.0571797,-0.63135797,0.5892692,-1.0888447
-0.1,-0.2,1.4999999999999998,-0.5235987755982988,-0.5235987755982988,0,-0.400656,-0.53721195,0.063883886,0.22689645,0.48935848,0.8151827,-0.4278636,-1.6740053,1.0045015,-0.6552303,1.0561996,-0.62323624,0.59177876,-1.1539884
-0.1,-0.2,1.4999999999999998,-0.5235987755982988,-0.5235987755982988,0,-0.38839772,-0.5313166,-0.21518612,0.013427879,-0.557388,1.0791622,-0.27811074,-1.6741201,1.005683,-0.65460724,1.0670916,-0.6111196,0.5988686,-1.0832274
-0.1,-0.2,1.4999999999999998,-0.5235987755982988,-0.5235987755982988,0,-0.37435937,-0.53202343,-0.6350676,0.11767172,0.02826179,0.95209575,-0.17726755,-1.6737742,1.0051962,-0.65265036,1.0536009,-0.6332211,0.5837394,-1.1056063
-0.1,-0.2,1.4999999999999998,-0.5235987755982988,-0.5235987755982988,0,-0.37855875,-0.54259884,-0.38152158,0.16434339,-0.31783214,0.8989295,0.14286342,-1.6731895,1.0028918,-0.6554615,1.048573,-0.63006383,0.58548987,-1.092274
-0.1,-0.2,1.4999999999999998,-0.5235987755982988,-0.5235987755982988,0,-0.44790223,-0.52959454,-0.089814454,0.22997846,-0.08104268,0.87004256,-1.4073191,-1.675088,1.0059478,-0.65701574,1.0515074,-0.619894,0.59063953,-1.1528502
-0.1,-0.2,1.4999999999999998,-0.5235987755982988,-0.5235987755982988,0,-0.40380073,-0.56226164,0.46664545,0.3121755,-0.1698818,0.8923206,-1.1004243,-1.6747707,1.0060999,-0.656347,1.0532587,-0.6304853,0.58998454,-1.1512285
-0.1,-0.2,1.4999999999999998,-0.5235987755982988,-0.5235987755982988,0,-0.39683428,-0.52823704,0.4672627,0.28894988,0.23957759,0.8425676,-0.4617024,-1.675237,1.0042375,-0.65609163,1.061779,-0.6142096,0.5951591,-1.1197321
-0.1,-0.2,1.4999999999999998,-0.5235987755982988,-0.5235987755982988,0,-0.41916296,-0.5383731,-0.11609861,0.0704604,0.4270902,0.8471802,-0.4983648,-1.6789122,1.0054995,-0.65843225,1.0651394,-0.62543327,0.5905952,-1.1137328
-0.1,-0.2,1.4999999999999998,-0.5235987755982988,-0.5235987755982988,0,-0.41327822,-0.5425217,0.45477998,0.22657618,-0.020067485,0.88882744,1.2312984,-1.674497,1.0027506,-0.65468925,1.0582567,-0.6244961,0.5907765,-1.0937493
-0.1,-0.2,1.4999999999999998,-0.5235987755982988,-0.5235987755982988,0,-0.420613,-0.5519503,0.4875116,0.4731492,-0.08455813,1.093703,-0.4237347,-1.678526,1.0060436,-0.65726215,1.0550612,-0.63279504,0.5861006,-1.1126062
-0.1,-0.2,1.4999999999999998,-0.5235987755982988,-0.5235987755982988,0,-0.39637977,-0.5528716,-0.57023275,0.2580729,0.27710792,0.94205916,-1.5766814,-1.674858,1.0045568,-0.65744275,1.0535357,-0.6345191,0.5936423,-1.1097634
-0.1,-0.2,1.4999999999999998,-0.5235987755982988,-0.5235987755982988,0,-0.40271637,-0.5314033,-0.4745961,0.24949431,0.56704307,0.64482707,-0.89333785,-1.68054,1.0042286,-0.6540781,1.0545967,-0.63364786,0.585588,-1.1125906
-0.1,-0.2,1.4999999999999998,-0.5235987755982988,-0.5235987755982988,0,-0.34948877,-0.5195779,-0.010584176,0.20231776,0.43534857,0.9925614,-0.66774285,-1.6743768,1.0063732,-0.6555345,1.0593053,-0.6150154,0.5851068,-1.1305159
-0.1,-0.2,1.4999999999999998,-0.5235987755982988,-0.5235987755982988,0,-0.37978762,-0.5308674,-0.066626735,0.08494062,0.02509735,0.84643686,-1.2481545,-1.6733768,1.005559,-0.65221983,1.0591208,-0.61902446,0.58899665,-1.1635964
-0.1,-0.2,1.4999999999999998,-0.5235987755982988,-0.5235987755982988,0,-0.40568992,-0.5398653,0.5996504,0.23850575,0.29867387,0.81261235,-0.25681835,-1.6762425,1.0063722,-0.65578604,1.0614009,-0.6270985,0.59324074,-1.1094676
-0.1,-0.2,1.4999999999999998,-0.5235987755982988,-0.5235987755982988,0,-0.39549235,-0.5183033,0.61383367,0.24135205,0.8003535,1.1039376,0.57116383,-1.6784021,1.0076871,-0.65426385,1.0573179,-0.6190448,0.59098244,-1.1503726
-0.1,-0.2,1.4999999999999998,-0.5235987755982988,-0.5235987755982988,0,-0.42796898,-0.5468261,-0.39395466,0.2617171,0.38483894,1.1903211,-0.47500163,-1.6730399,1.0045781,-0.6539522,1.0601561,-0.6116808,0.58686644,-1.169959
-0.1,-0.2,1.4999999999999998,-0.5235987755982988,-0.5235987755982988,0,-0.39199796,-0.5351112,0.5845561,0.0806568,0.20783189,0.75730264,-1.2063048,-1.6790682,1.006207,-0.6584629,1.0582916,-0.6272299,0.59474164,-1.1295415
-0.1,-0.2,1.4999999999999998,-0.5235987755982988,-0.5235987755982988,0,-0.39641517,-0.55395645,-0.22291495,0.03356552,0.59893847,0.9716743,-0.307777,-1.675226,1.0040398,-0.6598951,1.0588894,-0.6276325,0.5876105,-1.1290888
-0.1,-0.2,1.4999999999999998,-0.5235987755982988,-0.5235987755982988,0,-0.4313101,-0.5244494,-0.19136916,0.20010367,-0.18566763,1.0973285,-0.6817487,-1.6751807,1.0068662,-0.6579896,1.0585731,-0.6219598,0.5987175,-1.1472299
-0.1,-0.2,1.4999999999999998,-0.5235987755982988,-0.5235987755982988,0,-0.3478955,-0.5417786,0.4665714,0.14362216,-0.39222717,1.1051927,-1.4031605,-1.6739571,1.00488,-0.65519094,1.0560694,-0.62342,0.59377956,-1.1197473
-0.1,-0.2,1.4999999999999998,-0.5235987755982988,-0.5235987755982988,0,-0.36549255,-0.52856,0.005135536,0.111822195,0.16650006,1.1436859,0.22034319,-1.6734033,1.0029026,-0.6532945,1.0452374,-0.6306868,0.59162086,-1.1762434
-0.1,-0.2,1.4999999999999998,-0.5235987755982988,-0.5235987755982988,0,-0.4027083,-0.53205866,-0.8612213,0.20286195,0.34759587,0.72818667,1.2837963,-1.675375,1.0079155,-0.65385664,1.0560946,-0.6311383,0.5925829,-1.1130903
-0.1,-0.2,1.4999999999999998,-0.5235987755982988,-0.5235987755982988,0,-0.35292804,-0.5683722,-0.16733111,0.21655127,0.80956435,0.82463795,-0.8339544,-1.6744388,1.0048634,-0.6542669,1.0539424,-0.6257818,0.587157,-1.1190758
-0.1,-0.2,1.4999999999999998,-0.5235987755982988,-0.5235987755982988,0,-0.38974035,-0.5407257,-0.37550518,0.16424002,0.06800074,1.2359242,-0.5055163,-1.6734633,1.0040612,-0.65198463,1.0578468,-0.6286187,0.5862723,-1.1162994
-0.1,-0.2,1.4999999999999998,-0.5235987755982988,-0.5235987755982988,0,-0.35498968,-0.53221226,-0.22554617,0.13893569,0.6222355,1.2038922,0.76960903,-1.6737745,1.0044087,-0.65284336,1.0594404,-0.6278304,0.587333,-1.1178467
-0.1,-0.2,1.4999999999999998,-0.5235987755982988,-0.5235987755982988,0,-0.3929964,-0.5514238,-0.019174764,0.015071493,-0.38875008,0.8667801,-0.30832916,-1.6753049,1.00343,-0.6552971,1.0544827,-0.6343288,0.5911792,-1.1368203
-0.1,-0.2,1.4999999999999998,-0.5235987755982988,-0.5235987755982988,0,-0.3942092,-0.5531999,-0.42842916,-0.09278687,0.91846097,1.083959,-0.31014428,-1.6733158,1.006019,-0.6578674,1.0544024,-0.62370473,0.584096,-1.1285666
-0.1,-0.2,1.4999999999999998,-0.5235987755982988,-0.5235987755982988,0,-0.3884114,-0.5484492,-0.35837165,-0.17781767,0.34266776,1.1812253,-0.13336469,-1.6728588,1.0062524,-0.65353876,1.0582947,-0.63115704,0.59290564,-1.1136684
-0.1,-0.2,1.4999999999999998,-0.5235987755982988,-0.5235987755982988,0,-0.39936775,-0.52841866,0.057282448,0.22603291,-0.07739213,1.0785363,0.44552645,-1.6743436,1.004474,-0.65584224,1.0558181,-0.63183695,0.5911482,-1.1544751
-0.1,-0.2,1.4999999999999998,-0.5235987755982988,-0.5235987755982988,0,-0.41238797,-0.54719955,-0.26546285,0.21608083,0.031710096,1.197749,0.26154396,-1.6768469,1.0043571,-0.65325344,1.064161,-0.62581277,0.58449084,-1.1238105
-0.1,-0.2,1.4999999999999998,-0.5235987755982988,-0.5235987755982988,0,-0.3824308,-0.5417333,0.43730006,0.227642,0.32735267,0.85617167,0.030727284,-1.675987,1.0041115,-0.65289557,1.0643456,-0.62685347,0.5890905,-1.0928437
-0.1,-0.2,1.4999999999999998,-0.5235987755982988,-0.5235987755982988,0,-0.4119693,-0.5458284,-0.37756285,-0.13371626,0.49629793,0.9787491,-0.9594612,-1.6775042,1.0040928,-0.6546112,1.0462999,-0.6196524,0.59196705,-1.1220545
-0.1,-0.2,1.4999999999999998,-0.5235987755982988,-0.5235987755982988,0,-0.43583876,-0.5425536,-0.31457967,0.14361587,0.1453331,1.0481908,-0.64215195,-1.6760039,1.0048358,-0.6547824,1.0593153,-0.6150943,0.5882881,-1.1512738
-0.1,-0.2,1.4999999999999998,-0.5235987755982988,-0.5235987755982988,0,-0.36600953,-0.5553411,-0.112278834,0.25860032,0.21516825,1.0837926,0.32055956,-1.6768923,1.0054067,-0.65301293,1.0589918,-0.62690026,0.5894695,-1.130167
-0.1,-0.2,1.4999999999999998,-0.5235987755982988,-0.5235987755982988,0,-0.41938856,-0.53792685,-0.33557972,0.26912114,0.4557109,1.0025544,-0.75223756,-1.6778394,1.0051184,-0.656018,1.0629568,-0.63538784,0.5917422,-1.1056273
-0.1,-0.2,1.4999999999999998,-0.5235987755982988,-0.5235987755982988,0,-0.34277883,-0.5458057,-0.43417835,0.192237,-0.19094248,1.1477412,-0.11777472,-1.675192,1.0048333,-0.65397537,1.0524452,-0.6128769,0.59511346,-1.1212474
-0.1,-0.2,1.4999999999999998,-0.5235987755982988,-0.5235987755982988,0,-0.35887095,-0.5386355,0.49846596,0.041200217,0.490882,0.98501444,0.055693734,-1.6759986,1.0047197,-0.654157,1.0547074,-0.61961275,0.5941168,-1.1135814
-0.1,-0.2,1.4999999999999998,-0.5235987755982988,-0.5235987755982988,0,-0.4063888,-0.54638237,0.075148195,0.13147089,0.22126845,1.3024706,-0.23899205,-1.6745056,1.0050802,-0.65305656,1.054949,-0.62628007,0.5904961,-1.1186539
-0.1,-0.2,1.4999999999999998,-0.5235987755982988,-0.5235987755982988,0,-0.36265162,-0.54657936,0.2557718,0.23259954,0.5549902,1.0532781,-1.347654,-1.6752908,1.0040972,-0.6538132,1.0571126,-0.6273517,0.5960285,-1.1063309
-0.1,-0.2,1.4999999999999998,-0.5235987755982988,-0.5235987755982988,0,-0.4308956,-0.52355856,0.10264578,0.04880225,0.036669012,1.1548464,-0.86139894,-1.6777203,1.003258,-0.6557097,1.0582696,-0.6335265,0.59069014,-1.1545812
-0.1,-0.2,1.4999999999999998,-0.5235987755982988,-0.5235987755982988,0,-0.38332656,-0.54391646,-0.08885209,0.054368228,-0.34303993,0.9395584,-0.9902376,-1.6776049,1.0066328,-0.65490335,1.055319,-0.6223605,0.5975035,-1.1362728
-0.1,-0.2,1.4999999999999998,-0.5235987755982988,-0.5235987755982988,0,-0.37059715,-0.551629,-0.2402031,0.019775975,0.47439626,1.2015953,-0.916173,-1.6749985,1.0065646,-0.6538314,1.046581,-0.6303126,0.59190613,-1.1184672
-0.1,-0.2,1.4999999999999998,-0.5235987755982988,-0.5235987755982988,0,-0.46290863,-0.5488334,-0.48112917,0.050045684,0.65512097,0.73221123,1.0382785,-1.6754631,1.005293,-0.6521921,1.056356,-0.6111085,0.5932246,-1.146455
-0.1,-0.2,1.4999999999999998,-0.5235987755982988,-0.5235987755982988,0,-0.38134503,-0.5333854,-0.42112654,0.2933028,-0.32948524,1.2772924,-0.109220855,-1.6765091,1.0058285,-0.6540229,1.0530589,-0.6217711,0.5888467,-1.123956
-0.1,-0.2,1.4999999999999998,-0.5235987755982988,-0.5235987755982988,0,-0.42638132,-0.5477859,-0.19783023,0.1753818,-0.024791714,1.1146567,-2.1535308,-1.6784545,1.0067099,-0.6546977,1.056232,-0.62000024,0.5916189,-1.1112349
-0.1,-0.2,1.4999999999999998,-0.5235987755982988,-0.5235987755982988,0,-0.42262736,-0.5276254,0.4084989,0.23060757,0.62122035,1.1552938,-1.202004,-1.6761544,1.0066587,-0.6548937,1.0650177,-0.6415498,0.5912829,-1.0997186
-0.1,-0.2,1.4999999999999998,-0.5235987755982988,-0.5235987755982988,0,-0.39237416,-0.53106314,-0.340975,0.25783178,0.41860542,1.2541504,-0.8232383,-1.6773679,1.0074844,-0.6535434,1.0574864,-0.6221899,0.58372176,-1.1116573
-0.1,-0.2,1.4999999999999998,-0.5235987755982988,-0.5235987755982988,0,-0.37826774,-0.540159,-1.1613483,-0.019648572,0.23609827,1.2585046,-1.3005244,-1.6778071,1.0056739,-0.65195554,1.0530925,-0.6274264,0.59113485,-1.1217238
-0.1,-0.2,1.4999999999999998,-0.5235987755982988,-0.5235987755982988,0,-0.42400497,-0.5470935,-0.14154047,0.31810394,0.22340898,1.1902558,0.49898094,-1.6768516,1.0049161,-0.64994246,1.0515865,-0.62746465,0.5813273,-1.117851
-0.1,-0.2,1.4999999999999998,-0.5235987755982988,-0.5235987755982988,0,-0.34849823,-0.53283894,0.037890345,-0.0025531165,-0.16062284,1.1049628,-0.021174734,-1.6742952,1.0046178,-0.65209514,1.05687,-0.62423116,0.58676344,-1.1126583
-0.1,-0.2,1.4999999999999998,-0.5235987755982988,-0.5235987755982988,0,-0.3828429,-0.53124756,-0.31479153,0.17511329,0.29490212,1.0243566,0.21369918,-1.6746062,1.0058311,-0.6518673,1.0550994,-0.6218351,0.58877665,-1.1239567
-0.1,-0.2,1.4999999999999998,-0.5235987755982988,-0.5235987755982988,0,-0.4172125,-0.5771741,-0.52220625,0.13459934,0.10479927,0.9515062,-0.5649236,-1.6781754,1.0044836,-0.65497017,1.0568866,-0.62575376,0.592957,-1.1433508
-0.1,-0.2,1.4999999999999998,-0.5235987755982988,-0.5235987755982988,0,-0.4026332,-0.5418256,-0.35836205,0.2033436,0.42640013,1.1364843,1.4082276,-1.6772032,1.0051211,-0.65536296,1.0626072,-0.6172489,0.59298724,-1.1422216
-0.1,-0.2,1.4999999999999998,-0.5235987755982988,-0.5235987755982988,0,-0.4316531,-0.5317826,-0.25465912,0.3703805,0.5926023,0.7854364,-0.35513282,-1.6723878,1.0057157,-0.65396863,1.0579863,-0.6430343,0.59319013,-1.1440327
-0.1,-0.2,1.4999999999999998,-0.5235987755982988,-0.5235987755982988,0,-0.41820416,-0.53584933,-0.6384048,0.07850381,0.66967034,1.1389335,-0.031800933,-1.6743014,1.004241,-0.65092355,1.0539895,-0.63763046,0.59961957,-1.1548481
-0.1,-0.2,1.4999999999999998,-0.5235987755982988,-0.5235987755982988,0,-0.4505281,-0.5373801,-0.5023155,0.1945097,0.2789911,0.94649845,-0.24008547,-1.6765897,1.0046836,-0.65323955,1.0485942,-0.6437446,0.589446,-1.1264474
-0.1,-0.2,1.4999999999999998,-0.5235987755982988,-0.5235987755982988,0,-0.35334307,-0.5308336,-0.30764607,0.10185144,0.18080881,0.79765254,-0.27748683,-1.6771743,1.004149,-0.65345263,1.0532737,-0.6273828,0.587954,-1.1083888
-0.1,-0.2,1.4999999999999998,-0.5235987755982988,-0.5235987755982988,0,-0.37879977,-0.54023385,-0.038968693,0.0363581,0.07221456,0.85877305,-1.00261,-1.6745944,1.0063697,-0.6573391,1.0586299,-0.62923944,0.59325755,-1.169605
-0.1,-0.2,1.4999999999999998,-0.5235987755982988,-0.5235987755982988,0,-0.40909222,-0.5437031,-0.59490705,0.015222645,0.046353783,1.0809929,0.2013016,-1.6751881,1.0034118,-0.65516585,1.0609761,-0.6312843,0.5856353,-1.152353
-0.1,-0.2,1.4999999999999998,-0.5235987755982988,-0.5235987755982988,0,-0.36663523,-0.56082857,0.3098976,0.29885244,0.4067249,0.8998898,-0.84924793,-1.6760423,1.0048541,-0.65648365,1.0480182,-0.637213,0.58706236,-1.1439962
-0.1,-0.2,1.4999999999999998,-0.5235987755982988,-0.5235987755982988,0,-0.4037806,-0.53624386,-0.17403296,0.14393428,0.059273914,1.0761406,-0.85970145,-1.6732173,1.0041279,-0.65911263,1.059926,-0.6324613,0.58982205,-1.1484902
-0.1,-0.2,1.4999999999999998,-0.5235987755982988,-0.5235987755982988,0,-0.3983059,-0.5362531,0.36665502,0.0051182434,0.5799186,1.3799839,0.7321025,-1.6739136,1.0060575,-0.6560159,1.0671636,-0.6285342,0.5923458,-1.1288292
-0.1,-0.2,1.4999999999999998,-0.5235987755982988,-0.5235987755982988,0,-0.4207423,-0.56232136,-0.56389093,0.17371948,0.49665526,1.2895111,-0.4670915,-1.6731426,1.0051898,-0.6520484,1.0485095,-0.62396944,0.5840594,-1.1167392
-0.1,-0.2,1.4999999999999998,-0.5235987755982988,-0.5235987755982988,0,-0.4068408,-0.5536816,-0.35752717,0.26523054,-0.009998941,1.1280245,0.15133555,-1.675567,1.0030316,-0.65751886,1.0594404,-0.6329862,0.58616835,-1.1404498
-0.1,-0.2,1.4999999999999998,-0.5235987755982988,-0.5235987755982988,0,-0.44018367,-0.5387075,-1.2279475,0.17853963,0.38398343,0.9380021,-0.13145787,-1.6733085,1.0052787,-0.65267086,1.0637978,-0.63291085,0.592255,-1.1307093
-0.1,-0.2,1.4999999999999998,-0.5235987755982988,-0.5235987755982988,0,-0.42058155,-0.5400532,-0.29331475,0.04233579,0.18892024,0.9230494,-1.1108247,-1.6743486,1.006236,-0.65584064,1.0482601,-0.640275,0.5817134,-1.1094059
-0.1,-0.2,1.4999999999999998,-0.5235987755982988,-0.5235987755982988,0,-0.34563017,-0.54847956,-0.25467935,0.36249393,0.35492694,1.0769885,-1.3807328,-1.6744622,1.005713,-0.6540091,1.056645,-0.6400584,0.5877479,-1.0977324
-0.1,-0.2,1.4999999999999998,-0.5235987755982988,-0.5235987755982988,0,-0.39715746,-0.5425162,-8.1314975e-05,0.15837295,-0.20219383,1.2428143,-0.50631344,-1.6751355,1.004989,-0.6514657,1.0556552,-0.6276427,0.5875885,-1.1131259
-0.1,-0.2,1.4999999999999998,-0.5235987755982988,-0.5235987755982988,0,-0.33082256,-0.5501064,-0.717346,-0.10533693,0.46368542,0.94994605,-1.250374,-1.6789708,1.0066031,-0.6546801,1.0598167,-0.61510754,0.59215295,-1.1066492
-0.1,-0.2,1.4999999999999998,-0.5235987755982988,-0.5235987755982988,0,-0.4138976,-0.52796084,0.21458156,0.036738325,0.5309744,1.417172,-0.36148593,-1.6782357,1.0055736,-0.65399534,1.0558827,-0.63465893,0.5915646,-1.1165379
-0.1,-0.2,1.4999999999999998,-0.5235987755982988,-0.5235987755982988,0,-0.36525485,-0.54893994,-0.5668631,0.12676239,-0.059788827,1.270045,-0.8389247,-1.676287,1.0057806,-0.6546295,1.0519899,-0.6339498,0.5918081,-1.1305087
-0.1,-0.2,1.4999999999999998,-0.5235987755982988,-0.5235987755982988,0,-0.4370539,-0.54866284,0.086507365,-0.099484995,0.028887505,1.2122126,0.7674666,-1.6732997,1.004932,-0.65289134,1.0618157,-0.64072466,0.58777714,-1.1246789
-0.1,-0.2,1.4999999999999998,-0.5235987755982988,-0.5235987755982988,0,-0.38378835,-0.5282343,0.035195373,0.11515099,0.21704037,1.0339937,0.0943274,-1.6781148,1.0059547,-0.65570784,1.0499109,-0.6222586,0.593008,-1.112584
-0.1,-0.2,1.4999999999999998,-0.5235987755982988,-0.5235987755982988,0,-0.444365,-0.5325583,-0.44190395,0.39799565,0.7645292,0.9759521,0.28114805,-1.6748463,1.0053469,-0.65451455,1.0528733,-0.63112885,0.5899598,-1.1456152
-0.1,-0.2,1.4999999999999998,-0.5235987755982988,-0.5235987755982988,0,-0.40747216,-0.5722303,0.036992792,0.38001913,-0.012939276,1.196825,0.06784169,-1.673241,1.0046896,-0.65249395,1.0592167,-0.61908466,0.59123623,-1.1238314
-0.1,-0.2,1.4999999999999998,-0.5235987755982988,-0.5235987755982988,0,-0.40473044,-0.5480177,-0.50374556,0.11982735,0.6404262,0.8969306,0.16307527,-1.674506,1.0053439,-0.6535728,1.0572866,-0.6359137,0.5919211,-1.0920706
-0.1,-0.2,1.4999999999999998,-0.5235987755982988,-0.5235987755982988,0,-0.4205911,-0.53703064,-0.19204287,0.36149976,0.7597604,1.0926634,-0.7289232,-1.6754539,1.0055251,-0.6530169,1.0492721,-0.6435765,0.58696365,-1.1302414
-0.1,-0.2,1.4999999999999998,-0.5235987755982988,-0.5235987755982988,0,-0.4217258,-0.56195605,0.07404316,0.10313913,0.4874889,0.9899308,0.3297053,-1.6758996,1.0041691,-0.6509998,1.0618097,-0.62422746,0.5912203,-1.1209859
-0.1,-0.2,1.4999999999999998,-0.5235987755982988,-0.5235987755982988,0,-0.40039408,-0.55995893,0.16204002,0.05974078,0.005498453,1.2303542,0.6892212,-1.6769968,1.0075611,-0.6556644,1.0530524,-0.63334376,0.58172685,-1.1037731
-0.1,-0.2,1.4999999999999998,-0.5235987755982988,-0.5235987755982988,0,-0.3827579,-0.5499295,-0.010137244,0.24682121,0.18348557,1.1303052,0.3071239,-1.6750329,1.0071496,-0.65665865,1.0566188,-0.6241142,0.5932482,-1.0901365
-0.1,-0.2,1.4999999999999998,-0.5235987755982988,-0.5235987755982988,0,-0.44940627,-0.5590348,0.019813169,0.05970345,0.5820994,0.9962578,-0.8411181,-1.6768625,1.0063792,-0.65569776,1.0582703,-0.6320432,0.5942136,-1.138531
-0.1,-0.2,1.4999999999999998,-0.5235987755982988,-0.5235987755982988,0,-0.43078256,-0.57065696,-0.10124351,0.19289234,0.2985845,1.0745171,-1.3677378,-1.6750728,1.0030898,-0.6566088,1.0532341,-0.6317861,0.5956234,-1.1360824
-0.1,-0.2,1.4999999999999998,-0.5235987755982988,-0.5235987755982988,0,-0.41482553,-0.5526022,-0.38773072,0.20151845,0.42314613,1.306792,-1.1901201,-1.675507,1.0064105,-0.65712416,1.0551388,-0.63514584,0.60044354,-1.097736
-0.1,-0.2,1.4999999999999998,-0.5235987755982988,-0.5235987755982988,0,-0.3588829,-0.5383445,0.14795758,0.04814592,0.08363888,0.90631163,-1.6403012,-1.6759135,1.0049152,-0.6542185,1.0557456,-0.62365216,0.59267044,-1.1481999
-0.1,-0.2,1.4999999999999998,-0.5235987755982988,-0.5235987755982988,0,-0.41252425,-0.5248656,-0.42690337,0.31570482,-0.07426332,1.3980986,-1.3117591,-1.6768366,1.0069176,-0.6559678,1.0592685,-0.6336636,0.59732956,-1.1542329
-0.1,-0.2,1.4999999999999998,-0.5235987755982988,-0.5235987755982988,0,-0.3900299,-0.50306636,-0.5873582,0.23690414,0.3150219,1.2494854,-1.0440634,-1.6744107,1.006086,-0.65541476,1.0577409,-0.6239893,0.5955899,-1.1630012
-0.1,-0.2,1.4999999999999998,-0.5235987755982988,-0.5235987755982988,0,-0.42420322,-0.54169357,-0.34780392,0.06358679,0.43813398,0.8562003,-0.28773695,-1.6728618,1.0061156,-0.65327257,1.0602195,-0.62893033,0.5867792,-1.1311239
-0.1,-0.2,1.4999999999999998,-0.5235987755982988,-0.5235987755982988,0,-0.3694272,-0.51212525,-0.22856294,0.24296972,0.38599247,1.1948117,-1.3590711,-1.6786474,1.0040921,-0.65433455,1.0673668,-0.62683326,0.58947605,-1.1472833
-0.1,-0.2,1.4999999999999998,-0.5235987755982988,-0.5235987755982988,0,-0.39024875,-0.53036505,-0.7785671,0.21437934,0.12010344,1.1927872,-0.23609349,-1.6755421,1.0045184,-0.6515969,1.0547595,-0.61340535,0.57964665,-1.1261817
-0.1,-0.2,1.4999999999999998,-0.5235987755982988,-0.5235987755982988,0,-0.4049116,-0.5431948,-0.117700905,0.37929022,0.06698524,0.88306963,-0.7400294,-1.676379,1.0044537,-0.655392,1.0541102,-0.61936265,0.5794404,-1.1453046
-0.1,-0.2,1.4999999999999998,-0.5235987755982988,-0.5235987755982988,0,-0.38913193,-0.5419823,-1.0855705,0.13742962,0.621793,1.1485744,0.28351384,-1.6739695,1.0066751,-0.64948773,1.0517242,-0.61501706,0.5907966,-1.1480058
-0.1,-0.2,1.4999999999999998,-0.5235987755982988,-0.5235987755982988,0,-0.39601964,-0.5464673,-0.24732295,0.25880846,0.45060435,1.117805,-0.18558672,-1.6754138,1.003406,-0.6511109,1.0537485,-0.6344435,0.5841284,-1.1592996
-0.1,-0.2,1.4999999999999998,-0.5235987755982988,-0.5235987755982988,0,-0.3858967,-0.5388368,-0.029666089,0.16675682,-0.087306686,0.5829453,0.14178023,-1.6737852,1.0034823,-0.65600187,1.0558846,-0.62285805,0.57716507,-1.0916953
-0.1,-0.2,1.4999999999999998,-0.5235987755982988,-0.5235987755982988,0,-0.37553555,-0.5168965,-0.849889,-0.054074075,0.051748242,1.0655901,-0.16404058,-1.6792437,1.0057889,-0.65524703,1.056943,-0.6268227,0.58471185,-1.1362661
-0.1,-0.2,1.4999999999999998,-0.5235987755982988,-0.5235987755982988,0,-0.34891617,-0.5383255,-0.51310277,0.39205912,0.218129,0.7095265,-1.0672585,-1.6750591,1.0033181,-0.65473384,1.0519085,-0.6289986,0.5903766,-1.1444356
-0.1,-0.2,1.4999999999999998,-0.5235987755982988,-0.5235987755982988,0,-0.41896123,-0.5191323,-0.050939806,-0.029704334,0.5806141,0.83131534,0.25340426,-1.6774943,1.0054263,-0.65742904,1.0602442,-0.6299468,0.59009844,-1.1308792
-0.1,-0.2,1.4999999999999998,-0.5235987755982988,-0.5235987755982988,0,-0.4506057,-0.5332851,-0.0434196,0.21011075,0.8811477,1.0187736,0.30023775,-1.6754079,1.002922,-0.656423,1.0518613,-0.62086433,0.5858905,-1.1074414
-0.1,-0.2,1.4999999999999998,-0.5235987755982988,-0.5235987755982988,0,-0.3441606,-0.51735467,-0.09516017,0.16450906,0.43511873,0.81243074,0.6202848,-1.6780646,1.003567,-0.65574133,1.051341,-0.6225549,0.5815363,-1.1139786
-0.1,-0.2,1.4999999999999998,-0.5235987755982988,-0.5235987755982988,0,-0.37245977,-0.54001194,-0.26792234,0.4512215,0.020840336,1.243219,0.44527552,-1.6774873,1.0063758,-0.6528579,1.0625942,-0.62785834,0.5871468,-1.1217039
-0.1,-0.2,1.4999999999999998,-0.5235987755982988,-0.5235987755982988,0,-0.38737413,-0.51948875,0.056621715,0.029441034,1.0056401,0.8683558,0.24315901,-1.6746132,1.0046738,-0.6523336,1.0575447,-0.6308532,0.59412825,-1.16041
-0.1,-0.2,1.4999999999999998,-0.5235987755982988,-0.5235987755982988,0,-0.38610786,-0.5303334,0.039089825,0.21831731,0.11864487,0.9930271,-0.30673006,-1.673891,1.0055053,-0.6545262,1.05899,-0.6277689,0.5977928,-1.1271658
-0.1,-0.2,1.4999999999999998,-0.5235987755982988,-0.5235987755982988,0,-0.38460076,-0.5527897,0.7513523,0.33071166,0.6608403,0.8319345,-1.564572,-1.6778415,1.0058054,-0.6570554,1.0597756,-0.61862,0.58453923,-1.1134222
-0.1,-0.2,1.4999999999999998,-0.5235987755982988,-0.5235987755982988,0,-0.37070668,-0.5456336,-0.41663218,0.15134403,-0.24668925,0.8431129,-0.03615889,-1.6787437,1.0065508,-0.654455,1.062,-0.63204044,0.5877723,-1.1371208
-0.1,-0.2,1.4999999999999998,-0.5235987755982988,-0.5235987755982988,0,-0.3262089,-0.5244234,-0.14277108,0.2123858,0.24559192,0.7701979,-0.21502002,-1.6755537,1.0047003,-0.6521104,1.0558119,-0.6242803,0.5901453,-1.1264867
-0.1,-0.2,1.4999999999999998,-0.5235987755982988,-0.5235987755982988,0,-0.42472383,-0.5128066,0.18167311,-0.17067312,-0.019257998,0.7829628,0.86779916,-1.6780887,1.0051904,-0.65359664,1.0556735,-0.64128584,0.58844775,-1.1553813
-0.1,-0.2,1.4999999999999998,-0.5235987755982988,-0.5235987755982988,0,-0.3243147,-0.56022006,-0.9122705,0.3064557,0.43971422,0.90953267,0.054864787,-1.6771849,1.0063818,-0.6543641,1.0655473,-0.63220173,0.5924485,-1.1101425
-0.1,-0.2,1.4999999999999998,-0.5235987755982988,-0.5235987755982988,0,-0.39103514,-0.5310616,-0.46464568,0.120761424,-0.48425823,1.0047196,-1.4435126,-1.677095,1.0046611,-0.6546486,1.0505801,-0.6209409,0.59095216,-1.1233363
-0.1,-0.2,1.4999999999999998,-0.5235987755982988,-0.5235987755982988,0,-0.4089722,-0.559903,-0.116225556,0.20229967,0.5201281,1.0961518,0.7222399,-1.6800814,1.0057999,-0.6574938,1.0571742,-0.63016415,0.58706146,-1.1452647
-0.1,-0.2,1.4999999999999998,-0.5235987755982988,-0.5235987755982988,0,-0.43487754,-0.52934194,-0.023088712,0.24132176,0.4094517,0.94739133,-0.82771665,-1.6751628,1.0087246,-0.656831,1.052653,-0.633333,0.59104085,-1.1316464
-0.1,-0.2,1.4999999999999998,-0.5235987755982988,-0.5235987755982988,0,-0.38063285,-0.54109544,-0.12795113,0.42704403,-0.29247504,1.0320288,-1.0281916,-1.6746619,1.0059102,-0.6516709,1.0628023,-0.61870164,0.583916,-1.14142
-0.1,-0.2,1.4999999999999998,-0.5235987755982988,-0.5235987755982988,0,-0.41130456,-0.5530212,-0.06241176,0.11863971,-0.23656523,1.0576973,-0.6885894,-1.6761789,1.0048995,-0.65553033,1.0611879,-0.6229677,0.5849909,-1.1024498
-0.1,-0.2,1.4999999999999998,-0.5235987755982988,-0.5235987755982988,0,-0.3959053,-0.547854,0.22009778,0.15716094,0.47235838,0.9040059,-0.61616904,-1.6767071,1.0053988,-0.6540833,1.0498847,-0.624472,0.59915495,-1.1365902
-0.1,-0.2,1.4999999999999998,-0.5235987755982988,-0.5235987755982988,0,-0.39225674,-0.5523693,-0.12614672,0.62983733,0.48504916,0.8107312,0.97257966,-1.6742715,1.0065281,-0.6555912,1.0527014,-0.6300966,0.59424186,-1.1303425
-0.1,-0.2,1.4999999999999998,-0.5235987755982988,-0.5235987755982988,0,-0.40797034,-0.5494321,-0.2868679,-0.06880152,0.31097057,0.8729548,-0.78195196,-1.6754681,1.0073465,-0.655542,1.0656979,-0.6282098,0.59313184,-1.1264844
-0.1,-0.2,1.4999999999999998,-0.5235987755982988,-0.5235987755982988,0,-0.45039847,-0.55631894,0.4529019,0.21461469,0.39924604,0.9254703,-0.24716313,-1.6740279,1.0051028,-0.65520686,1.0570792,-0.6187185,0.5842622,-1.1296225
-0.1,-0.2,1.4999999999999998,-0.5235987755982988,-0.5235987755982988,0,-0.35495397,-0.5360985,-0.08077771,0.27649584,0.62130207,1.0122405,0.7772395,-1.6791818,1.0034041,-0.6560428,1.0610595,-0.62171084,0.5841502,-1.1248585
-0.1,-0.2,1.4999999999999998,-0.5235987755982988,-0.5235987755982988,0,-0.43783554,-0.5307678,0.1018527,0.37806624,0.30503598,1.0097097,0.1001445,-1.6747224,1.005102,-0.6560176,1.0489218,-0.62254363,0.5831947,-1.0904459
-0.1,-0.2,1.4999999999999998,-0.5235987755982988,-0.5235987755982988,0,-0.41690776,-0.5555915,-0.30551156,0.258627,0.45174766,1.0418271,0.6420414,-1.6781397,1.0045877,-0.65225995,1.0605531,-0.6286655,0.59053266,-1.135593
-0.1,-0.2,1.4999999999999998,-0.5235987755982988,-0.5235987755982988,0,-0.40306482,-0.54434615,-0.035352323,0.18766536,1.0757003,0.80079734,0.19835292,-1.6754701,1.0068728,-0.6536166,1.0595448,-0.624565,0.58386683,-1.1222416
-0.1,-0.2,1.4999999999999998,-0.5235987755982988,-0.5235987755982988,0,-0.3889633,-0.5362493,0.3748897,0.3441697,0.033037975,0.90051174,-0.8224487,-1.6753948,1.0054342,-0.6559659,1.0537435,-0.6360067,0.5937911,-1.1183234
-0.1,-0.2,1.4999999999999998,-0.5235987755982988,-0.5235987755982988,0,-0.35961232,-0.5417425,-0.1715915,0.38543293,0.5167257,1.002823,0.10848396,-1.6747453,1.0075421,-0.6536396,1.0444796,-0.6291037,0.58454984,-1.1542538
-0.1,-0.2,1.4999999999999998,-0.5235987755982988,-0.5235987755982988,0,-0.4075515,-0.5349978,-0.115240775,0.056362253,-0.19318712,0.6033297,1.4972407,-1.6755964,1.0059679,-0.65671873,1.0570949,-0.6290566,0.5866974,-1.1242524
-0.1,-0.2,1.4999999999999998,-0.5235987755982988,-0.5235987755982988,0,-0.38256857,-0.5491224,-0.3534311,0.11210408,0.286392,1.1180698,-0.35771865,-1.677049,1.0061033,-0.654529,1.0567247,-0.64582264,0.57916766,-1.1141583
-0.1,-0.2,1.4999999999999998,-0.5235987755982988,-0.5235987755982988,0,-0.39835274,-0.54286134,-0.33074462,0.07908835,0.16516525,1.2112346,-0.2371159,-1.67707,1.0042256,-0.6513992,1.0528628,-0.62199265,0.5881487,-1.1254698
-0.1,-0.2,1.4999999999999998,-0.5235987755982988,-0.5235987755982988,0,-0.42184448,-0.5440343,-0.15588973,0.020759303,0.16653253,0.88652074,-1.4113661,-1.6771588,1.005797,-0.65564996,1.0589886,-0.63954777,0.58829165,-1.1137482
-0.1,-0.2,1.4999999999999998,-0.5235987755982988,-0.5235987755982988,0,-0.3963522,-0.5438781,-1.0214415,0.084898435,0.21531637,1.2276655,-0.5637268,-1.6773361,1.0049912,-0.65857565,1.0527009,-0.626987,0.58946186,-1.1094689
-0.1,-0.2,1.4999999999999998,-0.5235987755982988,-0.5235987755982988,0,-0.38673493,-0.5186686,0.008843596,0.14754255,0.23896597,0.774779,0.30693772,-1.6780207,1.0055012,-0.6542739,1.05515,-0.61965793,0.5894424,-1.1253322
-0.1,-0.2,1.4999999999999998,-0.5235987755982988,-0.5235987755982988,0,-0.38035747,-0.5464571,-0.60980535,0.3116484,0.2689105,1.0300006,-1.7671183,-1.6771722,1.002553,-0.6518675,1.0616463,-0.62351197,0.595979,-1.1386198
-0.1,-0.2,1.4999999999999998,-0.5235987755982988,-0.5235987755982988,0,-0.37328067,-0.53981596,-0.3888265,0.15074229,0.19208635,0.9510322,0.41825724,-1.6759974,1.0052831,-0.6509513,1.0533118,-0.6152141,0.59356266,-1.1253234
-0.1,-0.2,1.4999999999999998,-0.5235987755982988,-0.5235987755982988,0,-0.46379283,-0.5535172,0.21495682,0.28470638,-0.1934882,1.0761763,-0.65075576,-1.6747302,1.006711,-0.6555365,1.0594976,-0.6241069,0.59141034,-1.1342295
-0.1,-0.2,1.4999999999999998,-0.5235987755982988,-0.5235987755982988,0,-0.38952875,-0.54224527,-0.077380605,0.2566529,-0.0931465,1.1671333,-0.10102632,-1.6752361,1.0064046,-0.65271395,1.0547787,-0.6274463,0.58931494,-1.1157751
-0.1,-0.2,1.4999999999999998,-0.5235987755982988,-0.5235987755982988,0,-0.38696906,-0.5519283,0.31689173,-0.076636866,-0.13461222,0.98846185,0.16193153,-1.6760007,1.0052404,-0.655203,1.0534153,-0.6089327,0.59299344,-1.1071905
-0.1,-0.2,1.4999999999999998,-0.5235987755982988,-0.5235987755982988,0,-0.38068828,-0.56317496,0.32419446,0.1475601,0.23043607,0.94562584,-0.28990233,-1.6723413,1.0056663,-0.6531259,1.0576226,-0.62915003,0.5846317,-1.1115655
-0.1,-0.2,1.4999999999999998,-0.5235987755982988,-0.5235987755982988,0,-0.36207968,-0.52498347,-0.01300248,0.108190894,0.044901952,1.2988917,-0.5759319,-1.6767844,1.0045313,-0.6581967,1.056734,-0.62043697,0.58945805,-1.1082356
-0.1,-0.2,1.4999999999999998,-0.5235987755982988,-0.5235987755982988,0,-0.42366305,-0.5517007,-0.487362,0.14955884,0.13793303,1.1645027,-1.2424433,-1.6766963,1.0052739,-0.6559537,1.0595454,-0.6299641,0.5870893,-1.1491055
-0.1,-0.2,1.4999999999999998,-0.5235987755982988,-0.5235987755982988,0,-0.39763233,-0.53512144,-0.19839346,0.26590362,-0.14797196,0.93218696,0.08104661,-1.6764024,1.0039687,-0.65391266,1.0599997,-0.633988,0.5921911,-1.1010352
-0.1,-0.2,1.4999999999999998,-0.5235987755982988,-0.5235987755982988,0,-0.35828692,-0.5434063,-0.26403034,0.23128197,0.14906786,1.1262645,0.6754081,-1.6775761,1.0049192,-0.6584582,1.0563546,-0.62284714,0.59341806,-1.1260499
-0.1,-0.2,1.4999999999999998,-0.5235987755982988,-0.5235987755982988,0,-0.36765778,-0.5375058,-0.20685607,0.30593944,0.42532343,1.344277,-0.7246331,-1.6776314,1.0043633,-0.6542933,1.0572777,-0.6313678,0.59206474,-1.1040915
-0.1,-0.2,1.4999999999999998,-0.5235987755982988,-0.5235987755982988,0,-0.4327484,-0.55941945,0.5674222,0.16643003,0.08856617,0.8643454,-0.032025777,-1.6747053,1.0038103,-0.6539216,1.0572326,-0.63754904,0.59315413,-1.1155086
-0.1,-0.2,1.4999999999999998,-0.5235987755982988,-0.5235987755982988,0,-0.3372429,-0.5245303,-0.53774166,0.021559246,0.3732234,1.0963978,0.28370553,-1.6771363,1.0060463,-0.6545342,1.0536876,-0.60308087,0.5927491,-1.1606365
-0.1,-0.2,1.4999999999999998,-0.5235987755982988,-0.5235987755982988,0,-0.43373087,-0.54346627,0.11782111,0.30443224,0.5709548,1.0005562,0.15908855,-1.6737874,1.007075,-0.6568807,1.0585524,-0.6246161,0.58509386,-1.145609
-0.1,-0.2,1.4999999999999998,-0.5235987755982988,-0.5235987755982988,0,-0.4032928,-0.54301876,-0.9600366,0.20933515,0.09182782,0.751606,-0.15757254,-1.6753796,1.0071348,-0.65586066,1.0557065,-0.6304026,0.58155644,-1.144127
-0.1,-0.2,1.4999999999999998,-0.5235987755982988,-0.5235987755982988,0,-0.41752738,-0.5405928,0.4134093,0.16746493,0.30520836,1.1510723,-0.61399394,-1.6777596,1.0056298,-0.6558106,1.0624788,-0.62988156,0.5943492,-1.1412175
-0.1,-0.2,1.4999999999999998,-0.5235987755982988,-0.5235987755982988,0,-0.39744937,-0.53425837,-0.11536228,0.069043875,0.16185476,1.2299589,0.15325116,-1.6758524,1.004717,-0.65124613,1.057283,-0.6291121,0.5998275,-1.1290429
-0.1,-0.2,1.4999999999999998,-0.5235987755982988,-0.5235987755982988,0,-0.3928669,-0.54178494,0.09325647,0.06891189,-0.109513044,0.8909447,0.031804807,-1.6752659,1.0050297,-0.6513641,1.0545009,-0.63113475,0.58296716,-1.1238173
-0.1,-0.2,1.4999999999999998,-0.5235987755982988,-0.5235987755982988,0,-0.38678327,-0.5421422,-0.78228116,0.07152764,-0.24529791,0.90849465,-0.45304707,-1.6742314,1.0031537,-0.6540844,1.0530481,-0.63452476,0.59068227,-1.107466
-0.1,-0.2,1.4999999999999998,-0.5235987755982988,-0.5235987755982988,0,-0.3483775,-0.5491256,0.08150744,0.081537575,0.15826187,0.9214207,0.08420612,-1.6789087,1.0044385,-0.6578591,1.056399,-0.62580776,0.5825743,-1.1244165
-0.1,-0.2,1.4999999999999998,-0.5235987755982988,-0.5235987755982988,0,-0.40667465,-0.5523314,0.5339636,0.31799474,0.027738642,1.1807914,-0.46069738,-1.675416,1.0060649,-0.658275,1.0604225,-0.6305829,0.590591,-1.1552863
-0.1,-0.2,1.4999999999999998,-0.5235987755982988,-0.5235987755982988,0,-0.4043414,-0.51140916,-0.009936778,-0.050849583,-0.21814439,0.8668138,0.4109125,-1.6757678,1.0060426,-0.6542115,1.0554973,-0.6242635,0.5942443,-1.1080811
-0.1,-0.2,1.4999999999999998,-0.5235987755982988,-0.5235987755982988,0,-0.3590017,-0.518368,0.0028922022,-0.009830602,0.3313138,1.1122438,-1.8099228,-1.6752489,1.0044436,-0.65553933,1.0508584,-0.6253688,0.594549,-1.1241091
-0.1,-0.2,1.4999999999999998,-0.5235987755982988,-0.5235987755982988,0,-0.3883618,-0.51165473,-0.44117755,0.22830522,0.079402424,0.72628325,-1.1286368,-1.6745148,1.0040835,-0.6522755,1.0483468,-0.61620003,0.5881031,-1.113884
