sanky1234/BimanualDexCatch/isaacgymenvs/cem_results/football_pose_0.1_0.1_0.7999999999999999_0.0_0.0_0_2025-05-27.csv
x,y,z,roll,pitch,yaw,robot1/joint1,robot1/joint2,robot1/joint3,robot1/joint4,robot1/joint5,robot1/joint6,robot1/joint7,robot2/joint1,robot2/joint2,robot2/joint3,robot2/joint4,robot2/joint5,robot2/joint6,robot2/joint7
0.1,0.1,0.7999999999999999,0.0,0.0,0,-1.6375107,1.3048818,0.19959308,-0.18566443,0.13044733,1.379154,1.0600095,1.7849815,0.9301662,-0.9078537,0.7726641,0.88764876,1.3007623,-0.18652716
0.1,0.1,0.7999999999999999,0.0,0.0,0,-1.6774793,1.2636673,0.20124784,-0.21416721,0.012093147,1.4042485,1.1703987,1.7765932,1.0239204,-0.807491,0.7573824,0.83484155,1.4854349,-0.07283226
0.1,0.1,0.7999999999999999,0.0,0.0,0,-1.7257622,1.3521776,0.22488181,-0.1501442,0.034498356,1.2869203,1.4705426,1.7114325,0.87827337,-0.96287835,0.79247326,0.798176,1.4747082,-0.25082266
0.1,0.1,0.7999999999999999,0.0,0.0,0,-1.703898,1.4236842,0.20824334,-0.41441515,0.015828848,1.4431803,1.5865115,1.5509372,0.9559566,-0.8711056,0.79391235,0.98592025,1.299858,-0.18869947
0.1,0.1,0.7999999999999999,0.0,0.0,0,-1.6327215,1.3522023,0.20424972,-0.25825426,0.07084489,1.3719137,1.4574589,1.7399764,0.9031575,-0.8966903,0.7693158,0.9770624,1.3446499,-0.055128828
0.1,0.1,0.7999999999999999,0.0,0.0,0,-1.7020907,1.3339179,0.21293537,-0.23224875,0.036545176,1.3902434,1.2867361,1.6706356,0.91567034,-0.82568413,0.8461395,0.8990286,1.30512,0.036675792
0.1,0.1,0.7999999999999999,0.0,0.0,0,-1.7392856,1.3471292,0.21534273,-0.09266863,0.032651935,1.3768148,1.6271999,1.6771872,0.9466171,-0.8166401,0.82048565,0.80174804,1.3566417,-0.2220888
0.1,0.1,0.7999999999999999,0.0,0.0,0,-1.6559632,1.3176587,0.1436322,-0.09262736,0.027119054,1.5366728,1.4670348,1.7162668,0.976237,-0.8107643,0.7969521,0.8804035,1.2905393,-0.012807204
0.1,0.1,0.7999999999999999,0.0,0.0,0,-1.6558799,1.2933428,0.22070056,-0.2437091,0.13275167,1.401824,1.3452457,1.8076757,0.8865778,-0.80939525,0.79737145,0.79212725,1.343547,-0.36506274
0.1,0.1,0.7999999999999999,0.0,0.0,0,-1.706415,1.3298571,0.22638084,-0.2732487,0.08376561,1.3288467,1.4467112,1.7119188,0.93161935,-0.96389616,0.8577381,0.9278663,1.3542743,-0.31785232
0.1,0.1,0.7999999999999999,0.0,0.0,0,-1.6862172,1.3293285,0.21292463,-0.27001813,0.16534294,1.4055239,1.4720223,1.6969286,0.95682824,-0.8466521,0.7681382,0.8069122,1.511463,-0.004690773
0.1,0.1,0.7999999999999999,0.0,0.0,0,-1.6215669,1.2656962,0.24473402,-0.28682038,0.08620307,1.4329678,1.7303861,1.6455461,0.918112,-0.875551,0.80364245,0.9299461,1.3235371,-0.9858074
0.1,0.1,0.7999999999999999,0.0,0.0,0,-1.6163157,1.3415684,0.17077626,-0.18240558,-0.015278376,1.4127516,1.419792,1.6878572,0.9701855,-0.8709325,0.77051014,0.81070125,1.3437229,-0.26780683
0.1,0.1,0.7999999999999999,0.0,0.0,0,-1.6855333,1.2876604,0.1691968,-0.28996357,0.0963438,1.4068077,1.514878,1.8626385,0.9368557,-0.85290736,0.78767663,0.9195764,1.2557856,-0.19463058
0.1,0.1,0.7999999999999999,0.0,0.0,0,-1.6342081,1.2992297,0.21734028,-0.16679709,-0.0050770785,1.4181567,1.6325595,1.7650213,0.93154454,-0.7855213,0.8028047,0.74655,1.1849607,-0.24695373
0.1,0.1,0.7999999999999999,0.0,0.0,0,-1.7025354,1.2617635,0.27055967,-0.25891283,0.062086307,1.3201448,1.590096,1.674957,0.9537034,-0.79534227,0.8334469,0.90917665,1.3823181,0.029560022
0.1,0.1,0.7999999999999999,0.0,0.0,0,-1.7106433,1.3224542,0.21874544,-0.15693575,0.06785198,1.4629173,1.509722,1.7462305,0.9549014,-0.83152306,0.7395122,0.8811468,1.3387412,-0.34433493
0.1,0.1,0.7999999999999999,0.0,0.0,0,-1.7720119,1.2354152,0.23908147,-0.19146587,0.09273147,1.3646902,1.7484335,1.5697293,0.9202629,-0.76532453,0.7662484,0.96874815,1.3242145,-0.27822295
0.1,0.1,0.7999999999999999,0.0,0.0,0,-1.6208888,1.2692567,0.2391981,-0.2288945,0.12480192,1.4212409,1.5517428,1.5863986,0.95473087,-0.7866533,0.8093945,0.9207229,1.3240598,-0.7572602
0.1,0.1,0.7999999999999999,0.0,0.0,0,-1.6644404,1.333997,0.15683173,-0.27188364,0.01779025,1.4256839,1.5234219,1.6074759,1.0037004,-0.8162434,0.79626536,0.8412666,1.2622898,-0.5186753
0.1,0.1,0.7999999999999999,0.0,0.0,0,-1.6227996,1.3224142,0.21663761,-0.28375915,0.014635246,1.5015388,1.8126067,1.6937007,0.9645097,-0.8473443,0.81718284,0.95749205,1.3212082,-0.45857793
0.1,0.1,0.7999999999999999,0.0,0.0,0,-1.7469625,1.289653,0.16735102,-0.26509964,0.058894865,1.3977294,1.5078954,1.6907871,0.9312681,-0.9268235,0.77515215,0.8649942,1.2106745,-0.19803347
0.1,0.1,0.7999999999999999,0.0,0.0,0,-1.6691164,1.1951957,0.1820897,-0.24984765,0.092632495,1.4489422,1.4826634,1.7745855,0.96532476,-0.8695987,0.8054453,1.0591676,1.4345195,-0.2684449
0.1,0.1,0.7999999999999999,0.0,0.0,0,-1.7550998,1.2654963,0.2229675,-0.27221495,0.07764251,1.4094712,1.4829253,1.6135473,0.88381946,-0.80552804,0.72356015,0.8904215,1.4283444,0.1573861
0.1,0.1,0.7999999999999999,0.0,0.0,0,-1.6908764,1.2305634,0.12374249,-0.31728604,0.10373672,1.4722962,1.6674596,1.6354903,0.95823926,-0.8184443,0.81865567,0.86781496,1.4124666,-0.2755643
0.1,0.1,0.7999999999999999,0.0,0.0,0,-1.6565666,1.2386181,0.23299365,-0.2800002,-0.02081366,1.4463499,1.4505365,1.6384102,0.89750075,-0.9445373,0.7966139,0.9046219,1.4044021,-0.44577214
0.1,0.1,0.7999999999999999,0.0,0.0,0,-1.6411134,1.2325583,0.14937398,-0.31336278,0.026495723,1.4717857,1.3093704,1.6251758,0.9617858,-0.779107,0.7897805,0.83477867,1.3299237,0.035187453
0.1,0.1,0.7999999999999999,0.0,0.0,0,-1.73037,1.2277232,0.21148153,-0.283698,0.017736198,1.4208654,1.4410692,1.7702681,0.9104623,-0.825017,0.81030375,0.93338335,1.2879281,-0.13381872
0.1,0.1,0.7999999999999999,0.0,0.0,0,-1.7020754,1.2953651,0.18885286,-0.09734626,0.014019802,1.4114074,1.5860221,1.6859034,0.94196874,-0.8522555,0.7383852,0.9212716,1.2602658,0.023017038
0.1,0.1,0.7999999999999999,0.0,0.0,0,-1.6019607,1.1517999,0.20408398,-0.31520256,0.0448155,1.5534518,1.766807,1.749391,0.89891565,-0.7778761,0.7968939,0.8933688,1.4106942,-0.19297099
0.1,0.1,0.7999999999999999,0.0,0.0,0,-1.7652905,1.2279831,0.18426774,-0.2005776,0.044745386,1.4872929,1.8543895,1.7476362,0.98386323,-0.889438,0.81249577,0.9953229,1.3635423,-0.35041776
0.1,0.1,0.7999999999999999,0.0,0.0,0,-1.8526275,1.2312788,0.19990465,-0.26003918,0.021829626,1.4844358,1.5942417,1.6566085,0.9355885,-0.7665235,0.79420906,0.96112573,1.333591,-0.55585104
0.1,0.1,0.7999999999999999,0.0,0.0,0,-1.7613832,1.2286155,0.22422294,-0.19465531,0.060125105,1.3926696,1.3311983,1.6665927,0.95373005,-0.7817845,0.77945155,0.94167596,1.3431606,-0.4028321
0.1,0.1,0.7999999999999999,0.0,0.0,0,-1.6957963,1.3450856,0.2116683,-0.2172234,0.057379726,1.376014,1.8860173,1.5907297,0.9351926,-0.8364704,0.8379552,0.90837836,1.1645606,-0.96723557
0.1,0.1,0.7999999999999999,0.0,0.0,0,-1.6306956,1.3878391,0.21096341,-0.23943047,0.08539534,1.5019664,1.7473875,1.6660647,1.0087584,-0.8228986,0.84732884,1.0489823,1.254268,-0.59679395
0.1,0.1,0.7999999999999999,0.0,0.0,0,-1.6818752,1.3160428,0.15832159,-0.24152948,0.04611855,1.3682314,1.7415355,1.8489755,0.90415776,-0.79442656,0.78252757,0.8413568,1.25531,0.34180745
0.1,0.1,0.7999999999999999,0.0,0.0,0,-1.6155903,1.2820448,0.19847417,-0.3098645,0.017926808,1.4890723,1.8183125,1.7460473,0.8979631,-0.8624901,0.75014657,0.88414353,1.243722,-0.023130964
0.1,0.1,0.7999999999999999,0.0,0.0,0,-1.7126237,1.3365157,0.17067261,-0.31698224,0.11608416,1.4116454,1.4551376,1.7820452,0.9636161,-0.87252825,0.79848564,0.912497,1.2634332,0.04494934
0.1,0.1,0.7999999999999999,0.0,0.0,0,-1.548624,1.2734987,0.20998457,-0.21548033,0.10017797,1.4614174,1.5037833,1.8370517,0.92216986,-0.83296335,0.7931194,0.820532,1.231591,-0.036522835
0.1,0.1,0.7999999999999999,0.0,0.0,0,-1.6744555,1.3041908,0.20061256,-0.2647279,0.093167216,1.3982723,1.2600912,1.7052324,0.9470428,-0.8144492,0.75777936,0.9159575,1.3899819,-0.09068268
0.1,0.1,0.7999999999999999,0.0,0.0,0,-1.7640043,1.2968616,0.18619205,-0.23097214,0.08121194,1.3729466,1.634242,1.6296132,0.93534464,-0.88253766,0.76021403,0.8357517,1.2768623,-0.75151664
0.1,0.1,0.7999999999999999,0.0,0.0,0,-1.656718,1.298489,0.2317183,-0.24360107,0.011784608,1.4701012,1.3808929,1.7261221,0.90320694,-0.86001503,0.7947028,0.77315116,1.1869371,-1.060505
0.1,0.1,0.7999999999999999,0.0,0.0,0,-1.6958854,1.215082,0.24262024,-0.2832467,-0.008162825,1.3884448,1.6716865,1.7661774,1.0357509,-0.8169758,0.80934197,0.97235334,1.3243366,-0.39460328
0.1,0.1,0.7999999999999999,0.0,0.0,0,-1.6795046,1.2943227,0.18177012,-0.24752598,0.014335534,1.4297402,1.2114093,1.6723756,0.9206426,-0.8276051,0.78108937,0.8907857,1.2722981,0.06551116
0.1,0.1,0.7999999999999999,0.0,0.0,0,-1.7170612,1.0923616,0.20154257,-0.1170048,0.04247346,1.4558904,1.5228428,1.6999985,0.8944372,-0.79723865,0.78685397,0.7746779,1.2825406,0.063665025
0.1,0.1,0.7999999999999999,0.0,0.0,0,-1.7468182,1.2559848,0.16129754,-0.23704182,0.06236397,1.4289049,1.1331121,1.7539254,0.93269247,-0.85601664,0.7861886,0.9042774,1.3649254,-0.091637924
0.1,0.1,0.7999999999999999,0.0,0.0,0,-1.6331218,1.2257925,0.18184863,-0.12279757,0.13035402,1.4909288,1.502745,1.6226147,0.9274136,-0.7247099,0.8164084,0.87719005,1.384831,-0.2392415
0.1,0.1,0.7999999999999999,0.0,0.0,0,-1.5690424,1.2171994,0.15661877,-0.22183375,0.012866468,1.4748387,1.2846475,1.6359746,0.9830595,-0.801663,0.7879292,0.92605716,1.2661605,-0.29679775
0.1,0.1,0.7999999999999999,0.0,0.0,0,-1.5775346,1.3660548,0.17768197,-0.27927414,0.18003286,1.3437272,1.6056701,1.6497412,0.9064714,-0.8439404,0.8037412,0.85691535,1.2854532,-0.5469163
0.1,0.1,0.7999999999999999,0.0,0.0,0,-1.6314391,1.3287618,0.22030386,-0.27041847,0.11199536,1.4261849,1.386986,1.577037,0.890315,-0.7738486,0.770793,0.8379928,1.3588572,-0.11583322
0.1,0.1,0.7999999999999999,0.0,0.0,0,-1.6263567,1.2895868,0.20154509,-0.17112267,0.1026053,1.4413595,1.3302082,1.721157,0.88881147,-0.8837321,0.78739315,0.8204677,1.2059485,-0.33814636
0.1,0.1,0.7999999999999999,0.0,0.0,0,-1.6917213,1.3674676,0.2652522,-0.21490338,0.114815734,1.3940355,1.4942994,1.6850978,0.95883846,-0.8232833,0.85147154,0.9919212,1.2901301,-0.11157585
0.1,0.1,0.7999999999999999,0.0,0.0,0,-1.7030072,1.3594092,0.21709624,-0.1687724,0.13065569,1.3596439,1.4487875,1.7182884,0.9928916,-0.72555596,0.7850164,0.9138706,1.1544371,-0.28807342
0.1,0.1,0.7999999999999999,0.0,0.0,0,-1.6883625,1.4130512,0.1588932,-0.23274334,0.08993399,1.4773836,1.2849425,1.6673214,0.95690763,-0.75549,0.80774957,0.9051364,1.2305613,0.21694766
0.1,0.1,0.7999999999999999,0.0,0.0,0,-1.6577803,1.2709793,0.16277885,-0.19696249,0.047255266,1.3807905,1.5786295,1.6996036,0.9256837,-0.7688761,0.86533004,0.8283886,1.2838196,-0.38231617
0.1,0.1,0.7999999999999999,0.0,0.0,0,-1.7287067,1.3503041,0.16358174,-0.2752908,-0.098662704,1.4675463,1.6547049,1.6656613,0.9408906,-0.88251823,0.80550164,0.916821,1.2889736,-0.27938026
0.1,0.1,0.7999999999999999,0.0,0.0,0,-1.7316693,1.3447177,0.2821026,-0.2117126,0.02241232,1.4757973,1.6920444,1.7624584,0.9742441,-0.8612113,0.77167135,0.8525302,1.3422021,-0.2410301
0.1,0.1,0.7999999999999999,0.0,0.0,0,-1.600401,1.376121,0.18263498,-0.18697967,0.030684423,1.4561493,1.2185997,1.7529154,0.9320467,-0.86832356,0.7970018,0.94631463,1.2826937,-0.45312464
0.1,0.1,0.7999999999999999,0.0,0.0,0,-1.6094106,1.3971125,0.15198924,-0.33125547,0.089895174,1.4350173,1.4610512,1.6051283,0.9421181,-0.8252425,0.73509365,0.9550349,1.3890011,-0.4246955
0.1,0.1,0.7999999999999999,0.0,0.0,0,-1.6650192,1.2754723,0.27438718,-0.107011616,0.10340169,1.4542105,1.3382804,1.8831265,0.9374537,-0.85991627,0.77832687,0.86225474,1.438853,-0.18578102
0.1,0.1,0.7999999999999999,0.0,0.0,0,-1.639184,1.3452517,0.21718709,-0.25408202,0.023639085,1.4624392,1.6107148,1.5385803,0.93232155,-0.8402349,0.8338954,0.94428825,1.4241805,-0.6254607
0.1,0.1,0.7999999999999999,0.0,0.0,0,-1.6935911,1.3481573,0.15607043,-0.26063517,0.082303666,1.4741873,1.4797438,1.696765,0.9080697,-0.8340333,0.78462803,0.7742362,1.3505808,-0.7372191
0.1,0.1,0.7999999999999999,0.0,0.0,0,-1.7114828,1.3735527,0.22765432,-0.34771678,0.09832802,1.4630992,1.5984858,1.7383932,0.93060464,-0.80122614,0.7644836,0.706353,1.2434837,-0.047003962
0.1,0.1,0.7999999999999999,0.0,0.0,0,-1.6088821,1.2774565,0.12565176,-0.2938579,0.050016772,1.4164898,1.5480982,1.6821923,0.99884105,-0.8776131,0.80619764,0.8336365,1.319776,-0.6881595
0.1,0.1,0.7999999999999999,0.0,0.0,0,-1.6467167,1.3194305,0.20278504,-0.1800287,0.13798465,1.4947,1.7010496,1.8065438,0.9688682,-0.84620994,0.79721594,1.0065114,1.3510995,-0.6548637
0.1,0.1,0.7999999999999999,0.0,0.0,0,-1.6556749,1.2726654,0.22158587,-0.19417381,0.06020616,1.4184732,1.4901397,1.7185749,0.9681945,-0.86492026,0.79528254,0.7433614,1.3690745,-0.24483593
0.1,0.1,0.7999999999999999,0.0,0.0,0,-1.6868895,1.3096362,0.20906226,-0.3336971,0.02357456,1.4154141,1.4857621,1.8302519,0.96936154,-0.8464909,0.7702071,0.9356704,1.2883286,-0.13181758
0.1,0.1,0.7999999999999999,0.0,0.0,0,-1.6704382,1.2805072,0.15216237,-0.16699354,0.06975252,1.419075,1.9433551,1.6737312,0.930476,-0.9215472,0.78063893,0.819957,1.2511269,-0.18656203
0.1,0.1,0.7999999999999999,0.0,0.0,0,-1.7830225,1.2522061,0.17605095,-0.3334594,0.023109825,1.4522835,1.5884129,1.6134167,0.937306,-0.84191597,0.7953765,0.88504714,1.283452,0.051258568
0.1,0.1,0.7999999999999999,0.0,0.0,0,-1.6768253,1.2504108,0.18408398,-0.22169381,0.12650582,1.3935354,1.6658953,1.7211334,0.95204514,-0.79856735,0.83566505,0.91941565,1.3077208,0.038822062
0.1,0.1,0.7999999999999999,0.0,0.0,0,-1.7073989,1.2716491,0.1715362,-0.3592918,0.039439578,1.4419057,1.5888441,1.7103851,0.9855644,-0.75735104,0.791262,0.91383207,1.2710711,0.1338773
0.1,0.1,0.7999999999999999,0.0,0.0,0,-1.689627,1.2786691,0.19415875,-0.051428962,0.06935314,1.2465131,1.3535095,1.743988,0.96106327,-0.84985524,0.7963374,0.95824736,1.3486202,0.35584942
0.1,0.1,0.7999999999999999,0.0,0.0,0,-1.6355178,1.2891998,0.19939932,-0.1289692,0.108731605,1.3182496,1.6011516,1.7864283,0.95261884,-0.7982356,0.7751015,0.7921909,1.3222871,0.10710169
0.1,0.1,0.7999999999999999,0.0,0.0,0,-1.7595237,1.339356,0.24598251,-0.18198755,0.08292672,1.369595,1.6185387,1.7203399,0.9213268,-0.88484883,0.7483303,0.82469374,1.4274563,-0.1326486
0.1,0.1,0.7999999999999999,0.0,0.0,0,-1.6513144,1.3245943,0.17648254,-0.2835967,0.016241092,1.5406152,1.4514819,1.6343753,0.91828215,-0.74768865,0.8167853,0.86948866,1.212781,-0.3792717
0.1,0.1,0.7999999999999999,0.0,0.0,0,-1.6958215,1.2575985,0.1463098,-0.21551487,0.11911583,1.4427031,1.6842754,1.8298349,0.9564937,-0.89411503,0.8506666,0.84163684,1.3719782,0.12549591
0.1,0.1,0.7999999999999999,0.0,0.0,0,-1.7457305,1.2659512,0.17788343,-0.22425826,0.11882672,1.5181624,1.608065,1.5833791,0.9464247,-0.8464249,0.824301,0.9548478,1.3083255,-0.20349401
0.1,0.1,0.7999999999999999,0.0,0.0,0,-1.6843802,1.353993,0.21719228,-0.21768679,0.18223363,1.4601378,1.631109,1.6556103,0.95752907,-0.86433357,0.75951195,0.9179387,1.3791552,-0.45134935
0.1,0.1,0.7999999999999999,0.0,0.0,0,-1.7041723,1.289181,0.24864118,-0.1419004,0.11183854,1.3997518,1.3917596,1.5576751,0.949125,-0.7898237,0.74453115,0.8785755,1.4603882,0.13778006
0.1,0.1,0.7999999999999999,0.0,0.0,0,-1.7523657,1.2735727,0.18155995,-0.35890108,0.02946449,1.488115,1.3771411,1.6066717,0.93955517,-0.8286594,0.86339253,0.9105807,1.2962017,0.15245639
0.1,0.1,0.7999999999999999,0.0,0.0,0,-1.7826921,1.274417,0.19393796,-0.22735518,0.050771162,1.4508153,1.3988168,1.6593227,0.93451595,-0.8447191,0.78886896,0.96203184,1.4126129,0.31561795
0.1,0.1,0.7999999999999999,0.0,0.0,0,-1.6505634,1.270162,0.25049645,-0.23205023,0.09348426,1.439779,1.5946977,1.6007872,0.96106786,-0.7570327,0.75949085,0.8771138,1.3465933,-0.55796635
0.1,0.1,0.7999999999999999,0.0,0.0,0,-1.7275019,1.2918316,0.16027053,-0.265203,0.05702617,1.4626143,1.8331951,1.7050841,0.98816675,-0.93039507,0.8079001,0.9931939,1.4626255,-0.31461096
0.1,0.1,0.7999999999999999,0.0,0.0,0,-1.6203372,1.2547609,0.17603388,-0.22491899,0.13373747,1.4725475,1.5874327,1.7351326,0.84183997,-0.74305505,0.8247155,0.85964453,1.275243,-0.3672109
0.1,0.1,0.7999999999999999,0.0,0.0,0,-1.6785786,1.284861,0.19868669,-0.25829235,0.1438884,1.4769683,1.792866,1.7703426,0.94502705,-0.8811554,0.7711654,1.0141066,1.3668448,-0.23311348
0.1,0.1,0.7999999999999999,0.0,0.0,0,-1.680589,1.2562199,0.1914173,-0.31270096,-0.021285664,1.4748034,1.575943,1.7700758,0.91813266,-0.8162913,0.7944869,0.8615363,1.2051399,-0.4644537
0.1,0.1,0.7999999999999999,0.0,0.0,0,-1.6787279,1.2797245,0.15500721,-0.1978495,0.077774845,1.4570479,1.818654,1.568456,0.9735446,-0.8146819,0.77739197,0.98167497,1.1709272,-0.26216495
0.1,0.1,0.7999999999999999,0.0,0.0,0,-1.7224894,1.3230902,0.24462084,-0.25269586,0.08373645,1.4963053,1.6402303,1.7863477,0.8732788,-0.86702514,0.82711816,0.7543717,1.3191237,-0.15344174
0.1,0.1,0.7999999999999999,0.0,0.0,0,-1.7313617,1.2529123,0.19772424,-0.2892445,-0.0070404606,1.4624641,1.5335165,1.5377841,0.9607583,-0.7744586,0.8091598,0.92340684,1.2065394,0.67202276
0.1,0.1,0.7999999999999999,0.0,0.0,0,-1.7758616,1.2412639,0.19625588,-0.2723108,0.09091638,1.4353839,1.5788288,1.533624,0.9360965,-0.82850677,0.8093942,0.81871295,1.3698181,-0.20179495
0.1,0.1,0.7999999999999999,0.0,0.0,0,-1.6979873,1.2271664,0.21483432,-0.2975559,0.09775048,1.496732,1.5329283,1.7790468,0.9253665,-0.8628036,0.80905265,0.7789869,1.3178178,-0.3020534
0.1,0.1,0.7999999999999999,0.0,0.0,0,-1.7245383,1.3113451,0.1902844,-0.29394117,0.0680226,1.4040179,1.3071667,1.6543341,0.97752327,-0.8362755,0.7359781,0.9908931,1.2870902,-0.28410494
0.1,0.1,0.7999999999999999,0.0,0.0,0,-1.669146,1.2802396,0.17130958,-0.1109224,0.023216937,1.3575226,1.4237127,1.74216,0.9608043,-0.7924649,0.7996724,0.94357616,1.3478357,0.27534923
0.1,0.1,0.7999999999999999,0.0,0.0,0,-1.7533405,1.333933,0.20229821,-0.3100005,-0.011830763,1.425548,1.7876365,1.687787,0.9086349,-0.7634497,0.7503581,1.0047945,1.3159093,0.22765364
0.1,0.1,0.7999999999999999,0.0,0.0,0,-1.6941701,1.2688522,0.16831474,-0.4202191,0.012517574,1.5073606,1.6015546,1.714054,0.9096598,-0.90927136,0.8472663,1.0195048,1.363444,-0.20093668
0.1,0.1,0.7999999999999999,0.0,0.0,0,-1.7289336,1.3270133,0.21247278,-0.26382336,0.12609659,1.4579486,1.4749514,1.6427737,0.9631272,-0.7763784,0.8483631,0.88610643,1.3523533,-0.12402427
0.1,0.1,0.7999999999999999,0.0,0.0,0,-1.6466936,1.2889614,0.28795362,-0.2736992,0.002228161,1.4434845,1.6305759,1.6865941,0.9498836,-0.7920444,0.80509996,0.86677396,1.2699143,-0.4468695
0.1,0.1,0.7999999999999999,0.0,0.0,0,-1.671551,1.2281559,0.17573446,-0.18611398,-0.007165791,1.3865086,1.427129,1.7509924,0.9584528,-0.82572556,0.76974165,0.9533749,1.3309973,-0.4638682
0.1,0.1,0.7999999999999999,0.0,0.0,0,-1.7308372,1.3361421,0.16253711,-0.23864526,0.18355653,1.2500991,1.4473191,1.7107626,0.9557331,-0.7729297,0.7897867,0.87229776,1.2396102,-0.26123714
0.1,0.1,0.7999999999999999,0.0,0.0,0,-1.6552769,1.2629017,0.19396949,-0.3537273,0.12349834,1.435196,1.4838644,1.6464761,0.91729647,-0.76233214,0.78422,0.8833446,1.3407121,0.103842296
0.1,0.1,0.7999999999999999,0.0,0.0,0,-1.6160707,1.3827456,0.27381933,-0.15951052,0.07391628,1.4206281,1.7292122,1.7540009,0.87520903,-0.939821,0.81397426,0.8833224,1.3973296,-0.28744012
0.1,0.1,0.7999999999999999,0.0,0.0,0,-1.7012706,1.3691713,0.2025145,-0.12788004,0.09736505,1.3529105,1.079069,1.655941,0.9200919,-0.9690152,0.7772809,0.9711909,1.3771583,0.5192234
0.1,0.1,0.7999999999999999,0.0,0.0,0,-1.6324699,1.2673312,0.16256788,-0.16465954,0.13409804,1.4725885,1.2213488,1.6644763,0.93359226,-0.8044582,0.76132613,0.97042924,1.4037765,-0.17640424
0.1,0.1,0.7999999999999999,0.0,0.0,0,-1.570154,1.4072148,0.18543692,-0.26569474,0.0028940784,1.4428287,1.693262,1.5832342,0.98765177,-0.7886445,0.82900596,0.9249869,1.2023274,-0.3474886
0.1,0.1,0.7999999999999999,0.0,0.0,0,-1.6877253,1.3249341,0.17305331,-0.203228,0.17769888,1.4638829,1.4697845,1.6140348,0.97537917,-0.84743917,0.85794187,0.8743131,1.4383667,-0.39203444
0.1,0.1,0.7999999999999999,0.0,0.0,0,-1.6450813,1.3980142,0.2074287,-0.13092121,0.05417821,1.4278158,1.4102881,1.7197402,0.99384993,-0.8944751,0.8115795,0.8595874,1.4075572,-0.11434106
0.1,0.1,0.7999999999999999,0.0,0.0,0,-1.6920336,1.326957,0.1501119,-0.2229606,0.11911316,1.5018463,1.3705766,1.6585124,0.939356,-0.88736427,0.78269523,0.97798693,1.4013178,-0.3377766
0.1,0.1,0.7999999999999999,0.0,0.0,0,-1.6511725,1.3885809,0.23643629,-0.13978675,0.049214136,1.4578599,1.6957657,1.5915147,0.91883814,-0.8671482,0.81685454,0.98535645,1.3477191,-0.30352953
0.1,0.1,0.7999999999999999,0.0,0.0,0,-1.6280516,1.3060998,0.14921646,-0.38603133,0.08696998,1.5306726,1.6952292,1.5688491,0.9060005,-0.7999985,0.7830244,0.91814893,1.2946556,-0.40891272
0.1,0.1,0.7999999999999999,0.0,0.0,0,-1.6046382,1.2291496,0.2316528,-0.20918399,0.069045216,1.3559119,1.5678387,1.7219493,0.9102269,-0.79079306,0.78960395,0.867187,1.4061289,0.1631283
0.1,0.1,0.7999999999999999,0.0,0.0,0,-1.5699307,1.3022515,0.16501705,-0.14442474,0.06656649,1.3829876,1.5074453,1.6653512,0.94219255,-0.6873078,0.8674334,0.92920357,1.2256467,0.04052408
0.1,0.1,0.7999999999999999,0.0,0.0,0,-1.7428834,1.3188655,0.22282948,-0.32625848,0.090813115,1.4789121,1.413606,1.7938902,0.93920344,-0.8113596,0.787614,0.87565756,1.2561263,-0.5855689
0.1,0.1,0.7999999999999999,0.0,0.0,0,-1.6392528,1.3297565,0.14146504,-0.08773978,0.1901732,1.4296808,1.3760817,1.6697834,0.894733,-0.8230373,0.7554769,0.74580795,1.3866633,-0.2967827
0.1,0.1,0.7999999999999999,0.0,0.0,0,-1.6967946,1.2542982,0.2209156,-0.25162506,0.22842692,1.4119694,1.6210874,1.6777444,0.92960775,-0.8136382,0.81086475,1.0241216,1.3797601,-0.16211507
0.1,0.1,0.7999999999999999,0.0,0.0,0,-1.6267849,1.3084943,0.17395079,-0.16811632,-0.032312028,1.4280863,1.2497138,1.611766,0.9708779,-0.8147795,0.80511564,0.99325174,1.3121874,-0.16873384
0.1,0.1,0.7999999999999999,0.0,0.0,0,-1.7127092,1.256444,0.17108831,-0.37398618,0.031519245,1.4992559,1.5496501,1.8535672,0.9832918,-0.7960148,0.8134391,0.81978667,1.3213451,0.10693873
0.1,0.1,0.7999999999999999,0.0,0.0,0,-1.6836474,1.2637112,0.2424756,-0.27733997,0.07007521,1.3887722,1.392864,1.7355995,0.9378197,-0.8418168,0.8336703,0.89847213,1.2355187,-0.62982935
0.1,0.1,0.7999999999999999,0.0,0.0,0,-1.6884738,1.4510537,0.2392331,-0.20980352,-0.023929898,1.480743,1.7561555,1.6970731,0.93178076,-0.75890803,0.8262076,0.913602,1.2494656,0.39084315
0.1,0.1,0.7999999999999999,0.0,0.0,0,-1.6834453,1.2099704,0.19601417,-0.23584363,0.038052343,1.3371996,1.4765984,1.7334989,0.99452084,-0.76792777,0.7733441,0.85555434,1.2379224,0.17583477
0.1,0.1,0.7999999999999999,0.0,0.0,0,-1.7093618,1.3233074,0.24125804,-0.100778624,0.0911218,1.466438,1.6029634,1.8019574,0.94959474,-0.90259105,0.817443,0.90123844,1.374794,-0.18965232
0.1,0.1,0.7999999999999999,0.0,0.0,0,-1.768301,1.3471217,0.20568243,-0.11178651,0.0051917695,1.355714,1.5061834,1.8248266,0.955987,-1.0092509,0.78550905,0.91133255,1.432615,-1.3274381
0.1,0.1,0.7999999999999999,0.0,0.0,0,-1.6365961,1.2590598,0.19955951,-0.0893396,0.05282147,1.4528116,1.407579,1.9338541,0.90497434,-0.8642407,0.77013713,0.97291094,1.2781372,-0.16575545
0.1,0.1,0.7999999999999999,0.0,0.0,0,-1.7043973,1.2415766,0.19128016,-0.2541947,0.07857123,1.4206954,1.3380437,1.6864767,0.95142424,-0.80217594,0.8047898,0.98923135,1.2753668,-0.046536006
0.1,0.1,0.7999999999999999,0.0,0.0,0,-1.6510054,1.2507945,0.13335821,-0.18626423,0.12042947,1.4682908,1.8544304,1.6729859,0.90715635,-0.75915635,0.7792097,0.8674273,1.3657109,-0.38370267
0.1,0.1,0.7999999999999999,0.0,0.0,0,-1.6556039,1.3669329,0.20988466,-0.23056696,0.094782695,1.5692189,1.4065332,1.6385964,0.9192612,-0.76681995,0.79383725,0.9051931,1.2461668,-0.5059939
0.1,0.1,0.7999999999999999,0.0,0.0,0,-1.646045,1.2512344,0.21639907,-0.29513174,-0.027598605,1.4576875,1.6692766,1.6305835,0.9061249,-0.7890657,0.7530194,0.8497022,1.30513,-0.1417939
0.1,0.1,0.7999999999999999,0.0,0.0,0,-1.7257181,1.3327707,0.16542251,-0.29947907,0.13878141,1.4136049,1.3061272,1.6401571,0.9535886,-0.82688063,0.8027672,0.89607286,1.3020486,-0.07628647
0.1,0.1,0.7999999999999999,0.0,0.0,0,-1.6788542,1.2534906,0.14483932,-0.13266246,0.05906578,1.3635095,1.3973961,1.5832905,0.8884235,-0.8517895,0.7834342,0.9540178,1.3551426,-0.46422714
0.1,0.1,0.7999999999999999,0.0,0.0,0,-1.6564286,1.4036957,0.2157412,-0.3588093,0.020576242,1.5429752,1.4745605,1.5498818,0.9113932,-0.8466426,0.8054421,0.954948,1.3349804,-0.42698327
0.1,0.1,0.7999999999999999,0.0,0.0,0,-1.6665965,1.3863317,0.16049263,-0.20825878,0.06287469,1.4532003,1.4324254,1.6927792,0.9260609,-0.8163407,0.8019396,0.887929,1.2736772,-0.10568482
0.1,0.1,0.7999999999999999,0.0,0.0,0,-1.6935612,1.2195896,0.20752357,-0.2258439,0.05528055,1.4364775,1.4651083,1.658469,0.8468634,-0.7694917,0.82251287,0.8550144,1.281278,-0.31812298
0.1,0.1,0.7999999999999999,0.0,0.0,0,-1.6880693,1.2507607,0.20196241,-0.26720425,0.18365294,1.5166482,1.1219965,1.5561682,0.9422584,-0.77839184,0.7882841,0.9920445,1.3074089,-0.25116554
0.1,0.1,0.7999999999999999,0.0,0.0,0,-1.6938443,1.3502284,0.1859471,-0.18633808,0.21536003,1.3809701,1.5835179,1.6313626,0.9409575,-0.80546117,0.8100656,0.789193,1.3450232,-0.7202348
0.1,0.1,0.7999999999999999,0.0,0.0,0,-1.7674084,1.2025913,0.182811,-0.21493144,0.0677433,1.4535211,1.4088852,1.680383,0.9644063,-0.7261111,0.82407176,1.0446477,1.3279408,-0.3036653
0.1,0.1,0.7999999999999999,0.0,0.0,0,-1.716436,1.3164098,0.22082593,-0.22648005,0.021373628,1.4855866,1.5014368,1.7854295,0.95639527,-0.8627851,0.81854135,0.8481891,1.2976847,-0.7528573
0.1,0.1,0.7999999999999999,0.0,0.0,0,-1.678638,1.3517529,0.2143677,-0.20533058,0.13320582,1.3289,1.9725327,1.779561,0.9258129,-0.89651066,0.76029956,0.9152939,1.3884059,-0.3849902
0.1,0.1,0.7999999999999999,0.0,0.0,0,-1.7057936,1.4035636,0.23019506,-0.1446516,0.07416424,1.3820702,1.5157865,1.6485765,0.94088554,-0.82224715,0.75837314,0.9721272,1.2460009,-0.36975893
0.1,0.1,0.7999999999999999,0.0,0.0,0,-1.6732105,1.2454597,0.18877186,-0.21009478,0.032837622,1.3136144,1.5077207,1.767948,0.91859454,-0.79186237,0.74499196,0.87554777,1.2860324,-0.379077
0.1,0.1,0.7999999999999999,0.0,0.0,0,-1.7364494,1.2272135,0.131671,-0.23734584,-0.037565704,1.481968,1.5893359,1.6590382,0.9782924,-0.7918815,0.7824941,0.871959,1.4049139,0.08497418
0.1,0.1,0.7999999999999999,0.0,0.0,0,-1.7063966,1.3124775,0.20260638,-0.09422804,0.0651565,1.3759675,1.7010455,1.6179998,0.9498154,-0.71526486,0.74908876,0.81250864,1.5070274,-0.5452236
0.1,0.1,0.7999999999999999,0.0,0.0,0,-1.6562352,1.324896,0.19799007,-0.16356356,0.13425842,1.3607532,1.6234833,1.7623373,0.8538017,-0.8380675,0.78688914,0.9031405,1.1415933,0.1607448
0.1,0.1,0.7999999999999999,0.0,0.0,0,-1.6954819,1.3210391,0.19089124,-0.123199284,0.16802627,1.3770907,1.6156704,1.6845136,0.9909759,-0.7089661,0.7779326,0.8879554,1.3013314,-0.24532653
0.1,0.1,0.7999999999999999,0.0,0.0,0,-1.6540742,1.226959,0.17393345,-0.35605234,0.088682406,1.4532112,1.6615644,1.7035732,0.9143966,-0.7345497,0.8196728,0.8106061,1.2429627,-0.114972174
0.1,0.1,0.7999999999999999,0.0,0.0,0,-1.7046112,1.2725801,0.23857997,-0.08722071,0.107481204,1.3178403,1.6104152,1.7797996,0.8781435,-0.8106164,0.83299834,0.8741244,1.3355981,0.5120322
0.1,0.1,0.7999999999999999,0.0,0.0,0,-1.6168573,1.3477746,0.22718637,-0.17556885,0.041206263,1.4139185,1.2661477,1.5719179,0.9621028,-0.7995865,0.794093,0.9543164,1.2848493,0.0007113018
0.1,0.1,0.7999999999999999,0.0,0.0,0,-1.6936177,1.2752533,0.15380034,-0.2066222,0.0007567983,1.5165828,1.6114441,1.6310217,0.8901576,-0.86911714,0.78963053,0.94470215,1.2295668,-0.7497016
0.1,0.1,0.7999999999999999,0.0,0.0,0,-1.7058463,1.2936069,0.20331523,-0.33881506,0.08316448,1.4210224,1.7162094,1.7936766,0.9839283,-0.8519546,0.8215006,0.7705256,1.2989573,0.10301495
0.1,0.1,0.7999999999999999,0.0,0.0,0,-1.7302897,1.2660341,0.19222948,-0.21811427,0.050417468,1.3356236,1.4519682,1.7289958,0.89590394,-0.82270366,0.8050207,0.97063446,1.2336208,-0.30178672
0.1,0.1,0.7999999999999999,0.0,0.0,0,-1.6307981,1.265364,0.2054589,-0.24410842,0.099780045,1.3670013,1.4189906,1.8545475,0.95850873,-0.8729822,0.86874723,0.9503576,1.2445992,-0.5735545
0.1,0.1,0.7999999999999999,0.0,0.0,0,-1.7201607,1.2196182,0.20754153,-0.18366334,0.0045984974,1.4148804,1.663335,1.5650647,0.9141501,-0.8164209,0.80217314,0.97649544,1.3631957,0.16293545
0.1,0.1,0.7999999999999999,0.0,0.0,0,-1.7271348,1.2905041,0.24571489,-0.37428024,0.11651437,1.5406855,1.5144355,1.6732682,0.9524536,-0.8175445,0.7863198,0.85189706,1.3283987,-0.054453637
0.1,0.1,0.7999999999999999,0.0,0.0,0,-1.7673241,1.3430697,0.17903855,-0.29642847,0.008354622,1.3955294,1.4715016,1.770818,0.96566135,-0.73293847,0.7806249,0.79803437,1.2720275,0.1392826
0.1,0.1,0.7999999999999999,0.0,0.0,0,-1.6756183,1.2712106,0.22379518,-0.24774973,0.06048455,1.4626689,1.7181265,1.9023155,0.964809,-0.82876587,0.82228416,0.88241386,1.2219412,-0.29800928
0.1,0.1,0.7999999999999999,0.0,0.0,0,-1.7031876,1.3399379,0.1856992,-0.12602168,0.11817803,1.397769,1.607473,1.7024474,0.93699276,-0.8828967,0.77184,0.92404777,1.2198135,0.08517743
0.1,0.1,0.7999999999999999,0.0,0.0,0,-1.7138861,1.2926383,0.16417949,-0.20530291,0.089651406,1.3691169,1.6002885,1.6110516,0.96273535,-0.81345356,0.7676054,0.8227937,1.2750775,0.0366937
0.1,0.1,0.7999999999999999,0.0,0.0,0,-1.8032341,1.1896108,0.2320804,-0.1979174,0.1675818,1.3774105,1.4816648,1.6229128,0.87933385,-0.7929312,0.8151209,0.81905913,1.2890753,-0.41972262
0.1,0.1,0.7999999999999999,0.0,0.0,0,-1.7124891,1.2193564,0.19642986,-0.32477435,0.11225768,1.4947534,1.7462373,1.6002084,1.017117,-0.81738,0.8083923,0.92090964,1.2192602,-0.31246644
0.1,0.1,0.7999999999999999,0.0,0.0,0,-1.7165906,1.3899826,0.19075353,-0.20076989,0.05019316,1.3910291,1.8696511,1.7586197,0.900391,-0.90997875,0.82133394,0.79400086,1.3705635,-0.24367194
0.1,0.1,0.7999999999999999,0.0,0.0,0,-1.7486889,1.2104483,0.20005697,-0.23873247,0.055833343,1.4613415,1.6108607,1.577738,0.8893035,-0.7780434,0.80251926,0.94840825,1.2723718,-0.5749133
0.1,0.1,0.7999999999999999,0.0,0.0,0,-1.7068884,1.3448924,0.26507235,-0.2918796,-0.06823212,1.437431,1.5131483,1.6461205,1.0001458,-0.8277065,0.7598369,0.8408155,1.3226081,0.22227937
0.1,0.1,0.7999999999999999,0.0,0.0,0,-1.7493924,1.2858698,0.20649979,-0.17733257,0.054306917,1.4944463,1.922219,1.8015348,0.9553144,-0.74256057,0.83544576,0.7638163,1.1955235,-0.5524288
0.1,0.1,0.7999999999999999,0.0,0.0,0,-1.7217853,1.3576808,0.22566351,-0.20135681,-0.018146016,1.3598827,1.3308184,1.6913571,0.96823084,-0.83336884,0.8034076,0.88210416,1.3603338,-0.2364381
0.1,0.1,0.7999999999999999,0.0,0.0,0,-1.7057325,1.2641903,0.17347519,-0.13552022,0.009951759,1.3397627,1.6756613,1.5965918,0.9190272,-0.8156252,0.80470216,0.97974426,1.3263884,-0.5685089
0.1,0.1,0.7999999999999999,0.0,0.0,0,-1.7094547,1.3101205,0.25243527,-0.22096638,0.02316644,1.4741579,1.6345887,1.7028823,0.8999118,-0.83391637,0.7907886,0.914498,1.4218941,-0.21055649
0.1,0.1,0.7999999999999999,0.0,0.0,0,-1.7006892,1.3243848,0.3183015,-0.11572748,0.10171858,1.4229217,1.4613461,1.7023288,0.95432967,-0.8087674,0.74574286,0.7282468,1.3201498,-0.35915127
0.1,0.1,0.7999999999999999,0.0,0.0,0,-1.7115211,1.3096185,0.18276978,-0.17916073,0.032999765,1.4235877,1.5747467,1.7156998,0.9012408,-0.71068776,0.77130985,0.85801345,1.2315596,-0.41308022
0.1,0.1,0.7999999999999999,0.0,0.0,0,-1.6399173,1.3055743,0.21743812,-0.051195364,0.019028103,1.3674684,1.6554301,1.7101928,0.9336079,-0.878196,0.76447743,0.83264756,1.2052791,-0.8230345
0.1,0.1,0.7999999999999999,0.0,0.0,0,-1.6695343,1.3100449,0.22384517,-0.17274255,0.02539672,1.435316,1.4592427,1.7205441,0.9200213,-0.81544787,0.8256599,0.8802107,1.4055218,0.1275743
0.1,0.1,0.7999999999999999,0.0,0.0,0,-1.6821202,1.3688778,0.16280827,-0.3203026,0.10975374,1.43128,1.6592375,1.7827493,0.97469515,-0.8801772,0.8018417,0.8597887,1.228868,-0.6414464
0.1,0.1,0.7999999999999999,0.0,0.0,0,-1.7087297,1.3771421,0.1488565,-0.34589162,0.004231487,1.4077166,1.3738594,1.7099813,0.9967791,-0.85799915,0.7827742,0.84076554,1.3378996,-0.12299494
0.1,0.1,0.7999999999999999,0.0,0.0,0,-1.6767404,1.3530082,0.16740412,-0.30902213,0.008152167,1.4490831,1.6482981,1.6148078,0.924821,-0.82520115,0.80223304,0.98021823,1.3197576,-0.52944916
0.1,0.1,0.7999999999999999,0.0,0.0,0,-1.7172416,1.2327038,0.2198135,-0.22677478,0.10116938,1.4148505,1.3354423,1.6783264,0.9201468,-0.88616455,0.8427318,0.9055308,1.3102552,-0.50541025
0.1,0.1,0.7999999999999999,0.0,0.0,0,-1.768389,1.3591006,0.2257279,-0.038992267,0.04400629,1.4237983,1.5662615,1.6756,0.971094,-0.8023571,0.7791177,0.7542263,1.4012498,-0.7765886
0.1,0.1,0.7999999999999999,0.0,0.0,0,-1.618736,1.350216,0.1976185,-0.10761475,0.09585446,1.3859686,1.4616206,1.6117266,0.863165,-0.8466502,0.8146792,0.8143668,1.346286,-0.27951774
0.1,0.1,0.7999999999999999,0.0,0.0,0,-1.7127608,1.3195201,0.23550199,-0.28946927,0.08271662,1.3683673,1.351123,1.825166,0.9187668,-0.8959644,0.7779253,0.97479886,1.2814335,-0.46556982
0.1,0.1,0.7999999999999999,0.0,0.0,0,-1.6945783,1.3190376,0.17530403,-0.25575447,-0.008329839,1.3783457,1.1552246,1.7583711,0.90961796,-0.79771876,0.82035375,0.90873885,1.2877258,-0.27853614
0.1,0.1,0.7999999999999999,0.0,0.0,0,-1.5728544,1.1787413,0.21396635,-0.22958156,0.087484784,1.4535353,1.7710705,1.7625343,0.9920884,-0.8390118,0.83098656,0.8555391,1.335926,-0.06923516
0.1,0.1,0.7999999999999999,0.0,0.0,0,-1.7090611,1.2910103,0.15576158,-0.21779019,0.0636548,1.3591124,1.5247033,1.7230152,1.0117652,-0.7911175,0.78290623,0.6768235,1.260109,0.20546608
0.1,0.1,0.7999999999999999,0.0,0.0,0,-1.7146901,1.2892652,0.15290025,-0.21563616,0.04031321,1.3914099,1.2765853,1.587279,0.93348396,-0.73731375,0.7956102,0.938519,1.2435298,-0.2094993
0.1,0.1,0.7999999999999999,0.0,0.0,0,-1.6989574,1.4112406,0.08139784,-0.12115212,0.038740255,1.3740027,1.8373199,1.6992956,0.9463381,-0.8192445,0.788061,0.9248757,1.246416,-0.011892531
0.1,0.1,0.7999999999999999,0.0,0.0,0,-1.6193644,1.2349598,0.16420488,-0.2882533,0.10631439,1.5045062,1.8362827,1.7266626,0.9921511,-0.85978043,0.83552873,0.9224428,1.196227,-0.16680269
0.1,0.1,0.7999999999999999,0.0,0.0,0,-1.6892879,1.2369467,0.24231203,-0.23611134,0.015890488,1.4340076,1.5722694,1.6986816,0.9308793,-0.7634479,0.7939283,0.8331543,1.2622374,0.13766754
0.1,0.1,0.7999999999999999,0.0,0.0,0,-1.5946254,1.3241183,0.17731276,-0.16741756,-0.006800291,1.4291255,1.1829946,1.5822695,0.9141234,-0.8839422,0.78017926,0.8878037,1.333393,-0.6524765
0.1,0.1,0.7999999999999999,0.0,0.0,0,-1.6189498,1.1982223,0.22206624,-0.13515799,0.028551564,1.3983538,1.4523621,1.6701784,0.9754438,-0.79515046,0.7874881,0.9547596,1.2689782,-0.43977183
0.1,0.1,0.7999999999999999,0.0,0.0,0,-1.6291347,1.3075424,0.19068596,-0.20275411,0.017965075,1.4930856,1.7146367,1.6250776,0.95423794,-0.79780734,0.7914093,1.010638,1.3570826,-0.22603786
0.1,0.1,0.7999999999999999,0.0,0.0,0,-1.700016,1.3420761,0.215164,-0.23400283,0.077859975,1.394548,1.8176832,1.6746198,0.9572352,-0.82279104,0.80443674,0.91426224,1.3449717,-0.41694987
0.1,0.1,0.7999999999999999,0.0,0.0,0,-1.6550196,1.2952577,0.23222904,-0.24360333,0.06266887,1.4431932,1.510565,1.6126143,0.9099774,-0.87019473,0.796721,0.9604904,1.3815697,-0.5366911
0.1,0.1,0.7999999999999999,0.0,0.0,0,-1.6351928,1.3940967,0.18566394,-0.21677785,0.0037416473,1.3976294,1.8374712,1.6208113,0.95152587,-0.8656001,0.78996205,0.94173086,1.3550975,-0.47098762
0.1,0.1,0.7999999999999999,0.0,0.0,0,-1.6652839,1.3475845,0.14812902,-0.29925346,0.047545258,1.5620115,1.4422102,1.5815167,0.90488565,-0.69297594,0.79017895,0.8927172,1.2312789,0.40277964
0.1,0.1,0.7999999999999999,0.0,0.0,0,-1.6991447,1.3247595,0.20865244,-0.14227055,0.122107945,1.4244418,1.4787931,1.5509645,0.96013784,-0.8682825,0.8107849,0.92767215,1.2833098,-0.60688704
0.1,0.1,0.7999999999999999,0.0,0.0,0,-1.6447564,1.4273723,0.21209903,-0.19473027,-0.014619613,1.3991224,1.519469,1.581675,0.9708885,-0.7942424,0.79305965,0.76748544,1.3556036,-0.12400718
0.1,0.1,0.7999999999999999,0.0,0.0,0,-1.6381799,1.329146,0.17553297,-0.20001145,0.123216994,1.5176599,1.3786865,1.5772579,0.9234785,-0.76316845,0.7634376,1.0122329,1.2716106,-0.4194094
0.1,0.1,0.7999999999999999,0.0,0.0,0,-1.7069227,1.3320497,0.18927632,-0.3571231,-0.063171305,1.4535036,1.5865496,1.656866,0.9276971,-0.8083048,0.76194614,0.90480036,1.2264448,-0.02820072
0.1,0.1,0.7999999999999999,0.0,0.0,0,-1.6497164,1.2287201,0.24910279,-0.12750398,0.13344711,1.4696949,1.6415541,1.7006013,0.97601074,-0.8275575,0.83437073,0.93305314,1.3146696,-0.4085079
0.1,0.1,0.7999999999999999,0.0,0.0,0,-1.6149627,1.318866,0.17400134,-0.16541463,0.05120918,1.4580494,1.377866,1.7672919,0.96155274,-0.87043387,0.78967375,0.97477025,1.3520085,-0.27805993
0.1,0.1,0.7999999999999999,0.0,0.0,0,-1.7002745,1.3266577,0.20622677,-0.24992731,0.15426196,1.4587624,1.6285043,1.707897,0.86074716,-0.8033915,0.7684321,0.8072194,1.328038,-0.06551546
0.1,0.1,0.7999999999999999,0.0,0.0,0,-1.70847,1.3896701,0.20511223,-0.14216505,0.079504184,1.4488397,1.4896752,1.6770368,0.96043354,-0.8715848,0.8295489,0.9655703,1.3174961,-0.8995615
0.1,0.1,0.7999999999999999,0.0,0.0,0,-1.6577287,1.3451476,0.19927248,-0.25782868,0.041771494,1.4286543,1.6672819,1.7038887,0.8754988,-0.83723825,0.8282706,0.86245114,1.2529275,-0.5820123
0.1,0.1,0.7999999999999999,0.0,0.0,0,-1.6628606,1.4119598,0.18790458,-0.11419824,0.09947038,1.3473427,1.6027098,1.6127898,0.92571086,-0.8568685,0.8014178,0.87757707,1.2616899,-0.21377759
0.1,0.1,0.7999999999999999,0.0,0.0,0,-1.6676992,1.2636507,0.20026721,-0.30942586,0.03031576,1.4763117,1.3895618,1.7730136,0.9193065,-0.81222194,0.7862739,1.0373453,1.3157145,-0.67112005
0.1,0.1,0.7999999999999999,0.0,0.0,0,-1.6757907,1.3747128,0.2089737,-0.23480292,0.020767095,1.3742213,1.4609611,1.6838218,0.9086426,-0.9124935,0.83623123,0.8269129,1.3938545,-0.06526238
0.1,0.1,0.7999999999999999,0.0,0.0,0,-1.5991668,1.2896718,0.21862434,-0.2853732,0.0051200367,1.4211464,1.7021418,1.6713089,0.94640374,-0.878144,0.8010387,0.94874984,1.430234,-0.29716438
0.1,0.1,0.7999999999999999,0.0,0.0,0,-1.6925172,1.2822251,0.2072107,-0.23666416,0.019807791,1.4118156,1.6308724,1.7399988,0.8820041,-0.82474864,0.7829805,0.8965341,1.3429868,-0.7516021
0.1,0.1,0.7999999999999999,0.0,0.0,0,-1.6720661,1.2457409,0.20254318,-0.23286642,0.059193965,1.4773507,1.6516649,1.7266461,0.864462,-0.8343149,0.7814075,0.861166,1.2957404,-0.38960823
0.1,0.1,0.7999999999999999,0.0,0.0,0,-1.642776,1.2424046,0.11542593,-0.12116501,0.103029594,1.4535015,1.628298,1.7165189,0.8991893,-0.8119326,0.80460894,0.9829354,1.3471836,-0.47868872
0.1,0.1,0.7999999999999999,0.0,0.0,0,-1.6185232,1.2595602,0.14432141,-0.14075476,0.099408016,1.4558924,1.7736231,1.7529576,0.9939273,-0.8823351,0.7872108,0.87905234,1.4757832,-0.28276435
0.1,0.1,0.7999999999999999,0.0,0.0,0,-1.6321175,1.2472662,0.23605424,-0.09590865,0.08254187,1.4151008,1.6077952,1.6302633,0.986814,-0.89971644,0.8149747,1.1178617,1.3233032,-0.35166475
0.1,0.1,0.7999999999999999,0.0,0.0,0,-1.5902696,1.229761,0.20449854,-0.19540814,0.0008683322,1.482188,1.6857307,1.7714174,0.9574797,-0.8732373,0.81011176,0.8289268,1.4152318,-0.3495592
0.1,0.1,0.7999999999999999,0.0,0.0,0,-1.6997685,1.3217967,0.22533782,-0.18489306,0.06265686,1.4556844,1.4972777,1.621176,0.9339343,-0.76913065,0.7599787,0.9093669,1.3821256,0.20291306
0.1,0.1,0.7999999999999999,0.0,0.0,0,-1.6494102,1.3206893,0.19646108,-0.20175491,-0.0067425175,1.4901831,1.8722267,1.7704672,0.9511488,-0.85315317,0.76942796,0.99282604,1.2950306,-0.30365685
0.1,0.1,0.7999999999999999,0.0,0.0,0,-1.6774985,1.3196148,0.27187303,-0.26883245,-0.026929962,1.3294607,1.3692938,1.6113942,0.9574156,-0.7896885,0.76991576,0.82990676,1.329591,-0.17975838
0.1,0.1,0.7999999999999999,0.0,0.0,0,-1.6572877,1.364678,0.19648495,-0.20710729,0.028075742,1.4144521,1.620648,1.7099843,0.9135496,-0.8525491,0.7727177,0.9323198,1.1933533,-0.5163687
0.1,0.1,0.7999999999999999,0.0,0.0,0,-1.6702359,1.3711051,0.13905779,-0.20254806,0.1374608,1.4568374,1.698692,1.615955,0.9210598,-0.74747163,0.7838406,0.74694914,1.2385181,-0.02810768
0.1,0.1,0.7999999999999999,0.0,0.0,0,-1.646212,1.3584584,0.16964543,-0.14329094,0.087462336,1.3965973,1.5277101,1.6040479,0.89801043,-0.78148365,0.8405757,0.9169298,1.2083622,0.09585424
0.1,0.1,0.7999999999999999,0.0,0.0,0,-1.6025813,1.2216997,0.19324203,-0.24949771,0.04607546,1.4349892,1.7908697,1.7930841,0.91453886,-0.84540004,0.8292632,0.90399885,1.3929813,-0.3699702
0.1,0.1,0.7999999999999999,0.0,0.0,0,-1.6377541,1.2740921,0.15737131,-0.23489183,0.03239194,1.4716512,1.3097051,1.5756394,0.965547,-0.7892542,0.81919676,0.8620736,1.3255603,-0.12839113
0.1,0.1,0.7999999999999999,0.0,0.0,0,-1.5946654,1.2923015,0.2017827,-0.21040715,0.10289048,1.39812,1.3768152,1.8746314,0.8650863,-0.8513265,0.73668647,1.0085982,1.2005485,-0.09244474
0.1,0.1,0.7999999999999999,0.0,0.0,0,-1.6126809,1.3429718,0.16772018,-0.23063092,0.04502717,1.5343987,1.4915752,1.6748475,1.0142001,-0.7761383,0.80590034,0.8748535,1.3180115,-0.58969
0.1,0.1,0.7999999999999999,0.0,0.0,0,-1.7542573,1.3334812,0.19133896,-0.25081852,0.09520328,1.4511327,1.8466903,1.6591612,0.8845476,-0.8477884,0.76098216,0.90886545,1.3511661,-0.35110646
0.1,0.1,0.7999999999999999,0.0,0.0,0,-1.7022595,1.3875786,0.144128,-0.13275267,0.05186503,1.3487839,1.3440744,1.7655094,0.88621545,-1.01022,0.8367019,0.84315926,1.4585373,-0.061875854
0.1,0.1,0.7999999999999999,0.0,0.0,0,-1.6767844,1.2521944,0.18990162,-0.29974964,0.06494795,1.5095843,1.3723704,1.694973,0.9780915,-0.71317625,0.8528674,0.84541386,1.3462869,-0.3607549
0.1,0.1,0.7999999999999999,0.0,0.0,0,-1.6130357,1.2803276,0.18424809,-0.1561946,0.0823877,1.3960153,1.5699794,1.660964,0.93547183,-0.84991634,0.7796211,0.8220249,1.2928896,-0.5429826
0.1,0.1,0.7999999999999999,0.0,0.0,0,-1.6600833,1.3354588,0.2140354,-0.27955523,-0.029090114,1.4698014,1.6602712,1.7966143,0.9334415,-0.950705,0.8066215,1.006415,1.41671,0.14427492
0.1,0.1,0.7999999999999999,0.0,0.0,0,-1.7410239,1.2888432,0.23348656,-0.12530448,0.13377362,1.4824363,1.342904,1.7586917,0.95331776,-0.8368049,0.8283967,0.8717124,1.3489194,-0.2457966
0.1,0.1,0.7999999999999999,0.0,0.0,0,-1.6741922,1.3698132,0.119430356,-0.24656579,-0.0028824867,1.4414982,1.8467368,1.8000933,0.96039027,-0.84245133,0.81494343,0.92863435,1.2558471,-0.16941468
0.1,0.1,0.7999999999999999,0.0,0.0,0,-1.6236848,1.3060987,0.1945479,-0.2537296,0.05250673,1.4564933,1.6033918,1.6885673,0.96013564,-0.8916544,0.8261579,0.8395906,1.338031,-0.3854
0.1,0.1,0.7999999999999999,0.0,0.0,0,-1.6807919,1.3355533,0.22557406,-0.24855746,-0.005520746,1.4015529,1.5665343,1.6411144,0.94097024,-0.80377114,0.79329044,0.9356594,1.2320082,-0.6259213
0.1,0.1,0.7999999999999999,0.0,0.0,0,-1.717534,1.153438,0.26587433,-0.051029816,0.123923145,1.340674,1.5421829,1.8046924,0.88856214,-0.81796795,0.798137,1.0550408,1.3014401,0.18025783
0.1,0.1,0.7999999999999999,0.0,0.0,0,-1.6264993,1.2845409,0.17012897,-0.09818259,-0.021351287,1.443262,1.6808118,1.7481549,0.9480407,-0.82274663,0.79355204,0.8962085,1.194851,-0.5160953
0.1,0.1,0.7999999999999999,0.0,0.0,0,-1.6612358,1.2686214,0.1821891,-0.18157397,0.136416,1.438068,1.4900333,1.7384592,0.933121,-0.7993545,0.82922965,0.8938508,1.3536032,0.35450047
0.1,0.1,0.7999999999999999,0.0,0.0,0,-1.7086014,1.3300334,0.19637828,-0.15657692,-0.026365753,1.2840878,1.5204351,1.7330933,0.9323085,-0.8532289,0.8179294,0.87768954,1.3067012,-0.54167676
0.1,0.1,0.7999999999999999,0.0,0.0,0,-1.7243936,1.3556838,0.20464702,-0.32971928,0.064849384,1.4559121,2.2804384,1.5764188,0.98989564,-0.8764492,0.8186262,0.99243164,1.2465686,-0.50204325
0.1,0.1,0.7999999999999999,0.0,0.0,0,-1.6994644,1.3199699,0.24128269,-0.24404699,0.14772844,1.4776057,1.5029587,1.783558,0.97687376,-0.78470564,0.7571129,1.0492665,1.3438123,0.20733675
0.1,0.1,0.7999999999999999,0.0,0.0,0,-1.6203467,1.3636762,0.14445405,-0.11798788,0.073025905,1.450521,1.4092168,1.6672099,0.88751423,-0.85158056,0.77109545,0.86084455,1.3729233,-0.20996264
0.1,0.1,0.7999999999999999,0.0,0.0,0,-1.7106605,1.2918185,0.1871277,-0.13371283,0.048509303,1.400749,1.3246531,1.8248681,0.93137467,-0.9061298,0.7991105,0.7922585,1.4440805,-0.57937807
0.1,0.1,0.7999999999999999,0.0,0.0,0,-1.6828269,1.2952768,0.19696723,-0.22606838,0.053145695,1.4240469,1.4749732,1.6803933,0.9927463,-0.8398089,0.7729798,0.87714016,1.3817005,-0.37248135
0.1,0.1,0.7999999999999999,0.0,0.0,0,-1.640937,1.298338,0.15806898,-0.2151455,0.035796776,1.4381739,1.6103238,1.7201918,0.9257631,-0.7581938,0.792896,0.88489306,1.2816626,-0.86713296
0.1,0.1,0.7999999999999999,0.0,0.0,0,-1.674151,1.3861717,0.14966467,-0.25422114,0.096293084,1.4689014,1.2172537,1.7124017,0.9010076,-0.9497372,0.8230579,0.90259486,1.3940592,-0.3185698
0.1,0.1,0.7999999999999999,0.0,0.0,0,-1.6733189,1.333959,0.19843325,-0.23728791,0.11260345,1.5131164,1.6258068,1.6659905,0.9337231,-0.8027708,0.78937465,0.8800843,1.3542385,-0.0093868645
0.1,0.1,0.7999999999999999,0.0,0.0,0,-1.72653,1.3591665,0.22728418,-0.19536558,0.04512447,1.4933981,1.401137,1.633438,0.91103065,-0.8645226,0.7827085,0.9893425,1.2871487,0.5253065
0.1,0.1,0.7999999999999999,0.0,0.0,0,-1.6889235,1.3029232,0.17570503,-0.15664232,0.08466005,1.352796,1.2651284,1.7562869,0.9488897,-0.850449,0.7947306,0.8833575,1.3056283,-0.16509035
0.1,0.1,0.7999999999999999,0.0,0.0,0,-1.6996621,1.3106296,0.22510426,-0.17521225,0.039162617,1.4523224,1.5449592,1.824652,0.87439,-0.85376155,0.80575836,0.82032585,1.2978429,-0.28575402
0.1,0.1,0.7999999999999999,0.0,0.0,0,-1.7191066,1.2942617,0.19926725,-0.21451303,0.0007801628,1.4329498,1.9108088,1.6860142,0.9457142,-0.7796095,0.77565026,0.95437515,1.3248563,0.11591147
0.1,0.1,0.7999999999999999,0.0,0.0,0,-1.6165702,1.2078923,0.15756655,-0.06845396,0.12297553,1.5063874,1.4034011,1.7258548,0.88561445,-0.795409,0.79750425,0.96813923,1.334874,-0.6382813
0.1,0.1,0.7999999999999999,0.0,0.0,0,-1.6692228,1.2577423,0.16956703,-0.111281514,0.07207013,1.4168618,1.6679,1.7953243,0.86679536,-0.8839699,0.8100253,0.87379223,1.3181914,-0.14330381
0.1,0.1,0.7999999999999999,0.0,0.0,0,-1.6648499,1.3482922,0.15708661,-0.1271493,0.12057215,1.5331118,1.57629,1.6400353,0.9721409,-0.85479766,0.81517684,0.9708236,1.4495952,0.25440994
0.1,0.1,0.7999999999999999,0.0,0.0,0,-1.6684798,1.303883,0.22032827,-0.12764803,0.17072082,1.4603304,1.604443,1.8136994,0.8788685,-0.8531354,0.81838846,0.8031959,1.344618,-0.6037127
0.1,0.1,0.7999999999999999,0.0,0.0,0,-1.7219023,1.396159,0.19583882,-0.23921002,0.000103806975,1.503691,1.4287627,1.7344661,0.94911885,-0.8436127,0.80678445,0.9560997,1.2637666,0.13429782
0.1,0.1,0.7999999999999999,0.0,0.0,0,-1.7079206,1.3443255,0.1596339,-0.13920234,0.11329629,1.4323229,1.3911524,1.9471965,0.9356313,-0.88032085,0.8104848,0.8661989,1.2825029,0.46479172
0.1,0.1,0.7999999999999999,0.0,0.0,0,-1.6080765,1.2219285,0.13407494,-0.10391614,0.070559874,1.3992819,1.3581346,1.6420456,0.95589983,-0.75611085,0.80835,0.89213735,1.3338187,-0.5360171
0.1,0.1,0.7999999999999999,0.0,0.0,0,-1.7399273,1.3173741,0.15496226,-0.18093711,0.06272878,1.3930864,1.7166367,1.9247094,0.9574923,-0.8562677,0.752245,0.87935203,1.2880285,-0.36705497
0.1,0.1,0.7999999999999999,0.0,0.0,0,-1.6340237,1.2673732,0.2310699,-0.10546946,0.04089308,1.4398776,1.5911134,1.7335495,0.9122675,-0.7986698,0.8105429,0.9010179,1.3179778,-0.5699111
0.1,0.1,0.7999999999999999,0.0,0.0,0,-1.6736319,1.2623432,0.27666026,-0.15491292,0.024412723,1.4397814,1.6508386,1.7416686,0.98637986,-0.8576471,0.80386424,0.95730186,1.3841077,-0.54755557
0.1,0.1,0.7999999999999999,0.0,0.0,0,-1.7683516,1.3572879,0.17870632,-0.14257072,0.10663929,1.377974,1.5301403,1.6783789,0.9482252,-0.7923777,0.80976874,0.9658153,1.2896816,-0.067020096
0.1,0.1,0.7999999999999999,0.0,0.0,0,-1.7685641,1.3993537,0.23872727,-0.13549814,0.14920498,1.4911051,1.159986,1.828598,0.86929435,-0.8394818,0.77100736,0.8477549,1.2547268,-0.26869285
0.1,0.1,0.7999999999999999,0.0,0.0,0,-1.7064395,1.30025,0.19322443,-0.11699762,0.11862258,1.4941363,1.6344783,1.6040525,0.9529966,-0.7586922,0.7786513,0.8516227,1.361155,-0.5846399
