sanky1234/BimanualDexCatch/isaacgymenvs/cem_results/football_pose_-0.1_0.0_1.1999999999999997_0.5235987755982988_-0.5235987755982988_0_2025-05-25.csv
x,y,z,roll,pitch,yaw,robot1/joint1,robot1/joint2,robot1/joint3,robot1/joint4,robot1/joint5,robot1/joint6,robot1/joint7,robot2/joint1,robot2/joint2,robot2/joint3,robot2/joint4,robot2/joint5,robot2/joint6,robot2/joint7
-0.1,0.0,1.1999999999999997,0.5235987755982988,-0.5235987755982988,0,-1.2319955,-1.2887013,1.6907003,-0.030681046,0.120445035,1.2763517,0.77486485,-1.5884129,1.5428556,0.29641235,-0.015435875,-0.046516784,1.2253588,-0.14284907
-0.1,0.0,1.1999999999999997,0.5235987755982988,-0.5235987755982988,0,-1.2319224,-1.2881887,1.6580979,-0.054454304,-0.17345375,1.1622939,0.3751945,-1.6079258,1.5891957,0.6278273,0.021272695,0.10811214,1.0982972,-0.023133665
-0.1,0.0,1.1999999999999997,0.5235987755982988,-0.5235987755982988,0,-1.2325236,-1.2888316,1.894499,-0.08084478,-0.18537031,1.2545093,0.7251209,-1.615708,1.5524994,0.07481053,-0.09386002,0.060664177,1.0938833,-0.23595338
-0.1,0.0,1.1999999999999997,0.5235987755982988,-0.5235987755982988,0,-1.2315063,-1.288107,1.9027421,-0.10223296,-0.048384022,0.93363845,-0.25554758,-1.5900714,1.5725579,0.017329166,-0.008255947,0.062236182,1.2301933,1.3043995
-0.1,0.0,1.1999999999999997,0.5235987755982988,-0.5235987755982988,0,-1.2314693,-1.2885486,1.7357361,-0.0853903,0.09282051,1.279635,-0.112244725,-1.6080526,1.5646657,0.2982311,-0.06230933,-0.04829739,1.1671431,0.1408382
-0.1,0.0,1.1999999999999997,0.5235987755982988,-0.5235987755982988,0,-1.232641,-1.2885101,1.6957989,-0.042795703,0.06866998,1.3679405,0.42957997,-1.6196363,1.5563351,0.37189618,-0.014152737,0.14965382,1.1539916,0.90910316
-0.1,0.0,1.1999999999999997,0.5235987755982988,-0.5235987755982988,0,-1.2315849,-1.2893696,1.8783845,-0.121598236,0.1353523,1.1282115,1.0459149,-1.5776134,1.5656661,0.3184878,-0.036683973,0.12939177,1.2635561,0.021467218
-0.1,0.0,1.1999999999999997,0.5235987755982988,-0.5235987755982988,0,-1.2312956,-1.2884316,1.7111167,-0.044218693,-0.059102923,1.2184322,-0.48944926,-1.579072,1.5423944,0.3114026,-0.06301333,-0.19829872,1.052877,-0.12584539
-0.1,0.0,1.1999999999999997,0.5235987755982988,-0.5235987755982988,0,-1.2333205,-1.2880484,1.949056,-0.08806548,-0.11816095,1.2325594,0.44265324,-1.595821,1.5652016,0.58638537,0.019028831,0.26202673,1.0025281,-1.2424734
-0.1,0.0,1.1999999999999997,0.5235987755982988,-0.5235987755982988,0,-1.2317654,-1.2887955,1.6740555,-0.07978727,-0.20628826,1.1100881,0.71924376,-1.6100404,1.5536039,0.18947367,0.027492173,0.21277373,1.1702284,1.9573367
-0.1,0.0,1.1999999999999997,0.5235987755982988,-0.5235987755982988,0,-1.2316809,-1.2879533,1.7311763,-0.06730158,0.1479944,1.2392933,0.09596732,-1.5695724,1.5513802,0.19813196,-0.07134466,-0.00206485,1.1639476,0.88754183
-0.1,0.0,1.1999999999999997,0.5235987755982988,-0.5235987755982988,0,-1.2319217,-1.2885877,1.888215,-0.032751366,0.080447,1.1143986,0.5786563,-1.5815861,1.5593814,-0.16754846,-0.05953094,-0.16712017,1.1445819,0.42950872
-0.1,0.0,1.1999999999999997,0.5235987755982988,-0.5235987755982988,0,-1.2315611,-1.288341,1.7598752,-0.05797148,0.25211525,1.2077347,0.95778304,-1.6012417,1.5741675,0.25390753,-0.03868828,-0.052161653,1.1713578,-1.1388966
-0.1,0.0,1.1999999999999997,0.5235987755982988,-0.5235987755982988,0,-1.2320439,-1.2877444,1.5738925,-0.04641974,0.010610187,1.2708243,0.3733851,-1.5777713,1.6236436,-0.024601886,-0.033494756,0.09106006,1.2936425,0.42092237
-0.1,0.0,1.1999999999999997,0.5235987755982988,-0.5235987755982988,0,-1.2316769,-1.287809,1.654602,-0.045435704,-0.08591846,1.1572092,0.9115476,-1.615393,1.5673769,0.4514586,-0.0045824195,-0.18575707,1.251982,1.7915726
-0.1,0.0,1.1999999999999997,0.5235987755982988,-0.5235987755982988,0,-1.2316222,-1.288842,1.7258157,-0.04240609,0.14995213,1.1840031,0.65770984,-1.6068549,1.5719601,0.22109675,-0.08597753,-0.24940616,1.0339981,1.2720945
-0.1,0.0,1.1999999999999997,0.5235987755982988,-0.5235987755982988,0,-1.2315893,-1.2877421,1.7906208,-0.08893804,0.28091848,1.0490216,-0.060611635,-1.5717598,1.5615196,0.09985127,-0.08522083,-0.087370284,1.2394736,-0.6347482
-0.1,0.0,1.1999999999999997,0.5235987755982988,-0.5235987755982988,0,-1.231491,-1.2886521,1.4499718,-0.011723897,0.050542243,1.2697086,0.08533439,-1.5948746,1.5161722,0.16193163,-0.024059108,-0.013028542,1.297926,1.1903725
-0.1,0.0,1.1999999999999997,0.5235987755982988,-0.5235987755982988,0,-1.2320839,-1.2880121,1.6046871,-0.11275534,0.14292009,1.1031932,-0.3297523,-1.6163123,1.556283,0.07523876,0.0714702,-0.23566645,1.204236,-1.0963827
-0.1,0.0,1.1999999999999997,0.5235987755982988,-0.5235987755982988,0,-1.2322928,-1.2883077,1.7466484,-0.037936706,-0.021641782,1.0849558,0.58119154,-1.58552,1.5482771,-0.033669278,-0.0018698825,-0.12429722,1.1627338,-0.30989936
-0.1,0.0,1.1999999999999997,0.5235987755982988,-0.5235987755982988,0,-1.231987,-1.2880329,1.6131849,-0.07411868,0.113334194,1.2164495,0.32121283,-1.6062756,1.569089,0.12006007,-0.08831335,0.07451844,1.0322044,1.4138864
-0.1,0.0,1.1999999999999997,0.5235987755982988,-0.5235987755982988,0,-1.2326944,-1.2878258,1.6178697,-0.072929755,0.009970617,1.2151287,0.15594482,-1.5730802,1.5338161,0.37313432,0.036589887,-0.051034585,1.2715647,0.84630704
-0.1,0.0,1.1999999999999997,0.5235987755982988,-0.5235987755982988,0,-1.2325516,-1.2880092,1.6386964,-0.07327823,0.13755679,1.0584835,0.90606123,-1.6016771,1.5346696,0.19065854,-0.017767584,0.18161653,1.1376619,-0.3501994
-0.1,0.0,1.1999999999999997,0.5235987755982988,-0.5235987755982988,0,-1.2321842,-1.2887701,1.5668578,-0.10749279,-0.06667569,1.1747829,0.5114525,-1.5927442,1.5229148,0.348867,-0.041417047,-0.009668522,1.2359174,-0.4536241
-0.1,0.0,1.1999999999999997,0.5235987755982988,-0.5235987755982988,0,-1.2322308,-1.2886446,1.6798558,-0.10485976,0.31475896,1.3256416,1.1741776,-1.5982974,1.560479,0.13133684,0.0027915884,-0.06436957,1.2179801,-1.7460157
-0.1,0.0,1.1999999999999997,0.5235987755982988,-0.5235987755982988,0,-1.2325166,-1.2883724,1.794053,-0.102091424,-0.10519392,1.1483606,0.9020116,-1.5819145,1.5327201,0.36425343,0.013231947,-0.023636121,1.3113135,-0.9988129
-0.1,0.0,1.1999999999999997,0.5235987755982988,-0.5235987755982988,0,-1.2318373,-1.2881559,1.6564258,0.0039801258,0.19949195,1.3013346,0.84357,-1.5833446,1.531804,0.3287893,-0.060594622,-0.27140316,1.0690897,-1.2280837
-0.1,0.0,1.1999999999999997,0.5235987755982988,-0.5235987755982988,0,-1.2325639,-1.2879965,1.6326245,-0.08678208,0.09414756,1.2237395,0.27764034,-1.587835,1.5231484,0.1608513,-0.08893324,-0.07899916,1.2278204,-0.41745135
-0.1,0.0,1.1999999999999997,0.5235987755982988,-0.5235987755982988,0,-1.2320023,-1.2883811,1.8155171,-0.097705245,0.33979794,1.1022766,1.403665,-1.6015428,1.590912,0.6669092,-0.11830633,0.48742944,1.239889,-0.40930304
-0.1,0.0,1.1999999999999997,0.5235987755982988,-0.5235987755982988,0,-1.23209,-1.2876757,1.6038915,-0.0991202,-0.10890175,1.2516428,0.764731,-1.610483,1.5352607,0.15254575,0.072721995,-0.1508793,1.1541934,1.0965149
-0.1,0.0,1.1999999999999997,0.5235987755982988,-0.5235987755982988,0,-1.2322971,-1.2885387,2.0461478,-0.10152194,0.102950715,1.2256652,-0.53834456,-1.5889937,1.5519196,0.3338216,-0.011627077,-0.15353298,1.0082675,-2.547386
-0.1,0.0,1.1999999999999997,0.5235987755982988,-0.5235987755982988,0,-1.2317896,-1.2883421,1.7244477,-0.039808434,0.028652035,1.0714775,0.4497114,-1.5561405,1.5742495,0.34431925,-0.039996397,-0.18850774,1.0888115,0.31268308
-0.1,0.0,1.1999999999999997,0.5235987755982988,-0.5235987755982988,0,-1.2320335,-1.2882005,1.7884744,-0.042299762,0.09342541,1.0554875,0.04057108,-1.6410396,1.5351423,0.098709285,0.053085003,0.010012159,1.0005076,-1.5505934
-0.1,0.0,1.1999999999999997,0.5235987755982988,-0.5235987755982988,0,-1.2323658,-1.2886324,1.8325018,-0.12690417,0.06220778,1.3618332,-0.4904934,-1.5883788,1.5478247,0.05389005,-0.025920061,0.08735603,1.0878878,-0.24462982
-0.1,0.0,1.1999999999999997,0.5235987755982988,-0.5235987755982988,0,-1.2318733,-1.2886649,1.9376088,-0.062944785,0.22489527,1.2783024,1.0192761,-1.5738754,1.5686179,0.4387995,0.022867417,-0.04076423,1.1544079,1.9046327
-0.1,0.0,1.1999999999999997,0.5235987755982988,-0.5235987755982988,0,-1.2316129,-1.2883193,1.8811858,-0.076870136,0.25290033,1.2156749,0.48724034,-1.6089094,1.5978017,0.13945752,-0.023109913,-0.306525,1.2038523,-1.2063655
-0.1,0.0,1.1999999999999997,0.5235987755982988,-0.5235987755982988,0,-1.230958,-1.2886673,1.756284,-0.018915616,0.18593673,1.2189552,-0.29983252,-1.5857775,1.5835379,0.32703793,-0.11986349,-0.04558856,0.96042335,1.9489177
-0.1,0.0,1.1999999999999997,0.5235987755982988,-0.5235987755982988,0,-1.2323251,-1.2885066,1.9906601,-0.10468143,-0.048944373,1.1381475,0.52208084,-1.6078086,1.5531043,0.16230214,-0.045341376,-0.016007382,1.1462506,-0.16016625
-0.1,0.0,1.1999999999999997,0.5235987755982988,-0.5235987755982988,0,-1.231915,-1.2880142,1.7038655,-0.022154344,0.093897834,1.1807697,-0.74370635,-1.602541,1.512945,0.22529383,0.0629765,-0.19662353,1.1092674,-0.012419377
-0.1,0.0,1.1999999999999997,0.5235987755982988,-0.5235987755982988,0,-1.2315496,-1.2884759,2.0164118,-0.11068608,0.24293664,1.232379,-0.5030313,-1.5985931,1.5758444,0.1362007,0.026193628,-0.008215541,1.1328828,0.037228588
-0.1,0.0,1.1999999999999997,0.5235987755982988,-0.5235987755982988,0,-1.2319909,-1.2884862,1.843319,-0.069141686,-0.14942077,1.3968885,0.8984639,-1.5755553,1.5859268,0.22945352,0.028752007,-0.3073178,1.1146672,1.0083272
-0.1,0.0,1.1999999999999997,0.5235987755982988,-0.5235987755982988,0,-1.2321566,-1.2883942,1.7765526,-0.10365046,0.104050905,1.0669391,0.25226372,-1.6050135,1.5725447,0.053249642,-0.032260604,0.11369028,1.2282083,0.33618844
-0.1,0.0,1.1999999999999997,0.5235987755982988,-0.5235987755982988,0,-1.2313828,-1.2880509,1.8938478,-0.095734246,0.23004127,1.1033014,1.5035552,-1.6050181,1.5959398,0.5172926,0.039059523,0.021761745,1.285719,0.888968
-0.1,0.0,1.1999999999999997,0.5235987755982988,-0.5235987755982988,0,-1.2312318,-1.2884449,1.7119213,-0.06621261,0.089849666,1.164718,1.7370582,-1.6028366,1.5340832,-0.015610442,-0.037775703,-0.2538434,1.0904067,-1.1092575
-0.1,0.0,1.1999999999999997,0.5235987755982988,-0.5235987755982988,0,-1.2316839,-1.2883956,1.7846534,-0.08934403,0.16990858,1.2379057,1.1429671,-1.5623747,1.5574616,0.17808947,0.028400961,-0.04852888,1.2868187,0.40771097
-0.1,0.0,1.1999999999999997,0.5235987755982988,-0.5235987755982988,0,-1.2314211,-1.2885367,1.7926178,-0.044698898,0.3648265,1.2187726,0.40600562,-1.6066877,1.5418751,0.16269284,-0.09676417,0.09904643,1.1004068,-0.28278497
-0.1,0.0,1.1999999999999997,0.5235987755982988,-0.5235987755982988,0,-1.2311295,-1.2888126,1.8231244,-0.07878696,0.35790345,1.213283,0.18534715,-1.5713471,1.5779523,0.19864601,-0.020441197,0.030278003,1.2213844,-1.0622487
-0.1,0.0,1.1999999999999997,0.5235987755982988,-0.5235987755982988,0,-1.2319312,-1.2883546,1.6969131,-0.070244476,0.12707645,1.1415565,0.87129426,-1.5985748,1.5800838,0.13702323,-0.107086696,-0.16761155,1.2348684,0.5299445
-0.1,0.0,1.1999999999999997,0.5235987755982988,-0.5235987755982988,0,-1.231481,-1.2884926,1.8378556,-0.08031173,0.20131704,1.2719406,-0.022370623,-1.6133729,1.6146758,0.45796615,-0.09243692,0.038653497,1.0625335,-0.29853523
-0.1,0.0,1.1999999999999997,0.5235987755982988,-0.5235987755982988,0,-1.2315084,-1.2882826,1.599768,-0.08550729,0.24584445,1.165289,0.17853057,-1.5878295,1.4908897,0.24108894,0.091316134,-0.076692484,1.1629086,0.7926708
-0.1,0.0,1.1999999999999997,0.5235987755982988,-0.5235987755982988,0,-1.2317418,-1.288344,1.7567993,-0.06709165,0.20095323,1.1627909,0.24569654,-1.5810103,1.5189968,0.17419943,0.012300192,-0.17650211,1.2110832,0.4682234
-0.1,0.0,1.1999999999999997,0.5235987755982988,-0.5235987755982988,0,-1.2317028,-1.2881731,1.9236629,-0.045861546,0.17312704,1.1040605,-0.01792117,-1.6030242,1.5668061,0.035739034,-0.04039718,-0.16424046,1.2167882,1.4762648
-0.1,0.0,1.1999999999999997,0.5235987755982988,-0.5235987755982988,0,-1.2319013,-1.2883046,1.7868174,-0.12906101,0.046506044,1.1197884,1.2126353,-1.5670018,1.5826792,0.15829687,-0.104006045,0.0023530517,1.1202848,0.31304953
-0.1,0.0,1.1999999999999997,0.5235987755982988,-0.5235987755982988,0,-1.2326224,-1.288285,1.8045012,-0.0678956,-0.16998062,1.0995322,0.77174485,-1.5940397,1.5781964,0.15076077,-0.029313818,-0.060109846,1.2045922,0.33827147
-0.1,0.0,1.1999999999999997,0.5235987755982988,-0.5235987755982988,0,-1.2321461,-1.2883942,1.803416,-0.11045162,0.17437,1.0432819,-0.0066008284,-1.6082711,1.5540736,0.392996,-0.015110963,-0.0031541982,1.1918578,-1.9444042
-0.1,0.0,1.1999999999999997,0.5235987755982988,-0.5235987755982988,0,-1.2318112,-1.288323,1.7070944,-0.065888755,0.063084684,1.1360295,0.10529844,-1.6087279,1.5358868,0.44322917,-0.08159609,0.099318884,1.1582402,-0.58210516
-0.1,0.0,1.1999999999999997,0.5235987755982988,-0.5235987755982988,0,-1.231775,-1.2884501,1.536258,-0.07948036,-0.22795846,1.1973313,1.3198051,-1.5985538,1.5292474,0.38665268,-0.057924706,0.029497614,1.3916477,0.9182552
-0.1,0.0,1.1999999999999997,0.5235987755982988,-0.5235987755982988,0,-1.231948,-1.2886136,1.785147,-0.028685218,0.10347355,1.1909547,0.82622766,-1.5836704,1.5489761,0.26673448,-0.03392205,0.13263962,1.2608492,-1.8284639
-0.1,0.0,1.1999999999999997,0.5235987755982988,-0.5235987755982988,0,-1.2319894,-1.2885753,1.8219306,-0.11001651,0.18356265,1.2902266,0.1269122,-1.5717876,1.5646006,0.6535195,-0.017993405,0.015354259,1.1537229,0.5696288
-0.1,0.0,1.1999999999999997,0.5235987755982988,-0.5235987755982988,0,-1.2321771,-1.288545,1.7588565,-0.03576767,0.10109265,1.1885924,1.1111662,-1.5750897,1.5617144,0.15607019,-0.01624589,0.18611468,1.2233176,0.72182167
-0.1,0.0,1.1999999999999997,0.5235987755982988,-0.5235987755982988,0,-1.2321094,-1.2883761,1.8148072,-0.0819359,0.100891344,1.2105285,0.094086975,-1.5849801,1.5465046,0.36366835,0.0016394207,-0.030538665,1.1570216,0.61972606
-0.1,0.0,1.1999999999999997,0.5235987755982988,-0.5235987755982988,0,-1.231792,-1.2878218,2.0344338,-0.078494996,-0.13054445,1.2170279,0.18278563,-1.5933867,1.5547916,0.0865728,-0.099010244,-0.0868262,1.0367776,1.3333479
-0.1,0.0,1.1999999999999997,0.5235987755982988,-0.5235987755982988,0,-1.2325002,-1.2880136,1.9475898,-0.07131608,0.3328881,1.0848619,0.71843517,-1.5949479,1.5769415,0.1519772,-0.0922868,-0.1459564,1.1419808,0.30678183
-0.1,0.0,1.1999999999999997,0.5235987755982988,-0.5235987755982988,0,-1.2314888,-1.2878805,1.544457,-0.02723847,0.19869925,1.3181089,0.4335964,-1.6156176,1.5300202,0.3846412,-0.043926112,0.43148157,1.1853259,0.22073409
-0.1,0.0,1.1999999999999997,0.5235987755982988,-0.5235987755982988,0,-1.2317116,-1.2885032,1.8247595,-0.045791652,-0.014406058,1.1824658,0.80374485,-1.595752,1.5588725,0.33380088,0.015259456,0.021875732,1.3253485,1.1346325
-0.1,0.0,1.1999999999999997,0.5235987755982988,-0.5235987755982988,0,-1.23145,-1.288135,1.9004964,-0.092135705,0.20424376,0.93995005,-0.027686154,-1.5975215,1.5849173,0.32638878,-0.054476872,-0.22779655,1.1443484,1.4113095
-0.1,0.0,1.1999999999999997,0.5235987755982988,-0.5235987755982988,0,-1.2315435,-1.2886842,1.7705989,-0.07486488,0.21564452,1.1226525,0.14142936,-1.6063784,1.5645019,0.3494774,-0.069352254,-0.1270307,1.0914062,0.9225603
-0.1,0.0,1.1999999999999997,0.5235987755982988,-0.5235987755982988,0,-1.2322959,-1.2879549,1.8195618,-0.07394215,0.0026762108,1.1754134,0.14414704,-1.6261836,1.5798328,0.2465008,0.01028794,-0.16297357,1.2380542,1.0088996
-0.1,0.0,1.1999999999999997,0.5235987755982988,-0.5235987755982988,0,-1.2315483,-1.2886497,2.067554,-0.03042429,0.13799924,1.1449808,0.029022388,-1.5762519,1.533682,0.09262317,0.04646838,-0.105574004,1.149079,0.23494749
-0.1,0.0,1.1999999999999997,0.5235987755982988,-0.5235987755982988,0,-1.2314172,-1.288398,1.7832644,-0.117509104,-0.110198736,1.1385449,1.5324984,-1.6119713,1.5371852,0.074837886,-0.13203128,0.010235428,1.2693294,-1.6941973
-0.1,0.0,1.1999999999999997,0.5235987755982988,-0.5235987755982988,0,-1.2323036,-1.2880882,1.9277794,-0.05996607,-0.04605843,1.3202332,0.77565414,-1.5885816,1.5253574,0.40918702,-0.025336554,-0.01702877,1.1490102,0.8124213
-0.1,0.0,1.1999999999999997,0.5235987755982988,-0.5235987755982988,0,-1.2322661,-1.2873591,1.7878196,-0.15083906,-0.2854656,1.2299236,0.5405951,-1.5783699,1.5530839,-0.0014703391,-0.03143314,0.035270423,1.3063298,-0.7594895
-0.1,0.0,1.1999999999999997,0.5235987755982988,-0.5235987755982988,0,-1.2324399,-1.2876056,1.838493,-0.11783983,0.2017429,1.196253,0.43064523,-1.6046807,1.5587462,0.12536056,-0.07372386,0.043043,1.1182712,0.099736154
-0.1,0.0,1.1999999999999997,0.5235987755982988,-0.5235987755982988,0,-1.2316357,-1.28746,1.8133835,-0.13316599,0.07285363,1.1962626,0.5390363,-1.5793068,1.53306,0.3639421,-0.095530674,-0.14446214,1.1553171,0.43656412
-0.1,0.0,1.1999999999999997,0.5235987755982988,-0.5235987755982988,0,-1.2321483,-1.2882562,1.7237873,-0.07961045,0.39603573,1.3050588,1.1738474,-1.6284144,1.5639575,0.2336004,-0.08085361,-0.08986097,1.1370151,-0.52910334
-0.1,0.0,1.1999999999999997,0.5235987755982988,-0.5235987755982988,0,-1.2321801,-1.2880955,1.8048553,-0.07795233,0.041033562,1.1391062,0.51515305,-1.6372852,1.5555887,0.26203024,-0.050482135,0.05493187,1.1971447,0.9813761
-0.1,0.0,1.1999999999999997,0.5235987755982988,-0.5235987755982988,0,-1.232076,-1.2884463,1.6860094,-0.14151089,0.1124293,1.3603498,-0.075377926,-1.6059332,1.6117754,0.16773559,0.0023294,-0.03961216,1.2720485,0.7550334
-0.1,0.0,1.1999999999999997,0.5235987755982988,-0.5235987755982988,0,-1.2318287,-1.2883066,1.6800884,0.010270008,-0.16176133,1.1692599,-0.6943041,-1.5919316,1.5534344,0.3833514,-0.102078535,-0.030369861,1.2123675,1.4985602
-0.1,0.0,1.1999999999999997,0.5235987755982988,-0.5235987755982988,0,-1.231772,-1.2883677,1.7530773,-0.08952087,0.14748049,1.1208761,0.75716186,-1.5937313,1.6145518,0.2924676,-0.12273566,-0.28639063,1.2758156,-0.43211067
-0.1,0.0,1.1999999999999997,0.5235987755982988,-0.5235987755982988,0,-1.231914,-1.288928,1.6654687,-0.042194095,-0.120850585,1.2833667,0.7010157,-1.6050829,1.5633498,0.66838795,-0.06916273,0.12585014,1.1296206,-1.0895758
-0.1,0.0,1.1999999999999997,0.5235987755982988,-0.5235987755982988,0,-1.2311409,-1.2879896,1.643876,-0.0770082,0.06412569,1.2125573,0.4418458,-1.5893369,1.5541666,0.41506895,-0.085595414,-0.32891637,1.292722,0.21963963
-0.1,0.0,1.1999999999999997,0.5235987755982988,-0.5235987755982988,0,-1.2320174,-1.2881305,1.6945114,-0.042630978,0.30147484,1.1511923,0.41902608,-1.573841,1.5736829,0.033356354,-0.020470519,0.023235776,1.2010393,1.2566502
-0.1,0.0,1.1999999999999997,0.5235987755982988,-0.5235987755982988,0,-1.2321682,-1.2884682,1.7927301,-0.029146884,-0.07000185,1.2073307,-1.0113455,-1.6063046,1.5426911,0.25897166,-0.12990387,0.070315085,1.3885944,1.5177866
-0.1,0.0,1.1999999999999997,0.5235987755982988,-0.5235987755982988,0,-1.2315229,-1.2880487,1.7966062,-0.057170346,0.17947336,1.0398654,1.5806742,-1.5787641,1.5446994,0.13603444,-0.12701415,0.04431134,1.1863112,-2.210578
-0.1,0.0,1.1999999999999997,0.5235987755982988,-0.5235987755982988,0,-1.2316656,-1.2877487,1.5773572,-0.10529474,-0.020687053,1.1879139,0.07528629,-1.6056384,1.529813,0.33025473,-0.10520884,0.04094803,1.1551704,0.32826433
-0.1,0.0,1.1999999999999997,0.5235987755982988,-0.5235987755982988,0,-1.2317599,-1.2882208,1.8448914,-0.11653563,-0.16236125,1.0370755,0.3894864,-1.6158998,1.5356277,0.17285345,0.040073335,0.071913235,1.3215443,-1.1293664
-0.1,0.0,1.1999999999999997,0.5235987755982988,-0.5235987755982988,0,-1.2323003,-1.2878091,1.7175843,-0.07395426,0.18164293,1.2328423,0.1260619,-1.5750257,1.5870097,0.30481878,-0.03457419,-0.10324995,0.97933865,-1.9152923
-0.1,0.0,1.1999999999999997,0.5235987755982988,-0.5235987755982988,0,-1.2322282,-1.2889504,1.8800898,-0.08136155,-0.030815944,1.1395372,-0.058654442,-1.6018558,1.5306681,0.12483175,0.039756544,0.23885548,1.0878001,-1.6412293
-0.1,0.0,1.1999999999999997,0.5235987755982988,-0.5235987755982988,0,-1.232105,-1.2885929,1.8758178,-0.04706438,-0.08264442,1.0940875,-0.31627208,-1.5817848,1.5463431,0.5040576,0.008098724,-0.0049785203,1.1845995,-1.0977896
-0.1,0.0,1.1999999999999997,0.5235987755982988,-0.5235987755982988,0,-1.2317238,-1.2880511,1.8256352,-0.08693995,0.10911511,1.1686233,1.1501204,-1.597256,1.5772386,0.33996463,0.011909226,0.18814284,1.08237,-0.64476395
-0.1,0.0,1.1999999999999997,0.5235987755982988,-0.5235987755982988,0,-1.2323259,-1.2887414,1.7754772,-0.05693891,0.1222008,1.4358281,1.3310446,-1.569308,1.568226,0.05026254,-0.016061291,-0.1176575,1.2037289,0.5897369
-0.1,0.0,1.1999999999999997,0.5235987755982988,-0.5235987755982988,0,-1.2318572,-1.288158,1.6821003,-0.037580464,0.00017130449,1.1928879,0.6218624,-1.6210401,1.5689653,0.33255082,-0.045630716,0.23311323,1.0574086,-1.0044999
-0.1,0.0,1.1999999999999997,0.5235987755982988,-0.5235987755982988,0,-1.2317094,-1.2880578,1.8308243,-0.06324193,0.24295445,1.1702613,0.29972902,-1.5832878,1.5692046,0.35489532,-0.050046176,0.15360336,0.86997795,0.7465437
-0.1,0.0,1.1999999999999997,0.5235987755982988,-0.5235987755982988,0,-1.2320788,-1.2881134,1.7288494,-0.046999007,0.14246388,1.1736953,-0.15730926,-1.584189,1.5419424,0.33507177,-0.045884926,-0.19667809,1.133386,0.9218589
-0.1,0.0,1.1999999999999997,0.5235987755982988,-0.5235987755982988,0,-1.2316982,-1.2884709,1.887157,0.011316351,-0.0255738,1.2477908,-0.06543713,-1.5795611,1.5320882,0.27135545,-0.053065386,0.16634835,1.1627513,1.3976479
-0.1,0.0,1.1999999999999997,0.5235987755982988,-0.5235987755982988,0,-1.2318072,-1.2879783,1.9120476,-0.06445595,0.030775575,1.1716845,1.004418,-1.560785,1.5417476,0.39870396,-0.08177027,0.22453727,0.9919602,0.68139136
-0.1,0.0,1.1999999999999997,0.5235987755982988,-0.5235987755982988,0,-1.2318511,-1.2884485,1.7545565,-0.045825277,0.12978914,1.2349545,-0.07743546,-1.6299251,1.5665493,0.46462005,-0.0142981345,-0.24118137,1.2071508,-0.73169327
-0.1,0.0,1.1999999999999997,0.5235987755982988,-0.5235987755982988,0,-1.2317547,-1.2882707,1.6966267,-0.10553421,0.1729821,1.2695382,0.44724756,-1.6032364,1.5388458,0.13832504,-0.10674733,0.033466544,1.3072978,0.6796049
-0.1,0.0,1.1999999999999997,0.5235987755982988,-0.5235987755982988,0,-1.232103,-1.2883196,1.7627413,-0.12150756,0.15729347,1.1348243,0.4658228,-1.5937108,1.5755576,0.18492366,-0.09620263,-0.015743395,1.2378889,1.1215248
-0.1,0.0,1.1999999999999997,0.5235987755982988,-0.5235987755982988,0,-1.2325486,-1.2887232,1.6847169,-0.115485944,0.20986001,1.2054098,0.4713636,-1.6123036,1.5675862,0.47980836,0.07163591,-0.05132004,1.2607388,2.276717
-0.1,0.0,1.1999999999999997,0.5235987755982988,-0.5235987755982988,0,-1.2318667,-1.2881235,1.7573777,-0.04420554,-0.101832174,1.1418362,-0.24555662,-1.5774379,1.5498309,0.17522283,-0.11119402,0.25311226,1.1681371,1.1411855
-0.1,0.0,1.1999999999999997,0.5235987755982988,-0.5235987755982988,0,-1.2322083,-1.2879137,1.7132665,-0.14100507,-0.093100056,1.3212157,0.41307023,-1.5830668,1.5693504,0.34390017,-0.023302536,-0.13730057,1.3598248,1.9360542
-0.1,0.0,1.1999999999999997,0.5235987755982988,-0.5235987755982988,0,-1.2318335,-1.2879924,1.7939795,-0.02668284,0.47031412,1.2802432,-0.49460775,-1.5834761,1.5541494,0.01889133,-0.054236803,0.04350499,1.2037591,0.13177705
-0.1,0.0,1.1999999999999997,0.5235987755982988,-0.5235987755982988,0,-1.2321075,-1.2880361,1.6016243,-0.07553965,0.08162929,0.9926954,0.037362624,-1.5946417,1.5700214,0.23468155,-0.055637784,-0.0003350869,1.2750483,-0.009330154
-0.1,0.0,1.1999999999999997,0.5235987755982988,-0.5235987755982988,0,-1.2322154,-1.28835,1.8093275,-0.0851869,-0.10708354,1.2299542,-0.039438274,-1.6297166,1.5732713,0.4165951,0.010100326,-0.020436756,1.1720964,1.1567861
-0.1,0.0,1.1999999999999997,0.5235987755982988,-0.5235987755982988,0,-1.231524,-1.2872432,1.9938042,-0.08633267,-0.17423417,1.0978796,-0.3958676,-1.624371,1.5558695,0.72951293,0.0007222394,0.12272478,1.2249646,-1.302354
-0.1,0.0,1.1999999999999997,0.5235987755982988,-0.5235987755982988,0,-1.2314315,-1.2883009,1.5468367,-0.076630905,-0.08587697,1.2241707,0.45957303,-1.5940528,1.5798028,0.23285866,-0.018659312,-0.075931124,1.1475537,-1.080381
-0.1,0.0,1.1999999999999997,0.5235987755982988,-0.5235987755982988,0,-1.2312142,-1.288062,1.9514879,-0.046358306,-0.22369057,1.0174383,-0.54827696,-1.5941491,1.6033376,-0.03488444,-0.0015049073,0.12052778,1.2911808,-1.4881322
-0.1,0.0,1.1999999999999997,0.5235987755982988,-0.5235987755982988,0,-1.2324779,-1.2878443,1.6832621,-0.09044066,0.065262765,1.1975535,1.5031472,-1.5804359,1.5357113,0.079099104,-0.015244095,-0.14276013,1.2221055,0.17239985
-0.1,0.0,1.1999999999999997,0.5235987755982988,-0.5235987755982988,0,-1.2322825,-1.2879835,1.7488885,-0.06848389,0.17198864,1.2698861,0.53757596,-1.5842965,1.5569706,0.41702867,-0.015938586,-0.10863624,1.1814834,0.53828025
-0.1,0.0,1.1999999999999997,0.5235987755982988,-0.5235987755982988,0,-1.2318915,-1.2885355,1.867996,-0.052976824,-0.11362938,1.2424428,-0.46449172,-1.589159,1.5279875,0.040670775,0.063096814,-0.08572398,1.2852767,-0.11832315
-0.1,0.0,1.1999999999999997,0.5235987755982988,-0.5235987755982988,0,-1.2314463,-1.2883512,1.6731426,-0.010570187,-0.12721471,1.2104251,1.282444,-1.5563508,1.5444825,0.2646787,-0.014669755,0.15454142,1.192267,0.5482828
-0.1,0.0,1.1999999999999997,0.5235987755982988,-0.5235987755982988,0,-1.2325139,-1.2880749,1.7081804,-0.032753807,0.31394804,1.3249592,0.530286,-1.6237,1.5763947,0.33675167,0.033695363,-0.07159924,1.107909,-0.47667855
-0.1,0.0,1.1999999999999997,0.5235987755982988,-0.5235987755982988,0,-1.231458,-1.2880197,1.7884297,-0.08212442,-0.049133293,1.3586502,0.6776602,-1.6107057,1.5603852,0.20438848,-0.12607679,0.11335131,1.2006121,-0.22598784
-0.1,0.0,1.1999999999999997,0.5235987755982988,-0.5235987755982988,0,-1.2319493,-1.288232,1.9236808,-0.11042737,0.024156233,1.2523353,-0.6022798,-1.6170517,1.6029172,0.18785262,-0.0039483733,-0.007464602,1.1129214,-1.5393084
-0.1,0.0,1.1999999999999997,0.5235987755982988,-0.5235987755982988,0,-1.2314451,-1.2882856,1.9215,-0.0038686097,0.19916753,1.1823303,0.52068675,-1.5922426,1.5556016,0.513289,0.0043171323,-0.053647324,1.0672373,-0.56284934
-0.1,0.0,1.1999999999999997,0.5235987755982988,-0.5235987755982988,0,-1.2319318,-1.2884368,1.8417573,-0.08631856,0.18213104,1.3019273,0.30809006,-1.5885303,1.5592952,0.074794404,-0.01873904,0.027007768,1.2013869,0.118353926
-0.1,0.0,1.1999999999999997,0.5235987755982988,-0.5235987755982988,0,-1.2311445,-1.2882864,1.7537297,-0.05054433,0.23680751,1.2324075,-0.5906689,-1.5733969,1.5648841,0.006311027,-0.009185897,-0.2694648,1.2298441,1.4736301
-0.1,0.0,1.1999999999999997,0.5235987755982988,-0.5235987755982988,0,-1.2311909,-1.2886186,1.7368535,-0.081435286,0.023711251,1.1955959,-0.6817706,-1.5663569,1.5420635,0.24017675,-0.02111988,-0.095216714,1.1231215,-1.7986813
-0.1,0.0,1.1999999999999997,0.5235987755982988,-0.5235987755982988,0,-1.2316602,-1.2881235,1.8790611,-0.04985737,-0.117496274,1.217376,0.12922062,-1.5858538,1.570329,0.34193364,-0.092228785,0.09464346,1.2043347,1.2109375
-0.1,0.0,1.1999999999999997,0.5235987755982988,-0.5235987755982988,0,-1.2316601,-1.2886622,1.7751626,-0.081699535,-0.055178165,1.075707,0.5760958,-1.6102436,1.5637252,-0.035132963,0.061604198,0.37623724,1.2696954,1.2066226
-0.1,0.0,1.1999999999999997,0.5235987755982988,-0.5235987755982988,0,-1.2313842,-1.2881757,1.98089,-0.06611158,0.08300548,1.2202111,1.254393,-1.6092459,1.540356,0.47136724,-0.047303665,-0.4145609,1.1812172,-0.1781989
-0.1,0.0,1.1999999999999997,0.5235987755982988,-0.5235987755982988,0,-1.2316425,-1.2881898,1.8172592,-0.09655184,0.08250201,1.2882732,0.09039307,-1.5932301,1.5457829,0.2167182,0.042125326,-0.002045841,1.0831559,2.3747442
-0.1,0.0,1.1999999999999997,0.5235987755982988,-0.5235987755982988,0,-1.2314739,-1.2881981,1.7849164,-0.09118572,0.31590855,1.1804895,0.41683018,-1.5970112,1.5428251,0.09787484,0.06356352,0.011117429,1.2294507,0.5003586
-0.1,0.0,1.1999999999999997,0.5235987755982988,-0.5235987755982988,0,-1.2316709,-1.2879909,1.7439305,-0.08331606,0.29312548,1.0736352,0.15049192,-1.5699158,1.6057569,0.175963,-0.031811908,-0.020830724,1.2299947,-0.93260413
-0.1,0.0,1.1999999999999997,0.5235987755982988,-0.5235987755982988,0,-1.2321907,-1.2877208,1.8366112,-0.12283368,-0.16907881,1.1821481,0.8425481,-1.6208403,1.5859884,0.2766381,-0.041042566,-0.23313403,1.1927127,-2.2880228
-0.1,0.0,1.1999999999999997,0.5235987755982988,-0.5235987755982988,0,-1.2317473,-1.2876956,1.8673729,-0.113711014,0.37669742,0.9677543,1.2231748,-1.5892599,1.627301,0.10778114,-0.068061784,0.06427633,1.130226,-0.47459793
-0.1,0.0,1.1999999999999997,0.5235987755982988,-0.5235987755982988,0,-1.2315073,-1.2879976,1.7055138,-0.10279967,0.018206246,1.1898482,0.80585575,-1.5931457,1.5262549,0.14496848,0.057365097,-0.16518973,1.112883,1.6364809
-0.1,0.0,1.1999999999999997,0.5235987755982988,-0.5235987755982988,0,-1.231517,-1.2877932,1.792374,-0.06670044,0.080631375,1.2507519,1.1412549,-1.5796819,1.5428804,0.36590555,-0.070406735,0.037899647,1.1823796,0.11584903
-0.1,0.0,1.1999999999999997,0.5235987755982988,-0.5235987755982988,0,-1.2315568,-1.2886246,1.7811693,-0.028223341,0.11635541,1.3230696,1.1015109,-1.5677668,1.5837727,0.17315215,0.052896127,0.13885371,1.1195174,-0.5121745
-0.1,0.0,1.1999999999999997,0.5235987755982988,-0.5235987755982988,0,-1.2318724,-1.2878922,1.8228872,-0.09951614,-0.101275824,1.2856566,0.63189214,-1.5972253,1.5720426,-0.10072952,0.06070714,-0.11745781,1.3414727,1.5606014
-0.1,0.0,1.1999999999999997,0.5235987755982988,-0.5235987755982988,0,-1.2316029,-1.2888803,1.8278754,-0.049147896,0.21254538,1.1868974,0.9312863,-1.5557414,1.5551363,0.49179226,-0.06806765,0.17014122,1.2297862,-1.3586156
-0.1,0.0,1.1999999999999997,0.5235987755982988,-0.5235987755982988,0,-1.2310327,-1.2882289,1.9570472,-0.11494905,0.074396044,1.494143,0.27399167,-1.5857213,1.5635891,0.19450177,-0.07682899,0.08236582,1.1217724,-0.4011561
-0.1,0.0,1.1999999999999997,0.5235987755982988,-0.5235987755982988,0,-1.231057,-1.2883102,1.7879305,-0.10790001,0.05276145,1.2341743,0.12438234,-1.5852295,1.5974743,0.43535203,0.055897675,0.04418695,1.0992742,0.2642072
-0.1,0.0,1.1999999999999997,0.5235987755982988,-0.5235987755982988,0,-1.231699,-1.2881577,1.7962353,-0.10231868,0.28488258,1.0919015,1.2934192,-1.6012951,1.5424908,0.37529504,-0.006835386,-0.052004695,1.2650157,0.29731134
-0.1,0.0,1.1999999999999997,0.5235987755982988,-0.5235987755982988,0,-1.23217,-1.2878946,1.8840982,-0.07249257,-0.17625,1.2657361,0.49067256,-1.5616428,1.5529116,0.33132336,-0.059891034,-0.10103003,1.1708966,0.06605208
-0.1,0.0,1.1999999999999997,0.5235987755982988,-0.5235987755982988,0,-1.2323555,-1.2876272,1.8906487,-0.07166119,0.043623492,1.1593344,1.1391835,-1.5971278,1.5135801,0.17659791,-0.04196147,0.006725142,1.2436799,0.91590786
-0.1,0.0,1.1999999999999997,0.5235987755982988,-0.5235987755982988,0,-1.2322469,-1.2875568,1.8184938,-0.042959686,0.046747103,1.1567857,0.22787371,-1.5758996,1.5777379,0.36255032,-0.089990966,0.1190127,1.1807015,0.081531934
-0.1,0.0,1.1999999999999997,0.5235987755982988,-0.5235987755982988,0,-1.2319717,-1.2877724,1.8611879,0.03386893,0.08569833,1.2391248,1.5021074,-1.5891396,1.5589871,0.36070597,0.0004033873,-0.19481216,1.0460612,-0.14395306
-0.1,0.0,1.1999999999999997,0.5235987755982988,-0.5235987755982988,0,-1.2311916,-1.2879782,1.8100002,-0.039811708,0.008563979,1.2439659,0.2071798,-1.5706483,1.5778604,0.3520765,-0.050737433,0.124648124,1.0513961,0.23174787
-0.1,0.0,1.1999999999999997,0.5235987755982988,-0.5235987755982988,0,-1.2319516,-1.2878157,1.6879121,-0.04442627,-0.02195237,1.18838,0.7813175,-1.6399394,1.5591387,0.035444282,-0.055307724,-0.11126778,1.0892274,-0.110055536
-0.1,0.0,1.1999999999999997,0.5235987755982988,-0.5235987755982988,0,-1.2313802,-1.2883692,1.8454294,-0.08766884,0.07357636,1.4128819,0.9108665,-1.6007149,1.5107526,0.1628673,0.020111263,0.06715005,1.2435007,-0.16005147
-0.1,0.0,1.1999999999999997,0.5235987755982988,-0.5235987755982988,0,-1.2315464,-1.2880756,1.7390503,-0.10724227,0.13007455,1.2717957,0.30137283,-1.6257292,1.5618258,0.3897976,-0.058343034,0.07526768,1.4164957,1.3441852
-0.1,0.0,1.1999999999999997,0.5235987755982988,-0.5235987755982988,0,-1.2316556,-1.2877603,1.7098286,-0.09634034,0.035152826,1.1705539,0.5793294,-1.5894837,1.5551808,0.46196163,-0.037544202,-0.21740244,1.272845,-0.4727253
-0.1,0.0,1.1999999999999997,0.5235987755982988,-0.5235987755982988,0,-1.2320728,-1.2879425,1.7430646,-0.102498956,0.035187148,1.4136573,0.95978487,-1.6030813,1.5819819,0.04833075,0.017508117,-0.050134826,1.1372865,-0.69385827
-0.1,0.0,1.1999999999999997,0.5235987755982988,-0.5235987755982988,0,-1.2327738,-1.287967,1.660651,-0.05580024,0.14938247,1.1432343,0.5146686,-1.5801345,1.5750669,0.32637644,-0.059561692,-0.06367982,1.2948685,-0.0040311054
-0.1,0.0,1.1999999999999997,0.5235987755982988,-0.5235987755982988,0,-1.2313628,-1.2880315,1.7268682,-0.12158714,-0.11292297,1.2690898,0.14307055,-1.5569518,1.5491879,0.582666,0.030764962,0.048728913,1.1643327,-1.3929821
-0.1,0.0,1.1999999999999997,0.5235987755982988,-0.5235987755982988,0,-1.2322174,-1.2883233,1.8102218,-0.04232017,-0.22202343,1.1737522,0.31585896,-1.591072,1.5511395,0.33610782,0.015808627,-0.14828427,1.2261698,0.07752382
-0.1,0.0,1.1999999999999997,0.5235987755982988,-0.5235987755982988,0,-1.2315379,-1.2885579,1.8075644,-0.11839859,0.3577408,1.0493083,0.81370455,-1.5934302,1.5470067,0.093478724,0.028129755,0.03386499,1.1389561,-0.7360856
-0.1,0.0,1.1999999999999997,0.5235987755982988,-0.5235987755982988,0,-1.231521,-1.2879359,1.7201421,-0.12782384,0.1575913,1.2372968,0.071668126,-1.5934086,1.5317127,0.35525206,-0.05388071,0.003117274,1.0706203,1.5876033
-0.1,0.0,1.1999999999999997,0.5235987755982988,-0.5235987755982988,0,-1.2315232,-1.2879514,1.8879404,-0.084448285,-0.06679237,1.2789477,-0.23670198,-1.5958906,1.5436541,0.1183909,0.0009030179,-0.079585634,1.2426137,2.656387
-0.1,0.0,1.1999999999999997,0.5235987755982988,-0.5235987755982988,0,-1.2312887,-1.2883613,1.9417847,-0.088496916,0.08234469,1.3197864,0.6577678,-1.5882989,1.5569577,0.26242024,-0.01885755,0.08428624,1.1943345,-1.1614429
-0.1,0.0,1.1999999999999997,0.5235987755982988,-0.5235987755982988,0,-1.2316478,-1.2878529,1.7881503,-0.038458694,-0.18752038,1.3673142,0.76229984,-1.5887911,1.5404894,0.17258516,0.026735008,-0.04361036,1.1442068,1.2002541
-0.1,0.0,1.1999999999999997,0.5235987755982988,-0.5235987755982988,0,-1.2320857,-1.2876784,1.8841913,-0.056995012,0.043144975,1.2919103,-0.065281846,-1.5870425,1.5757351,0.48469606,-0.048204336,-0.028746735,1.1614488,0.4632599
-0.1,0.0,1.1999999999999997,0.5235987755982988,-0.5235987755982988,0,-1.2317384,-1.2879728,1.7991928,-0.070260525,0.08004478,1.3079275,0.6778552,-1.5914747,1.5882233,0.24216793,0.017130649,0.08067811,1.1299274,-0.117699206
-0.1,0.0,1.1999999999999997,0.5235987755982988,-0.5235987755982988,0,-1.2313358,-1.2878302,1.9699568,-0.005287973,-0.12524523,1.1717525,0.18196829,-1.599387,1.5468361,0.56888664,0.036464702,0.23815343,1.205355,-1.7071056
-0.1,0.0,1.1999999999999997,0.5235987755982988,-0.5235987755982988,0,-1.2321674,-1.2883182,1.8298074,-0.0859796,0.078137025,1.1594772,0.95091474,-1.5796353,1.5171279,0.28149533,-0.014194073,-0.13189383,1.1539854,-1.1914333
-0.1,0.0,1.1999999999999997,0.5235987755982988,-0.5235987755982988,0,-1.2316341,-1.2877611,1.8901668,-0.08066261,0.08532555,1.3435434,0.6233211,-1.5980407,1.5681627,0.19569427,-0.040713277,0.09118434,1.216084,0.574901
-0.1,0.0,1.1999999999999997,0.5235987755982988,-0.5235987755982988,0,-1.2311587,-1.2878275,1.6240147,-0.1314706,0.19731589,1.0769969,0.29296076,-1.5998536,1.5835909,0.19089043,-0.05829858,0.11022748,1.1332282,0.14075752
-0.1,0.0,1.1999999999999997,0.5235987755982988,-0.5235987755982988,0,-1.2307734,-1.2883813,1.716986,-0.058813587,-0.04876504,1.2988852,0.08355487,-1.5888284,1.5108964,0.29403898,0.0584048,-0.08504718,1.2007719,-0.81804484
-0.1,0.0,1.1999999999999997,0.5235987755982988,-0.5235987755982988,0,-1.2311349,-1.2874401,1.9254827,-0.06827134,-0.016649324,1.2661815,-0.40230894,-1.5656571,1.576004,0.7052542,0.049933318,0.08082705,1.2742378,0.4231316
-0.1,0.0,1.1999999999999997,0.5235987755982988,-0.5235987755982988,0,-1.232198,-1.287811,1.8772019,-0.06046078,-0.10207416,1.2056979,2.20637,-1.6102108,1.5333228,0.21748096,-0.012086216,-0.34187192,1.2696598,0.5642162
-0.1,0.0,1.1999999999999997,0.5235987755982988,-0.5235987755982988,0,-1.2321534,-1.2878672,1.6847726,-0.14569727,0.063411,1.2953342,0.24742426,-1.5699396,1.5371115,0.4474917,0.00036168328,-0.17106225,1.1776409,0.98033565
-0.1,0.0,1.1999999999999997,0.5235987755982988,-0.5235987755982988,0,-1.2309328,-1.2881573,1.7136226,-0.07735524,-0.19801392,1.1491065,0.6906141,-1.6095762,1.5311375,0.22360572,-0.019622078,0.15881404,1.2616723,1.5576237
-0.1,0.0,1.1999999999999997,0.5235987755982988,-0.5235987755982988,0,-1.2315669,-1.2878492,1.8328911,-0.04539633,0.082058825,1.1056906,0.59788805,-1.57874,1.5460904,0.5177084,-0.13132143,0.10764471,1.1779683,-1.568006
-0.1,0.0,1.1999999999999997,0.5235987755982988,-0.5235987755982988,0,-1.2312255,-1.2883573,1.777339,-0.04320546,0.20690517,1.1709428,-0.06958407,-1.6029508,1.5474101,0.2073196,-0.0793723,-0.17978212,1.2140384,-0.1937481
-0.1,0.0,1.1999999999999997,0.5235987755982988,-0.5235987755982988,0,-1.2321466,-1.2868211,1.8387873,-0.021730524,-0.03187952,1.2115736,0.5343828,-1.5912911,1.54787,0.13298827,-0.019501133,-0.02677492,1.1710107,-0.51671934
-0.1,0.0,1.1999999999999997,0.5235987755982988,-0.5235987755982988,0,-1.2315325,-1.287337,1.7243617,-0.12182458,-0.062629156,1.1404524,-0.37293747,-1.5998693,1.5832134,0.41505077,-0.11072821,-0.12966575,1.1476736,0.9758422
-0.1,0.0,1.1999999999999997,0.5235987755982988,-0.5235987755982988,0,-1.232104,-1.2881112,1.6641152,-0.059152037,-0.06073191,1.1008312,0.4128207,-1.5811253,1.5529226,0.25748408,0.0012122708,0.066729076,1.1115013,0.055458426
-0.1,0.0,1.1999999999999997,0.5235987755982988,-0.5235987755982988,0,-1.2318195,-1.2882497,1.4901284,-0.08667484,0.09707964,1.1922837,0.43700343,-1.5992613,1.5291224,0.028795559,0.018839706,0.07274013,1.1953385,0.7303228
-0.1,0.0,1.1999999999999997,0.5235987755982988,-0.5235987755982988,0,-1.2327753,-1.2878748,1.6553918,-0.14712112,-0.051421613,1.1915808,1.1277832,-1.6033052,1.5681659,0.5754081,-0.04183766,0.10003775,1.0985861,1.0548996
-0.1,0.0,1.1999999999999997,0.5235987755982988,-0.5235987755982988,0,-1.231906,-1.2881757,1.6515737,-0.019392068,0.34740785,1.3290929,0.812524,-1.5561327,1.5296427,0.51195407,-0.035506587,0.2708749,1.2217658,-0.07338445
-0.1,0.0,1.1999999999999997,0.5235987755982988,-0.5235987755982988,0,-1.2316077,-1.2878,1.6035903,-0.056841657,0.24896352,1.1829784,0.096464105,-1.6017357,1.5495312,-0.09960464,0.051785935,0.0105032,1.3325064,-0.026269292
-0.1,0.0,1.1999999999999997,0.5235987755982988,-0.5235987755982988,0,-1.2316642,-1.2881843,1.6874443,-0.097623795,-0.13171242,1.3166075,0.0772709,-1.5966526,1.575311,0.4856071,0.10398097,-0.21767351,1.1808429,-0.37052554
-0.1,0.0,1.1999999999999997,0.5235987755982988,-0.5235987755982988,0,-1.2314634,-1.2877234,1.6888256,-0.036922794,0.26754448,1.1048638,0.3190549,-1.5993912,1.5423602,0.42642584,-0.024230061,0.1314701,1.1425886,-1.7438658
-0.1,0.0,1.1999999999999997,0.5235987755982988,-0.5235987755982988,0,-1.231236,-1.2877338,1.5364655,-0.10569422,0.18554273,1.1455415,-0.7358954,-1.5817746,1.5586625,0.33127463,-0.04654231,-0.21160626,1.0069753,-0.9097466
-0.1,0.0,1.1999999999999997,0.5235987755982988,-0.5235987755982988,0,-1.2312748,-1.2879179,1.5835898,-0.119621515,0.07689435,1.401192,-0.40698573,-1.6200156,1.5390967,0.18864362,-0.06408951,-0.14471981,1.1899157,-1.766906
-0.1,0.0,1.1999999999999997,0.5235987755982988,-0.5235987755982988,0,-1.2315854,-1.2875438,1.8233309,-0.06568937,0.087110005,1.0650798,0.7943096,-1.5727286,1.5777736,0.32481033,-0.06813378,0.015110591,1.2522105,1.375348
-0.1,0.0,1.1999999999999997,0.5235987755982988,-0.5235987755982988,0,-1.2316179,-1.2880434,1.7731606,-0.024102028,0.2056379,0.98019475,0.6189039,-1.5893301,1.566962,0.17097989,-0.043724637,0.041210108,1.0645216,-0.5377043
-0.1,0.0,1.1999999999999997,0.5235987755982988,-0.5235987755982988,0,-1.2317133,-1.2881163,1.5896786,-0.07333048,0.06850394,1.1412312,-0.52505636,-1.5855733,1.5582234,0.5481743,-0.062170714,0.0014919601,1.1689888,1.5256182
-0.1,0.0,1.1999999999999997,0.5235987755982988,-0.5235987755982988,0,-1.2315502,-1.2878855,1.8209801,-0.1023445,-0.26570067,1.1514523,0.88451374,-1.5671937,1.565794,0.1257428,0.013816095,-0.07745537,1.1734626,0.48565927
-0.1,0.0,1.1999999999999997,0.5235987755982988,-0.5235987755982988,0,-1.2311581,-1.2882316,1.6317468,-0.03483607,0.17527774,1.1842256,1.1865857,-1.594088,1.540514,0.25381076,-0.043525048,-0.026103895,1.2785609,-0.4938681
-0.1,0.0,1.1999999999999997,0.5235987755982988,-0.5235987755982988,0,-1.2322481,-1.2887576,1.7450995,-0.08677956,0.120215096,1.1738361,0.21445298,-1.55238,1.5520786,0.4611004,0.03340028,-0.097003885,1.1969552,0.14207669
-0.1,0.0,1.1999999999999997,0.5235987755982988,-0.5235987755982988,0,-1.2321615,-1.2890512,1.8594275,-0.032855473,0.118493766,1.1431514,0.03629992,-1.6364799,1.5275918,0.54082507,-0.010893065,0.17423213,1.3370197,0.47640455
-0.1,0.0,1.1999999999999997,0.5235987755982988,-0.5235987755982988,0,-1.2313919,-1.2889872,1.6555227,-0.070923015,-0.12792477,1.318893,0.6186661,-1.6064179,1.5721174,0.48244962,0.019971514,-0.06927108,1.0668408,-0.010339599
-0.1,0.0,1.1999999999999997,0.5235987755982988,-0.5235987755982988,0,-1.2316111,-1.2882386,1.7028478,-0.13047767,0.09026393,1.1424097,0.30712944,-1.5706811,1.5555357,0.3451784,-0.09744095,-0.09174543,1.2185012,-0.42159116
-0.1,0.0,1.1999999999999997,0.5235987755982988,-0.5235987755982988,0,-1.2326281,-1.288972,1.5774413,-0.048704695,-0.2322771,1.3556826,-0.31917012,-1.5782416,1.5455229,0.33231744,-0.03294858,0.22307126,1.0761788,-0.3756121
-0.1,0.0,1.1999999999999997,0.5235987755982988,-0.5235987755982988,0,-1.2323436,-1.2883759,1.9453897,-0.16282478,-0.13516644,1.3691663,0.98642415,-1.609942,1.5433887,0.44872475,0.03215029,-0.031564347,1.0969497,0.40546003
-0.1,0.0,1.1999999999999997,0.5235987755982988,-0.5235987755982988,0,-1.2322618,-1.2884881,1.5690026,-0.11905795,-0.08509951,1.216221,1.6694074,-1.5938803,1.5102553,0.09047793,0.094952375,0.18588269,1.2440925,-0.10311027
-0.1,0.0,1.1999999999999997,0.5235987755982988,-0.5235987755982988,0,-1.2317241,-1.2879909,1.5279846,-0.0994474,0.2853201,1.0947788,0.109823436,-1.5839192,1.5548356,0.66866225,-0.011954757,-0.06672381,1.1358536,-0.9758159
-0.1,0.0,1.1999999999999997,0.5235987755982988,-0.5235987755982988,0,-1.2322328,-1.2886947,1.7570829,-0.04266377,-0.25099048,1.1443135,0.049681097,-1.5914634,1.6026541,0.009865609,0.015058372,0.1187402,1.2572055,0.89987594
-0.1,0.0,1.1999999999999997,0.5235987755982988,-0.5235987755982988,0,-1.232546,-1.2884647,1.8249261,-0.08209116,-0.06847705,0.9974923,-0.25804633,-1.6038526,1.5479225,0.40705666,-0.064006254,0.09969808,1.1470834,0.36354035
-0.1,0.0,1.1999999999999997,0.5235987755982988,-0.5235987755982988,0,-1.2312096,-1.2885389,1.8227253,-0.089092776,-0.18665047,1.1343774,0.21998094,-1.5893462,1.5546386,0.31205764,0.04032828,0.15149638,1.1715529,0.11255422
-0.1,0.0,1.1999999999999997,0.5235987755982988,-0.5235987755982988,0,-1.2320249,-1.2887903,1.9446797,-0.163516,0.039774954,1.1934015,-0.47374406,-1.5896398,1.5720524,0.51199365,-0.02554845,-0.16015303,1.152423,-0.6642225
-0.1,0.0,1.1999999999999997,0.5235987755982988,-0.5235987755982988,0,-1.2316164,-1.2879933,1.6980891,-0.060645584,0.24335957,1.0184088,0.3055928,-1.6282634,1.5641916,0.51199144,-0.009992253,0.05109428,1.2710024,1.4177711
-0.1,0.0,1.1999999999999997,0.5235987755982988,-0.5235987755982988,0,-1.2319418,-1.2884998,1.6100041,-0.12239869,0.1823503,1.2314624,0.7297911,-1.5930325,1.5642924,0.1099131,0.12362213,0.102337204,1.2089089,0.29927173
-0.1,0.0,1.1999999999999997,0.5235987755982988,-0.5235987755982988,0,-1.2319067,-1.2884578,1.7328017,-0.06036517,0.07210678,1.3059139,0.861953,-1.5877917,1.5558544,0.2138618,0.07870849,0.2262342,1.1447831,-0.5240608
-0.1,0.0,1.1999999999999997,0.5235987755982988,-0.5235987755982988,0,-1.2315972,-1.2885344,1.8102416,-0.021597648,0.07487613,1.1961106,-0.005578238,-1.5717807,1.5766953,0.5369377,-0.06999083,-0.13158152,1.209299,-1.0542642
-0.1,0.0,1.1999999999999997,0.5235987755982988,-0.5235987755982988,0,-1.2323962,-1.2877966,1.5760847,-0.15362991,0.11773802,1.1320977,0.4449932,-1.6014686,1.5412915,0.3276132,-0.008044032,-0.07147864,1.0674932,-0.13445225
-0.1,0.0,1.1999999999999997,0.5235987755982988,-0.5235987755982988,0,-1.2310333,-1.2883934,1.6877669,-0.06900476,0.17179124,1.314887,0.17507772,-1.5751246,1.5398765,0.46308288,-0.1134966,-0.036745306,1.2389536,0.71972275
-0.1,0.0,1.1999999999999997,0.5235987755982988,-0.5235987755982988,0,-1.2310486,-1.2888364,1.6873032,-0.16005936,-0.08766374,1.3276298,-0.7969658,-1.5752169,1.5639485,0.34272143,0.054699708,0.01790194,1.0684278,-1.0791134
-0.1,0.0,1.1999999999999997,0.5235987755982988,-0.5235987755982988,0,-1.2323103,-1.2878716,1.7256415,-0.11960498,-0.40903786,0.9634787,0.7026375,-1.6100405,1.5609919,0.15733665,0.0068097482,0.20390593,1.220546,-0.67298675
-0.1,0.0,1.1999999999999997,0.5235987755982988,-0.5235987755982988,0,-1.2322136,-1.288223,1.8626659,-0.070250005,0.1800203,1.2428732,0.60411,-1.5979408,1.5672083,0.14983653,-0.109690815,0.1490049,1.0040579,0.19045222
-0.1,0.0,1.1999999999999997,0.5235987755982988,-0.5235987755982988,0,-1.2315559,-1.2886062,1.6701035,-0.09581453,0.4472653,1.1806462,0.64995134,-1.5875533,1.543554,0.31555548,-0.07957605,0.23334251,1.1989658,0.53679687
-0.1,0.0,1.1999999999999997,0.5235987755982988,-0.5235987755982988,0,-1.231288,-1.2886751,1.672804,-0.060937602,-0.061167363,1.1200461,0.12837513,-1.5852166,1.5588149,0.36352673,-0.069188535,-0.24471296,1.3538333,-1.090293
-0.1,0.0,1.1999999999999997,0.5235987755982988,-0.5235987755982988,0,-1.2323649,-1.2882345,1.9456526,-0.04449377,0.28414342,1.2163732,0.4229174,-1.5983267,1.5731725,0.02290211,-0.035250075,0.057048164,1.0089238,2.4630568
-0.1,0.0,1.1999999999999997,0.5235987755982988,-0.5235987755982988,0,-1.2326716,-1.2888279,1.8396962,-0.026948217,-0.070697576,1.2394981,0.5959448,-1.5740038,1.5300105,0.24277548,-0.04492522,-0.12225204,1.0749605,-0.9761478
-0.1,0.0,1.1999999999999997,0.5235987755982988,-0.5235987755982988,0,-1.2324154,-1.2885895,1.5925841,-0.07135991,0.099326335,1.1953768,1.1042181,-1.612296,1.5840813,0.23360749,0.012411046,-0.16990474,1.1769724,0.40972146
-0.1,0.0,1.1999999999999997,0.5235987755982988,-0.5235987755982988,0,-1.2324859,-1.2882955,1.8993255,-0.067734174,-0.20681931,1.2232648,0.26758024,-1.5699897,1.5500666,0.105968304,0.03092207,0.18433474,1.1632583,-0.8933663
-0.1,0.0,1.1999999999999997,0.5235987755982988,-0.5235987755982988,0,-1.2319608,-1.288506,1.7266413,-0.11780639,0.02710955,1.1760479,0.5449022,-1.6178795,1.5488733,0.34219372,-0.10318066,-0.16298628,1.1552424,0.83669174
-0.1,0.0,1.1999999999999997,0.5235987755982988,-0.5235987755982988,0,-1.2317228,-1.2890186,1.6820302,-0.08406044,0.190665,1.1121563,1.6602756,-1.5953163,1.5329891,0.24837022,-0.04351775,-0.19468518,1.2180593,-2.0871499
-0.1,0.0,1.1999999999999997,0.5235987755982988,-0.5235987755982988,0,-1.2322892,-1.2885493,1.8111815,-0.08317667,-0.14603493,1.0280391,0.18106784,-1.6144017,1.5538589,0.259032,-0.018269775,-0.25632954,1.117492,-0.048794318
-0.1,0.0,1.1999999999999997,0.5235987755982988,-0.5235987755982988,0,-1.2319845,-1.2880026,1.6581528,-0.075336106,0.06748116,1.1419426,-0.019547708,-1.5983064,1.5484647,0.040177077,-0.2146187,-0.19330588,1.0852455,0.24810904
-0.1,0.0,1.1999999999999997,0.5235987755982988,-0.5235987755982988,0,-1.231836,-1.2883706,1.7579247,-0.074847385,0.1081435,1.2550033,-0.008839205,-1.622848,1.5686657,0.12657382,-0.0071272044,-0.02552381,1.1290148,0.5791953
-0.1,0.0,1.1999999999999997,0.5235987755982988,-0.5235987755982988,0,-1.2312618,-1.2884036,1.8357259,-0.043786705,-0.013918633,1.32566,-0.0077694887,-1.6116385,1.559081,-0.043158136,-0.11555963,-0.012178289,1.0690026,-0.4413626
-0.1,0.0,1.1999999999999997,0.5235987755982988,-0.5235987755982988,0,-1.2322488,-1.2879373,1.7181667,0.01481223,-0.0067985635,1.1548648,1.1717695,-1.581641,1.5457175,0.3199826,-0.07310041,-0.09787391,1.111752,-0.5436862
-0.1,0.0,1.1999999999999997,0.5235987755982988,-0.5235987755982988,0,-1.2319647,-1.2880595,1.6241593,-0.061525684,0.07610815,1.1338315,0.7802144,-1.5840067,1.5603219,0.29299247,-0.07547813,0.0946935,1.1575664,0.6293307
-0.1,0.0,1.1999999999999997,0.5235987755982988,-0.5235987755982988,0,-1.231506,-1.2883426,1.6377417,-0.047360554,0.009488107,1.2438208,0.6559175,-1.5710459,1.5430276,0.27665114,0.031066576,-0.10890758,1.2155448,0.5184573
-0.1,0.0,1.1999999999999997,0.5235987755982988,-0.5235987755982988,0,-1.232184,-1.2884489,1.8511726,-0.040575795,0.17282969,1.3048128,0.8929605,-1.628145,1.6017385,0.74685,-0.099661976,0.100680254,1.1565812,1.406825
-0.1,0.0,1.1999999999999997,0.5235987755982988,-0.5235987755982988,0,-1.2323155,-1.288117,1.8699427,-0.05058492,0.19763233,1.0816519,-0.33518377,-1.5719103,1.5786457,0.18450993,-0.021079615,0.18663576,1.2428268,-0.68389744
-0.1,0.0,1.1999999999999997,0.5235987755982988,-0.5235987755982988,0,-1.232209,-1.2879024,1.685772,-0.07124336,-0.07840933,1.1287667,1.7149514,-1.5781698,1.5302823,0.110854276,-0.0075577702,0.06699202,1.207259,-0.56721467
-0.1,0.0,1.1999999999999997,0.5235987755982988,-0.5235987755982988,0,-1.2327276,-1.287699,1.8515776,-0.03900375,0.04687259,1.002178,0.4880845,-1.6114278,1.560777,0.7208148,-0.044714868,0.13126095,1.1420712,-0.084281325
-0.1,0.0,1.1999999999999997,0.5235987755982988,-0.5235987755982988,0,-1.2320842,-1.2879117,1.8207005,-0.11992379,-0.23702656,1.194476,-0.12600331,-1.5840291,1.5665104,0.20852903,-0.06696819,-0.07440245,1.1564779,-0.5407499
-0.1,0.0,1.1999999999999997,0.5235987755982988,-0.5235987755982988,0,-1.2324318,-1.288388,1.7819034,-0.089797474,0.08097573,1.2967474,0.1709112,-1.6294372,1.5343491,0.09164046,-0.054981347,-0.11001096,1.2832073,-1.344918
-0.1,0.0,1.1999999999999997,0.5235987755982988,-0.5235987755982988,0,-1.231834,-1.2879242,1.8266497,-0.046591807,0.024005461,1.197124,0.6587826,-1.5900189,1.605551,0.084542215,-0.08710035,-0.16588216,1.0890514,-0.8461805
-0.1,0.0,1.1999999999999997,0.5235987755982988,-0.5235987755982988,0,-1.2317235,-1.2888806,1.8770045,-0.07448286,0.024100877,1.2830478,0.42474344,-1.5910354,1.6053716,-0.19043776,-0.06350109,-0.14027558,1.1496466,0.76386285
-0.1,0.0,1.1999999999999997,0.5235987755982988,-0.5235987755982988,0,-1.2319725,-1.2883763,1.8001827,-0.09539062,-0.14297599,1.2951512,0.16286395,-1.5624799,1.5439299,0.02073495,0.009104771,0.12970789,1.1895922,0.007850388
-0.1,0.0,1.1999999999999997,0.5235987755982988,-0.5235987755982988,0,-1.2314793,-1.2882264,1.7084173,-0.11244722,0.20139289,1.1852205,1.1065089,-1.6121179,1.5666397,0.1962199,-0.07158339,-0.30755243,1.2117103,-0.6467376
-0.1,0.0,1.1999999999999997,0.5235987755982988,-0.5235987755982988,0,-1.2324977,-1.2880977,1.7684346,-0.069257915,0.21433449,1.264312,0.24136133,-1.5843768,1.5666019,0.14747979,0.023795597,-0.035702582,1.2525743,0.5159472
-0.1,0.0,1.1999999999999997,0.5235987755982988,-0.5235987755982988,0,-1.2321591,-1.28832,1.8047515,-0.06176644,0.06151316,1.1735603,0.9100327,-1.6216745,1.5861039,-0.021836573,-0.02840906,-0.093883865,1.1094545,1.6080464
-0.1,0.0,1.1999999999999997,0.5235987755982988,-0.5235987755982988,0,-1.2320107,-1.2879207,1.8733597,-0.066102736,0.07309535,1.1496563,0.08090919,-1.5903881,1.538481,0.49606374,0.06292721,0.18628465,1.2592027,1.729915
-0.1,0.0,1.1999999999999997,0.5235987755982988,-0.5235987755982988,0,-1.2316535,-1.2883878,1.6607692,-0.03257926,0.24063292,1.3227834,0.90884995,-1.6041301,1.5645468,0.59256566,-0.06681881,0.058931742,1.2216932,-1.4977905
-0.1,0.0,1.1999999999999997,0.5235987755982988,-0.5235987755982988,0,-1.2328345,-1.287787,1.8106439,-0.16745257,-0.061248038,1.3705148,0.8504864,-1.6217015,1.545828,0.11021395,-0.029322177,0.17986932,1.1261169,-0.29682845
-0.1,0.0,1.1999999999999997,0.5235987755982988,-0.5235987755982988,0,-1.2314808,-1.2876186,1.7065483,-0.020094657,-0.10213398,1.3636249,0.5123137,-1.6035031,1.5053552,-0.002320559,0.061372206,0.17078239,1.1631845,-0.7730581
-0.1,0.0,1.1999999999999997,0.5235987755982988,-0.5235987755982988,0,-1.2318598,-1.2882488,1.8073825,-0.15630357,0.033597432,1.2531703,1.4075718,-1.595434,1.5350997,0.5892359,0.04039841,0.03379847,1.0411335,0.059727576
-0.1,0.0,1.1999999999999997,0.5235987755982988,-0.5235987755982988,0,-1.2319862,-1.2877742,1.9286951,0.00069625373,0.15552108,1.0838987,0.5049971,-1.6169287,1.5175421,0.034789328,-0.04189438,-0.12291484,1.123092,1.304393
-0.1,0.0,1.1999999999999997,0.5235987755982988,-0.5235987755982988,0,-1.2319026,-1.288603,1.8111336,-0.0914195,0.13499019,1.2136909,1.8344538,-1.5749549,1.5830976,0.34533596,-0.076615974,0.2257777,1.1793503,0.8989882
-0.1,0.0,1.1999999999999997,0.5235987755982988,-0.5235987755982988,0,-1.2314087,-1.2881899,1.9633775,0.021231132,0.2884866,1.1579741,-0.10565321,-1.6074004,1.5903641,0.09405825,-0.036363285,-0.1139281,1.2705882,0.74997747
-0.1,0.0,1.1999999999999997,0.5235987755982988,-0.5235987755982988,0,-1.2327942,-1.288249,1.823657,-0.092501774,-0.034341652,1.234911,0.24312583,-1.6055096,1.5801191,0.2904032,-0.021572268,0.19866128,1.208389,-1.0346816
-0.1,0.0,1.1999999999999997,0.5235987755982988,-0.5235987755982988,0,-1.2314603,-1.2878329,1.8270764,-0.0422268,-0.04634011,1.3862566,-0.17415039,-1.5816345,1.560452,0.1765049,0.112692036,-0.11867548,1.0851119,0.4904679
-0.1,0.0,1.1999999999999997,0.5235987755982988,-0.5235987755982988,0,-1.2316003,-1.2878473,1.7460618,-0.11385098,-0.21976389,1.1880817,0.43127504,-1.5918243,1.5343956,0.3199132,-0.051938783,-0.17773211,1.2015067,-1.009113
-0.1,0.0,1.1999999999999997,0.5235987755982988,-0.5235987755982988,0,-1.2311795,-1.2874593,1.615322,-0.022284636,0.034847707,1.2533782,1.2740766,-1.6013237,1.5485594,0.17253865,0.060603388,-0.0033875788,1.2500135,0.7642386
-0.1,0.0,1.1999999999999997,0.5235987755982988,-0.5235987755982988,0,-1.2318579,-1.2883105,1.5523167,-0.09807533,0.1526072,1.1425546,-0.56814724,-1.6031276,1.5986059,-0.03895885,-0.016556568,0.16399474,1.2970622,1.562534
-0.1,0.0,1.1999999999999997,0.5235987755982988,-0.5235987755982988,0,-1.231387,-1.2879359,1.9862236,-0.10350624,-0.008457922,1.2271868,0.48156583,-1.6101471,1.5853992,0.17393573,-0.13836156,-0.15949893,1.2258788,0.5152264
-0.1,0.0,1.1999999999999997,0.5235987755982988,-0.5235987755982988,0,-1.2316246,-1.2877672,1.7944429,-0.07167825,0.15323849,1.3358282,-0.26380387,-1.5994778,1.5639185,0.026109774,-0.031238632,-0.0054859165,1.0107925,0.8006751
-0.1,0.0,1.1999999999999997,0.5235987755982988,-0.5235987755982988,0,-1.2318771,-1.2877846,1.8009573,-0.030474626,0.086394645,1.2441809,1.3650502,-1.5749701,1.5418907,0.53662294,0.03348172,-0.020122666,1.3505005,-1.0795895
-0.1,0.0,1.1999999999999997,0.5235987755982988,-0.5235987755982988,0,-1.2317302,-1.2881458,1.7598754,-0.0635887,-0.12322585,1.1930699,1.1322858,-1.5495155,1.5644625,0.20571432,0.039466638,0.031349834,1.2130245,0.22829336
-0.1,0.0,1.1999999999999997,0.5235987755982988,-0.5235987755982988,0,-1.2319111,-1.2883052,1.6510991,-0.09684545,-0.04280146,1.2997758,0.9150293,-1.6091344,1.55734,0.41530463,-0.04552905,-0.05050074,1.1370637,-0.028544761
-0.1,0.0,1.1999999999999997,0.5235987755982988,-0.5235987755982988,0,-1.2310858,-1.2888908,1.8941379,-0.06837161,0.3285167,1.1633587,-0.15898292,-1.5975943,1.5120294,0.48525903,-0.049480762,-0.03742844,1.1456338,-0.19376948
-0.1,0.0,1.1999999999999997,0.5235987755982988,-0.5235987755982988,0,-1.2323155,-1.2875943,1.7715797,-0.082378834,0.10779265,1.2600809,0.55093086,-1.553298,1.5565056,-0.024044238,-0.013987927,-0.08538604,1.0463457,1.6665624
-0.1,0.0,1.1999999999999997,0.5235987755982988,-0.5235987755982988,0,-1.2316988,-1.2878852,1.5176507,-0.0640911,0.19803241,1.2051194,0.9508357,-1.5977045,1.536855,0.2963028,-0.013420386,0.06135184,1.2278347,1.7120026
-0.1,0.0,1.1999999999999997,0.5235987755982988,-0.5235987755982988,0,-1.231893,-1.288285,1.7316867,-0.0877343,-0.05729533,1.2626755,0.7114361,-1.5934569,1.5885922,0.15483648,-0.11655921,-0.18670668,1.1115823,1.166391
-0.1,0.0,1.1999999999999997,0.5235987755982988,-0.5235987755982988,0,-1.2316729,-1.2881266,1.9024774,-0.025395626,0.24412571,1.2560986,0.10144673,-1.5900317,1.5926152,0.07868255,-0.054485377,0.06590487,0.9529402,0.30473107
-0.1,0.0,1.1999999999999997,0.5235987755982988,-0.5235987755982988,0,-1.231803,-1.2882789,1.7197009,-0.029710058,0.06744403,1.3567506,-0.29981127,-1.6010991,1.5684172,0.4406519,-0.044906754,0.09158934,1.2194763,0.7322352
-0.1,0.0,1.1999999999999997,0.5235987755982988,-0.5235987755982988,0,-1.2320242,-1.28791,1.751714,-0.070965186,0.12034769,1.1837585,0.7982627,-1.5888952,1.5388124,0.2867626,-0.09679889,0.30489495,1.1688992,-0.38596532
-0.1,0.0,1.1999999999999997,0.5235987755982988,-0.5235987755982988,0,-1.2314003,-1.2883737,1.748197,-0.06707721,0.06305414,1.1332765,0.23099235,-1.5887506,1.6208211,0.10970437,-0.04475963,-0.018566787,1.1295958,1.2097317
