sanky1234/BimanualDexCatch/isaacgymenvs/cem_results/football_pose_-0.2_-0.1_0.7999999999999999_0.0_0.5235987755982988_0_2025-05-24.csv
x,y,z,roll,pitch,yaw,robot1/joint1,robot1/joint2,robot1/joint3,robot1/joint4,robot1/joint5,robot1/joint6,robot1/joint7,robot2/joint1,robot2/joint2,robot2/joint3,robot2/joint4,robot2/joint5,robot2/joint6,robot2/joint7
-0.2,-0.1,0.7999999999999999,0.0,0.5235987755982988,0,-0.785873,1.2607918,0.0013354933,-0.098172374,-0.042259816,1.1963015,0.30289194,-0.78516716,0.84229475,-0.9039227,-0.0673958,0.16370162,1.0185227,0.22956023
-0.2,-0.1,0.7999999999999999,0.0,0.5235987755982988,0,-0.58721656,1.474543,0.23181938,-0.079069845,0.11591127,1.1260351,-0.35005048,-0.7798497,0.8441251,-0.89106315,-0.06255415,0.4472681,1.0775177,-0.7632772
-0.2,-0.1,0.7999999999999999,0.0,0.5235987755982988,0,-0.60984796,1.3720807,-0.0054705366,-0.07872366,-0.11072069,1.1923684,-0.1587975,-0.78551346,0.8375143,-0.8607729,-0.06500626,0.3048059,1.096034,0.8492312
-0.2,-0.1,0.7999999999999999,0.0,0.5235987755982988,0,-0.6689924,1.3701311,-0.07492044,-0.0325508,0.37889525,1.2544043,-0.75924766,-0.7805997,0.8449728,-0.88237774,-0.06704388,-0.00094045553,1.0870668,-0.0180051
-0.2,-0.1,0.7999999999999999,0.0,0.5235987755982988,0,-0.11808679,1.3456156,0.013873257,-0.048395462,-0.13248391,1.2120672,-0.6460155,-0.79974955,0.8361065,-0.90108144,-0.029977249,0.35930875,1.0289345,0.51648176
-0.2,-0.1,0.7999999999999999,0.0,0.5235987755982988,0,-1.2406545,1.3554168,-0.45805886,-0.04595111,-0.01500477,1.2859803,-0.45752078,-0.7798162,0.8406694,-0.89113176,-0.05311825,0.45262578,1.0883087,0.48760796
-0.2,-0.1,0.7999999999999999,0.0,0.5235987755982988,0,-0.91740334,1.4218935,-0.030292574,-0.098598965,-0.21681447,1.123781,0.08770274,-0.78080976,0.84066224,-0.8730871,-0.06138685,0.5854148,1.011534,-0.1554693
-0.2,-0.1,0.7999999999999999,0.0,0.5235987755982988,0,-0.32162145,1.2855649,-0.24435267,-0.049729735,-0.17703818,1.174797,-0.6849565,-0.78965783,0.8523556,-0.882523,-0.047429964,-0.0346034,1.1075556,0.442003
-0.2,-0.1,0.7999999999999999,0.0,0.5235987755982988,0,-0.65925795,1.3395711,-0.52153355,-0.06490406,-0.22828208,1.2909038,0.067156754,-0.7822013,0.8459577,-0.8977473,-0.066564254,0.35523802,1.0872377,0.17969374
-0.2,-0.1,0.7999999999999999,0.0,0.5235987755982988,0,-0.514265,1.2532929,-0.6204271,-0.030090062,0.0016854735,1.282367,0.8092481,-0.7919533,0.8417184,-0.9072108,-0.0733626,0.31181994,1.1449778,0.7007966
-0.2,-0.1,0.7999999999999999,0.0,0.5235987755982988,0,-0.88253874,1.37176,-0.2493854,-0.058024246,2.9589031e-05,1.2554907,-0.22263117,-0.7913209,0.84269327,-0.8644812,-0.073831074,0.17487714,1.0339981,0.43952647
-0.2,-0.1,0.7999999999999999,0.0,0.5235987755982988,0,-0.14092676,1.2935909,0.25285974,-0.14020276,-0.091250144,1.243988,-0.010513202,-0.7750794,0.8475837,-0.8971641,-0.06602052,0.20425801,1.0404208,0.8167239
-0.2,-0.1,0.7999999999999999,0.0,0.5235987755982988,0,-0.93590254,1.3377113,-0.24060561,-0.0119038895,0.0046737166,1.1833258,-0.18824945,-0.77404284,0.84822303,-0.88841164,-0.069004096,0.39705563,1.066445,1.0082182
-0.2,-0.1,0.7999999999999999,0.0,0.5235987755982988,0,-0.8245957,1.4218234,0.093802735,-0.08465353,0.0040374068,1.1623982,-0.651981,-0.7828871,0.84750295,-0.87027943,-0.069803834,0.54576075,1.0603563,0.4526
-0.2,-0.1,0.7999999999999999,0.0,0.5235987755982988,0,-0.9641612,1.2681655,-0.49968764,-0.07189312,-0.17763622,1.1172163,-0.3008756,-0.7799787,0.8398296,-0.8922409,-0.059285574,0.21530706,1.0338963,-0.024623053
-0.2,-0.1,0.7999999999999999,0.0,0.5235987755982988,0,-0.17504708,1.3234024,0.13751069,-0.1379828,-0.020366773,1.1531458,-0.4189627,-0.7779064,0.85668296,-0.8613995,-0.07226095,0.2539734,1.0191454,0.7597676
-0.2,-0.1,0.7999999999999999,0.0,0.5235987755982988,0,-0.34973612,1.3953388,-0.5851885,-0.04134189,-0.044854175,1.3550279,-1.042566,-0.784927,0.8468077,-0.8647636,-0.07159469,0.22213545,1.0719912,0.16416557
-0.2,-0.1,0.7999999999999999,0.0,0.5235987755982988,0,-0.5404538,1.3661755,-0.39699942,-0.09741241,-0.36142847,1.1520113,-0.0331815,-0.78146005,0.8428933,-0.8602371,-0.0654408,0.46227178,1.1033107,-0.081399806
-0.2,-0.1,0.7999999999999999,0.0,0.5235987755982988,0,-0.85490555,1.2985114,-0.16308405,-0.067064375,-0.063667305,1.1805037,0.40706542,-0.7728404,0.84523,-0.8847124,-0.06338525,0.525474,1.10127,-0.08893539
-0.2,-0.1,0.7999999999999999,0.0,0.5235987755982988,0,-1.0036782,1.4782987,-0.05483059,-0.04034846,-0.048997022,1.2630609,0.20964652,-0.7890898,0.8449621,-0.88977164,-0.07272828,0.16168585,1.1136128,-0.3667751
-0.2,-0.1,0.7999999999999999,0.0,0.5235987755982988,0,-0.45792526,1.362349,0.1318468,-0.10647406,-0.01900206,1.1412892,-0.35980132,-0.7887099,0.8350737,-0.8851848,-0.061135866,0.15435265,1.087381,-0.110596895
-0.2,-0.1,0.7999999999999999,0.0,0.5235987755982988,0,-0.6342969,1.350922,-0.13834447,-0.026098274,-0.23227371,1.4090937,0.28603736,-0.7947333,0.8421174,-0.87311375,-0.07322727,0.24591559,1.0862892,0.11478741
-0.2,-0.1,0.7999999999999999,0.0,0.5235987755982988,0,-0.8466458,1.3435471,-0.004851453,-0.10020913,-0.099121265,1.3861712,0.20234752,-0.7773218,0.84416133,-0.85658216,-0.06393837,0.4366387,1.0419484,0.28721392
-0.2,-0.1,0.7999999999999999,0.0,0.5235987755982988,0,-0.005545225,1.3519522,-0.23624822,0.017269094,-0.12787002,1.235847,-0.26263532,-0.7807964,0.83895195,-0.9001707,-0.059531607,0.34766537,1.0296896,0.93451315
-0.2,-0.1,0.7999999999999999,0.0,0.5235987755982988,0,-0.3730822,1.4078032,-0.24823496,0.007278936,-0.07083067,1.2394067,-0.6986004,-0.77794516,0.8450743,-0.8677419,-0.06416726,0.20862588,1.0286442,-0.09523601
-0.2,-0.1,0.7999999999999999,0.0,0.5235987755982988,0,-1.307463,1.2654818,-0.21023087,-0.053044755,-0.17345276,1.167223,0.12557015,-0.7844457,0.8425074,-0.9012387,-0.06867214,0.22893779,1.1660128,0.55310297
-0.2,-0.1,0.7999999999999999,0.0,0.5235987755982988,0,-0.6942586,1.281187,-0.43536586,-0.018630657,0.13532189,1.224626,0.5811202,-0.77690214,0.85259473,-0.8846657,-0.06691995,0.21569405,1.0844585,-0.022501662
-0.2,-0.1,0.7999999999999999,0.0,0.5235987755982988,0,-0.76869744,1.414079,0.07943132,-0.09508028,0.02557735,1.286422,0.40211767,-0.7782558,0.8442722,-0.87369317,-0.06513377,0.4426809,1.1227447,0.23813792
-0.2,-0.1,0.7999999999999999,0.0,0.5235987755982988,0,-0.25944766,1.3451833,-0.30894157,-0.066216536,0.20005119,1.2167964,-0.5669748,-0.7863415,0.8450898,-0.8861394,-0.07275432,0.36420894,1.1427912,0.92417985
-0.2,-0.1,0.7999999999999999,0.0,0.5235987755982988,0,-1.1742121,1.2284213,0.31229275,-0.098030575,-0.012736095,1.3196688,0.17295593,-0.78005904,0.84434986,-0.87145466,-0.063068815,0.23772202,1.0715002,0.5734177
-0.2,-0.1,0.7999999999999999,0.0,0.5235987755982988,0,-0.90699697,1.245648,-0.48754987,-0.052290704,-0.16586807,1.319639,-0.3937907,-0.7871254,0.8457656,-0.88245046,-0.07423574,0.17694211,1.2372879,0.66217065
-0.2,-0.1,0.7999999999999999,0.0,0.5235987755982988,0,-0.076307274,1.287389,0.13800079,-0.07231,0.14492656,1.1480246,-0.59800744,-0.7868795,0.8427417,-0.9009982,-0.06690488,0.26912698,1.103966,0.77598834
-0.2,-0.1,0.7999999999999999,0.0,0.5235987755982988,0,-0.74267274,1.2239525,-0.07974,-0.051860254,-0.42499748,1.2486434,-0.76195496,-0.7802229,0.847458,-0.89738315,-0.0645494,0.19076957,1.0870867,0.034343533
-0.2,-0.1,0.7999999999999999,0.0,0.5235987755982988,0,-1.2248535,1.2620484,-0.1614606,-0.08017093,-0.04101917,1.2502402,0.045270257,-0.7799358,0.8442096,-0.88005835,-0.06481712,-0.013948937,1.0344852,0.43795916
-0.2,-0.1,0.7999999999999999,0.0,0.5235987755982988,0,-0.46247107,1.3602655,-0.15261184,-0.08745853,-0.2426115,1.0906501,0.59860307,-0.7810376,0.84717846,-0.8781476,-0.06470031,0.31967902,0.93556535,-0.1646652
-0.2,-0.1,0.7999999999999999,0.0,0.5235987755982988,0,-0.3961166,1.3438964,-0.26718786,-0.018669425,0.08362159,1.0830698,0.28260475,-0.7856779,0.8380633,-0.89596856,-0.061728023,0.21307704,1.1244134,-0.13114417
-0.2,-0.1,0.7999999999999999,0.0,0.5235987755982988,0,-1.8177305,1.2904516,-0.36962354,-0.08918954,0.059236377,1.1763113,0.47422424,-0.77797425,0.84370065,-0.88626844,-0.06200893,0.27343607,1.1088439,0.644552
-0.2,-0.1,0.7999999999999999,0.0,0.5235987755982988,0,-0.80439705,1.3039846,-0.3570142,-0.032484714,-0.31621984,1.1806818,-0.49222973,-0.7759765,0.8454973,-0.8943182,-0.059968468,0.25839365,1.0615139,0.87041044
-0.2,-0.1,0.7999999999999999,0.0,0.5235987755982988,0,-0.64101946,1.2327963,-0.77005965,-0.057939027,-0.14312984,1.3536208,0.3643127,-0.78618443,0.8452342,-0.871895,-0.06877221,0.32427165,1.044863,0.3593186
-0.2,-0.1,0.7999999999999999,0.0,0.5235987755982988,0,-0.6917445,1.3179744,-0.06299113,-0.043324474,-0.14508465,1.1747887,0.663822,-0.78091913,0.8445205,-0.8803099,-0.061395153,0.37446606,1.0223017,0.7443472
-0.2,-0.1,0.7999999999999999,0.0,0.5235987755982988,0,0.64349234,1.3121415,-0.24239512,-0.09391818,-0.10299577,1.1841586,-1.2395121,-0.79217875,0.8447286,-0.88889015,-0.075289115,0.5689201,1.1764652,1.2465342
-0.2,-0.1,0.7999999999999999,0.0,0.5235987755982988,0,-0.6245332,1.3243729,-0.09046872,0.015966345,0.06632478,1.1374525,0.15988913,-0.7824195,0.8479897,-0.84149003,-0.07121111,0.48168752,1.0521178,0.14329858
-0.2,-0.1,0.7999999999999999,0.0,0.5235987755982988,0,-0.86082107,1.2749166,0.08358773,-0.056702077,-0.32863066,1.2204683,0.0013918324,-0.78310454,0.8448855,-0.87257606,-0.06542872,0.1976161,1.0780463,0.62463295
-0.2,-0.1,0.7999999999999999,0.0,0.5235987755982988,0,-1.178886,1.1583536,-0.09979526,-0.09613243,-0.14123236,1.1170319,0.20374419,-0.7861901,0.8443724,-0.90159374,-0.06954771,0.3861701,1.1295328,0.36998853
-0.2,-0.1,0.7999999999999999,0.0,0.5235987755982988,0,-0.51741254,1.3440574,-0.28185558,-0.031889927,-0.08478973,1.1856519,-0.15556909,-0.77282804,0.8426613,-0.8854434,-0.05531816,0.15775809,1.0527495,-0.11069034
-0.2,-0.1,0.7999999999999999,0.0,0.5235987755982988,0,-0.6055331,1.2288226,-0.4619177,-0.100206286,-0.009879196,1.1276801,0.7971748,-0.7846001,0.83223915,-0.8880796,-0.03682384,0.38356096,1.1155994,0.33531803
-0.2,-0.1,0.7999999999999999,0.0,0.5235987755982988,0,-0.7718589,1.1857342,-0.37047148,-0.1104213,-0.20701934,1.2724104,-1.2553842,-0.78495204,0.8383532,-0.8837293,-0.0606446,0.08235014,1.0483122,-0.047763854
-0.2,-0.1,0.7999999999999999,0.0,0.5235987755982988,0,-0.94360226,1.2879571,0.31950983,-0.099437274,0.019968195,1.0954628,0.27221113,-0.78886384,0.83855706,-0.8773721,-0.06270983,0.09486064,1.0998368,1.151209
-0.2,-0.1,0.7999999999999999,0.0,0.5235987755982988,0,-1.0834867,1.2545778,-0.020621654,-0.075611815,0.20624278,1.1771902,-0.3458395,-0.7887863,0.83374107,-0.8769191,-0.056446303,0.3091617,1.0681105,0.6106489
-0.2,-0.1,0.7999999999999999,0.0,0.5235987755982988,0,-0.93270016,1.3156906,-0.14556906,-0.10991898,0.17344256,1.166665,-0.10973629,-0.79540277,0.8416399,-0.8701608,-0.069464296,0.013577987,1.003873,-0.007976637
-0.2,-0.1,0.7999999999999999,0.0,0.5235987755982988,0,-1.0115556,1.2233753,-0.24446468,-0.016157301,-0.22116247,1.2218493,0.15244234,-0.78859884,0.8425847,-0.86723137,-0.070284404,0.52331525,1.1083587,0.20629069
-0.2,-0.1,0.7999999999999999,0.0,0.5235987755982988,0,-1.2347355,1.2452552,0.22128415,-0.14619048,0.048713807,1.2073427,1.1738951,-0.76675165,0.84736246,-0.8883416,-0.056887936,0.039935917,1.1179894,0.24714248
-0.2,-0.1,0.7999999999999999,0.0,0.5235987755982988,0,-0.3735905,1.2313254,0.118090004,-0.06879199,-0.08403403,1.1152413,0.01873241,-0.78321767,0.8456723,-0.8609932,-0.06569994,-0.054958016,1.0927185,0.7916992
-0.2,-0.1,0.7999999999999999,0.0,0.5235987755982988,0,-0.4845035,1.2914239,0.19679838,-0.09927616,0.016502352,1.2751844,0.15350501,-0.7890456,0.8404392,-0.8606932,-0.057703532,0.39609215,1.0736036,0.4534773
-0.2,-0.1,0.7999999999999999,0.0,0.5235987755982988,0,-0.019104278,1.2927628,0.0144979805,-0.016915834,0.072312824,1.3770577,-0.7071763,-0.7806504,0.8545298,-0.87319005,-0.07462154,0.55264044,1.1118335,0.50606376
-0.2,-0.1,0.7999999999999999,0.0,0.5235987755982988,0,-0.645455,1.2790004,-0.24860933,-0.07046252,0.14860229,1.2350056,0.23685919,-0.77926856,0.84277177,-0.8793963,-0.06009012,0.08094397,1.0266231,1.1544975
-0.2,-0.1,0.7999999999999999,0.0,0.5235987755982988,0,-0.49928167,1.233916,-0.17920476,-0.108723104,-0.1404385,1.144666,0.030329395,-0.7821561,0.8446857,-0.876597,-0.06267116,-0.10015625,1.0839983,-0.35688704
-0.2,-0.1,0.7999999999999999,0.0,0.5235987755982988,0,0.1514203,1.286851,0.113167,-0.038016446,-0.10936046,1.1762099,1.2339411,-0.7906108,0.84369713,-0.84542143,-0.07099567,0.30483124,1.1047001,0.15245503
-0.2,-0.1,0.7999999999999999,0.0,0.5235987755982988,0,-0.9400602,1.2848474,0.045083858,-0.07172685,-0.27929252,1.1797009,0.70697606,-0.79031825,0.8495306,-0.88716364,-0.059815172,0.30840585,0.98627037,0.15954646
-0.2,-0.1,0.7999999999999999,0.0,0.5235987755982988,0,-0.86745477,1.4096736,-0.32098788,-0.14000602,-0.078028604,1.1660581,0.24118926,-0.7869847,0.8413309,-0.88422096,-0.06533693,0.265334,1.1328328,0.52543765
-0.2,-0.1,0.7999999999999999,0.0,0.5235987755982988,0,-1.0906882,1.3659201,-0.567044,-0.06725187,0.072539985,1.1726428,-0.4783389,-0.78418195,0.8421208,-0.9104289,-0.06369522,0.2544521,1.0602973,-0.019315517
-0.2,-0.1,0.7999999999999999,0.0,0.5235987755982988,0,-0.612257,1.1804698,-0.45248625,-0.006608237,-0.07462652,1.1822073,0.74203783,-0.78634995,0.8436867,-0.89166635,-0.06513277,0.0394491,1.1238356,-0.33846593
-0.2,-0.1,0.7999999999999999,0.0,0.5235987755982988,0,-0.26382947,1.3546845,-0.04556283,-0.054510947,-0.0028377818,1.2534485,-1.5609199,-0.78813493,0.8456933,-0.86405855,-0.07012932,0.17961295,1.0276734,0.15218113
-0.2,-0.1,0.7999999999999999,0.0,0.5235987755982988,0,-0.95863014,1.244458,-0.37505138,-0.094726056,-0.098872416,1.2113795,0.102387495,-0.77702,0.8448007,-0.8665371,-0.062313903,0.46262094,1.1423149,-0.064557165
-0.2,-0.1,0.7999999999999999,0.0,0.5235987755982988,0,-0.8729501,1.3330767,0.20888664,-0.054784972,-0.03556571,1.1420487,0.08052887,-0.7876224,0.8374213,-0.88283044,-0.05900468,0.36193928,1.072733,-0.26639348
-0.2,-0.1,0.7999999999999999,0.0,0.5235987755982988,0,-0.79596645,1.379097,0.27462724,-0.11536377,0.040565625,1.1119916,0.5624037,-0.7750814,0.8527546,-0.9063127,-0.06526218,0.07442101,1.0478753,0.23290445
-0.2,-0.1,0.7999999999999999,0.0,0.5235987755982988,0,-0.2229985,1.4962659,-0.60342014,-0.13535382,0.11023771,1.1601992,0.102897,-0.7919465,0.84574467,-0.8909195,-0.059415527,0.45223227,1.0782478,0.032335922
-0.2,-0.1,0.7999999999999999,0.0,0.5235987755982988,0,-0.9133962,1.2707717,-0.1767868,-0.10620454,-0.030330963,1.2558082,-0.4310646,-0.7755059,0.8527329,-0.8995875,-0.06550823,0.43646738,1.0461168,0.38921762
-0.2,-0.1,0.7999999999999999,0.0,0.5235987755982988,0,-1.349519,1.2118443,-0.13860562,-0.10006182,-0.08432192,1.158593,-0.6323032,-0.7835921,0.84589905,-0.88623863,-0.06664122,-0.08620056,1.1286061,0.36525232
-0.2,-0.1,0.7999999999999999,0.0,0.5235987755982988,0,-0.8652771,1.3243245,-0.044144783,-0.05181502,0.10411641,1.160373,-0.42906696,-0.7780671,0.84288996,-0.84491986,-0.05986053,0.53882486,1.1154615,-0.23292018
-0.2,-0.1,0.7999999999999999,0.0,0.5235987755982988,0,-0.72978735,1.3220271,-0.06554877,-0.09904212,0.002557023,1.11056,0.4237887,-0.78604174,0.84436655,-0.88016105,-0.06551001,0.3401655,1.1102908,0.4021629
-0.2,-0.1,0.7999999999999999,0.0,0.5235987755982988,0,-1.1668618,1.4150097,-0.3091507,-0.06633254,0.15191299,1.2030523,0.91860986,-0.7905301,0.84675413,-0.88625515,-0.073297545,0.02544521,1.0710986,0.6047504
-0.2,-0.1,0.7999999999999999,0.0,0.5235987755982988,0,-0.9635209,1.2480632,0.023681277,-0.10392708,0.06153447,1.3091794,0.30346203,-0.7796138,0.84501886,-0.87439924,-0.06391363,0.2530128,1.1716365,0.28266618
-0.2,-0.1,0.7999999999999999,0.0,0.5235987755982988,0,-0.6159933,1.3943322,-0.052202027,-0.08312047,-0.17293318,1.2182739,0.567624,-0.7910226,0.8433814,-0.8998026,-0.054621935,0.45417598,1.12409,0.35022783
-0.2,-0.1,0.7999999999999999,0.0,0.5235987755982988,0,-0.94572854,1.3873605,-0.03785982,-0.062393863,0.22205621,1.2046595,0.031191016,-0.78319585,0.8415312,-0.8860702,-0.06064011,0.10537142,1.130084,0.45360872
-0.2,-0.1,0.7999999999999999,0.0,0.5235987755982988,0,-0.89103574,1.2609981,-0.15244298,-0.016773848,0.14105077,1.0894421,-0.41844487,-0.7835823,0.8508055,-0.8809058,-0.057461288,0.52430314,1.1119674,0.21521054
-0.2,-0.1,0.7999999999999999,0.0,0.5235987755982988,0,-0.6156951,1.3385681,0.09518894,-0.14569052,-0.05570079,1.1128738,0.3188849,-0.7873592,0.8436995,-0.895977,-0.053786825,0.043460887,1.0217844,0.51907724
-0.2,-0.1,0.7999999999999999,0.0,0.5235987755982988,0,-0.30412263,1.3197887,-0.08315619,-0.021764526,0.040990293,1.3064702,-0.6354242,-0.78864956,0.84662324,-0.8626425,-0.07012878,0.30275437,1.0572109,0.7523977
-0.2,-0.1,0.7999999999999999,0.0,0.5235987755982988,0,-0.51652086,1.2526149,-0.017811486,-0.13049604,0.0067644417,1.1964993,0.04625851,-0.78505224,0.8392713,-0.8781172,-0.06010475,0.4439429,1.1437519,-0.9402773
-0.2,-0.1,0.7999999999999999,0.0,0.5235987755982988,0,-1.353722,1.3331244,-0.058879826,-0.10352687,0.06303716,1.3369316,0.28646833,-0.7802554,0.84712106,-0.9221163,-0.063280486,0.26942936,1.0944529,-0.17585841
-0.2,-0.1,0.7999999999999999,0.0,0.5235987755982988,0,-0.7502622,1.2945693,-0.380181,-0.048919007,-0.046306863,1.2029643,-0.48256567,-0.7900929,0.84721416,-0.8354862,-0.073782444,0.24207403,1.0395825,0.49962854
-0.2,-0.1,0.7999999999999999,0.0,0.5235987755982988,0,-0.004115816,1.3249112,-0.29644397,-0.0872217,0.030400235,1.2387414,0.15884376,-0.78969425,0.8370177,-0.8892259,-0.059224654,0.3739185,1.0106266,0.50865936
-0.2,-0.1,0.7999999999999999,0.0,0.5235987755982988,0,-0.8025496,1.3483512,-0.11354195,-0.1061852,-0.08215866,1.2708205,0.54048556,-0.7851668,0.84106237,-0.89082795,-0.06172077,0.42946732,1.1263853,1.2038226
-0.2,-0.1,0.7999999999999999,0.0,0.5235987755982988,0,-0.9782409,1.3257502,0.015640285,-0.1113466,-0.10055652,1.2424203,0.6965676,-0.7839527,0.84083635,-0.87695473,-0.06114101,0.3289505,1.171303,0.30424628
-0.2,-0.1,0.7999999999999999,0.0,0.5235987755982988,0,-1.7000157,1.3378433,0.07723983,-0.05440926,-0.061001245,1.192105,-0.15451415,-0.7874335,0.8483769,-0.86883384,-0.071586765,-0.11515731,1.0634135,0.10581756
-0.2,-0.1,0.7999999999999999,0.0,0.5235987755982988,0,-0.9299936,1.2234044,0.04665574,-0.12622899,0.03753028,1.2028571,0.03175574,-0.7897854,0.8567479,-0.8757084,-0.06404656,0.1506354,1.1421193,0.29917893
-0.2,-0.1,0.7999999999999999,0.0,0.5235987755982988,0,-0.58255017,1.2660419,-0.17086227,-0.023111174,-0.061215483,1.1305135,1.0260504,-0.78446466,0.84056264,-0.8722993,-0.060255133,0.3348233,1.1149445,0.5368019
-0.2,-0.1,0.7999999999999999,0.0,0.5235987755982988,0,-0.37751377,1.41358,-0.26143998,-0.15719347,-0.052867904,1.1989532,0.97457916,-0.7836275,0.85352474,-0.89181864,-0.055618256,0.35899216,1.0651995,0.3600498
-0.2,-0.1,0.7999999999999999,0.0,0.5235987755982988,0,-0.78268707,1.3104471,-0.51466405,-0.15772481,-0.17661434,1.2721509,-0.03849449,-0.7818955,0.85289365,-0.916529,-0.057255555,0.2907524,1.0967929,0.1797415
-0.2,-0.1,0.7999999999999999,0.0,0.5235987755982988,0,-0.96184886,1.2868936,0.20104711,-0.07205646,-0.056519285,1.2031561,-0.3416346,-0.7773037,0.8493114,-0.8545371,-0.06277878,0.40414736,1.0151852,0.23140681
-0.2,-0.1,0.7999999999999999,0.0,0.5235987755982988,0,0.066445045,1.2669249,-0.5374058,-0.070177175,-0.022585282,1.2291375,0.2975408,-0.77999926,0.8483909,-0.8864547,-0.049539506,0.2026259,1.1491439,0.7893634
-0.2,-0.1,0.7999999999999999,0.0,0.5235987755982988,0,-0.68818796,1.2600998,0.08238745,-0.024034662,-0.19681,1.1202618,-0.79750735,-0.78699696,0.8531435,-0.88983965,-0.05823732,0.12407208,1.1307044,-0.31207675
-0.2,-0.1,0.7999999999999999,0.0,0.5235987755982988,0,-0.87954885,1.2742623,-0.05774467,-0.07656998,0.15089317,1.3413409,-0.015644882,-0.78618073,0.82450396,-0.88781834,-0.033586998,0.49917623,1.0851126,0.59099764
-0.2,-0.1,0.7999999999999999,0.0,0.5235987755982988,0,-0.43851876,1.3141836,-0.32593077,-0.09185046,0.046585124,1.1817114,0.5497613,-0.7792736,0.8620656,-0.8500521,-0.0665082,0.41955337,1.0158039,0.13451101
-0.2,-0.1,0.7999999999999999,0.0,0.5235987755982988,0,0.14107826,1.4433205,0.028987428,-0.09014783,-0.14177047,1.2695843,0.94502354,-0.78760684,0.8477709,-0.8554719,-0.04998486,0.37457967,1.0340664,0.46212837
-0.2,-0.1,0.7999999999999999,0.0,0.5235987755982988,0,-0.83210146,1.3726009,-0.6314803,-0.1245436,-0.027506841,1.3204608,0.05357836,-0.78964883,0.8432571,-0.867674,-0.042666115,0.27536732,1.0107012,0.34631118
-0.2,-0.1,0.7999999999999999,0.0,0.5235987755982988,0,-0.23638272,1.3826809,0.11241834,-0.06693884,-0.060192507,1.0999769,-0.37306857,-0.7917632,0.8343296,-0.8661187,-0.046848346,0.2613986,0.9782777,-0.29464835
-0.2,-0.1,0.7999999999999999,0.0,0.5235987755982988,0,-0.72414047,1.3124969,0.1297977,-0.11925864,0.16124411,1.1801707,0.27143565,-0.78065366,0.854684,-0.8862334,-0.07040844,0.51017696,1.0311655,0.12512949
-0.2,-0.1,0.7999999999999999,0.0,0.5235987755982988,0,-1.2556628,1.2736068,-0.397813,-0.14574344,0.08369484,1.0586493,-0.19044736,-0.7870464,0.84824324,-0.87747365,-0.045631174,0.2982218,1.1343969,0.53726643
-0.2,-0.1,0.7999999999999999,0.0,0.5235987755982988,0,-1.2309161,1.2158829,0.15304764,-0.06110163,-0.070301674,1.2889805,-0.44238752,-0.78785676,0.85001063,-0.8952569,-0.04737063,0.35505536,1.0570732,0.33489075
-0.2,-0.1,0.7999999999999999,0.0,0.5235987755982988,0,-0.890711,1.386163,-0.17016919,-0.106865786,-0.23292477,1.1621723,0.96431535,-0.7988777,0.83395314,-0.89231426,-0.053236548,0.21596317,1.0812784,0.4913988
-0.2,-0.1,0.7999999999999999,0.0,0.5235987755982988,0,-0.86073434,1.3297402,0.018303344,-0.077978894,-0.04035592,1.2587949,-0.024631176,-0.7860869,0.86309797,-0.86184984,-0.066957645,0.24308603,1.0379775,0.57132155
-0.2,-0.1,0.7999999999999999,0.0,0.5235987755982988,0,-0.6801969,1.3546826,0.24275829,-0.0993626,-0.27668768,1.2036058,-0.18082471,-0.77832025,0.84609026,-0.87304854,-0.059441097,0.3390114,1.0183631,0.17958899
-0.2,-0.1,0.7999999999999999,0.0,0.5235987755982988,0,-0.50837296,1.2694807,-0.33625296,-0.09231982,-0.2288543,1.178633,-0.80176276,-0.78812695,0.85512125,-0.88046193,-0.07450465,0.37997532,0.99515635,0.6896519
-0.2,-0.1,0.7999999999999999,0.0,0.5235987755982988,0,-0.22580282,1.2613096,0.014311759,-0.05993087,0.15848564,1.1864496,-0.8654629,-0.7841781,0.8499328,-0.8922293,-0.045434587,0.2900774,1.0869477,0.8908182
-0.2,-0.1,0.7999999999999999,0.0,0.5235987755982988,0,-1.2238445,1.2885017,-0.0032392335,-0.018880086,-0.15785201,1.2289561,-0.7991502,-0.77393323,0.85604846,-0.86687547,-0.065212615,0.2483228,1.0004472,1.0305986
-0.2,-0.1,0.7999999999999999,0.0,0.5235987755982988,0,-1.3998259,1.190679,-0.2606763,-0.15684769,-0.21752845,1.1602147,-0.0202351,-0.7909351,0.8336546,-0.87468237,-0.04429195,0.5552366,1.0467155,-0.18049377
-0.2,-0.1,0.7999999999999999,0.0,0.5235987755982988,0,-1.0045054,1.2552217,-0.19401015,-0.11714909,0.06904904,1.1333109,0.20020474,-0.7883479,0.8341616,-0.9030017,-0.044082318,0.24379475,1.0839258,0.05955184
-0.2,-0.1,0.7999999999999999,0.0,0.5235987755982988,0,-0.5957056,1.3242779,0.04406584,-0.0066456296,-0.1605489,1.2046338,-0.21254937,-0.77753824,0.85866934,-0.86925125,-0.06018925,0.16548535,1.1076452,0.67589986
-0.2,-0.1,0.7999999999999999,0.0,0.5235987755982988,0,-0.1867967,1.3770448,-0.41416955,-0.09757628,-0.15096645,1.3344948,-0.32535595,-0.7908952,0.84811276,-0.8623676,-0.053393718,0.28783292,1.1641923,-0.3363145
-0.2,-0.1,0.7999999999999999,0.0,0.5235987755982988,0,-1.3861313,1.3504,-0.019299611,-0.06785538,0.017863138,1.176735,0.5623311,-0.7737763,0.8543616,-0.91759,-0.051035423,0.04409374,1.0371418,0.11511639
-0.2,-0.1,0.7999999999999999,0.0,0.5235987755982988,0,-0.8830614,1.4311413,0.17897813,-0.098386586,0.07169932,1.289493,0.11332098,-0.78644645,0.8432236,-0.88536876,-0.063407086,0.23557548,1.1352842,-0.33142522
-0.2,-0.1,0.7999999999999999,0.0,0.5235987755982988,0,-0.86919147,1.207825,-0.2993102,-0.08588754,0.2251968,1.1785502,0.27555633,-0.7853134,0.8519965,-0.8787913,-0.069949515,-0.012874758,1.0864944,0.24359158
-0.2,-0.1,0.7999999999999999,0.0,0.5235987755982988,0,-0.9364064,1.3204696,-0.28348914,-0.017143775,-0.030145379,1.2774634,1.0317172,-0.7968938,0.8432349,-0.8625515,-0.057978686,0.27265653,1.0861745,0.18610199
-0.2,-0.1,0.7999999999999999,0.0,0.5235987755982988,0,-0.6194553,1.4295439,0.2202023,-0.040798455,-0.22733538,1.0919559,-0.29530758,-0.7900699,0.85380447,-0.8845077,-0.07485132,0.6471382,1.1411816,0.74845153
-0.2,-0.1,0.7999999999999999,0.0,0.5235987755982988,0,-0.44384682,1.3233153,-0.32842025,-0.05868754,-0.113130376,1.160322,0.23131478,-0.7815446,0.85763264,-0.86242664,-0.07376245,0.25804877,1.0236906,-0.2807977
-0.2,-0.1,0.7999999999999999,0.0,0.5235987755982988,0,-0.7173125,1.3437974,-0.24084991,-0.1272056,-0.1293198,1.1445024,-0.5000191,-0.7851049,0.8372755,-0.86320674,-0.05573426,0.1277597,1.148388,0.6885092
-0.2,-0.1,0.7999999999999999,0.0,0.5235987755982988,0,-0.32646975,1.1892482,0.31149477,-0.089071564,0.2920224,1.2192755,0.011230399,-0.7889165,0.85387343,-0.8844575,-0.07424196,0.097145185,1.0981975,0.9489404
-0.2,-0.1,0.7999999999999999,0.0,0.5235987755982988,0,-1.2768373,1.3931466,-0.524022,-0.08071381,0.104216665,1.1802511,0.10904446,-0.7751661,0.8609523,-0.8660497,-0.051861603,0.15889765,1.1004727,0.64315015
-0.2,-0.1,0.7999999999999999,0.0,0.5235987755982988,0,-1.0258679,1.3290886,-0.6015908,-0.099736884,-0.2494249,1.2911007,-0.9026937,-0.78538316,0.84455615,-0.89728254,-0.04991985,0.27239466,0.97230273,-0.42980057
-0.2,-0.1,0.7999999999999999,0.0,0.5235987755982988,0,-0.17736182,1.3082472,-0.0837999,-0.1825959,-0.16562928,1.1417035,-0.2155403,-0.785359,0.846309,-0.8849588,-0.062817425,0.25656262,1.1165583,-0.09102466
-0.2,-0.1,0.7999999999999999,0.0,0.5235987755982988,0,-1.1056077,1.3351306,-0.19150113,-0.07920772,-0.081341855,1.284095,-0.0799281,-0.7798535,0.8509981,-0.8831873,-0.05010982,0.35079774,1.0727105,-0.23530735
-0.2,-0.1,0.7999999999999999,0.0,0.5235987755982988,0,-1.3452077,1.3173926,-0.12986812,-0.08866794,0.13385504,1.1448916,0.031222926,-0.7799507,0.84786636,-0.85197514,-0.049785737,0.13241276,1.0380923,0.53669864
-0.2,-0.1,0.7999999999999999,0.0,0.5235987755982988,0,-1.439455,1.1702688,-0.58172107,-0.07153235,-0.14184411,1.2411795,-0.19425854,-0.7954879,0.8448547,-0.9060679,-0.060553264,0.61695135,1.0647724,-0.27976847
-0.2,-0.1,0.7999999999999999,0.0,0.5235987755982988,0,-0.65131927,1.2573938,-0.25284544,-0.07151473,-0.082310006,1.2496372,0.6933796,-0.7770818,0.8422886,-0.88490874,-0.052821692,0.16480893,1.1404488,0.49488547
-0.2,-0.1,0.7999999999999999,0.0,0.5235987755982988,0,-1.0040287,1.3355242,-0.22494705,-0.035439104,-0.10138477,1.3318859,0.46862978,-0.78234714,0.849084,-0.89476055,-0.06321197,0.37838522,1.1596789,0.3762734
-0.2,-0.1,0.7999999999999999,0.0,0.5235987755982988,0,-1.3288053,1.3911469,-0.46813414,-0.08441495,-0.045476686,1.3685673,-0.8684247,-0.778727,0.85153776,-0.90704405,-0.053589698,0.5915572,0.9824053,-0.03455661
-0.2,-0.1,0.7999999999999999,0.0,0.5235987755982988,0,-0.27659777,1.4013852,0.1990968,-0.11148245,-0.0878998,1.3846065,0.15965676,-0.78190094,0.85474926,-0.87655425,-0.054326594,0.20564888,1.1728277,0.9720964
-0.2,-0.1,0.7999999999999999,0.0,0.5235987755982988,0,-0.2697098,1.3271227,-0.20791604,-0.17927271,-0.35578278,1.3603207,-0.5577303,-0.7792051,0.8445374,-0.8862308,-0.054347597,0.0712371,1.0775665,-0.035257813
-0.2,-0.1,0.7999999999999999,0.0,0.5235987755982988,0,-0.96913815,1.3360025,-0.12107426,-0.10372449,0.030029988,1.1838686,0.60666686,-0.77638716,0.85543364,-0.88560206,-0.06366331,0.47027248,1.0131308,0.6969811
-0.2,-0.1,0.7999999999999999,0.0,0.5235987755982988,0,-0.24303074,1.3368586,0.14982887,-0.025019256,-0.1682624,1.2142121,0.81496644,-0.78226954,0.8541836,-0.86432797,-0.06607603,0.391077,1.0564291,0.13656238
-0.2,-0.1,0.7999999999999999,0.0,0.5235987755982988,0,-1.2639399,1.2729076,-0.30165505,-0.1004255,0.10856548,1.1554016,0.10321867,-0.7922798,0.8375318,-0.9022236,-0.048652332,0.31029525,1.0832056,0.63443005
-0.2,-0.1,0.7999999999999999,0.0,0.5235987755982988,0,-0.10928236,1.3009528,-0.0011827002,-0.05817178,0.0736854,1.1692712,0.4782156,-0.7841089,0.8493936,-0.88605106,-0.054675143,0.6276731,1.0246385,-0.14099008
-0.2,-0.1,0.7999999999999999,0.0,0.5235987755982988,0,-0.5400826,1.1879323,0.053901505,-0.15074733,-0.16332358,1.3428613,0.59779495,-0.7874707,0.853687,-0.89434487,-0.07180684,0.07501224,1.155237,0.25502282
-0.2,-0.1,0.7999999999999999,0.0,0.5235987755982988,0,-0.3796014,1.3708084,-0.3040242,-0.09053038,-0.019466862,1.1803257,-0.19770345,-0.7842391,0.8392881,-0.8921782,-0.044568677,0.432474,1.0467087,0.56573325
-0.2,-0.1,0.7999999999999999,0.0,0.5235987755982988,0,0.71747535,1.2923707,0.10809592,-0.036524694,-0.3285973,1.246875,-0.7176806,-0.7791732,0.8500317,-0.8662174,-0.061663575,0.21894862,1.0252949,0.3550161
-0.2,-0.1,0.7999999999999999,0.0,0.5235987755982988,0,-0.13116263,1.3012316,-0.32131997,-0.025836624,-0.023483433,1.0928125,-0.51599646,-0.7911215,0.8448035,-0.88344187,-0.055206068,0.35519567,1.0788461,0.3686979
-0.2,-0.1,0.7999999999999999,0.0,0.5235987755982988,0,-0.49064976,1.4046452,0.014521558,-0.08603934,0.33878118,1.1954771,-0.022603454,-0.78582394,0.83895075,-0.8950276,-0.04634846,0.19810243,1.0130754,0.21594103
-0.2,-0.1,0.7999999999999999,0.0,0.5235987755982988,0,-0.14184406,1.4377167,0.09801945,-0.062118772,-0.17794053,1.2560333,-0.20704722,-0.7849364,0.84756076,-0.8652047,-0.05393335,0.44499886,1.0225295,0.37047768
-0.2,-0.1,0.7999999999999999,0.0,0.5235987755982988,0,-0.598248,1.2849212,-0.08728854,-0.018392833,-0.06519697,1.1703154,0.23840697,-0.7837219,0.83587205,-0.8800636,-0.04151199,0.2735168,1.0070148,0.3760293
-0.2,-0.1,0.7999999999999999,0.0,0.5235987755982988,0,-0.5413339,1.3789428,-0.22183812,-0.052643016,-0.41894174,1.1722926,-0.4969922,-0.7806653,0.84327495,-0.8699728,-0.047357548,0.45132983,1.0303997,-0.1980621
-0.2,-0.1,0.7999999999999999,0.0,0.5235987755982988,0,-0.24619806,1.2268502,-0.3168391,-0.06961446,-0.2689924,1.2069737,0.48365912,-0.78222704,0.8531896,-0.846705,-0.064921856,0.19007584,1.076972,0.33974105
-0.2,-0.1,0.7999999999999999,0.0,0.5235987755982988,0,-0.5861422,1.3518279,0.06718694,-0.072984494,-0.030027894,1.2366426,0.39018172,-0.7817008,0.8509277,-0.8706233,-0.0627157,0.26349953,1.0025989,-0.31065056
-0.2,-0.1,0.7999999999999999,0.0,0.5235987755982988,0,-1.3260044,1.3242664,-0.118739374,-0.103179574,-0.22777748,1.2397716,0.5195537,-0.7913372,0.8401453,-0.86642224,-0.051947333,0.50892437,1.0544014,-0.3909592
-0.2,-0.1,0.7999999999999999,0.0,0.5235987755982988,0,-0.7416271,1.356012,0.04736302,-0.069294214,-0.029455665,1.3190253,0.1400751,-0.785614,0.84586823,-0.8793131,-0.05882908,0.2995952,1.0591416,0.56223875
-0.2,-0.1,0.7999999999999999,0.0,0.5235987755982988,0,-0.33706728,1.3266104,-0.058048513,-0.14128289,-0.0086783515,1.2912223,0.7400626,-0.78115195,0.84066623,-0.84606963,-0.044290964,0.5055217,1.0376229,0.6811252
-0.2,-0.1,0.7999999999999999,0.0,0.5235987755982988,0,-0.5697887,1.1744103,-0.049437232,-0.11273812,-0.2780438,1.1795201,0.8791292,-0.7862885,0.84371865,-0.8635251,-0.051840473,0.43090224,1.0638944,0.022073038
-0.2,-0.1,0.7999999999999999,0.0,0.5235987755982988,0,-0.7370391,1.4666412,-0.20715949,-0.070041925,-0.25565752,1.1695293,0.44399166,-0.7908544,0.8503016,-0.87002516,-0.06158633,0.41035628,1.1132761,0.1476866
-0.2,-0.1,0.7999999999999999,0.0,0.5235987755982988,0,-0.9715303,1.3322815,0.33513895,-0.004645438,-0.25040403,1.2609346,0.7312436,-0.7846285,0.8512566,-0.89567035,-0.058038153,0.47923133,1.1002501,0.7680871
-0.2,-0.1,0.7999999999999999,0.0,0.5235987755982988,0,-0.2530078,1.4449311,-0.52624,-0.08496185,0.07954467,1.224926,-0.034627736,-0.7817903,0.8459218,-0.89065176,-0.051735003,0.50929993,1.0761721,0.6466817
-0.2,-0.1,0.7999999999999999,0.0,0.5235987755982988,0,-0.2354157,1.3723651,-0.0739014,-0.00057791953,0.22650607,1.2432638,-0.09918978,-0.79202807,0.8445632,-0.89258945,-0.057458237,0.3390678,1.0692959,0.48373985
-0.2,-0.1,0.7999999999999999,0.0,0.5235987755982988,0,-1.0386242,1.2684143,-0.3515439,-0.066073805,-0.33896703,1.1573132,-0.35333505,-0.7796417,0.85603875,-0.88812745,-0.056716252,-0.022859039,1.1803826,-0.2526832
-0.2,-0.1,0.7999999999999999,0.0,0.5235987755982988,0,-1.7175808,1.3158289,-0.30648392,-0.097014636,-0.179413,1.2200686,-0.08094884,-0.78523034,0.84342676,-0.90038353,-0.05068149,0.18157394,1.0196393,1.0796125
-0.2,-0.1,0.7999999999999999,0.0,0.5235987755982988,0,-1.266416,1.513061,-0.19547202,-0.10585894,-0.230826,1.2333434,-0.37081286,-0.7823625,0.846672,-0.86405855,-0.05239488,0.3364078,1.0469104,0.51946187
-0.2,-0.1,0.7999999999999999,0.0,0.5235987755982988,0,-0.97628105,1.3912325,0.29248413,-0.0542322,-0.112729326,1.187672,0.172066,-0.79581416,0.8437059,-0.8953229,-0.060766116,0.48785165,1.0896363,-0.07102466
-0.2,-0.1,0.7999999999999999,0.0,0.5235987755982988,0,-0.38558498,1.309256,-0.16503304,-0.10201968,0.17957234,1.2411323,-0.43086132,-0.7922719,0.84358907,-0.8678429,-0.05657284,0.43680114,1.0543088,0.49452436
-0.2,-0.1,0.7999999999999999,0.0,0.5235987755982988,0,-0.4983427,1.3721855,-0.07909232,-0.038877424,-0.12985434,1.1763322,0.18849638,-0.7906439,0.84474665,-0.8575803,-0.055321198,0.51196593,1.1371799,0.012795434
-0.2,-0.1,0.7999999999999999,0.0,0.5235987755982988,0,-0.28668278,1.287959,0.1398625,-0.071106896,-0.537972,1.2707832,0.7301821,-0.7928994,0.84130037,-0.87198883,-0.05479599,0.4208129,1.1286575,0.47169244
-0.2,-0.1,0.7999999999999999,0.0,0.5235987755982988,0,-0.37948486,1.4232489,0.16255185,-0.056503545,0.057114877,1.2145668,0.8213044,-0.78976053,0.84919876,-0.8782383,-0.060425486,0.3508498,1.0412304,0.25921786
-0.2,-0.1,0.7999999999999999,0.0,0.5235987755982988,0,-1.0345428,1.2361779,-0.04426507,-0.09087139,-0.030913262,1.3238083,0.52180445,-0.7914806,0.8419962,-0.8791444,-0.053666364,0.43954328,1.1168165,0.088527635
-0.2,-0.1,0.7999999999999999,0.0,0.5235987755982988,0,-0.84243643,1.2996534,0.12071871,-0.061972808,0.31146863,1.3683975,-0.54731655,-0.7954005,0.84372383,-0.9114517,-0.059872337,0.19915558,1.0734501,0.018010406
-0.2,-0.1,0.7999999999999999,0.0,0.5235987755982988,0,-0.9322524,1.2176529,0.3966147,-0.08254964,-0.15446974,1.2112764,-0.70059377,-0.79069924,0.8445886,-0.87727785,-0.056817748,0.3492038,1.0864558,0.2377327
-0.2,-0.1,0.7999999999999999,0.0,0.5235987755982988,0,-0.783064,1.3320502,0.06868522,-0.08710857,-0.08440117,1.2826513,0.4460866,-0.78621334,0.83830154,-0.8593093,-0.044749495,0.15907325,1.1074365,0.33038488
-0.2,-0.1,0.7999999999999999,0.0,0.5235987755982988,0,0.100858055,1.2417028,0.33816883,-0.09292928,-0.03396098,1.1305734,-0.17877208,-0.7861199,0.8429479,-0.88073826,-0.05097896,0.013896077,1.1337546,0.52656776
-0.2,-0.1,0.7999999999999999,0.0,0.5235987755982988,0,-1.3017246,1.3060406,-0.08028543,-0.11725503,0.023978451,1.2926699,-0.24974214,-0.792062,0.84587866,-0.89621353,-0.06000239,0.13481878,1.0199056,-0.1385895
-0.2,-0.1,0.7999999999999999,0.0,0.5235987755982988,0,-1.4917774,1.3142967,0.22980426,-0.064647764,-0.06183575,1.2246151,-0.20463547,-0.79329485,0.8418676,-0.8766916,-0.055728335,0.23456441,1.0702422,0.022028936
-0.2,-0.1,0.7999999999999999,0.0,0.5235987755982988,0,-0.23146136,1.2937471,-0.027996408,-0.11382891,0.038450886,1.1860951,-0.08052361,-0.7851416,0.8431066,-0.8806699,-0.04967222,0.20163265,1.1193835,0.25369838
-0.2,-0.1,0.7999999999999999,0.0,0.5235987755982988,0,-0.25697446,1.3886782,-0.3911303,-0.044545017,-0.25066018,1.2315857,0.14312997,-0.7907388,0.84924823,-0.8711961,-0.06613412,-0.20595501,1.0153594,0.49555975
-0.2,-0.1,0.7999999999999999,0.0,0.5235987755982988,0,-0.3193977,1.4107733,-0.23747317,-0.039536774,0.112246126,1.3490528,0.33205453,-0.7902396,0.8541089,-0.88137525,-0.07062159,0.5235159,1.1153623,-0.14995106
-0.2,-0.1,0.7999999999999999,0.0,0.5235987755982988,0,-1.1406274,1.2148738,-0.42635718,-0.12122854,0.16517223,1.2106946,-0.019939756,-0.77872545,0.85118717,-0.8707842,-0.054060947,0.36916766,1.089741,1.0334607
-0.2,-0.1,0.7999999999999999,0.0,0.5235987755982988,0,-0.552547,1.4605838,-0.40395203,-0.15826854,0.047134668,1.2618091,1.0151854,-0.78574735,0.84410554,-0.88777465,-0.05261336,-0.025735643,1.1177084,1.0919629
-0.2,-0.1,0.7999999999999999,0.0,0.5235987755982988,0,-1.1595647,1.3179995,0.11162048,-0.10250434,-0.07040171,1.2142737,0.66421807,-0.78768814,0.8414228,-0.91305333,-0.0488691,0.20419943,1.2816883,0.2121336
-0.2,-0.1,0.7999999999999999,0.0,0.5235987755982988,0,-0.35134727,1.3815228,-0.1739747,-0.08624684,-0.06545533,1.2464135,0.5376735,-0.79053384,0.85426646,-0.87842107,-0.070901625,0.547992,1.0719969,0.003633338
-0.2,-0.1,0.7999999999999999,0.0,0.5235987755982988,0,-0.03805275,1.2811697,-0.5135375,-0.105607346,0.077975355,1.2909647,0.082800254,-0.78839636,0.8461828,-0.89616024,-0.057374757,0.23765175,1.129976,0.26803222
-0.2,-0.1,0.7999999999999999,0.0,0.5235987755982988,0,-0.570791,1.3694136,0.10282722,-0.0022096783,0.15522315,1.2507396,0.016580468,-0.7872366,0.8529831,-0.8823584,-0.06267364,0.1213311,1.0390954,0.24852958
-0.2,-0.1,0.7999999999999999,0.0,0.5235987755982988,0,-1.1427287,1.3787241,-0.25225592,-0.032203656,-0.19459037,1.1674558,-0.33882734,-0.7848729,0.84585804,-0.86563885,-0.054209076,0.11243514,1.0687608,0.5591502
-0.2,-0.1,0.7999999999999999,0.0,0.5235987755982988,0,-0.558081,1.2500399,0.0011753897,-0.09495423,0.051774457,1.194609,0.14675257,-0.7862075,0.84526545,-0.88177866,-0.05397049,0.3369003,1.0676017,0.20045838
-0.2,-0.1,0.7999999999999999,0.0,0.5235987755982988,0,-0.22695261,1.3725302,0.0519803,-0.11330073,0.13593405,1.2145827,0.14008726,-0.78487,0.85354745,-0.86789006,-0.06489059,0.30600345,1.0652064,0.15575205
-0.2,-0.1,0.7999999999999999,0.0,0.5235987755982988,0,-0.43750226,1.2197926,-0.002993866,-0.10243245,-0.24209385,1.0805439,-1.072344,-0.78542215,0.85038906,-0.86445713,-0.06348198,0.112178735,1.256573,0.20006843
-0.2,-0.1,0.7999999999999999,0.0,0.5235987755982988,0,-0.47922206,1.3649001,-0.13515164,-0.11500661,0.07883494,1.1916214,-1.1457578,-0.7803533,0.84692436,-0.8698559,-0.051396187,0.30237818,1.0540062,0.08115296
-0.2,-0.1,0.7999999999999999,0.0,0.5235987755982988,0,-0.82950574,1.3029704,-0.32855123,-0.09157741,-0.03401955,1.2861924,0.78433186,-0.7876775,0.84164804,-0.8591844,-0.05115623,0.15942228,1.096753,0.4057242
-0.2,-0.1,0.7999999999999999,0.0,0.5235987755982988,0,-0.9094438,1.316852,-0.06104954,-0.08287211,0.19536708,1.2086043,0.817186,-0.784553,0.85422945,-0.9006071,-0.0669032,0.29590628,1.1461451,0.29139283
-0.2,-0.1,0.7999999999999999,0.0,0.5235987755982988,0,-0.42540997,1.3488119,-0.040723987,-0.11293325,0.00819651,1.2979306,-0.8937401,-0.781437,0.8530096,-0.86118054,-0.058363106,0.18144466,1.0148433,0.6462253
-0.2,-0.1,0.7999999999999999,0.0,0.5235987755982988,0,-0.7743324,1.4338758,-0.54679304,-0.12406484,0.0013105365,1.2517059,0.10974694,-0.78307843,0.8454898,-0.8770095,-0.055448357,0.36782423,1.165821,0.13613576
-0.2,-0.1,0.7999999999999999,0.0,0.5235987755982988,0,-0.15807875,1.3041488,0.034366455,-0.117654145,-0.028317943,1.2896036,-0.16200931,-0.7940215,0.84566677,-0.8809418,-0.06068454,0.2256934,1.1191041,0.88653004
-0.2,-0.1,0.7999999999999999,0.0,0.5235987755982988,0,0.2372153,1.2955471,-0.031030104,0.0003855552,-0.107380696,1.232077,-0.3283226,-0.791979,0.84511465,-0.89231825,-0.0586404,0.29769257,1.1882702,0.80528325
-0.2,-0.1,0.7999999999999999,0.0,0.5235987755982988,0,-0.8766614,1.3734107,-0.04657634,-0.096292645,-0.042944383,1.2271007,1.188904,-0.78008485,0.8449358,-0.89398843,-0.051857233,-0.07343404,1.0885221,0.6571188
-0.2,-0.1,0.7999999999999999,0.0,0.5235987755982988,0,-1.1654726,1.2695527,-0.25845486,-0.04735609,-0.13599487,1.2142667,0.23475645,-0.78585494,0.85602146,-0.8430788,-0.06495582,0.27172428,1.0673962,0.39071408
-0.2,-0.1,0.7999999999999999,0.0,0.5235987755982988,0,-0.48587692,1.3989553,0.017265048,-0.065953255,0.13409789,1.2850976,-0.6140581,-0.7839218,0.85496706,-0.8770031,-0.062003545,-0.02703564,1.1140981,-0.10123768
-0.2,-0.1,0.7999999999999999,0.0,0.5235987755982988,0,-1.0018743,1.2443993,-0.22036327,-0.016874924,-0.17790705,1.2074275,-1.529684,-0.7708642,0.85630447,-0.86401254,-0.056972682,0.2927869,1.1543555,-0.5608929
-0.2,-0.1,0.7999999999999999,0.0,0.5235987755982988,0,-0.5090272,1.3037442,-0.105516456,-0.09100977,0.0438221,1.1352983,-0.29416746,-0.7854888,0.83890384,-0.88153636,-0.049237844,0.09051749,1.0427502,0.40476233
-0.2,-0.1,0.7999999999999999,0.0,0.5235987755982988,0,-0.7892891,1.3241862,0.33124673,-0.07036728,-0.046698906,1.2713568,-1.3175434,-0.7851263,0.8454101,-0.8670363,-0.053665023,0.083018206,1.1259516,0.70310813
-0.2,-0.1,0.7999999999999999,0.0,0.5235987755982988,0,-0.55679846,1.3059844,-0.16635211,-0.14431915,0.20457831,1.2427557,-0.07703434,-0.7849246,0.843151,-0.8656665,-0.053373937,0.46425718,1.0812109,0.07134204
-0.2,-0.1,0.7999999999999999,0.0,0.5235987755982988,0,0.097323954,1.4224296,0.19642518,-0.09881099,-0.07904442,1.2070819,0.6956183,-0.78523,0.85323393,-0.8467674,-0.06323137,0.31570828,0.9832181,0.17720325
-0.2,-0.1,0.7999999999999999,0.0,0.5235987755982988,0,-0.9268902,1.3709573,0.11680781,-0.030948138,-0.10965103,1.1324047,0.2987226,-0.7827917,0.85816866,-0.9011009,-0.06576483,0.53791493,1.0666767,0.6229678
-0.2,-0.1,0.7999999999999999,0.0,0.5235987755982988,0,-0.7101006,1.3612021,-0.02224989,-0.059739687,0.04074955,1.3303181,-0.30824012,-0.7831716,0.84879583,-0.8948923,-0.057434298,0.529518,1.1357296,0.6402431
-0.2,-0.1,0.7999999999999999,0.0,0.5235987755982988,0,-0.46269575,1.3010696,-0.13148257,-0.037603863,0.014894756,1.1688004,-0.2518565,-0.77922165,0.8549023,-0.8532126,-0.06225396,0.18878654,1.1292068,0.42751133
-0.2,-0.1,0.7999999999999999,0.0,0.5235987755982988,0,-0.75617445,1.314443,-0.33521646,-0.06159549,0.0034452782,1.287673,0.24232692,-0.7906392,0.85880566,-0.8710942,-0.07486951,0.14803436,1.117012,-0.57803965
-0.2,-0.1,0.7999999999999999,0.0,0.5235987755982988,0,-0.26217446,1.3209436,-0.45431393,-0.09089848,0.054336514,1.265679,0.45133808,-0.7913304,0.8558104,-0.86990446,-0.07114422,0.2059608,1.0951663,0.11635362
-0.2,-0.1,0.7999999999999999,0.0,0.5235987755982988,0,-0.51610625,1.2933577,0.5091556,-0.04045791,0.2874061,1.160276,-0.31874445,-0.7972945,0.8460209,-0.8566001,-0.06331259,0.45126918,1.0584025,0.15315954
-0.2,-0.1,0.7999999999999999,0.0,0.5235987755982988,0,-0.44901353,1.2835518,0.39704564,-0.059891053,0.107640505,1.3569002,0.6206771,-0.7833926,0.85541373,-0.88204545,-0.06239602,0.4173985,1.0621619,0.5748813
-0.2,-0.1,0.7999999999999999,0.0,0.5235987755982988,0,-0.5106766,1.3607076,-0.19223185,-0.06228356,-0.19498633,1.1677643,0.012079533,-0.78622544,0.8464405,-0.88650584,-0.05624794,0.37947395,1.1111777,-0.13575032
-0.2,-0.1,0.7999999999999999,0.0,0.5235987755982988,0,-1.0840967,1.3364584,-0.1628688,-0.024165988,-0.2557416,1.2773869,0.19691081,-0.7836673,0.8546391,-0.9280513,-0.060276583,0.36099222,1.0994571,1.0348736
-0.2,-0.1,0.7999999999999999,0.0,0.5235987755982988,0,-0.45883933,1.3744056,-0.16292909,-0.03403795,-0.05027657,1.271737,-0.021638194,-0.7840274,0.85014534,-0.894317,-0.056917176,0.23902243,1.0407246,0.3038409
-0.2,-0.1,0.7999999999999999,0.0,0.5235987755982988,0,-0.80361384,1.4155568,-0.199286,-0.10211593,-0.23206154,1.2399544,-0.9536624,-0.78015155,0.8527172,-0.87915033,-0.05616757,0.08129344,1.0729427,0.28925997
-0.2,-0.1,0.7999999999999999,0.0,0.5235987755982988,0,-0.12326268,1.5030718,0.5339687,-0.0786526,0.07351891,1.2590098,-0.27784562,-0.7825552,0.85556334,-0.85588473,-0.059906892,0.3452707,1.0398453,0.37053373
-0.2,-0.1,0.7999999999999999,0.0,0.5235987755982988,0,-0.25071195,1.2118973,-0.26574537,-0.046126507,-0.36525452,1.291858,0.41429472,-0.7911459,0.8452799,-0.87699246,-0.057378173,0.5689143,1.1106489,0.016110498
-0.2,-0.1,0.7999999999999999,0.0,0.5235987755982988,0,-0.61416364,1.3028661,0.07247514,-0.07401378,-0.26128146,1.171041,0.29161245,-0.78500664,0.85300446,-0.85449624,-0.060301892,0.29897738,1.0650141,0.58805287
-0.2,-0.1,0.7999999999999999,0.0,0.5235987755982988,0,-0.53524166,1.1869177,-0.36847937,-0.020275164,-0.17021222,1.2570182,-0.5112454,-0.7865239,0.85390955,-0.8746141,-0.06085307,0.40730608,1.0725224,0.4847029
-0.2,-0.1,0.7999999999999999,0.0,0.5235987755982988,0,-0.80126894,1.344211,0.15817949,-0.15621884,-0.058803502,1.2308276,0.5548395,-0.78765976,0.8537443,-0.8752505,-0.06435803,0.29233444,1.1523441,0.11499536
-0.2,-0.1,0.7999999999999999,0.0,0.5235987755982988,0,-0.35058042,1.2238077,0.047651023,-0.06932479,-0.18225235,1.3073374,0.028008895,-0.7836977,0.8547998,-0.8683214,-0.0608214,0.26308692,1.046128,-0.54555434
-0.2,-0.1,0.7999999999999999,0.0,0.5235987755982988,0,-0.3496575,1.3115195,-0.33934513,-0.0097526675,-0.027888482,1.1141016,0.8379576,-0.77612877,0.84218705,-0.8671836,-0.050083995,0.19755936,1.1676478,0.97118974
-0.2,-0.1,0.7999999999999999,0.0,0.5235987755982988,0,-0.6561117,1.299052,0.19627239,-0.10393789,0.21407567,1.1391891,-0.6284641,-0.78131235,0.8576954,-0.8781605,-0.06112205,0.55743396,1.1214181,0.4115858
-0.2,-0.1,0.7999999999999999,0.0,0.5235987755982988,0,-1.2163628,1.3690236,-0.23094852,-0.087298304,-0.025347369,1.1221741,0.32518783,-0.7820212,0.85322267,-0.875415,-0.056298923,0.26227862,1.090738,0.2023312
-0.2,-0.1,0.7999999999999999,0.0,0.5235987755982988,0,-1.3994193,1.3003434,0.4059323,-0.12508065,-0.17255431,1.1666895,0.33748683,-0.7806517,0.8555644,-0.8544123,-0.056851868,0.27370155,1.0718709,0.9398965
-0.2,-0.1,0.7999999999999999,0.0,0.5235987755982988,0,-0.7720063,1.2844495,-0.4485358,-0.059633996,0.051033437,1.2282833,1.3151218,-0.78027797,0.8610275,-0.912118,-0.062242292,0.22946085,1.1125373,0.02021232
-0.2,-0.1,0.7999999999999999,0.0,0.5235987755982988,0,-1.0032158,1.3734671,0.1687111,-0.020281011,0.21245587,1.4028152,-0.26801655,-0.7753416,0.8552161,-0.88345075,-0.05085904,0.2821481,1.0934519,-0.6946413
-0.2,-0.1,0.7999999999999999,0.0,0.5235987755982988,0,-0.38944417,1.257967,-0.17654565,-0.05674005,0.11060511,1.2760674,0.53750944,-0.7954282,0.8544208,-0.8978327,-0.066742435,0.07538806,1.0515728,-0.36847588
-0.2,-0.1,0.7999999999999999,0.0,0.5235987755982988,0,-0.18655603,1.2463917,-0.37698826,-0.03158381,-0.0049209152,1.3178986,0.73540646,-0.7853639,0.8544391,-0.87024945,-0.05812379,0.2819341,1.0571486,0.26972407
-0.2,-0.1,0.7999999999999999,0.0,0.5235987755982988,0,-0.6094479,1.2552481,-0.03331107,-0.058414694,0.10342892,1.1791309,-0.3100775,-0.7883736,0.8472593,-0.8842597,-0.053434983,0.32283,1.0862213,-0.05066949
-0.2,-0.1,0.7999999999999999,0.0,0.5235987755982988,0,-1.0375067,1.3156165,0.2448163,-0.0031942592,-0.0081824865,1.2573767,0.1447826,-0.7824303,0.8527656,-0.8892928,-0.05422282,0.1382901,1.0634975,0.40710822
-0.2,-0.1,0.7999999999999999,0.0,0.5235987755982988,0,-0.6823874,1.3348992,-0.1720416,-0.050876,0.041115623,1.2069412,-0.06734132,-0.7819616,0.8564991,-0.8633079,-0.057722244,-0.021551589,1.0687686,0.47578886
-0.2,-0.1,0.7999999999999999,0.0,0.5235987755982988,0,-0.14028208,1.363032,-0.06392388,-0.16596662,-0.32723463,1.3519498,0.41116846,-0.7802673,0.8623564,-0.8872086,-0.05012211,-0.06588943,1.1973839,0.53215647
-0.2,-0.1,0.7999999999999999,0.0,0.5235987755982988,0,-0.82526934,1.2963376,-0.21516927,-0.062701106,-0.017147735,1.3073097,-0.113494076,-0.7763329,0.8438198,-0.8954747,-0.056189016,0.3479394,1.1102132,0.44172245
-0.2,-0.1,0.7999999999999999,0.0,0.5235987755982988,0,-0.7855426,1.3742658,0.028470455,-0.08596064,-0.06553284,1.2637838,-1.1860477,-0.7834265,0.845019,-0.8615637,-0.068759106,0.3574128,1.0412533,0.18715987
-0.2,-0.1,0.7999999999999999,0.0,0.5235987755982988,0,-0.89917326,1.3324186,-0.5032382,-0.078109056,-0.08514672,1.3176986,0.31568688,-0.7811495,0.84134525,-0.8959643,-0.07821468,0.51579785,1.0567914,0.0018572382
-0.2,-0.1,0.7999999999999999,0.0,0.5235987755982988,0,-1.3911499,1.3372575,-0.1693678,-0.12271299,0.37278914,1.1836617,0.23645999,-0.7866101,0.8364188,-0.8958525,-0.07792416,0.4781862,0.9991565,0.49649346
-0.2,-0.1,0.7999999999999999,0.0,0.5235987755982988,0,-0.54114676,1.2591377,-0.12234451,-0.11699099,-0.31721404,1.2582301,0.7547851,-0.7780647,0.83665293,-0.886178,-0.06913183,0.3328806,1.0481769,0.48804423
-0.2,-0.1,0.7999999999999999,0.0,0.5235987755982988,0,-0.4267989,1.4199152,-0.068951115,-0.08674379,-0.07070522,1.1719892,0.7499999,-0.7848124,0.8312833,-0.86902004,-0.06667181,0.23670068,1.0592461,0.4530914
-0.2,-0.1,0.7999999999999999,0.0,0.5235987755982988,0,-0.7254365,1.3621099,-0.3998513,0.0027220955,-0.0987008,1.3538249,-0.79741496,-0.77757114,0.8485339,-0.89541906,-0.065412365,0.12639372,1.1270334,0.24119085
-0.2,-0.1,0.7999999999999999,0.0,0.5235987755982988,0,-0.48930356,1.2555532,0.13542806,-0.056948207,-0.2889044,1.1607606,0.20324104,-0.786987,0.8616695,-0.8877134,-0.08261711,0.2844263,1.0528313,0.011313909
-0.2,-0.1,0.7999999999999999,0.0,0.5235987755982988,0,-0.46456116,1.3273716,0.0005037434,-0.06691329,-0.048823457,1.1543314,0.47626057,-0.79193175,0.83752704,-0.87476826,-0.049315438,0.40116385,1.0836864,-0.0064467955
-0.2,-0.1,0.7999999999999999,0.0,0.5235987755982988,0,-0.8108405,1.2768545,-0.44847673,-0.050843783,0.13816147,1.2066442,0.4220923,-0.79217005,0.8514048,-0.86572486,-0.06288394,0.40722933,1.1261584,0.32214594
-0.2,-0.1,0.7999999999999999,0.0,0.5235987755982988,0,-0.53870356,1.4677033,-0.105217025,-0.052467495,-0.25173166,1.2893058,-0.62074095,-0.79175025,0.85220075,-0.90346503,-0.060616024,0.19556116,1.0770204,-0.27114865
-0.2,-0.1,0.7999999999999999,0.0,0.5235987755982988,0,-0.8169096,1.2441125,0.15806127,-0.07889905,0.26578605,1.2397004,-0.2027287,-0.7853267,0.83899325,-0.86467737,-0.045394056,0.2571556,1.1132874,-0.31324553
-0.2,-0.1,0.7999999999999999,0.0,0.5235987755982988,0,-0.047388047,1.4116542,-0.048404336,-0.03212623,-0.13075161,1.1545318,-0.28214043,-0.7810235,0.8476219,-0.878453,-0.06555203,0.11594113,1.0912108,0.6244981
-0.2,-0.1,0.7999999999999999,0.0,0.5235987755982988,0,-0.48072582,1.333724,0.040257487,-0.0970889,-0.0151869105,1.2320004,0.055010445,-0.7814398,0.8487633,-0.8594663,-0.06840223,0.013871627,1.0832556,0.71381754
-0.2,-0.1,0.7999999999999999,0.0,0.5235987755982988,0,-1.0162635,1.3111964,-0.4259086,-0.018177843,-0.0849717,1.2800487,-0.38022178,-0.7881455,0.8501193,-0.87868935,-0.06224556,0.46927473,1.0990878,0.5321548
-0.2,-0.1,0.7999999999999999,0.0,0.5235987755982988,0,-0.2155212,1.2910742,-0.275037,-0.07978535,0.021459844,1.315659,-0.25038445,-0.7857652,0.8431365,-0.86256367,-0.077678755,0.18323338,1.0306345,0.8032223
-0.2,-0.1,0.7999999999999999,0.0,0.5235987755982988,0,-1.1386484,1.2483723,-0.23050012,-0.08100179,0.2833142,1.219894,-0.22146374,-0.78035235,0.8363449,-0.8933942,-0.05052691,0.1751228,1.0791004,-0.3642992
-0.2,-0.1,0.7999999999999999,0.0,0.5235987755982988,0,-0.49580225,1.4309192,-0.15855807,-0.058516245,0.12497547,1.2546548,-0.027024895,-0.7780862,0.84242946,-0.8775685,-0.062782094,0.061220184,1.0210146,0.50121963
-0.2,-0.1,0.7999999999999999,0.0,0.5235987755982988,0,-0.5195648,1.3978236,-0.03355075,-0.09351269,-0.11084584,1.3265932,0.86989033,-0.7749219,0.8477805,-0.8734856,-0.06734017,0.018274624,1.1769531,0.67823726
-0.2,-0.1,0.7999999999999999,0.0,0.5235987755982988,0,-0.21611226,1.3189266,-0.23440035,-0.14131112,-0.10306884,1.2744747,-0.35567784,-0.78434694,0.84419,-0.89372057,-0.064235814,0.38739792,1.1040452,1.2603594
-0.2,-0.1,0.7999999999999999,0.0,0.5235987755982988,0,-0.7434729,1.2723885,0.0530854,-0.018407013,0.027097631,1.2395682,-0.18080051,-0.7803864,0.8467202,-0.8728346,-0.06700648,0.49032798,1.1139972,-0.19119103
-0.2,-0.1,0.7999999999999999,0.0,0.5235987755982988,0,-0.86379737,1.3346255,-0.46072677,-0.07176241,0.14579314,1.1952662,0.3802445,-0.78078896,0.8464542,-0.91905737,-0.060213126,0.32359868,1.0747321,0.31591073
-0.2,-0.1,0.7999999999999999,0.0,0.5235987755982988,0,-0.3074902,1.3391861,-0.19306615,-0.09969178,0.1830152,1.1234312,-0.4143147,-0.7881458,0.8416344,-0.8743125,-0.060845476,0.36250684,1.0654049,0.1215478
-0.2,-0.1,0.7999999999999999,0.0,0.5235987755982988,0,-0.5232945,1.4392436,0.33608744,-0.055251323,0.12476675,1.1693774,-0.83834124,-0.7906188,0.8563234,-0.87794435,-0.07651142,0.17204556,1.0320392,0.7006397
-0.2,-0.1,0.7999999999999999,0.0,0.5235987755982988,0,-0.31485334,1.3448753,-0.046164185,-0.07942158,0.21705225,1.1559373,-0.018235564,-0.78715,0.8461302,-0.8854837,-0.055203285,0.33118948,1.0954423,-0.18866958
-0.2,-0.1,0.7999999999999999,0.0,0.5235987755982988,0,-0.58931744,1.4018021,-0.60305876,-0.122409195,-0.0008850206,1.1327536,-0.1513382,-0.7774729,0.8576215,-0.8670596,-0.043227635,0.44623446,1.0484678,-0.4518783
-0.2,-0.1,0.7999999999999999,0.0,0.5235987755982988,0,-0.2636384,1.3716464,-0.107043535,-0.115077056,-0.22639364,1.2782711,-0.20094775,-0.7804374,0.85324204,-0.8977526,-0.056914546,0.4797423,1.0062969,-0.42938387
-0.2,-0.1,0.7999999999999999,0.0,0.5235987755982988,0,0.13564838,1.3893131,-0.69076025,-0.024915874,-0.46873873,1.2771767,0.4720615,-0.78728676,0.85027486,-0.86171,-0.05973969,0.06864301,1.026267,-0.08310995
-0.2,-0.1,0.7999999999999999,0.0,0.5235987755982988,0,-0.46462396,1.3090464,-0.30417722,-0.035737924,0.06597741,1.1040927,-0.23946895,-0.7898402,0.8568207,-0.8541743,-0.06884584,0.3686408,1.1556209,0.93635935
-0.2,-0.1,0.7999999999999999,0.0,0.5235987755982988,0,-0.29718858,1.481025,-0.052798595,-0.052115813,0.12708023,1.2428081,-0.24617507,-0.77915716,0.8531781,-0.9084578,-0.051871188,0.18419173,1.0330083,-0.22715412
-0.2,-0.1,0.7999999999999999,0.0,0.5235987755982988,0,-0.3509875,1.3518444,-0.098568864,-0.096611015,-0.2849927,1.2453454,-0.2613384,-0.7855547,0.8505724,-0.8824044,-0.060428515,0.14120723,1.0641767,0.6343578
-0.2,-0.1,0.7999999999999999,0.0,0.5235987755982988,0,-0.67943996,1.461666,-0.36481267,-0.11871106,0.02544484,1.2324255,-0.010477013,-0.7835291,0.84996533,-0.8904625,-0.055586323,0.45823166,1.0783697,-1.1041596
-0.2,-0.1,0.7999999999999999,0.0,0.5235987755982988,0,-0.26299384,1.2887205,-0.34811634,-0.10019904,0.15529042,1.2264583,-0.45528826,-0.7830924,0.8495479,-0.864013,-0.07035751,0.30535692,1.0145491,0.79713845
