sanky1234/BimanualDexCatch/isaacgymenvs/cem_results/football_pose_-0.1_-0.2_0.9999999999999999_-0.5235987755982988_0.0_0_2025-05-25.csv
x,y,z,roll,pitch,yaw,robot1/joint1,robot1/joint2,robot1/joint3,robot1/joint4,robot1/joint5,robot1/joint6,robot1/joint7,robot2/joint1,robot2/joint2,robot2/joint3,robot2/joint4,robot2/joint5,robot2/joint6,robot2/joint7
-0.1,-0.2,0.9999999999999999,-0.5235987755982988,0.0,0,2.2505944,1.2306197,0.50986123,-0.17672946,-0.27665645,0.87119865,0.8710251,0.7456793,1.1696767,0.52024096,-0.26045603,-0.85487795,0.8442446,-0.6417469
-0.1,-0.2,0.9999999999999999,-0.5235987755982988,0.0,0,2.4924016,1.1852628,0.5606821,-0.35520226,-0.5177034,1.0788516,0.73294634,0.7469576,1.2178059,0.314697,-0.15489668,0.121695645,0.97209364,-0.2478207
-0.1,-0.2,0.9999999999999999,-0.5235987755982988,0.0,0,2.3991685,1.2703311,0.5205121,-0.29508686,-0.3153546,1.0703324,-0.94129145,0.75287426,1.0807866,0.7619934,-0.05768549,0.26757884,1.1872649,0.55588174
-0.1,-0.2,0.9999999999999999,-0.5235987755982988,0.0,0,2.3261552,1.2590268,0.61584496,-0.31692198,-0.31375852,0.9414804,-1.1714482,0.73902225,1.2963909,0.5189691,-0.068363115,-0.58595604,0.9140456,0.56913733
-0.1,-0.2,0.9999999999999999,-0.5235987755982988,0.0,0,2.3269114,1.3176874,0.55714524,-0.31187454,-0.2132749,0.8849051,1.5803748,0.7105983,1.5353825,0.41564563,-0.03151798,-0.008851843,1.0897974,-0.25712913
-0.1,-0.2,0.9999999999999999,-0.5235987755982988,0.0,0,2.387348,1.248575,0.55066717,-0.2987128,-0.2555917,0.98400027,0.8515918,0.7439781,0.6833307,-0.17741565,-0.11496699,0.48193917,1.1220146,0.2512188
-0.1,-0.2,0.9999999999999999,-0.5235987755982988,0.0,0,2.3044884,1.3260753,0.6089068,-0.24670649,-0.28886288,0.95003945,-0.07318526,0.73544544,1.1720582,-0.043903466,-0.12225389,0.06972457,1.3949987,-0.3450395
-0.1,-0.2,0.9999999999999999,-0.5235987755982988,0.0,0,2.537631,1.215248,0.6290054,-0.20426549,-0.41244498,1.0454077,0.018115206,0.72623086,1.1464524,-0.27117866,-0.35745534,-0.15715455,0.7897382,1.4168576
-0.1,-0.2,0.9999999999999999,-0.5235987755982988,0.0,0,2.4482324,1.2233709,0.5351161,-0.31700253,-0.34774852,0.9321035,0.927934,0.7428501,1.1781491,0.16558516,-0.16757254,0.27803022,0.952389,0.26040152
-0.1,-0.2,0.9999999999999999,-0.5235987755982988,0.0,0,2.422361,1.2288226,0.5556004,-0.32770875,-0.5367003,0.9982818,1.443701,0.71755207,1.1256291,0.5374598,-0.089690186,-0.16278498,1.0554845,-1.2592658
-0.1,-0.2,0.9999999999999999,-0.5235987755982988,0.0,0,2.3329723,1.2278525,0.5736864,-0.26050478,-0.30823958,1.1080923,0.41612715,0.7604727,0.9752752,0.274018,-0.21834153,-0.49134794,0.98981255,-0.30090415
-0.1,-0.2,0.9999999999999999,-0.5235987755982988,0.0,0,2.295081,1.2815231,0.5477755,-0.27404684,-0.3111252,1.028251,-0.3143938,0.7547479,1.3056976,0.63093406,-0.25634307,-0.37597233,0.64133596,-0.18637083
-0.1,-0.2,0.9999999999999999,-0.5235987755982988,0.0,0,2.4665697,1.2210104,0.52893096,-0.2363613,-0.5624872,1.0220355,-1.5653411,0.74380213,1.1491781,0.2673743,-0.08225659,-0.18770055,0.87057257,0.2754251
-0.1,-0.2,0.9999999999999999,-0.5235987755982988,0.0,0,2.4331596,1.3184832,0.6226852,-0.24236882,-0.446482,0.9881448,0.21843629,0.7639393,1.197716,-0.1801891,-0.2165134,-0.0018227365,0.95214146,0.4971623
-0.1,-0.2,0.9999999999999999,-0.5235987755982988,0.0,0,2.3373961,1.3749428,0.53628135,-0.270557,-0.46313953,0.97942084,0.61260366,0.74634176,0.95354944,0.54768705,-0.15729123,-0.19589886,0.93213314,0.8408011
-0.1,-0.2,0.9999999999999999,-0.5235987755982988,0.0,0,2.3485081,1.3390244,0.6309297,-0.23736222,-0.34255913,0.9251408,1.1525915,0.73703295,1.5517445,0.12733932,-0.23050588,0.15502088,0.73317575,-0.09610718
-0.1,-0.2,0.9999999999999999,-0.5235987755982988,0.0,0,2.473598,1.2554361,0.63915163,-0.22215648,-0.43985033,0.9944226,0.9547405,0.75857973,1.1064961,-0.1359059,-0.12159165,0.119151264,0.8549788,-0.07258565
-0.1,-0.2,0.9999999999999999,-0.5235987755982988,0.0,0,2.4182863,1.2317551,0.5294313,-0.26724496,-0.22028293,1.0871102,1.2323343,0.7237259,1.3997461,0.282846,-0.1445704,-0.49391407,1.0140384,0.3170525
-0.1,-0.2,0.9999999999999999,-0.5235987755982988,0.0,0,2.3790593,1.245092,0.5151624,-0.38801965,-0.23426947,0.95618683,0.7930723,0.7627855,1.1399478,0.07321432,-0.1132211,-0.7457318,1.1001495,-0.111373946
-0.1,-0.2,0.9999999999999999,-0.5235987755982988,0.0,0,2.222852,1.1954142,0.6236268,-0.30618414,-0.29232433,0.9835519,2.4907053,0.7592865,0.69397783,0.5336887,-0.15742818,0.17903483,0.94850785,-0.8111545
-0.1,-0.2,0.9999999999999999,-0.5235987755982988,0.0,0,2.2705112,1.2655916,0.58284146,-0.15635054,-0.4190042,1.0904262,1.5267192,0.75699955,1.0937252,0.34197208,-0.087548174,-0.95342326,0.65385216,1.051948
-0.1,-0.2,0.9999999999999999,-0.5235987755982988,0.0,0,2.3626873,1.328459,0.49008223,-0.32948154,-0.6272278,0.93330634,1.9466668,0.7549614,1.1273873,0.6042191,-0.12075763,0.32338727,0.942177,1.7618084
-0.1,-0.2,0.9999999999999999,-0.5235987755982988,0.0,0,2.5381613,1.252998,0.6415702,-0.24707852,-0.6461386,1.0066196,0.22750388,0.7809216,1.427013,0.38717574,-0.0737918,-0.03140245,0.8902812,-0.62805235
-0.1,-0.2,0.9999999999999999,-0.5235987755982988,0.0,0,2.3577952,1.2397434,0.6125384,-0.19067213,-0.6782955,0.81322944,-1.2004137,0.7614195,1.256947,0.121478975,-0.10663806,-0.37666506,1.094526,0.2682111
-0.1,-0.2,0.9999999999999999,-0.5235987755982988,0.0,0,2.382198,1.3195583,0.6453481,-0.43135417,-0.4455194,1.0925467,1.2378697,0.72792876,1.2427577,0.29734546,-0.1990172,0.14315541,0.71889615,1.5269579
-0.1,-0.2,0.9999999999999999,-0.5235987755982988,0.0,0,2.299742,1.328703,0.58373624,-0.19523758,-0.24922436,0.95765984,0.30687052,0.7368056,0.8001921,0.16908276,-0.11152486,0.44400936,0.9894091,0.1020322
-0.1,-0.2,0.9999999999999999,-0.5235987755982988,0.0,0,2.3377678,1.2735261,0.49984342,-0.22504696,-0.37805483,0.9262696,0.6690165,0.7105544,1.0234338,0.8603427,-0.090523615,0.3398771,1.2086034,-0.22501315
-0.1,-0.2,0.9999999999999999,-0.5235987755982988,0.0,0,2.3076904,1.2770023,0.56860805,-0.22213903,-0.28637078,0.94180495,2.2307363,0.7372198,1.1028826,0.40786275,-0.13303289,-0.13876136,0.89545953,0.7252565
-0.1,-0.2,0.9999999999999999,-0.5235987755982988,0.0,0,2.4460516,1.2458603,0.5442387,-0.28708053,-0.54615104,1.0095092,0.09094459,0.7466666,0.9168434,0.47770345,-0.19661793,-0.32516623,1.0265857,0.4131252
-0.1,-0.2,0.9999999999999999,-0.5235987755982988,0.0,0,2.4920557,1.1688067,0.5559349,-0.27792773,-0.30647957,1.018114,1.0168539,0.7172375,1.0272727,0.10090184,-0.10124945,0.030439451,0.9767215,1.3005618
-0.1,-0.2,0.9999999999999999,-0.5235987755982988,0.0,0,2.4921165,1.1665871,0.5127341,-0.3129883,-0.16710426,0.9785194,0.32672414,0.7547949,1.0971977,0.44307315,-0.2492798,-0.45352283,1.0687163,0.8781598
-0.1,-0.2,0.9999999999999999,-0.5235987755982988,0.0,0,2.3483982,1.2645192,0.5789992,-0.26232678,-0.36025304,1.0562571,-1.5762898,0.7635782,1.2793245,0.25180066,-0.06848001,-0.9990409,0.9513328,-0.0031593302
-0.1,-0.2,0.9999999999999999,-0.5235987755982988,0.0,0,2.3197453,1.3133851,0.6092083,-0.22349004,-0.49137384,1.0154815,-0.5548684,0.7335473,1.2793705,0.40379828,-0.048848305,0.02891389,0.6472316,-0.2220422
-0.1,-0.2,0.9999999999999999,-0.5235987755982988,0.0,0,2.18956,1.2998497,0.6089697,-0.20397228,-0.27650455,0.9440974,-0.519937,0.7611289,1.0194912,0.45459247,-0.105773136,0.42720845,0.987525,1.4610744
-0.1,-0.2,0.9999999999999999,-0.5235987755982988,0.0,0,2.2830384,1.2904128,0.545622,-0.24960247,-0.28601232,0.9206574,-0.5554915,0.7775322,1.2043058,0.3503898,-0.15356423,0.17280996,0.67657954,-0.25247246
-0.1,-0.2,0.9999999999999999,-0.5235987755982988,0.0,0,2.2738557,1.2429795,0.49179083,-0.20841816,-0.35963666,0.9313517,-0.4574477,0.7148451,1.3262194,0.71194553,-0.21787146,0.17497568,1.138188,0.69499326
-0.1,-0.2,0.9999999999999999,-0.5235987755982988,0.0,0,2.3220313,1.3024232,0.5050247,-0.42362952,-0.24078907,0.9394523,1.972894,0.725523,1.2813246,0.69677716,-0.13877332,0.0589887,0.9720745,0.15550634
-0.1,-0.2,0.9999999999999999,-0.5235987755982988,0.0,0,2.3201792,1.2748933,0.5906101,-0.26090094,-0.27269706,0.99254304,-0.61714566,0.72593385,1.270602,0.05450045,-0.08084777,0.19966944,1.1194335,1.1100104
-0.1,-0.2,0.9999999999999999,-0.5235987755982988,0.0,0,2.3608153,1.3141577,0.5471394,-0.39497232,-0.47546968,1.0550573,-0.93246853,0.7532244,1.3333066,-0.10429701,-0.24223939,0.15018973,1.0185685,0.5278215
-0.1,-0.2,0.9999999999999999,-0.5235987755982988,0.0,0,2.245221,1.3426116,0.6302632,-0.25299838,-0.2639462,0.888234,-0.471267,0.7479485,1.0617435,-0.38690782,-0.17717874,0.13778585,0.9033407,-0.8121388
-0.1,-0.2,0.9999999999999999,-0.5235987755982988,0.0,0,2.476999,1.3150281,0.6290488,-0.1826001,-0.5660355,0.91656727,-1.3369058,0.7648099,1.3282324,0.20124857,-0.11295861,-0.019378755,0.9928948,0.15269844
-0.1,-0.2,0.9999999999999999,-0.5235987755982988,0.0,0,2.3052897,1.3564899,0.5484847,-0.3307566,-0.27688104,0.98406416,0.5282974,0.7424246,1.1642954,-0.1113204,-0.049704038,-0.39408275,0.9752919,0.29961956
-0.1,-0.2,0.9999999999999999,-0.5235987755982988,0.0,0,2.3482974,1.316643,0.563009,-0.53326744,-0.59026015,0.99347305,1.3338188,0.75036323,1.2019093,0.10707932,-0.23662977,-0.1716651,1.0061415,0.07016946
-0.1,-0.2,0.9999999999999999,-0.5235987755982988,0.0,0,2.3142934,1.2830329,0.6708555,-0.1987,-0.5693576,0.98932,0.32862154,0.74965084,1.0049146,0.009827135,-0.14205676,-0.6065111,0.79486006,0.42499754
-0.1,-0.2,0.9999999999999999,-0.5235987755982988,0.0,0,2.3993456,1.2326754,0.49222365,-0.28579476,-0.55336684,0.9722377,0.9929852,0.7417865,1.139174,-0.04369462,-0.024873182,0.028808253,0.9410255,0.83801204
-0.1,-0.2,0.9999999999999999,-0.5235987755982988,0.0,0,2.2222857,1.2387834,0.49469975,-0.3060371,-0.4354653,0.98625356,0.18353206,0.75332695,0.998428,0.017801492,-0.11586571,0.1286628,1.1040659,-0.13899404
-0.1,-0.2,0.9999999999999999,-0.5235987755982988,0.0,0,2.2080305,1.2741681,0.5051734,-0.18492231,-0.54167217,0.9255901,1.1330997,0.766004,1.1466191,0.24679932,-0.130743,-0.05358319,1.0799637,1.000846
-0.1,-0.2,0.9999999999999999,-0.5235987755982988,0.0,0,2.405978,1.2104368,0.61929667,-0.299901,-0.45158535,1.0146612,0.5825024,0.7318561,0.76132613,0.3325602,-0.13621117,0.7842054,0.82033324,0.82971174
-0.1,-0.2,0.9999999999999999,-0.5235987755982988,0.0,0,2.263891,1.2255552,0.64476305,-0.21117191,-0.43636408,0.95409745,-1.4140482,0.75336885,0.84755135,0.36300513,-0.1220328,-0.25060365,1.1045945,0.47038883
-0.1,-0.2,0.9999999999999999,-0.5235987755982988,0.0,0,2.3082557,1.3246675,0.6628693,-0.3338062,-0.4383625,1.0289038,-0.5351441,0.7371083,1.1895735,-0.11002661,-0.19219138,-0.26184177,1.0379754,-0.3029989
-0.1,-0.2,0.9999999999999999,-0.5235987755982988,0.0,0,2.3844547,1.3404604,0.4944623,-0.5353059,-0.4320002,1.0843002,-0.8673435,0.7603494,1.0796394,0.83135366,-0.072460584,-0.26350668,1.1977772,-0.22323796
-0.1,-0.2,0.9999999999999999,-0.5235987755982988,0.0,0,2.3083081,1.1638569,0.5677625,-0.30427212,-0.34925058,1.0313451,-1.3029959,0.749439,1.1831052,-0.058377314,-0.16841455,0.2677059,0.7328665,1.216139
-0.1,-0.2,0.9999999999999999,-0.5235987755982988,0.0,0,2.4346626,1.2658626,0.5100394,-0.36084762,-0.25335178,1.0076044,-0.33221042,0.74478084,1.2890978,0.37704358,-0.17479943,0.06223388,1.1366233,0.70273924
-0.1,-0.2,0.9999999999999999,-0.5235987755982988,0.0,0,2.3211398,1.2404791,0.50314474,-0.25094333,-0.38624927,1.02204,-0.82832515,0.74296594,1.120611,-0.26750872,-0.14644986,0.03164613,0.7810218,0.55377454
-0.1,-0.2,0.9999999999999999,-0.5235987755982988,0.0,0,2.3929842,1.2701497,0.5172394,-0.33811647,-0.26612705,1.0018368,0.7195836,0.7469438,1.2921703,0.18355909,-0.16459158,-0.53876454,1.08781,0.60278225
-0.1,-0.2,0.9999999999999999,-0.5235987755982988,0.0,0,2.4216518,1.2474774,0.5162035,-0.27016693,-0.4078877,0.91572386,-1.3933697,0.7103169,1.236083,-0.2637344,-0.23824619,-0.3862571,0.83278275,0.26494223
-0.1,-0.2,0.9999999999999999,-0.5235987755982988,0.0,0,2.240815,1.257017,0.6427311,-0.27198985,-0.42035285,1.0073978,-0.40401942,0.72358745,0.937498,0.6848528,-0.1518048,-0.40447748,1.0737294,-0.32887483
-0.1,-0.2,0.9999999999999999,-0.5235987755982988,0.0,0,2.3768873,1.3132455,0.57202446,-0.35504934,-0.5016109,1.0524235,1.0283498,0.76154447,1.0319794,-0.00818235,-0.048332505,-0.16321974,0.82307875,0.054641258
-0.1,-0.2,0.9999999999999999,-0.5235987755982988,0.0,0,2.3549857,1.2867544,0.53443974,-0.3659777,-0.5136666,1.0631632,1.2939376,0.72587466,1.0975066,0.3313302,-0.20470089,0.15602674,0.8302395,0.8302079
-0.1,-0.2,0.9999999999999999,-0.5235987755982988,0.0,0,2.2235599,1.2504874,0.48035383,-0.24540053,-0.37089646,0.98038566,0.9802132,0.76682466,0.7173726,0.12641297,-0.116391666,0.2860572,1.0789295,0.40057728
-0.1,-0.2,0.9999999999999999,-0.5235987755982988,0.0,0,2.174926,1.182102,0.60376817,-0.26006597,-0.5990719,1.0662088,1.1317334,0.7236378,1.1023092,0.25367945,-0.12642467,-0.7946915,0.79310894,0.9264035
-0.1,-0.2,0.9999999999999999,-0.5235987755982988,0.0,0,2.209389,1.2693158,0.51636624,-0.23998195,-0.6218734,1.018875,0.039662857,0.74449974,0.76797956,0.80394936,-0.13824284,-0.15582547,0.6406109,0.05673765
-0.1,-0.2,0.9999999999999999,-0.5235987755982988,0.0,0,2.354826,1.2745017,0.64275306,-0.3732978,-0.69812185,0.9406597,0.52406734,0.7297641,1.157472,0.5668545,-0.10860692,0.0984619,1.0886066,0.9627255
-0.1,-0.2,0.9999999999999999,-0.5235987755982988,0.0,0,2.2280262,1.3305405,0.55299383,-0.30605096,-0.4991018,1.0091678,1.1661713,0.7480511,1.0248232,-0.2743728,-0.19947016,0.69563806,1.0356786,0.99487406
-0.1,-0.2,0.9999999999999999,-0.5235987755982988,0.0,0,2.223537,1.2751416,0.5256566,-0.22882861,-0.54319763,0.9221274,-0.07367826,0.7395244,1.080278,0.006653858,-0.0792943,0.00024309245,1.1544167,0.79987705
-0.1,-0.2,0.9999999999999999,-0.5235987755982988,0.0,0,2.2837687,1.3423938,0.4849857,-0.29459247,-0.38271153,1.0061661,-0.14908165,0.7271819,1.2568967,0.14177436,-0.13806108,0.6447403,0.9167598,0.21989226
-0.1,-0.2,0.9999999999999999,-0.5235987755982988,0.0,0,2.2671356,1.337985,0.5052482,-0.332774,-0.52596974,0.91745335,0.4169585,0.7647595,1.2052386,-0.19553955,-0.115776025,0.04581692,0.8109821,0.59358937
-0.1,-0.2,0.9999999999999999,-0.5235987755982988,0.0,0,2.2290387,1.2957907,0.6176637,-0.30420643,-0.4195539,0.9050453,-1.2137518,0.71878916,1.3395679,-0.12258408,-0.05048883,-0.3439216,1.0690879,0.01111302
-0.1,-0.2,0.9999999999999999,-0.5235987755982988,0.0,0,2.3595827,1.2878685,0.50514215,-0.39137557,-0.43246785,0.9945988,-0.28585988,0.7382175,1.0235488,0.15780795,-0.15518929,0.27144447,0.7612319,0.8572628
-0.1,-0.2,0.9999999999999999,-0.5235987755982988,0.0,0,2.3036485,1.2085711,0.5035551,-0.2978798,-0.4157604,0.95145524,0.26804107,0.7324135,1.131879,0.43435174,0.015135369,0.02912797,1.1781224,-0.8862838
-0.1,-0.2,0.9999999999999999,-0.5235987755982988,0.0,0,2.5147214,1.2700778,0.5732783,-0.26875356,-0.17654191,0.92934215,-0.3783882,0.73338646,1.0844592,-0.38921544,-0.084837906,-0.7749637,0.88831174,0.45558387
-0.1,-0.2,0.9999999999999999,-0.5235987755982988,0.0,0,2.254983,1.2282442,0.6493712,-0.19309506,-0.47820362,0.8954938,0.2155211,0.7255379,0.94727606,0.20645872,-0.26811326,0.39667633,0.9286008,-0.084040575
-0.1,-0.2,0.9999999999999999,-0.5235987755982988,0.0,0,2.357424,1.2188685,0.59439135,-0.19542806,-0.50150305,0.9668127,-0.89888877,0.7391226,1.1838852,-0.41946006,-0.13402568,-0.3934561,1.1516963,1.5103921
-0.1,-0.2,0.9999999999999999,-0.5235987755982988,0.0,0,2.352129,1.2730685,0.5456451,-0.31909892,-0.40216807,1.0345322,-0.0064210254,0.73086333,0.52237767,0.0049867746,-0.09539271,-0.3032832,0.70441866,1.4215072
-0.1,-0.2,0.9999999999999999,-0.5235987755982988,0.0,0,2.300004,1.237161,0.5840259,-0.3361833,-0.42895752,1.0302835,0.7461795,0.7285201,1.3654823,0.48919758,-0.21055894,-0.4287984,1.0883759,1.3473439
-0.1,-0.2,0.9999999999999999,-0.5235987755982988,0.0,0,2.299257,1.2722962,0.62126917,-0.22617076,-0.43894708,0.9411355,-1.0011623,0.75511694,1.0374987,-0.11384044,-0.11623607,-0.1305166,0.9288801,-0.23006193
-0.1,-0.2,0.9999999999999999,-0.5235987755982988,0.0,0,2.3937469,1.2728162,0.58215654,-0.28356025,-0.42263559,1.1295907,1.9100335,0.72785497,1.383822,0.08020727,-0.0909699,0.08254062,0.8343021,1.2527137
-0.1,-0.2,0.9999999999999999,-0.5235987755982988,0.0,0,2.3143985,1.3243632,0.5795374,-0.33536464,-0.5024299,0.9583565,0.7840538,0.7532542,1.1851281,0.7980966,-0.13810636,-0.81144345,0.9422776,-0.26473266
-0.1,-0.2,0.9999999999999999,-0.5235987755982988,0.0,0,2.3419569,1.2153624,0.53272367,-0.2529565,-0.40095752,0.94918984,0.30246034,0.7269888,0.93903226,0.31544387,-0.2313526,0.11464397,0.7833311,-0.166085
-0.1,-0.2,0.9999999999999999,-0.5235987755982988,0.0,0,2.4150052,1.247903,0.6442105,-0.2361073,-0.42469764,1.0041813,1.2451565,0.72965187,1.190603,0.56354207,-0.09020968,0.28272837,1.0141773,0.2123134
-0.1,-0.2,0.9999999999999999,-0.5235987755982988,0.0,0,2.2973177,1.2848275,0.58512557,-0.2932213,-0.32279283,0.970771,0.3827134,0.75476176,0.99723214,0.57509834,-0.20410423,0.17652248,0.7895623,0.9868813
-0.1,-0.2,0.9999999999999999,-0.5235987755982988,0.0,0,2.3399034,1.162987,0.5629522,-0.25596386,-0.2846511,0.9579177,1.3511419,0.7408819,1.0683795,0.6597359,-0.08802782,0.10099666,1.0171384,1.160534
-0.1,-0.2,0.9999999999999999,-0.5235987755982988,0.0,0,2.309555,1.2531012,0.64021945,-0.3086094,-0.28804603,0.98957163,0.811523,0.7589232,1.2145625,0.30075353,-0.12591262,-0.2745017,0.8213375,0.6162391
-0.1,-0.2,0.9999999999999999,-0.5235987755982988,0.0,0,2.3862991,1.2331208,0.51767147,-0.19007711,-0.3653389,0.9980397,0.4816013,0.75227,1.155198,0.15348041,-0.077904254,0.21056221,1.0890994,0.4370467
-0.1,-0.2,0.9999999999999999,-0.5235987755982988,0.0,0,2.4497907,1.1713504,0.59944195,-0.29852334,-0.5231865,0.9816297,1.5544884,0.7388856,0.95824075,0.60498977,-0.04707916,0.3401923,1.0667762,0.53918386
-0.1,-0.2,0.9999999999999999,-0.5235987755982988,0.0,0,2.3614883,1.3441217,0.5650022,-0.20509782,-0.31325877,1.0379031,1.4829426,0.7524278,1.1885823,0.43850052,-0.099273235,-0.2872754,0.863159,0.11971285
-0.1,-0.2,0.9999999999999999,-0.5235987755982988,0.0,0,2.209262,1.1540257,0.63495946,-0.2753929,-0.2663398,0.9491605,1.1184598,0.73933256,1.2867273,0.08561432,-0.081879,0.4125417,0.81851166,0.5871274
-0.1,-0.2,0.9999999999999999,-0.5235987755982988,0.0,0,2.4254496,1.2752773,0.5800724,-0.32848594,-0.4767125,1.0866498,1.8143367,0.7618243,1.2788169,0.5743447,-0.0692369,-0.10892969,0.94684654,1.5598078
-0.1,-0.2,0.9999999999999999,-0.5235987755982988,0.0,0,2.365066,1.3118111,0.5068947,-0.09991928,-0.49503782,1.0573473,2.462038,0.74943036,1.3368075,-0.3261676,-0.12911814,-0.36924115,0.9704247,1.0350108
-0.1,-0.2,0.9999999999999999,-0.5235987755982988,0.0,0,2.4335468,1.2662905,0.6498558,-0.25742927,-0.45428222,0.9789416,0.9710447,0.7446516,1.1480837,1.1709923,-0.053009164,-0.17516607,1.1099066,0.5351203
-0.1,-0.2,0.9999999999999999,-0.5235987755982988,0.0,0,2.315579,1.2365258,0.64666307,-0.23924282,-0.3054498,0.8807897,0.9164624,0.75109446,1.001918,0.036893256,-0.06818382,0.9430291,0.9532102,-0.18073839
-0.1,-0.2,0.9999999999999999,-0.5235987755982988,0.0,0,2.2849002,1.2708555,0.6142315,-0.2949705,-0.28531864,1.0172184,-0.24681364,0.7869052,1.3546907,0.40701735,-0.13781278,-0.27932394,0.83556515,0.063186236
-0.1,-0.2,0.9999999999999999,-0.5235987755982988,0.0,0,2.5187895,1.2506863,0.5292946,-0.2844032,-0.20690979,1.0612285,1.4265149,0.7484345,1.0115566,-0.028877482,-0.12674956,-0.426193,0.7439821,-0.05809154
-0.1,-0.2,0.9999999999999999,-0.5235987755982988,0.0,0,2.2408278,1.3073142,0.62317264,-0.3796886,-0.4453955,0.975269,-0.36441287,0.7414469,1.0129769,0.030822739,-0.17820987,0.040380668,0.80595094,0.929363
-0.1,-0.2,0.9999999999999999,-0.5235987755982988,0.0,0,2.3798225,1.2819802,0.5623335,-0.17117389,-0.5144959,1.092885,2.2054772,0.7640126,0.81700927,0.1338991,-0.16860004,-0.04302582,0.7000047,-0.8807709
-0.1,-0.2,0.9999999999999999,-0.5235987755982988,0.0,0,2.3649285,1.3320167,0.53622764,-0.36152038,-0.48196656,0.9739588,1.8245664,0.7638806,1.2344588,-0.24149922,-0.1733551,-0.67836004,1.0509039,-1.1024576
-0.1,-0.2,0.9999999999999999,-0.5235987755982988,0.0,0,2.2752285,1.3035699,0.5554365,-0.24105065,-0.33180764,0.94580877,0.15876256,0.72617596,1.1976542,0.31112093,-0.04001727,0.38010594,0.7746777,0.2704101
-0.1,-0.2,0.9999999999999999,-0.5235987755982988,0.0,0,2.395719,1.2473153,0.57388407,-0.29644454,-0.4503765,1.0364182,0.08634803,0.7319572,1.0668371,0.7411298,-0.20361833,-0.13460794,1.0363915,-0.14426045
-0.1,-0.2,0.9999999999999999,-0.5235987755982988,0.0,0,2.4222314,1.1709038,0.54216987,-0.22894622,-0.3811319,0.88861483,-0.9273456,0.73345965,1.0912801,0.9292985,-0.1754714,-0.5254015,0.8220556,1.4911164
-0.1,-0.2,0.9999999999999999,-0.5235987755982988,0.0,0,2.5237174,1.2969906,0.5278231,-0.21317357,-0.33320564,1.0127825,0.025547976,0.75757563,1.3509161,0.4357011,-0.14870651,0.16938236,0.6865282,0.79574424
-0.1,-0.2,0.9999999999999999,-0.5235987755982988,0.0,0,2.384337,1.2632607,0.5169307,-0.23441699,-0.4269254,1.0209137,0.19814274,0.7461599,0.944242,0.36212656,-0.14446118,-0.83301127,1.0606018,0.15192756
-0.1,-0.2,0.9999999999999999,-0.5235987755982988,0.0,0,2.3337898,1.3194757,0.54893047,-0.23967724,-0.49849918,1.0633942,-0.3968918,0.72835356,0.8785797,0.5995349,-0.13116376,0.2550419,1.1434667,0.48413023
-0.1,-0.2,0.9999999999999999,-0.5235987755982988,0.0,0,2.2701147,1.2892227,0.5727519,-0.23180138,-0.21908925,0.9682486,-0.053198997,0.70912826,1.0836946,0.8370287,-0.10310141,0.36008972,1.1451043,0.46418676
-0.1,-0.2,0.9999999999999999,-0.5235987755982988,0.0,0,2.325975,1.2484152,0.5726565,-0.22474132,-0.14542727,1.0387,-0.29081225,0.7445542,1.0501002,-0.31396443,-0.21596472,-0.072389044,1.1776294,1.5065557
-0.1,-0.2,0.9999999999999999,-0.5235987755982988,0.0,0,2.330088,1.2638291,0.5662062,-0.3374975,-0.29764017,1.0320219,1.2272314,0.71599495,1.1857953,0.3821089,-0.20826553,0.01603839,0.90260595,0.90900904
-0.1,-0.2,0.9999999999999999,-0.5235987755982988,0.0,0,2.2944083,1.2191443,0.5822303,-0.17716032,-0.30228713,0.9586446,0.24116004,0.76343256,0.9938264,0.046639934,-0.16743247,-0.20143843,1.1257186,0.9321673
-0.1,-0.2,0.9999999999999999,-0.5235987755982988,0.0,0,2.1666446,1.3079443,0.5625769,-0.32615957,-0.43976587,1.0347551,1.3747631,0.740954,1.1088288,0.674413,-0.14958811,0.43547845,0.93299603,1.6191031
-0.1,-0.2,0.9999999999999999,-0.5235987755982988,0.0,0,2.4161062,1.2289655,0.5999399,-0.24422988,-0.5585017,1.0341617,-1.2807757,0.7610916,1.1369588,0.5022001,-0.096841596,-0.1736987,0.7715404,0.1718473
-0.1,-0.2,0.9999999999999999,-0.5235987755982988,0.0,0,2.2898583,1.3460965,0.5196472,-0.33854616,-0.42127407,1.0765208,0.4333872,0.7395639,1.4193907,0.4715692,-0.120827705,0.050671488,0.87979555,0.86266255
-0.1,-0.2,0.9999999999999999,-0.5235987755982988,0.0,0,2.3425448,1.291849,0.60441583,-0.24201682,-0.48205766,0.9924043,-0.8610923,0.7737767,0.6716907,-0.03309904,-0.097458035,-0.08689718,0.77811533,1.1507425
-0.1,-0.2,0.9999999999999999,-0.5235987755982988,0.0,0,2.19612,1.1886882,0.56629735,-0.22423847,-0.44471622,0.95676243,-1.87286,0.7330991,1.265964,-0.045869116,-0.025857797,-0.7350934,0.58201635,-0.0840664
-0.1,-0.2,0.9999999999999999,-0.5235987755982988,0.0,0,2.4067378,1.2209684,0.55217916,-0.4161062,-0.5010356,1.0728819,2.1039221,0.72279584,1.0946698,-0.25661027,-0.13639243,-0.07898791,1.275117,-0.8001384
-0.1,-0.2,0.9999999999999999,-0.5235987755982988,0.0,0,2.3009398,1.3248866,0.5769863,-0.2795679,-0.50978744,0.9225258,-0.8907226,0.77762294,0.90520537,0.20323208,-0.14687403,-0.1305366,0.79990554,0.65371436
-0.1,-0.2,0.9999999999999999,-0.5235987755982988,0.0,0,2.3035817,1.2374176,0.48251495,-0.28394714,-0.4846879,1.0686673,0.5450671,0.72587264,1.1461543,0.379968,-0.072510466,0.055875286,1.2739697,0.6770848
-0.1,-0.2,0.9999999999999999,-0.5235987755982988,0.0,0,2.459303,1.2730204,0.6050438,-0.2536736,-0.2724375,0.97582084,-2.0578678,0.7195866,0.587926,-0.05237044,-0.07537803,0.62298846,0.7697189,-0.052229945
-0.1,-0.2,0.9999999999999999,-0.5235987755982988,0.0,0,2.3792799,1.261264,0.5351689,-0.25457895,-0.47430235,0.94131243,0.22130737,0.7475354,0.9679304,0.24567342,-0.23224887,-0.53661746,0.88235176,-0.17886177
-0.1,-0.2,0.9999999999999999,-0.5235987755982988,0.0,0,2.4349747,1.282116,0.5248483,-0.30321673,-0.27729133,1.0774716,-0.7512995,0.74767494,1.0239075,0.58495843,-0.16118494,-0.8012182,1.0537906,0.18062168
-0.1,-0.2,0.9999999999999999,-0.5235987755982988,0.0,0,2.3822026,1.2881852,0.55186737,-0.3277307,-0.39670566,0.9859584,-0.5043037,0.7324219,0.90922886,0.07810351,-0.20891327,0.5354955,1.0876503,0.36543116
-0.1,-0.2,0.9999999999999999,-0.5235987755982988,0.0,0,2.3913414,1.2249386,0.5489195,-0.23444527,-0.14581236,1.0220461,-0.7098221,0.7476124,1.1780281,0.816568,-0.11473073,-0.9238702,0.90160143,0.034050487
-0.1,-0.2,0.9999999999999999,-0.5235987755982988,0.0,0,2.412238,1.2711928,0.61853355,-0.25715837,-0.49280697,0.94262445,-1.5723424,0.72860485,1.0564617,0.17652021,-0.16099149,0.017394979,1.0235568,0.3132004
-0.1,-0.2,0.9999999999999999,-0.5235987755982988,0.0,0,2.3163989,1.3277985,0.5899204,-0.3275693,-0.36304745,1.0601537,-0.0006497541,0.75685436,1.198833,0.38472492,-0.10540407,-0.16508497,1.0156987,1.0765029
-0.1,-0.2,0.9999999999999999,-0.5235987755982988,0.0,0,2.292997,1.3346376,0.5988323,-0.2948486,-0.36660007,1.0433666,-0.9538472,0.7658973,1.1381893,0.5364037,-0.14948401,-0.18069518,1.1198248,0.0764162
-0.1,-0.2,0.9999999999999999,-0.5235987755982988,0.0,0,2.4819462,1.2328311,0.61691487,-0.27041057,-0.23582062,0.94120157,-0.034212347,0.72705984,1.1231543,0.26076257,-0.11890925,-0.26409706,0.87872857,0.69650286
-0.1,-0.2,0.9999999999999999,-0.5235987755982988,0.0,0,2.3371599,1.3343327,0.48260748,-0.34463677,-0.48955777,0.9530375,0.4906952,0.7347801,0.80409527,0.5834547,-0.10406856,0.41089585,0.82928413,0.7331479
-0.1,-0.2,0.9999999999999999,-0.5235987755982988,0.0,0,2.3162775,1.2888162,0.56933165,-0.24981464,-0.3990103,0.969088,-0.15906505,0.7342923,1.0404282,-0.064507335,-0.12187427,0.11293965,1.178723,0.68208605
-0.1,-0.2,0.9999999999999999,-0.5235987755982988,0.0,0,2.339813,1.1816014,0.5512356,-0.20400336,-0.39381894,0.93209904,-1.388125,0.7648871,1.2158968,-0.021038834,-0.11348431,-0.27862188,1.1950456,0.6747386
-0.1,-0.2,0.9999999999999999,-0.5235987755982988,0.0,0,2.3637326,1.2801077,0.47860435,-0.31631544,-0.36880964,0.9449081,0.0008139659,0.7314826,0.6056479,0.09443195,-0.1380107,-0.35047227,0.8821724,1.0937661
-0.1,-0.2,0.9999999999999999,-0.5235987755982988,0.0,0,2.2181358,1.189642,0.63494694,-0.24023412,-0.39873004,1.0462023,-0.284731,0.7385048,0.7790726,-0.7053037,-0.13043554,-0.32871908,1.0822759,0.7866513
-0.1,-0.2,0.9999999999999999,-0.5235987755982988,0.0,0,2.2804136,1.1636171,0.54953206,-0.28244066,-0.46017623,1.0599155,-0.9549346,0.72221106,1.3799629,-0.5084193,-0.09638625,0.20924228,0.71287155,1.1458787
-0.1,-0.2,0.9999999999999999,-0.5235987755982988,0.0,0,2.3010476,1.2435354,0.48124853,-0.3347922,-0.46199697,1.0159347,-2.1025147,0.72629124,0.7144571,0.076433524,-0.14322628,0.5420425,1.1290239,1.5354395
-0.1,-0.2,0.9999999999999999,-0.5235987755982988,0.0,0,2.3398726,1.1990125,0.5212269,-0.36984974,-0.4142712,0.9999587,-0.110940255,0.7342409,1.2424499,0.43551216,-0.122188784,0.52510285,0.68123746,2.3103743
-0.1,-0.2,0.9999999999999999,-0.5235987755982988,0.0,0,2.2782931,1.1795518,0.51468843,-0.29191867,-0.36215168,1.0184501,-0.7858505,0.7540271,1.2032086,0.54075134,-0.16519412,-0.57144254,0.97629976,0.029969374
-0.1,-0.2,0.9999999999999999,-0.5235987755982988,0.0,0,2.2953572,1.2117499,0.5121688,-0.28562146,-0.34234512,0.9624663,0.5537884,0.772766,1.0811719,0.3598628,-0.13844089,0.012694709,0.80950415,-0.44041836
-0.1,-0.2,0.9999999999999999,-0.5235987755982988,0.0,0,2.4035141,1.280069,0.5156077,-0.20689504,-0.5546817,0.909103,1.2015325,0.76160747,0.89777696,0.36121616,-0.15567943,-0.55460507,0.735704,-0.6195877
-0.1,-0.2,0.9999999999999999,-0.5235987755982988,0.0,0,2.2711554,1.313265,0.5023298,-0.29458368,-0.35134333,1.1542494,0.911746,0.7540365,1.6168047,0.9809241,-0.1044695,-0.1359064,0.9206812,0.603252
-0.1,-0.2,0.9999999999999999,-0.5235987755982988,0.0,0,2.3931587,1.2643098,0.47256398,-0.2041663,-0.49862465,1.0728846,1.1791801,0.7528238,0.7070808,-0.13744983,-0.102426015,0.2758615,0.8957883,0.75105786
-0.1,-0.2,0.9999999999999999,-0.5235987755982988,0.0,0,2.2826676,1.2431676,0.53407896,-0.15826586,-0.18389745,1.1022426,0.41949257,0.7556945,1.1973015,0.2779744,-0.081478536,-0.47181812,0.96051073,0.5223224
-0.1,-0.2,0.9999999999999999,-0.5235987755982988,0.0,0,2.440643,1.2217201,0.54610115,-0.21660082,-0.21885258,0.95549726,1.336623,0.77847195,0.64857614,0.37932557,-0.19022298,-0.29034376,0.73166174,0.09607447
-0.1,-0.2,0.9999999999999999,-0.5235987755982988,0.0,0,2.4835284,1.3065294,0.5417129,-0.3207362,-0.28271878,0.9771681,1.4144242,0.7257584,1.519074,0.06807382,-0.099009335,0.12037628,0.71947926,0.8657068
-0.1,-0.2,0.9999999999999999,-0.5235987755982988,0.0,0,2.44888,1.1964849,0.56775725,-0.25660995,-0.47907493,1.0339603,-2.4639213,0.70364344,0.5791901,0.40220618,-0.14133684,-0.3119204,0.98607826,0.14597386
-0.1,-0.2,0.9999999999999999,-0.5235987755982988,0.0,0,2.4282198,1.1733414,0.55181503,-0.20762317,-0.30572328,0.9231001,0.40727696,0.7353815,0.6994499,0.8921719,-0.17293218,0.0010795639,1.1492342,0.9749113
-0.1,-0.2,0.9999999999999999,-0.5235987755982988,0.0,0,2.3231697,1.2878023,0.6234817,-0.23272105,-0.56548953,1.0415307,1.3986305,0.7469333,1.0270965,0.023163404,-0.24300389,-0.5263193,1.1687027,0.39876923
-0.1,-0.2,0.9999999999999999,-0.5235987755982988,0.0,0,2.3134222,1.1854627,0.5579863,-0.28972763,-0.4476668,1.0213649,0.38601226,0.7293241,1.1144162,-0.3115603,-0.118027225,0.065797545,0.8086572,-0.09591069
-0.1,-0.2,0.9999999999999999,-0.5235987755982988,0.0,0,2.3767521,1.2469457,0.542063,-0.21167898,-0.6384324,0.9302857,1.6565806,0.76031554,0.9335168,0.4416386,-0.116875455,-0.16463317,1.0947722,-0.2578632
-0.1,-0.2,0.9999999999999999,-0.5235987755982988,0.0,0,2.2852423,1.3082736,0.6217022,-0.32689556,-0.3216985,1.0637554,0.65512425,0.726436,0.9399606,-0.34263587,-0.018177839,-0.33260694,1.0336769,-0.2416399
-0.1,-0.2,0.9999999999999999,-0.5235987755982988,0.0,0,2.3761683,1.2873291,0.6629845,-0.28479508,-0.5486982,0.9762302,2.0459023,0.77212614,1.0860387,0.3637419,-0.11948799,-0.13871503,0.9618582,-0.17210805
-0.1,-0.2,0.9999999999999999,-0.5235987755982988,0.0,0,2.3438704,1.2221011,0.60039353,-0.27289227,-0.30437163,0.94681567,-0.076731496,0.7480519,0.89825124,0.29230547,-0.11336625,-0.5828336,0.94214576,-0.23753639
-0.1,-0.2,0.9999999999999999,-0.5235987755982988,0.0,0,2.2532241,1.2585505,0.63467336,-0.29057905,-0.5403383,1.0024302,1.3971795,0.75614244,1.1808703,-0.38899916,-0.13287358,-0.7025205,0.62720203,-0.49624193
-0.1,-0.2,0.9999999999999999,-0.5235987755982988,0.0,0,2.3440087,1.276359,0.45224267,-0.29498857,-0.33629343,0.89959925,0.72496367,0.7488284,1.0583005,-0.7050181,-0.083343096,-0.15906766,1.1491629,1.267205
-0.1,-0.2,0.9999999999999999,-0.5235987755982988,0.0,0,2.2596693,1.2795749,0.59142935,-0.14292295,-0.3028672,1.0954176,0.26247102,0.7346466,1.1132449,0.5897581,0.061504614,-0.4094683,0.76966095,-0.77812546
-0.1,-0.2,0.9999999999999999,-0.5235987755982988,0.0,0,2.518833,1.2490644,0.49165612,-0.29832125,-0.4074987,1.0599213,0.24698503,0.759677,0.75914377,0.08131363,-0.06243772,0.17409444,1.0322436,-0.9391103
-0.1,-0.2,0.9999999999999999,-0.5235987755982988,0.0,0,2.2850828,1.311935,0.550899,-0.25762773,-0.11683521,0.9832301,0.43699327,0.7382271,0.84601706,0.30912188,-0.18228035,-0.36270043,0.75612676,0.7566662
-0.1,-0.2,0.9999999999999999,-0.5235987755982988,0.0,0,2.2658544,1.3312551,0.5812681,-0.33281556,-0.4343254,0.96531177,0.64107764,0.7538739,0.71313685,0.33954003,-0.09961636,-0.42819333,1.1615213,0.87372774
-0.1,-0.2,0.9999999999999999,-0.5235987755982988,0.0,0,2.3524458,1.2604878,0.5518251,-0.23886743,-0.35566372,1.0705552,0.21041511,0.7653832,1.0704106,-0.14648479,-0.18700913,0.11706193,1.130539,0.6058511
-0.1,-0.2,0.9999999999999999,-0.5235987755982988,0.0,0,2.3163223,1.23288,0.5798981,-0.23711556,-0.39998776,1.0286808,1.3395511,0.73171985,0.88931257,0.4429596,-0.034535818,-0.24619752,0.8433162,-0.27947795
-0.1,-0.2,0.9999999999999999,-0.5235987755982988,0.0,0,2.29717,1.2770029,0.57841545,-0.16776781,-0.3248371,1.028401,-0.1045379,0.73473126,0.79642045,0.74212366,-0.28887075,-0.4270585,0.90697044,0.5510828
-0.1,-0.2,0.9999999999999999,-0.5235987755982988,0.0,0,2.437457,1.274763,0.53233624,-0.33567968,-0.38868326,1.0576174,2.1316507,0.7399435,0.592814,-0.06155279,-0.15062016,-0.10562756,0.82729965,0.38893008
-0.1,-0.2,0.9999999999999999,-0.5235987755982988,0.0,0,2.4459236,1.2181956,0.5028702,-0.28143862,-0.4185721,0.9791662,0.97500175,0.7130708,0.8169071,0.2565502,-0.10311274,0.023306007,1.1924068,1.089768
-0.1,-0.2,0.9999999999999999,-0.5235987755982988,0.0,0,2.410094,1.2809427,0.5297895,-0.2784586,-0.43533984,0.98291945,1.2840687,0.7335502,1.1227108,-0.28740165,-0.15229754,-0.1446671,0.83261156,1.3869389
-0.1,-0.2,0.9999999999999999,-0.5235987755982988,0.0,0,2.3001351,1.314597,0.60169864,-0.25995398,-0.37791356,0.96153975,0.6620071,0.7358996,0.9402552,-0.35143903,-0.092301056,-0.152822,0.91756564,-0.31758076
-0.1,-0.2,0.9999999999999999,-0.5235987755982988,0.0,0,2.3136435,1.2800337,0.6239672,-0.23824985,-0.33208945,1.0737213,-0.30002,0.75562567,1.1979091,0.32122123,-0.12704098,-0.19200562,0.8518047,-0.008142577
-0.1,-0.2,0.9999999999999999,-0.5235987755982988,0.0,0,2.4243796,1.2333132,0.6131983,-0.2224618,-0.2628663,0.9102515,0.6683941,0.7253354,1.354788,-0.09287466,-0.1693543,-0.0824098,1.2247896,-0.31405458
-0.1,-0.2,0.9999999999999999,-0.5235987755982988,0.0,0,2.4989974,1.2177634,0.55080104,-0.19355893,-0.42220753,0.96533585,-0.049365338,0.74519014,1.0795748,-0.035573594,-0.13601169,-0.01629974,1.0315638,-0.41309536
-0.1,-0.2,0.9999999999999999,-0.5235987755982988,0.0,0,2.391869,1.4007031,0.5388111,-0.2931336,-0.3637562,1.0211117,1.3903964,0.72665244,1.5564018,-0.3079269,-0.1487018,-0.33342487,0.81889606,0.91093785
-0.1,-0.2,0.9999999999999999,-0.5235987755982988,0.0,0,2.3620355,1.2985708,0.49990177,-0.27061638,-0.2612487,1.061309,0.16585869,0.7640061,0.85333025,0.065612,-0.14075732,-0.5006007,0.9597818,0.23762852
-0.1,-0.2,0.9999999999999999,-0.5235987755982988,0.0,0,2.3509533,1.281413,0.49641094,-0.24007191,-0.42506453,1.0139545,0.5019917,0.7547647,1.4659902,0.3639935,-0.2238399,-0.3892898,1.0076107,0.14963292
-0.1,-0.2,0.9999999999999999,-0.5235987755982988,0.0,0,2.404204,1.2243427,0.56977206,-0.25923827,-0.16373576,0.93417984,-0.15447894,0.7364288,0.94932556,-0.11763331,-0.20650601,-0.44503415,0.93070287,-0.08596152
-0.1,-0.2,0.9999999999999999,-0.5235987755982988,0.0,0,2.3979013,1.2419119,0.6339372,-0.276907,-0.40451482,0.93275255,1.1816918,0.7518771,0.8578313,0.3735448,-0.18138947,-0.5182984,0.46709052,0.37263364
-0.1,-0.2,0.9999999999999999,-0.5235987755982988,0.0,0,2.347865,1.2586915,0.5105259,-0.24323262,-0.5525328,0.9943807,0.53611094,0.74704725,1.1579314,0.68246794,-0.1086089,-0.6864789,1.1135036,-0.098616995
-0.1,-0.2,0.9999999999999999,-0.5235987755982988,0.0,0,2.3628738,1.2355639,0.5788061,-0.3035674,-0.44712886,0.9595334,0.7407169,0.74290913,1.1649512,0.017012365,-0.17575283,0.21083438,0.9691332,1.2976669
-0.1,-0.2,0.9999999999999999,-0.5235987755982988,0.0,0,2.289453,1.3006397,0.7055012,-0.30568957,-0.4251947,1.0326164,-0.15200153,0.72222805,0.8183378,-0.028433437,-0.18221934,-0.6186604,0.59458345,0.24158621
-0.1,-0.2,0.9999999999999999,-0.5235987755982988,0.0,0,2.2480512,1.2530086,0.55950373,-0.29911017,-0.40744916,0.96663475,1.6574728,0.7654415,1.0074209,0.103860825,-0.10015105,-0.08518979,0.7627758,-1.6807961
-0.1,-0.2,0.9999999999999999,-0.5235987755982988,0.0,0,2.246217,1.2708554,0.60805196,-0.22371274,-0.5897563,0.9976328,1.1815614,0.7246048,0.8993007,0.29895315,-0.13807331,-0.30030274,0.8223978,0.7881176
-0.1,-0.2,0.9999999999999999,-0.5235987755982988,0.0,0,2.2805922,1.2915332,0.561091,-0.23980123,-0.48274845,0.9870839,0.39293677,0.7559363,1.2278316,0.019972485,-0.13177183,-0.073649324,0.93994373,0.8971844
-0.1,-0.2,0.9999999999999999,-0.5235987755982988,0.0,0,2.2880127,1.3566269,0.5236448,-0.28000098,-0.3676522,1.0075945,0.9487972,0.7219419,0.98357534,0.19019638,-0.13647653,0.34086207,1.2119883,1.9117821
-0.1,-0.2,0.9999999999999999,-0.5235987755982988,0.0,0,2.2798543,1.1987832,0.516228,-0.21341811,-0.36496493,1.0277736,0.41543508,0.7596416,1.1626084,-0.29340768,-0.14130749,-0.0015790354,1.0361067,0.931954
-0.1,-0.2,0.9999999999999999,-0.5235987755982988,0.0,0,2.3470283,1.2880081,0.54165137,-0.32836378,-0.49015865,0.94215065,0.07481356,0.7489722,1.1843383,0.53009564,-0.17385626,-0.69122654,0.90795124,1.0979651
-0.1,-0.2,0.9999999999999999,-0.5235987755982988,0.0,0,2.2924113,1.266912,0.55552095,-0.38205835,-0.28377062,1.0832516,1.3055301,0.7709697,1.2893803,0.53907037,-0.15079477,-0.08098528,1.2193081,0.10866132
-0.1,-0.2,0.9999999999999999,-0.5235987755982988,0.0,0,2.3981144,1.2713413,0.5813047,-0.38108408,-0.61570764,0.95820516,1.1610539,0.73243755,1.2322221,0.021335347,-0.09551826,-0.063256495,1.064481,-0.030902704
-0.1,-0.2,0.9999999999999999,-0.5235987755982988,0.0,0,2.2950606,1.2594786,0.52111006,-0.30892664,-0.26600403,0.9573057,1.136312,0.7716606,1.5147098,0.33101654,-0.037234407,-0.069449574,1.2162315,0.4751043
-0.1,-0.2,0.9999999999999999,-0.5235987755982988,0.0,0,2.2829309,1.3003281,0.5398376,-0.3467306,-0.38860455,0.98663116,1.7667632,0.7544056,1.0193204,0.020612583,-0.1528356,0.34477702,1.1768903,0.1978608
-0.1,-0.2,0.9999999999999999,-0.5235987755982988,0.0,0,2.4291747,1.2012597,0.55528796,-0.3669645,-0.5720137,0.9632276,-0.5514923,0.71316093,1.2438967,0.23462053,-0.14999361,-0.64647174,1.0731363,1.0732275
-0.1,-0.2,0.9999999999999999,-0.5235987755982988,0.0,0,2.2868412,1.2764412,0.5159365,-0.28880867,-0.29718196,1.0513474,2.552865,0.75317335,0.86610144,0.7514824,-0.07266324,-0.21169853,0.8082539,0.07527615
-0.1,-0.2,0.9999999999999999,-0.5235987755982988,0.0,0,2.533153,1.2419493,0.5120128,-0.20404486,-0.49769637,0.9510982,1.8085753,0.7334201,1.1845019,-0.65042263,0.012656045,0.6864569,1.0615146,0.46530598
-0.1,-0.2,0.9999999999999999,-0.5235987755982988,0.0,0,2.3378184,1.273717,0.62653834,-0.31081623,-0.42391774,1.0483093,1.0768021,0.7203656,0.98263043,0.26058194,-0.17328896,0.16143495,0.7547829,0.9916852
-0.1,-0.2,0.9999999999999999,-0.5235987755982988,0.0,0,2.2326438,1.2500337,0.59003764,-0.28920445,-0.23959033,1.0238577,0.37285528,0.7294174,1.0028546,0.35752422,-0.19777274,0.37514365,0.5898814,0.8299478
-0.1,-0.2,0.9999999999999999,-0.5235987755982988,0.0,0,2.3339682,1.264871,0.614735,-0.27917516,-0.42523405,0.96628857,-0.7888862,0.75469023,1.1890955,-0.007958046,-0.14949435,0.000307865,1.0519127,0.029147478
-0.1,-0.2,0.9999999999999999,-0.5235987755982988,0.0,0,2.2799275,1.2543335,0.5888861,-0.2200045,-0.35266376,1.1402872,-0.10134221,0.7363546,1.4351369,-0.16795745,-0.17323318,-0.5361664,1.0684209,1.4932814
-0.1,-0.2,0.9999999999999999,-0.5235987755982988,0.0,0,2.3056517,1.293076,0.5934502,-0.2276911,-0.27110615,1.0218664,1.0851998,0.7192143,0.8194254,0.3829836,-0.044219945,0.022654198,0.8259958,0.75570214
-0.1,-0.2,0.9999999999999999,-0.5235987755982988,0.0,0,2.4613378,1.2222154,0.62523556,-0.1905094,-0.3915646,1.017879,1.1666782,0.761984,0.8897191,0.5189619,-0.0960488,-0.4508365,0.98824924,0.42579693
-0.1,-0.2,0.9999999999999999,-0.5235987755982988,0.0,0,2.339477,1.2379811,0.6153188,-0.2551123,-0.57965255,0.99448675,1.7124927,0.7439852,0.7438222,1.0600772,-0.22328648,0.30287614,0.92907006,0.076922365
-0.1,-0.2,0.9999999999999999,-0.5235987755982988,0.0,0,2.3421755,1.2001053,0.5910315,-0.26092866,-0.5205875,1.0141165,1.3726425,0.7420712,0.9611624,0.6461491,-0.1849174,-0.043267116,1.1643647,0.993996
-0.1,-0.2,0.9999999999999999,-0.5235987755982988,0.0,0,2.4472563,1.2187229,0.60460943,-0.2212284,-0.2830695,1.0107045,1.5372535,0.7317849,1.0796547,0.568371,-0.115835875,-0.6857454,0.84340525,-0.13992248
-0.1,-0.2,0.9999999999999999,-0.5235987755982988,0.0,0,2.4212668,1.2955092,0.6207014,-0.30600205,-0.25904402,1.1720637,0.2673793,0.7584305,1.2312348,0.19619098,-0.06797161,0.12945898,0.94746876,-0.0909495
-0.1,-0.2,0.9999999999999999,-0.5235987755982988,0.0,0,2.333416,1.2237684,0.58629334,-0.28597558,-0.3989922,1.0457581,1.1077274,0.7207473,0.98009735,0.3540892,-0.10088959,0.060822587,0.82218915,-0.54387003
-0.1,-0.2,0.9999999999999999,-0.5235987755982988,0.0,0,2.3581893,1.3220048,0.6092793,-0.27955776,-0.27928808,1.0215868,0.32310265,0.76368356,1.3459485,-0.40145937,-0.050964236,0.0219445,0.8665085,0.83769494
-0.1,-0.2,0.9999999999999999,-0.5235987755982988,0.0,0,2.414787,1.2566406,0.5519051,-0.16779561,-0.39099556,0.97190034,-0.2832855,0.73956126,1.140195,0.39847624,-0.11145218,-0.2072917,0.86054665,0.5353741
-0.1,-0.2,0.9999999999999999,-0.5235987755982988,0.0,0,2.4299326,1.2445836,0.53022045,-0.2741258,-0.18289068,1.0051521,1.9641538,0.7569768,1.0586783,0.35235763,-0.1031383,0.32610247,0.96031946,-1.2496543
-0.1,-0.2,0.9999999999999999,-0.5235987755982988,0.0,0,2.4132047,1.2493474,0.5115224,-0.27383637,-0.36722702,1.0541605,0.4388983,0.7629424,1.1908687,0.15768103,-0.0055798073,-0.1840053,0.9429122,1.6098615
-0.1,-0.2,0.9999999999999999,-0.5235987755982988,0.0,0,2.3429992,1.2820017,0.58941597,-0.27645373,-0.5125678,1.026939,-0.5220216,0.74737,0.811601,0.33644313,-0.15092139,-0.15006009,1.0019658,0.10393434
-0.1,-0.2,0.9999999999999999,-0.5235987755982988,0.0,0,2.3334603,1.3128383,0.5251702,-0.22983764,-0.5518629,0.930952,-1.1413078,0.74487454,1.0944755,0.4199995,-0.10138238,0.15896158,0.9963045,1.0891733
-0.1,-0.2,0.9999999999999999,-0.5235987755982988,0.0,0,2.4243705,1.233045,0.6035011,-0.21917002,-0.3566403,0.9885465,0.77834356,0.7340572,1.183019,0.36680913,-0.1606413,-0.77102447,0.69266564,0.07191356
-0.1,-0.2,0.9999999999999999,-0.5235987755982988,0.0,0,2.3799288,1.3570123,0.5318341,-0.3485351,-0.4364866,1.042693,-0.82677954,0.7452326,0.9841057,0.3709043,-0.15982577,-0.6292849,0.68711877,0.10878857
-0.1,-0.2,0.9999999999999999,-0.5235987755982988,0.0,0,2.4471147,1.2795303,0.63785106,-0.2207611,-0.28302962,0.98165154,-0.22355972,0.7577052,1.209989,0.5248297,-0.2350037,0.021732023,1.2605964,0.37639508
-0.1,-0.2,0.9999999999999999,-0.5235987755982988,0.0,0,2.400481,1.2673154,0.57812715,-0.29932854,-0.35290188,1.0220124,0.31076452,0.739839,0.94467074,0.10830789,-0.051742196,-0.2972749,1.2429405,0.15406606
-0.1,-0.2,0.9999999999999999,-0.5235987755982988,0.0,0,2.3248377,1.3491116,0.57627004,-0.2597644,-0.6062087,0.966073,0.24013573,0.7355086,1.2705445,0.25138795,-0.2548893,0.022073083,0.9772992,0.07538465
-0.1,-0.2,0.9999999999999999,-0.5235987755982988,0.0,0,2.3044755,1.3013345,0.53927386,-0.2183469,-0.45061377,0.96062636,-0.15409562,0.760519,1.2647063,0.4171581,-0.0686542,-0.5213748,0.9719457,0.24858315
-0.1,-0.2,0.9999999999999999,-0.5235987755982988,0.0,0,2.3776917,1.3018363,0.6465535,-0.33271337,-0.40693516,0.99131864,-0.048529524,0.7221597,0.43976983,0.23552848,-0.0923676,-0.04099907,1.0104431,1.7491986
-0.1,-0.2,0.9999999999999999,-0.5235987755982988,0.0,0,2.3715003,1.3328398,0.5319143,-0.24946919,-0.3392653,1.1732537,0.9515399,0.740795,0.75313663,-0.2272507,-0.2184082,0.0943514,1.3050739,0.103011884
-0.1,-0.2,0.9999999999999999,-0.5235987755982988,0.0,0,2.3338854,1.2269026,0.67774934,-0.23740633,-0.37024727,0.95125276,0.03108328,0.7285409,0.6042848,0.6124552,-0.20017953,-0.0829274,1.064352,1.5289912
-0.1,-0.2,0.9999999999999999,-0.5235987755982988,0.0,0,2.28022,1.188406,0.53709936,-0.037864096,-0.42600447,1.036873,-0.23049954,0.71915716,1.1568396,-0.36144224,-0.094686404,-0.013787135,0.7320024,1.660851
-0.1,-0.2,0.9999999999999999,-0.5235987755982988,0.0,0,2.450311,1.2270867,0.59724635,-0.30092636,-0.46155933,1.0172307,0.70307183,0.72511274,1.3029693,0.16448821,-0.15399654,-0.54094183,1.0029618,0.49155378
-0.1,-0.2,0.9999999999999999,-0.5235987755982988,0.0,0,2.539818,1.33179,0.5133572,-0.28089532,-0.36861187,0.87858397,0.52108896,0.74299455,1.4581653,-0.45131686,-0.07982424,-0.54754674,1.2037591,1.298309
-0.1,-0.2,0.9999999999999999,-0.5235987755982988,0.0,0,2.4338224,1.2144854,0.5617801,-0.22451381,-0.31233147,0.9909253,1.0578121,0.75113535,1.165099,0.37287453,-0.14842652,0.27325785,0.85807174,0.2851096
-0.1,-0.2,0.9999999999999999,-0.5235987755982988,0.0,0,2.3155224,1.3148228,0.6202166,-0.25413096,-0.5403018,1.0231134,2.300815,0.7343029,1.1570195,0.27446058,-0.11150134,0.16513379,1.0337331,1.0671439
-0.1,-0.2,0.9999999999999999,-0.5235987755982988,0.0,0,2.3483384,1.2247897,0.5848951,-0.11733901,-0.54586804,1.0103455,0.8878095,0.74837726,1.4315143,-0.092203476,-0.14488372,-0.00637652,0.9411036,0.3838142
-0.1,-0.2,0.9999999999999999,-0.5235987755982988,0.0,0,2.3140287,1.2227029,0.5830648,-0.24834558,-0.301767,0.9949836,2.1236455,0.7496206,0.78654593,0.22440438,-0.17772599,0.6123426,0.8714361,0.85522246
-0.1,-0.2,0.9999999999999999,-0.5235987755982988,0.0,0,2.486277,1.2158302,0.492124,-0.25738442,-0.47600806,0.9193919,0.7613396,0.7414394,1.0819308,0.32010245,-0.043378804,0.41197935,0.91963106,0.68221366
-0.1,-0.2,0.9999999999999999,-0.5235987755982988,0.0,0,2.356038,1.284805,0.6763354,-0.25818613,-0.3639271,0.98001266,0.07588234,0.7532244,1.3671296,0.11847557,-0.11002628,-0.3230194,1.0630388,0.33388126
-0.1,-0.2,0.9999999999999999,-0.5235987755982988,0.0,0,2.3888397,1.2516431,0.53010297,-0.13374588,-0.4145397,0.9655244,0.2410409,0.72131884,1.3127923,-0.10017806,-0.23493268,-0.3346863,1.1342565,0.102887765
-0.1,-0.2,0.9999999999999999,-0.5235987755982988,0.0,0,2.3938172,1.2443657,0.5790243,-0.25860882,-0.49205077,0.9800817,2.0403771,0.70349276,1.2508126,-0.2649577,-0.13258187,0.15738212,0.7720681,-0.44719255
-0.1,-0.2,0.9999999999999999,-0.5235987755982988,0.0,0,2.3826368,1.2782512,0.59322846,-0.19846514,-0.37934226,0.99621904,1.492287,0.7612664,0.8435053,0.5464827,-0.15187924,-0.056152374,0.9534416,0.3272107
-0.1,-0.2,0.9999999999999999,-0.5235987755982988,0.0,0,2.4320726,1.3120905,0.5019002,-0.28969553,-0.33207583,1.0528054,0.3527372,0.75906986,1.1607147,-0.1404324,-0.17999855,-0.20723042,1.0834172,1.310583
-0.1,-0.2,0.9999999999999999,-0.5235987755982988,0.0,0,2.4245715,1.273513,0.58278793,-0.2512515,-0.54198116,0.98813814,1.7918143,0.7503497,1.0202172,0.41160586,-0.19512641,0.25584447,0.9418181,0.01785256
-0.1,-0.2,0.9999999999999999,-0.5235987755982988,0.0,0,2.3973942,1.2418637,0.62162924,-0.20629527,-0.24942105,0.98657817,1.0696589,0.7404889,1.2724707,0.29006356,-0.16038656,-0.25112182,0.7663888,1.0126799
-0.1,-0.2,0.9999999999999999,-0.5235987755982988,0.0,0,2.4289064,1.3078306,0.5232234,-0.2622634,-0.27332327,0.99169767,-1.2274243,0.73765874,0.9791795,0.20271309,-0.16485038,0.13100491,1.0016904,0.7756817
-0.1,-0.2,0.9999999999999999,-0.5235987755982988,0.0,0,2.4657328,1.2833261,0.62575686,-0.3126403,-0.32742527,0.99115354,0.65151834,0.76248217,1.4033563,0.6647685,-0.19543894,-0.029482365,1.1911085,-0.81346184
-0.1,-0.2,0.9999999999999999,-0.5235987755982988,0.0,0,2.2900395,1.3587536,0.53948313,-0.29621968,-0.36623776,0.91411895,0.19335037,0.7349409,1.2537156,0.35803065,-0.21259965,-0.9522979,0.99955624,-1.0537561
-0.1,-0.2,0.9999999999999999,-0.5235987755982988,0.0,0,2.3388143,1.3255305,0.5622009,-0.22506164,-0.23689671,0.9906555,0.86630905,0.7411062,1.2422701,-0.7118276,-0.103059895,-0.04631678,0.9243536,-0.7185533
-0.1,-0.2,0.9999999999999999,-0.5235987755982988,0.0,0,2.368119,1.2787493,0.65424216,-0.28230453,-0.5000378,1.0163871,1.2661318,0.7475159,1.0288957,-0.07717798,-0.11753301,0.41968817,0.9437339,0.81059676
-0.1,-0.2,0.9999999999999999,-0.5235987755982988,0.0,0,2.340222,1.3492285,0.58257395,-0.25082707,-0.4712033,0.95361936,0.11235115,0.7171171,1.1325653,-0.21066752,-0.18800965,0.18815182,0.8832607,0.39643845
-0.1,-0.2,0.9999999999999999,-0.5235987755982988,0.0,0,2.027275,1.0155753,0.580413,-0.16295558,-0.49584436,1.0459597,-0.11112092,0.72506744,1.2254977,-0.07265414,-0.21198592,-0.7096822,0.96915716,0.7551943
-0.1,-0.2,0.9999999999999999,-0.5235987755982988,0.0,0,2.3798592,1.3254681,0.62570286,-0.24833131,-0.572555,0.91630787,0.4855612,0.75653636,0.62812436,0.3515095,-0.08430236,0.17685199,0.88941354,-0.8629494
-0.1,-0.2,0.9999999999999999,-0.5235987755982988,0.0,0,2.4224734,1.2656441,0.5707715,-0.2314332,-0.45621493,0.9725653,0.12616941,0.7407002,0.8845698,0.009097107,-0.24055377,0.29758272,1.1401919,-0.094570994
-0.1,-0.2,0.9999999999999999,-0.5235987755982988,0.0,0,2.3505924,1.3647646,0.6514025,-0.29824966,-0.40424332,0.8969012,1.2631516,0.7327705,0.8093069,1.1146861,-0.19329573,-0.21326394,1.2139057,-0.17613313
-0.1,-0.2,0.9999999999999999,-0.5235987755982988,0.0,0,2.3128147,1.2818531,0.5836582,-0.12714064,-0.55122006,1.0191673,0.44572407,0.7552162,1.2265242,0.18242273,-0.08916747,-1.0304863,1.1368102,0.3639056
-0.1,-0.2,0.9999999999999999,-0.5235987755982988,0.0,0,2.3614843,1.3235521,0.5530984,-0.27352864,-0.5016961,1.0120838,0.80881345,0.70898867,0.9876365,0.07388572,-0.21030882,0.13109201,1.0035111,0.9928702
-0.1,-0.2,0.9999999999999999,-0.5235987755982988,0.0,0,2.429681,1.2493911,0.6404176,-0.3285688,-0.24009602,1.0605686,0.19482163,0.7279885,1.2813213,-0.4131054,-0.16334395,-0.63409066,0.6587108,-0.42170846
-0.1,-0.2,0.9999999999999999,-0.5235987755982988,0.0,0,2.2996528,1.3166729,0.5918572,-0.1962211,-0.35150766,1.0316888,-0.18506654,0.7544042,0.9626686,-0.2741744,-0.10304851,-0.07660053,1.0575664,0.2472859
-0.1,-0.2,0.9999999999999999,-0.5235987755982988,0.0,0,2.428438,1.1337088,0.48954132,-0.3085424,-0.15495987,0.85930717,-0.4434039,0.7369144,1.1975315,0.09970784,-0.12885366,0.4654973,1.2218621,0.08672886
-0.1,-0.2,0.9999999999999999,-0.5235987755982988,0.0,0,2.4576302,1.2622217,0.5107136,-0.29008892,-0.20309763,1.1207662,2.291181,0.7427998,0.86190385,-0.87639326,-0.18319046,0.30195284,0.82470274,0.6349815
-0.1,-0.2,0.9999999999999999,-0.5235987755982988,0.0,0,2.4450781,1.3011868,0.54445744,-0.36649662,-0.43782738,1.0689336,0.55668944,0.7446026,1.236879,0.5066565,-0.24339476,0.12988213,1.1160005,0.33182016
-0.1,-0.2,0.9999999999999999,-0.5235987755982988,0.0,0,2.378511,1.2548654,0.6269013,-0.2655797,-0.2408856,0.983776,0.38895988,0.7653563,1.1669283,-0.07588724,-0.22480176,-0.4697892,1.2584026,0.49783754
-0.1,-0.2,0.9999999999999999,-0.5235987755982988,0.0,0,2.364455,1.2894747,0.5972155,-0.26498118,-0.29808852,0.9654982,1.6436816,0.769479,0.80661136,0.6574733,-0.16664787,-0.16706681,0.9222327,0.69771284
-0.1,-0.2,0.9999999999999999,-0.5235987755982988,0.0,0,2.2952533,1.280357,0.5438846,-0.118534274,-0.38132238,0.95967174,0.18185711,0.75178707,1.2766879,0.27788258,-0.25053245,-0.43844488,0.7632613,-0.5427039
-0.1,-0.2,0.9999999999999999,-0.5235987755982988,0.0,0,2.3878238,1.2280916,0.56945384,-0.37065932,-0.38301155,0.9506467,1.3291765,0.7434933,0.77641785,0.6102095,-0.088653184,0.094073534,0.8910079,1.5661341
-0.1,-0.2,0.9999999999999999,-0.5235987755982988,0.0,0,2.3146873,1.2621635,0.6019139,-0.2927576,-0.3354461,0.99029005,1.5736154,0.7046313,1.3264493,0.30172434,-0.15150705,0.13610375,0.98871744,0.5420189
-0.1,-0.2,0.9999999999999999,-0.5235987755982988,0.0,0,2.4849942,1.2609997,0.5818786,-0.24892578,-0.46069974,1.0354944,-0.54342914,0.7357678,1.1959885,0.42396754,-0.11998264,-0.07903228,0.9529946,0.6261497
-0.1,-0.2,0.9999999999999999,-0.5235987755982988,0.0,0,2.3423948,1.3465617,0.6239806,-0.26913777,-0.1773446,1.0640134,-0.536275,0.7267854,1.4926615,-0.12662587,-0.22259448,0.29557696,0.89628446,0.7799528
-0.1,-0.2,0.9999999999999999,-0.5235987755982988,0.0,0,2.515768,1.2995919,0.5342811,-0.24497467,-0.5207087,1.1204889,0.70638025,0.74203867,0.64548105,0.6420894,-0.1702455,0.33214036,1.1615567,0.71536076
-0.1,-0.2,0.9999999999999999,-0.5235987755982988,0.0,0,2.3839602,1.3476096,0.6273926,-0.28695595,-0.5550938,1.0132152,0.12921044,0.72899914,0.86287206,0.15978746,-0.22695807,0.43292502,0.9902285,1.4271301
-0.1,-0.2,0.9999999999999999,-0.5235987755982988,0.0,0,2.3760502,1.2579978,0.54749763,-0.19184445,-0.35995948,0.9407142,-0.22865024,0.7687634,0.896545,0.046355724,-0.107098386,-0.13041715,0.87602293,0.55175865
-0.1,-0.2,0.9999999999999999,-0.5235987755982988,0.0,0,2.3581617,1.2732303,0.66249937,-0.13542028,-0.3685685,0.9395065,-0.091533035,0.7836054,1.0218943,0.37223545,-0.1692583,-0.22258776,1.0945461,0.6914052
-0.1,-0.2,0.9999999999999999,-0.5235987755982988,0.0,0,2.33918,1.2444205,0.62422705,-0.2968043,-0.46742535,0.9068773,1.4660574,0.7650015,1.0255873,0.54156595,-0.0145622045,-0.24826755,1.1066636,-0.55770653
-0.1,-0.2,0.9999999999999999,-0.5235987755982988,0.0,0,2.4824548,1.2370827,0.58658856,-0.19982614,-0.34731415,0.96651536,-0.7893519,0.74364394,0.9640483,0.22061759,-0.19164163,-0.37350413,0.849639,1.5124607
-0.1,-0.2,0.9999999999999999,-0.5235987755982988,0.0,0,2.4749055,1.1666673,0.47583845,-0.29293042,-0.18187322,1.0237018,-0.44444028,0.7215878,1.3114619,0.7134542,-0.13845004,-0.17383987,0.7080929,0.3732951
