sanky1234/BimanualDexCatch/isaacgymenvs/cem_results/football_pose_-0.2_0.10000000000000003_0.7999999999999999_-0.5235987755982988_-0.5235987755982988_0_2025-05-25.csv
x,y,z,roll,pitch,yaw,robot1/joint1,robot1/joint2,robot1/joint3,robot1/joint4,robot1/joint5,robot1/joint6,robot1/joint7,robot2/joint1,robot2/joint2,robot2/joint3,robot2/joint4,robot2/joint5,robot2/joint6,robot2/joint7
-0.2,0.10000000000000003,0.7999999999999999,-0.5235987755982988,-0.5235987755982988,0,1.3892326,0.5758633,0.18182217,0.15937768,0.22011341,1.0503436,0.35938215,-0.67553973,-1.8645191,0.5549186,-0.10661688,-0.11950522,1.2975054,-0.11896285
-0.2,0.10000000000000003,0.7999999999999999,-0.5235987755982988,-0.5235987755982988,0,1.3908806,0.57858753,0.15236793,0.15246569,0.24342689,1.0418808,0.36378565,-1.153441,-1.7401978,-0.35036737,-0.014052139,-0.08926172,1.0788614,0.18279593
-0.2,0.10000000000000003,0.7999999999999999,-0.5235987755982988,-0.5235987755982988,0,1.3932012,0.5913444,0.18941118,0.157465,0.20704877,1.0499018,0.36293793,0.55681443,-1.657377,-0.004624409,-0.05819096,0.33247632,1.2903935,-0.18053328
-0.2,0.10000000000000003,0.7999999999999999,-0.5235987755982988,-0.5235987755982988,0,1.3950979,0.5777736,0.1658843,0.17116351,0.22001237,1.0610416,0.29025272,-1.4787025,-1.7721354,-0.270969,-0.14819604,0.10682468,1.2292714,-0.2595908
-0.2,0.10000000000000003,0.7999999999999999,-0.5235987755982988,-0.5235987755982988,0,1.3946418,0.5821539,0.1755723,0.14913103,0.223954,1.0379097,0.35494074,0.37422785,-1.6705759,0.15925431,-0.060304742,-0.24423184,1.0925155,-0.85702515
-0.2,0.10000000000000003,0.7999999999999999,-0.5235987755982988,-0.5235987755982988,0,1.3872794,0.5855802,0.1801559,0.14777794,0.25790408,1.0524341,0.33114296,0.3397761,-1.8689784,0.09500984,0.03399483,0.22842424,1.2934513,-0.42606837
-0.2,0.10000000000000003,0.7999999999999999,-0.5235987755982988,-0.5235987755982988,0,1.3842199,0.5976953,0.17982334,0.14986518,0.2531734,1.0539343,0.38043898,1.2543366,-1.8140969,-0.21586923,-0.12802784,0.107858814,1.1805182,0.048387587
-0.2,0.10000000000000003,0.7999999999999999,-0.5235987755982988,-0.5235987755982988,0,1.3922297,0.5926515,0.16261178,0.14643928,0.21749663,1.0553349,0.34039688,0.057403844,-1.8046746,-0.08928582,-0.08951275,0.2062503,1.1181229,-1.1084913
-0.2,0.10000000000000003,0.7999999999999999,-0.5235987755982988,-0.5235987755982988,0,1.3949016,0.5881,0.16676567,0.15522927,0.23164555,1.0596464,0.33780828,0.23234203,-1.753633,-0.22187908,-0.016688677,-0.019954415,1.1882951,-0.4522882
-0.2,0.10000000000000003,0.7999999999999999,-0.5235987755982988,-0.5235987755982988,0,1.3897688,0.5751588,0.17149249,0.16550887,0.24238265,1.0695344,0.34426716,-0.13498606,-1.730314,0.029161492,-0.08127378,0.051520698,1.3161411,-0.026056424
-0.2,0.10000000000000003,0.7999999999999999,-0.5235987755982988,-0.5235987755982988,0,1.3892859,0.58850324,0.17220397,0.14494547,0.25729826,1.0563376,0.3248906,0.78570825,-1.7463193,0.059301864,-0.027940866,0.28365391,1.101868,-0.5917293
-0.2,0.10000000000000003,0.7999999999999999,-0.5235987755982988,-0.5235987755982988,0,1.3976715,0.5846773,0.17555028,0.16341226,0.22760697,1.0608107,0.3566768,0.9615,-1.8300697,-0.033718426,-0.041511927,-0.06463333,1.1396964,-0.09016571
-0.2,0.10000000000000003,0.7999999999999999,-0.5235987755982988,-0.5235987755982988,0,1.3943318,0.5807858,0.1784777,0.15474698,0.2495168,1.0185626,0.3562247,0.81898636,-1.7507235,-0.13630657,-0.075439066,0.23579362,1.197856,-0.033325218
-0.2,0.10000000000000003,0.7999999999999999,-0.5235987755982988,-0.5235987755982988,0,1.3968767,0.5887288,0.1772492,0.15578124,0.22475018,1.0589368,0.3172948,-0.24412213,-1.75606,-0.102161944,-0.105400756,-0.06318505,1.0767412,-0.27037153
-0.2,0.10000000000000003,0.7999999999999999,-0.5235987755982988,-0.5235987755982988,0,1.3891536,0.58905447,0.17272507,0.15063591,0.24783489,1.0627769,0.30606592,0.98698646,-1.5968089,0.08728373,0.032930166,-0.12648888,1.3088748,-0.98339593
-0.2,0.10000000000000003,0.7999999999999999,-0.5235987755982988,-0.5235987755982988,0,1.3947793,0.58428633,0.17542483,0.15723354,0.23025432,1.0567414,0.34270757,0.76119256,-1.7296562,-0.36196688,-0.073370904,0.3187794,1.195896,-1.0070024
-0.2,0.10000000000000003,0.7999999999999999,-0.5235987755982988,-0.5235987755982988,0,1.3870683,0.59097445,0.17691904,0.15439187,0.24144176,1.0551957,0.37172806,0.91556257,-1.7476151,0.11040329,0.0092519475,-0.23256455,1.2598302,0.32702523
-0.2,0.10000000000000003,0.7999999999999999,-0.5235987755982988,-0.5235987755982988,0,1.3910539,0.5900893,0.17466477,0.135064,0.22534129,1.0461904,0.338107,0.074114,-1.740022,-0.12843563,-0.083487555,-0.08639294,1.0920424,-0.9250709
-0.2,0.10000000000000003,0.7999999999999999,-0.5235987755982988,-0.5235987755982988,0,1.3905743,0.58962,0.17746076,0.15284002,0.23017488,1.0569589,0.35515487,0.9555138,-1.8016651,-0.22885609,-0.08493716,-0.1608767,0.9650356,-0.99426824
-0.2,0.10000000000000003,0.7999999999999999,-0.5235987755982988,-0.5235987755982988,0,1.3938555,0.583613,0.16728769,0.14604288,0.24364394,1.0482882,0.39149624,-0.43067718,-1.7572563,0.013676133,-0.1637821,-0.19675852,1.178684,-0.12978217
-0.2,0.10000000000000003,0.7999999999999999,-0.5235987755982988,-0.5235987755982988,0,1.3954393,0.5829922,0.17508562,0.16461098,0.23586956,1.0552872,0.33850563,1.3626895,-1.755254,-0.12747365,0.052816663,0.13529783,1.2699454,-0.88038254
-0.2,0.10000000000000003,0.7999999999999999,-0.5235987755982988,-0.5235987755982988,0,1.3904138,0.589612,0.16892864,0.14912994,0.21705092,1.0554302,0.34751284,-0.5908799,-1.7863889,0.15112524,-0.11624878,-0.16972049,1.0900325,-0.2801691
-0.2,0.10000000000000003,0.7999999999999999,-0.5235987755982988,-0.5235987755982988,0,1.3915675,0.5901529,0.16973506,0.14369756,0.26248783,1.057017,0.3707638,-0.3847018,-1.8073578,-0.15517733,-0.051636647,-0.1697522,1.3307611,-0.42451912
-0.2,0.10000000000000003,0.7999999999999999,-0.5235987755982988,-0.5235987755982988,0,1.3908854,0.59678054,0.16908917,0.12305802,0.21370578,1.0618598,0.30341098,0.2694016,-1.7782185,0.13283274,-0.056154404,0.01780272,1.1616935,0.1956264
-0.2,0.10000000000000003,0.7999999999999999,-0.5235987755982988,-0.5235987755982988,0,1.394059,0.5915422,0.18092144,0.16152795,0.23464176,1.0716343,0.3472267,0.5898634,-1.743611,0.04388132,-0.11826154,-0.06699936,1.1776029,-0.4676117
-0.2,0.10000000000000003,0.7999999999999999,-0.5235987755982988,-0.5235987755982988,0,1.3844373,0.59341526,0.18353729,0.14157434,0.2465782,1.0542957,0.36373085,0.3373014,-1.8196868,0.2613237,-0.049039863,0.20807843,1.335888,0.07521486
-0.2,0.10000000000000003,0.7999999999999999,-0.5235987755982988,-0.5235987755982988,0,1.3920946,0.59020674,0.1837473,0.15436079,0.25412324,1.0589145,0.3639636,-0.11991725,-1.7807534,0.0557397,-0.06613868,0.21919465,1.0564402,-0.4008227
-0.2,0.10000000000000003,0.7999999999999999,-0.5235987755982988,-0.5235987755982988,0,1.3948761,0.58976614,0.17721696,0.13943411,0.22019467,1.0389048,0.38142744,0.50675535,-1.7166296,-0.27130842,-0.12440758,0.1035742,1.0910944,-1.0325379
-0.2,0.10000000000000003,0.7999999999999999,-0.5235987755982988,-0.5235987755982988,0,1.3989658,0.5867876,0.16951169,0.16307327,0.23286244,1.050076,0.33775124,-0.42213738,-1.8761921,-0.29746425,0.016858498,0.10945527,1.0929697,-1.3360858
-0.2,0.10000000000000003,0.7999999999999999,-0.5235987755982988,-0.5235987755982988,0,1.3976016,0.574162,0.16246757,0.15584864,0.24367356,1.0479753,0.36758253,-0.28268194,-1.7451727,-0.018192543,-0.09582782,0.14003773,1.1525215,-0.83342904
-0.2,0.10000000000000003,0.7999999999999999,-0.5235987755982988,-0.5235987755982988,0,1.3928584,0.58487576,0.1748274,0.15422723,0.22050688,1.0425776,0.37280497,0.67200816,-1.7823223,-0.22923653,0.0185823,-0.10498774,1.0583371,-0.7753873
-0.2,0.10000000000000003,0.7999999999999999,-0.5235987755982988,-0.5235987755982988,0,1.3893032,0.5833305,0.17271797,0.15784027,0.2500941,1.0728356,0.36074442,-0.16271956,-1.7456487,-0.005056912,-0.01767195,0.01656745,1.0731,-0.2786236
-0.2,0.10000000000000003,0.7999999999999999,-0.5235987755982988,-0.5235987755982988,0,1.3880829,0.5923007,0.17051013,0.14547679,0.22199951,1.0602528,0.27323368,-0.07329475,-1.7070849,-0.15446621,-0.10685988,0.20635392,1.0960035,-0.06126535
-0.2,0.10000000000000003,0.7999999999999999,-0.5235987755982988,-0.5235987755982988,0,1.3827062,0.58718014,0.16855884,0.14552297,0.22358166,1.060115,0.36555403,0.3460103,-1.821458,0.01975478,-0.056173787,-0.103444695,1.1849384,0.022709414
-0.2,0.10000000000000003,0.7999999999999999,-0.5235987755982988,-0.5235987755982988,0,1.396908,0.5887742,0.18441236,0.16497219,0.24354085,1.0506335,0.34907463,-1.2431985,-1.8944771,-0.028514812,-0.06853233,0.109688215,1.2790388,-0.23254056
-0.2,0.10000000000000003,0.7999999999999999,-0.5235987755982988,-0.5235987755982988,0,1.3923043,0.5925471,0.16573583,0.15503888,0.24334998,1.0603698,0.32584068,-0.4769764,-1.6801461,0.23152918,-0.06795202,-0.13783467,1.031644,-0.6250091
-0.2,0.10000000000000003,0.7999999999999999,-0.5235987755982988,-0.5235987755982988,0,1.391442,0.589305,0.17409137,0.15662228,0.24344009,1.059091,0.3437791,0.964283,-1.711061,-0.11275849,-0.08825376,0.009185034,1.2736022,0.24301216
-0.2,0.10000000000000003,0.7999999999999999,-0.5235987755982988,-0.5235987755982988,0,1.3906622,0.5826271,0.17824543,0.1628046,0.23988426,1.0544372,0.33953312,0.32009262,-1.662329,-0.08416044,-0.0932811,-0.12463818,1.1656536,-0.9950555
-0.2,0.10000000000000003,0.7999999999999999,-0.5235987755982988,-0.5235987755982988,0,1.396327,0.5866349,0.16681151,0.15150036,0.22671926,1.0504436,0.34588492,0.453327,-1.6355546,-0.1035151,-0.01904885,-0.2020554,1.1371403,0.01185199
-0.2,0.10000000000000003,0.7999999999999999,-0.5235987755982988,-0.5235987755982988,0,1.3918047,0.5891176,0.1861023,0.16355167,0.20462346,1.0602989,0.36208084,0.2449856,-1.6683227,-0.19056226,-0.033199854,0.008469833,1.1070539,-0.54637134
-0.2,0.10000000000000003,0.7999999999999999,-0.5235987755982988,-0.5235987755982988,0,1.3988942,0.59205216,0.16768104,0.14562352,0.24961288,1.0594256,0.335208,0.34380987,-1.7493081,0.21537307,0.12182978,0.073478594,1.1069853,-1.2126278
-0.2,0.10000000000000003,0.7999999999999999,-0.5235987755982988,-0.5235987755982988,0,1.3914437,0.5935326,0.1695721,0.14008589,0.26114073,1.0648493,0.38328013,-0.6584091,-1.759549,0.1277652,-0.1083553,-0.17565475,1.1921047,-0.0043819165
-0.2,0.10000000000000003,0.7999999999999999,-0.5235987755982988,-0.5235987755982988,0,1.3882421,0.5884788,0.17117457,0.15530738,0.21905953,1.0501902,0.35362762,0.060016666,-1.7050161,-0.27569228,-0.060264,0.12890469,1.2840846,-0.25482517
-0.2,0.10000000000000003,0.7999999999999999,-0.5235987755982988,-0.5235987755982988,0,1.3875797,0.58461714,0.1750918,0.14871442,0.22291909,1.0571547,0.3151055,-0.13979307,-1.893694,0.12581597,0.026055615,-0.023770925,1.1059055,-0.42582944
-0.2,0.10000000000000003,0.7999999999999999,-0.5235987755982988,-0.5235987755982988,0,1.3847834,0.580998,0.17428763,0.15545423,0.24333896,1.045576,0.32240155,-0.46088842,-1.6749486,0.3547082,0.014765346,0.48815298,1.1843623,-0.736099
-0.2,0.10000000000000003,0.7999999999999999,-0.5235987755982988,-0.5235987755982988,0,1.3883208,0.5918769,0.169956,0.14258465,0.22139892,1.0646299,0.34451112,0.3592591,-1.7411562,0.19330321,-0.10924959,-0.19021197,1.1321255,0.14653689
-0.2,0.10000000000000003,0.7999999999999999,-0.5235987755982988,-0.5235987755982988,0,1.3915257,0.5847831,0.16545394,0.16375493,0.25735387,1.0667722,0.3627703,0.49323824,-1.7928405,0.11025078,-0.0913399,-0.1944774,1.1534342,-0.294281
-0.2,0.10000000000000003,0.7999999999999999,-0.5235987755982988,-0.5235987755982988,0,1.3943971,0.5939854,0.17284423,0.1438617,0.2443418,1.0692896,0.37062967,-0.75396645,-1.8937074,0.17533039,-0.073535234,0.28751785,1.2502278,-0.9012
-0.2,0.10000000000000003,0.7999999999999999,-0.5235987755982988,-0.5235987755982988,0,1.3871305,0.5933634,0.18067786,0.14316419,0.25356063,1.0672036,0.36266375,0.3889285,-1.5412022,0.28808105,0.0077483812,-0.14390221,1.2028594,-0.64494425
-0.2,0.10000000000000003,0.7999999999999999,-0.5235987755982988,-0.5235987755982988,0,1.3868566,0.5857749,0.17957614,0.15166311,0.22036831,1.0628936,0.3245676,-0.3274873,-1.7563109,-0.07274398,-0.050915405,-0.04035634,1.0459722,-0.51872915
-0.2,0.10000000000000003,0.7999999999999999,-0.5235987755982988,-0.5235987755982988,0,1.3923141,0.59429824,0.17514329,0.1465679,0.21863171,1.0567609,0.34451798,0.79335433,-1.8261576,0.051590785,-0.038633928,-0.21222694,1.2201774,-0.9124364
-0.2,0.10000000000000003,0.7999999999999999,-0.5235987755982988,-0.5235987755982988,0,1.3971856,0.6008497,0.16854642,0.12386383,0.2188287,1.0578803,0.3681185,0.37916812,-1.7312504,0.15651526,-0.08111594,-0.18570782,1.3463765,0.0038294527
-0.2,0.10000000000000003,0.7999999999999999,-0.5235987755982988,-0.5235987755982988,0,1.383774,0.5892137,0.18410437,0.15193558,0.24296471,1.0455023,0.33336437,-1.0542842,-1.7413461,0.32003528,-0.049468484,0.25525263,1.2968743,-0.520942
-0.2,0.10000000000000003,0.7999999999999999,-0.5235987755982988,-0.5235987755982988,0,1.3916454,0.58774036,0.17829752,0.15268672,0.2391028,1.0811423,0.3577196,0.5246471,-1.9408563,-0.08621282,-0.041888904,0.048049245,1.2842004,-0.3768026
-0.2,0.10000000000000003,0.7999999999999999,-0.5235987755982988,-0.5235987755982988,0,1.3973699,0.5885296,0.17567241,0.1422813,0.20916095,1.0622247,0.36167255,0.34225988,-1.7209746,0.17488556,-0.075907715,-0.06258548,1.1165196,-0.6263056
-0.2,0.10000000000000003,0.7999999999999999,-0.5235987755982988,-0.5235987755982988,0,1.3961926,0.5904172,0.17633824,0.15645799,0.22953862,1.0614171,0.402678,1.2752675,-1.7532496,0.113659404,-0.10842316,-0.032696355,1.1368754,-0.51717234
-0.2,0.10000000000000003,0.7999999999999999,-0.5235987755982988,-0.5235987755982988,0,1.3980023,0.5879059,0.18436264,0.15021816,0.21866283,1.0755548,0.3449631,1.5890056,-1.871082,-0.20068075,-0.08142507,-0.06643672,1.1428672,-1.3138354
-0.2,0.10000000000000003,0.7999999999999999,-0.5235987755982988,-0.5235987755982988,0,1.3985862,0.5879516,0.1682511,0.14060928,0.22747247,1.0568664,0.3654369,0.2537615,-1.6602944,0.07989362,-0.043812063,-0.020745777,1.0101768,-0.7963028
-0.2,0.10000000000000003,0.7999999999999999,-0.5235987755982988,-0.5235987755982988,0,1.3966572,0.59058523,0.16565666,0.13853332,0.22381632,1.0644724,0.3587481,-1.0439188,-1.7400013,-0.042505942,-0.07402445,-0.20087096,1.3391551,-0.33544362
-0.2,0.10000000000000003,0.7999999999999999,-0.5235987755982988,-0.5235987755982988,0,1.3827605,0.59250534,0.18395028,0.14708383,0.23121355,1.0573454,0.3525746,0.88111216,-1.6875994,0.24928808,-0.053752057,0.22777207,1.1341265,-0.056826603
-0.2,0.10000000000000003,0.7999999999999999,-0.5235987755982988,-0.5235987755982988,0,1.3942424,0.58063376,0.16062878,0.15130901,0.23528072,1.0604513,0.36400208,0.25242952,-1.81084,0.1432435,-0.042189572,0.042233128,1.2458874,-0.08879587
-0.2,0.10000000000000003,0.7999999999999999,-0.5235987755982988,-0.5235987755982988,0,1.3891656,0.59306353,0.17718925,0.14044209,0.25883922,1.0568262,0.33384508,-0.68524855,-1.8017071,0.043229908,-0.031268347,-0.25260136,1.1866684,-0.5234056
-0.2,0.10000000000000003,0.7999999999999999,-0.5235987755982988,-0.5235987755982988,0,1.3933611,0.5774584,0.17067976,0.15887488,0.2401341,1.0604585,0.3581406,0.16160336,-1.7001119,0.20702268,-0.12434726,0.061996166,1.1994019,-0.28707883
-0.2,0.10000000000000003,0.7999999999999999,-0.5235987755982988,-0.5235987755982988,0,1.3983148,0.589869,0.16898413,0.14697367,0.2334239,1.065808,0.33737087,-0.8412548,-1.8743933,-0.08476348,-0.014977236,-0.046557717,1.0608596,0.12039751
-0.2,0.10000000000000003,0.7999999999999999,-0.5235987755982988,-0.5235987755982988,0,1.3947918,0.59260845,0.1606418,0.15742394,0.25971684,1.065331,0.39978945,-0.059178382,-1.7417942,-0.25756702,-0.06815519,-0.16441165,1.045745,-0.8723807
-0.2,0.10000000000000003,0.7999999999999999,-0.5235987755982988,-0.5235987755982988,0,1.3974907,0.5904793,0.18698686,0.14637326,0.22220723,1.0505275,0.386378,0.52706563,-1.784984,0.07201869,-0.06313313,0.16200279,1.1277059,-0.91960233
-0.2,0.10000000000000003,0.7999999999999999,-0.5235987755982988,-0.5235987755982988,0,1.3802712,0.5878536,0.1824838,0.14914005,0.23853864,1.0686215,0.31655455,-1.5441468,-1.8156114,0.014587996,-0.10735305,-0.015695069,1.2020841,-0.53031796
-0.2,0.10000000000000003,0.7999999999999999,-0.5235987755982988,-0.5235987755982988,0,1.3876961,0.5963908,0.17518982,0.13824517,0.23381375,1.0768524,0.31844187,-0.85234714,-1.622645,0.14766325,-0.07776374,0.056091156,1.1309508,-0.6656301
-0.2,0.10000000000000003,0.7999999999999999,-0.5235987755982988,-0.5235987755982988,0,1.3907086,0.5861028,0.16485667,0.14574279,0.23150453,1.0537045,0.36830878,0.7289783,-1.7904221,0.082963325,-0.017638858,-0.21231203,1.1610798,-0.14915633
-0.2,0.10000000000000003,0.7999999999999999,-0.5235987755982988,-0.5235987755982988,0,1.3975546,0.5776266,0.1873263,0.15688978,0.27699813,1.0523808,0.30442855,0.8332158,-1.7358305,-0.3581311,-0.005720962,-0.19836293,1.2328691,-0.4206674
-0.2,0.10000000000000003,0.7999999999999999,-0.5235987755982988,-0.5235987755982988,0,1.3982526,0.587107,0.16693172,0.15231153,0.2430589,1.0563643,0.33489797,0.9583437,-1.7570462,0.42162532,-0.062947415,0.21415871,1.2120166,-0.01316547
-0.2,0.10000000000000003,0.7999999999999999,-0.5235987755982988,-0.5235987755982988,0,1.3880095,0.5867413,0.18442763,0.14843366,0.22846204,1.060413,0.34541863,-0.68345916,-1.7299837,-0.0023609078,-0.11636853,0.056745537,1.1492155,0.4748654
-0.2,0.10000000000000003,0.7999999999999999,-0.5235987755982988,-0.5235987755982988,0,1.3819488,0.5829854,0.17644535,0.15365763,0.23867221,1.0668983,0.36680266,0.61212075,-1.8797183,0.39459777,-0.056928545,-0.037678532,0.97226226,-0.8100231
-0.2,0.10000000000000003,0.7999999999999999,-0.5235987755982988,-0.5235987755982988,0,1.3813803,0.5927654,0.1908018,0.15330994,0.24234381,1.0699147,0.34283057,-0.859914,-1.6020162,0.33625,-0.09694253,-0.038495723,1.1292981,-0.5714253
-0.2,0.10000000000000003,0.7999999999999999,-0.5235987755982988,-0.5235987755982988,0,1.3873721,0.58978534,0.16162169,0.15342282,0.24680348,1.0548742,0.3907823,0.9253438,-1.8411133,-0.28204173,-0.07438807,-0.25232163,1.0800574,-0.7245662
-0.2,0.10000000000000003,0.7999999999999999,-0.5235987755982988,-0.5235987755982988,0,1.402042,0.59254706,0.17566411,0.15094358,0.20546442,1.0629761,0.3577748,0.27578214,-1.7961278,-0.090249345,-0.049417123,-0.00014766079,1.1256847,-0.6255619
-0.2,0.10000000000000003,0.7999999999999999,-0.5235987755982988,-0.5235987755982988,0,1.3888099,0.5943418,0.17801495,0.1392234,0.21162975,1.061194,0.31267023,1.622975,-1.8703344,-0.022369597,-0.008935794,-0.59310675,1.1053561,-0.117840216
-0.2,0.10000000000000003,0.7999999999999999,-0.5235987755982988,-0.5235987755982988,0,1.4033198,0.58808684,0.1717348,0.15430127,0.2331928,1.0598705,0.35768986,0.4068487,-1.8090851,0.1305698,-0.13786706,0.038764957,1.1618935,-0.649948
-0.2,0.10000000000000003,0.7999999999999999,-0.5235987755982988,-0.5235987755982988,0,1.3872983,0.5876169,0.17979082,0.14996761,0.2405033,1.0531638,0.3414354,0.64646363,-1.7749115,0.028029757,-0.02143329,-0.19578461,1.1313976,-0.45475385
-0.2,0.10000000000000003,0.7999999999999999,-0.5235987755982988,-0.5235987755982988,0,1.3912237,0.5941,0.1811233,0.14356858,0.25242653,1.0532912,0.39054644,-1.0808916,-1.7701619,0.20206626,-0.074197605,0.1274896,0.9665251,0.24476177
-0.2,0.10000000000000003,0.7999999999999999,-0.5235987755982988,-0.5235987755982988,0,1.3901558,0.5834502,0.1720082,0.15732074,0.225261,1.0505291,0.43259695,-1.3311007,-1.70431,-0.08343933,-0.053303245,-0.13734779,1.0922102,-1.2962598
-0.2,0.10000000000000003,0.7999999999999999,-0.5235987755982988,-0.5235987755982988,0,1.396926,0.58728206,0.18341963,0.15375264,0.22047263,1.0583216,0.40076673,-1.4595832,-1.727131,-0.3508941,-0.03800529,0.017005682,1.0998899,-0.24122831
-0.2,0.10000000000000003,0.7999999999999999,-0.5235987755982988,-0.5235987755982988,0,1.391902,0.58866215,0.16946451,0.15985666,0.25349793,1.0434994,0.35518673,0.5547003,-1.5501269,0.09908038,-0.09176529,0.07967607,1.1075028,0.23331523
-0.2,0.10000000000000003,0.7999999999999999,-0.5235987755982988,-0.5235987755982988,0,1.3791335,0.58420193,0.17656821,0.15148164,0.22392851,1.059579,0.3492836,-0.2052372,-1.7027984,0.009455232,-0.06624466,-0.23617795,1.1332644,-0.92489654
-0.2,0.10000000000000003,0.7999999999999999,-0.5235987755982988,-0.5235987755982988,0,1.3901534,0.58449495,0.18750152,0.15726417,0.25710902,1.0673243,0.28838038,0.14223437,-1.6625955,-0.10988739,-0.08435918,0.0408559,1.2236707,0.050616
-0.2,0.10000000000000003,0.7999999999999999,-0.5235987755982988,-0.5235987755982988,0,1.394329,0.59540135,0.17320795,0.14501601,0.25438136,1.0515091,0.37856752,1.4259,-1.6967455,0.45570964,-0.05277786,0.13432845,1.1266829,-0.3875466
-0.2,0.10000000000000003,0.7999999999999999,-0.5235987755982988,-0.5235987755982988,0,1.3993107,0.5826627,0.17210867,0.15967111,0.2337191,1.0384922,0.38110626,0.2763382,-1.665627,-0.01972628,-0.09097924,0.09542703,1.0726305,0.19297266
-0.2,0.10000000000000003,0.7999999999999999,-0.5235987755982988,-0.5235987755982988,0,1.3894408,0.58571863,0.18468624,0.15816446,0.24889335,1.049085,0.32363325,2.1909604,-1.7356769,0.15610579,-0.0041885097,0.02031197,1.2526786,-0.30596265
-0.2,0.10000000000000003,0.7999999999999999,-0.5235987755982988,-0.5235987755982988,0,1.3990623,0.5810013,0.17734368,0.16578636,0.24533199,1.0663971,0.33975357,-0.5967594,-1.7762744,0.0018709955,-0.11425187,-0.07449878,1.2484305,0.024127673
-0.2,0.10000000000000003,0.7999999999999999,-0.5235987755982988,-0.5235987755982988,0,1.3884503,0.5877371,0.18831615,0.15272532,0.23043531,1.0526129,0.36199808,-0.18722312,-1.6939355,-0.023291089,-0.060418606,0.036898073,1.0526991,-1.5760579
-0.2,0.10000000000000003,0.7999999999999999,-0.5235987755982988,-0.5235987755982988,0,1.3915114,0.58080834,0.17623693,0.15509447,0.22095509,1.0485259,0.3251279,-0.48393884,-1.7535585,0.002859002,-0.08678663,0.06582357,0.94818443,-0.575334
-0.2,0.10000000000000003,0.7999999999999999,-0.5235987755982988,-0.5235987755982988,0,1.3961512,0.5940311,0.1726984,0.095964804,0.22474957,1.0449005,0.3541048,0.590567,-1.837113,0.093412295,-0.090360194,-0.111901276,1.1836251,0.45565665
-0.2,0.10000000000000003,0.7999999999999999,-0.5235987755982988,-0.5235987755982988,0,1.3969309,0.5986501,0.18223454,0.14774305,0.23019576,1.0487596,0.32547167,1.1143491,-1.7752703,0.45550197,-0.11165195,-0.01671139,1.2513733,-0.015769877
-0.2,0.10000000000000003,0.7999999999999999,-0.5235987755982988,-0.5235987755982988,0,1.3950828,0.59165066,0.17193404,0.14372227,0.22913954,1.0535789,0.35058337,0.7442574,-1.864395,-0.09979705,0.04242222,-0.5720102,1.0716921,-0.30767518
-0.2,0.10000000000000003,0.7999999999999999,-0.5235987755982988,-0.5235987755982988,0,1.3878478,0.5954986,0.18541591,0.13366887,0.22926101,1.0547786,0.34376127,-1.2715163,-1.7877862,0.14674355,-0.061271794,-0.17634834,1.0563184,-0.67901754
-0.2,0.10000000000000003,0.7999999999999999,-0.5235987755982988,-0.5235987755982988,0,1.3923132,0.5917249,0.18575731,0.1300728,0.23322594,1.0569369,0.33393663,0.79823273,-1.7805942,-0.1301008,-0.038506567,0.19315594,1.1692282,-0.22084291
-0.2,0.10000000000000003,0.7999999999999999,-0.5235987755982988,-0.5235987755982988,0,1.3955542,0.5888144,0.17265737,0.1400329,0.207013,1.0593451,0.33737966,0.53871465,-1.8661476,0.069780424,0.053030152,-0.042107288,1.1173416,-0.38563764
-0.2,0.10000000000000003,0.7999999999999999,-0.5235987755982988,-0.5235987755982988,0,1.3952978,0.5942942,0.18280281,0.13900313,0.22792296,1.0545493,0.3439009,-0.3432993,-1.8009423,-0.18147363,-0.021662235,-0.35063308,1.0024728,-0.7015332
-0.2,0.10000000000000003,0.7999999999999999,-0.5235987755982988,-0.5235987755982988,0,1.3977942,0.58442897,0.17460181,0.15841992,0.22055973,1.0361907,0.36439127,-1.4859021,-1.6967154,-0.06872241,-0.041911397,0.22486731,1.3003309,-0.786969
-0.2,0.10000000000000003,0.7999999999999999,-0.5235987755982988,-0.5235987755982988,0,1.3892465,0.58674896,0.18194902,0.15638486,0.24613091,1.0558486,0.35287628,0.38760853,-1.7061349,-0.07597954,-0.024698546,-0.16544223,1.0764954,-0.46711186
-0.2,0.10000000000000003,0.7999999999999999,-0.5235987755982988,-0.5235987755982988,0,1.3947353,0.5796727,0.17639227,0.16131054,0.23665872,1.0469984,0.31835368,-0.39690113,-1.7014939,0.21631886,-0.0066324896,0.03166325,1.258795,-0.88782537
-0.2,0.10000000000000003,0.7999999999999999,-0.5235987755982988,-0.5235987755982988,0,1.3920267,0.5901327,0.16013977,0.15996045,0.23749353,1.0569533,0.37346116,0.72878593,-1.8795685,0.20239078,-0.05417003,-0.17854428,1.1914502,-0.95631695
-0.2,0.10000000000000003,0.7999999999999999,-0.5235987755982988,-0.5235987755982988,0,1.3867874,0.586859,0.17630254,0.14592332,0.24916083,1.0647606,0.31765527,0.4769945,-1.6442832,0.17889957,-0.02494893,0.15267965,1.2182829,-0.61018074
-0.2,0.10000000000000003,0.7999999999999999,-0.5235987755982988,-0.5235987755982988,0,1.3946403,0.5849109,0.17869477,0.14906715,0.2326469,1.0642233,0.31070158,0.044540536,-1.728852,-0.03235662,-0.0545027,0.006430443,1.1527778,-0.933816
-0.2,0.10000000000000003,0.7999999999999999,-0.5235987755982988,-0.5235987755982988,0,1.3929638,0.5831044,0.17184347,0.1503571,0.22055294,1.0561131,0.3850307,0.39964834,-1.7394066,0.29280674,-0.0833875,-0.3019429,1.0896877,-0.26778746
-0.2,0.10000000000000003,0.7999999999999999,-0.5235987755982988,-0.5235987755982988,0,1.3925459,0.5856317,0.16729736,0.15187745,0.2640338,1.0597224,0.30351147,0.15243176,-1.6196747,0.063573204,-0.016387107,-0.3595135,1.2166312,-0.79748935
-0.2,0.10000000000000003,0.7999999999999999,-0.5235987755982988,-0.5235987755982988,0,1.3789394,0.58763844,0.18002303,0.14018287,0.25418633,1.0617005,0.3572012,0.60315204,-1.6704906,-0.23074399,-0.04705957,-0.32359177,0.8791128,-0.7202076
-0.2,0.10000000000000003,0.7999999999999999,-0.5235987755982988,-0.5235987755982988,0,1.3824782,0.592005,0.16402036,0.14091042,0.24797644,1.0597935,0.356671,1.1786777,-1.6288295,-0.109864846,-0.05755647,-0.16876699,1.067419,-0.061578892
-0.2,0.10000000000000003,0.7999999999999999,-0.5235987755982988,-0.5235987755982988,0,1.3999455,0.5915646,0.1708251,0.14338428,0.24422312,1.0584955,0.35045153,0.9830881,-1.6297677,-0.13854297,-0.11846179,0.11355893,1.1112881,-0.57087106
-0.2,0.10000000000000003,0.7999999999999999,-0.5235987755982988,-0.5235987755982988,0,1.3853409,0.58375376,0.1857069,0.1438804,0.2323485,1.0514644,0.3360969,1.3364896,-1.6415348,-0.05005729,-0.0534439,-0.11257422,1.1039822,-0.8292343
-0.2,0.10000000000000003,0.7999999999999999,-0.5235987755982988,-0.5235987755982988,0,1.3981063,0.5968342,0.19950607,0.1392612,0.23163347,1.0699841,0.32634255,1.5968305,-1.7576042,0.016132522,-0.05510816,0.048891954,1.2107638,0.010239658
-0.2,0.10000000000000003,0.7999999999999999,-0.5235987755982988,-0.5235987755982988,0,1.3960941,0.58255893,0.18504901,0.15004538,0.2556568,1.0541437,0.2982448,-0.16678178,-1.669262,0.047310427,0.04862537,-0.04037393,1.1206857,0.22810996
-0.2,0.10000000000000003,0.7999999999999999,-0.5235987755982988,-0.5235987755982988,0,1.3976552,0.592501,0.18925717,0.14927487,0.23438907,1.0552588,0.35993856,0.64883137,-1.6706023,-0.06856916,-0.12597123,-0.005200206,1.1135116,-0.6552111
-0.2,0.10000000000000003,0.7999999999999999,-0.5235987755982988,-0.5235987755982988,0,1.3900884,0.5810009,0.17410547,0.14614055,0.23471054,1.0536139,0.33474165,0.10802633,-1.7871228,-0.3785542,0.024952604,0.021725519,1.1177051,-0.2311227
-0.2,0.10000000000000003,0.7999999999999999,-0.5235987755982988,-0.5235987755982988,0,1.3950137,0.58799857,0.17684849,0.14793997,0.2415132,1.0435688,0.32051912,-0.49956787,-1.7830577,0.020650087,-0.009490618,0.2385999,1.245432,0.023401627
-0.2,0.10000000000000003,0.7999999999999999,-0.5235987755982988,-0.5235987755982988,0,1.4052652,0.59016526,0.1756101,0.14851484,0.23731358,1.0544549,0.32126865,0.08637639,-1.6554437,0.028584186,0.018063549,-0.16423306,1.0703694,-0.6586133
-0.2,0.10000000000000003,0.7999999999999999,-0.5235987755982988,-0.5235987755982988,0,1.3987247,0.5845407,0.17497271,0.14979118,0.26001805,1.0590715,0.33326262,-0.60907966,-1.6844692,-0.11466177,-0.066996194,0.08949833,1.280027,-0.59100354
-0.2,0.10000000000000003,0.7999999999999999,-0.5235987755982988,-0.5235987755982988,0,1.3867891,0.5794412,0.16330464,0.13781749,0.25058225,1.0471003,0.39736018,-1.0314089,-1.7512661,-0.009265687,-0.016049398,-0.13038874,1.1595701,-0.2974405
-0.2,0.10000000000000003,0.7999999999999999,-0.5235987755982988,-0.5235987755982988,0,1.3855178,0.58673686,0.1691168,0.15998413,0.22215104,1.0684556,0.3131375,-0.13556011,-1.7476413,0.15767513,-0.018740853,-0.0792198,1.1216283,-0.5463785
-0.2,0.10000000000000003,0.7999999999999999,-0.5235987755982988,-0.5235987755982988,0,1.3928227,0.5974311,0.17994101,0.1326173,0.24708517,1.0713606,0.32990792,1.138034,-1.6236377,0.35297573,0.0017485492,-0.05116543,1.1442258,0.43092504
-0.2,0.10000000000000003,0.7999999999999999,-0.5235987755982988,-0.5235987755982988,0,1.4000657,0.59128386,0.18182342,0.15200917,0.25447547,1.058077,0.34290063,-0.061916884,-1.7047728,0.17675799,-0.09104899,-0.040447034,1.1334437,-1.3739742
-0.2,0.10000000000000003,0.7999999999999999,-0.5235987755982988,-0.5235987755982988,0,1.3918891,0.5811176,0.17418343,0.14476843,0.23404332,1.056383,0.29177564,0.019807158,-1.795111,0.031090789,-0.053224593,-0.0039429795,1.1604955,-0.60680586
-0.2,0.10000000000000003,0.7999999999999999,-0.5235987755982988,-0.5235987755982988,0,1.387315,0.5837961,0.17156045,0.14553297,0.25023195,1.0539504,0.35479358,1.2070916,-1.796133,0.12622193,-0.031102614,-0.08625554,1.1266915,-0.8186886
-0.2,0.10000000000000003,0.7999999999999999,-0.5235987755982988,-0.5235987755982988,0,1.3912045,0.59170794,0.18329892,0.14487727,0.24438445,1.0653409,0.36943698,-0.7030104,-1.6258315,-0.014258479,-0.006996446,0.18939872,1.0622427,-1.4923975
-0.2,0.10000000000000003,0.7999999999999999,-0.5235987755982988,-0.5235987755982988,0,1.396638,0.59155875,0.17266116,0.16046906,0.23540324,1.0674107,0.38549507,1.3207494,-1.715484,0.0044797854,-0.07461389,0.10593353,1.2140733,-0.65184927
-0.2,0.10000000000000003,0.7999999999999999,-0.5235987755982988,-0.5235987755982988,0,1.3915364,0.5960138,0.16623887,0.13985902,0.22902142,1.0766152,0.34489232,0.14911866,-1.8130811,0.31414878,-0.02978691,0.04835408,1.2870622,-0.31823924
-0.2,0.10000000000000003,0.7999999999999999,-0.5235987755982988,-0.5235987755982988,0,1.3932946,0.5849782,0.1773876,0.1576988,0.2339133,1.0450598,0.35388985,-1.15247,-1.6775281,0.076133594,-0.03449753,0.0059532775,1.3672658,-1.1206619
-0.2,0.10000000000000003,0.7999999999999999,-0.5235987755982988,-0.5235987755982988,0,1.3916545,0.58076453,0.17767726,0.1422099,0.25348872,1.0529085,0.33983913,0.030311355,-1.7582568,-0.1715575,-0.054364383,0.1359143,1.2751483,-0.26320574
-0.2,0.10000000000000003,0.7999999999999999,-0.5235987755982988,-0.5235987755982988,0,1.3933202,0.5886681,0.1765229,0.15722542,0.2143785,1.0713005,0.3406635,0.85612524,-1.8368903,0.2033913,-0.16645141,0.061429046,1.2405796,-0.59250456
-0.2,0.10000000000000003,0.7999999999999999,-0.5235987755982988,-0.5235987755982988,0,1.3905729,0.579715,0.18808539,0.14504954,0.22110131,1.0409251,0.34100333,-0.54999197,-1.6911488,0.25239083,-0.09675361,-0.17462891,1.25915,0.41690373
-0.2,0.10000000000000003,0.7999999999999999,-0.5235987755982988,-0.5235987755982988,0,1.3865294,0.578797,0.17937875,0.16692424,0.24012293,1.044641,0.38568333,0.30232298,-1.6123538,0.3536447,-0.0901287,0.29545748,1.0228277,-0.18979196
-0.2,0.10000000000000003,0.7999999999999999,-0.5235987755982988,-0.5235987755982988,0,1.4014323,0.58496594,0.18288136,0.1646424,0.22515585,1.0396551,0.36314163,-0.40362015,-1.7462512,-0.1671383,-0.046487704,-0.05355494,1.1253318,-0.033611123
-0.2,0.10000000000000003,0.7999999999999999,-0.5235987755982988,-0.5235987755982988,0,1.389765,0.59240896,0.1772743,0.14782432,0.22489846,1.0475543,0.41254935,-0.82931226,-1.6373214,0.14138708,-0.15081424,0.07894919,1.1634103,-1.0007675
-0.2,0.10000000000000003,0.7999999999999999,-0.5235987755982988,-0.5235987755982988,0,1.3881693,0.5953355,0.15995826,0.1429699,0.23643437,1.0522459,0.38194242,0.78084135,-1.6784341,0.0051345224,-0.048158526,-0.19899108,1.1161518,0.14234006
-0.2,0.10000000000000003,0.7999999999999999,-0.5235987755982988,-0.5235987755982988,0,1.3889169,0.57991034,0.16502865,0.1492169,0.23083769,1.0638655,0.38730064,0.22371867,-1.6921304,0.044857413,-0.09444349,-0.14753796,1.1475167,-0.7068476
-0.2,0.10000000000000003,0.7999999999999999,-0.5235987755982988,-0.5235987755982988,0,1.3932016,0.58853084,0.16975617,0.1626251,0.22084889,1.0503876,0.37372133,0.2591884,-1.6787244,0.14977565,0.043575324,0.13748957,1.1666349,-0.73488444
-0.2,0.10000000000000003,0.7999999999999999,-0.5235987755982988,-0.5235987755982988,0,1.3846366,0.5878691,0.17250697,0.162333,0.2231814,1.0611986,0.38201597,1.2616066,-1.7905717,-0.08507036,-0.06416309,0.24959728,1.2476149,-0.63348335
-0.2,0.10000000000000003,0.7999999999999999,-0.5235987755982988,-0.5235987755982988,0,1.3961931,0.5929598,0.15941928,0.14863601,0.22959447,1.047617,0.36392114,0.2784696,-1.7278321,0.22482544,-0.042851113,-0.05416273,1.0758561,-0.9038324
-0.2,0.10000000000000003,0.7999999999999999,-0.5235987755982988,-0.5235987755982988,0,1.386281,0.5946748,0.17324065,0.14337596,0.22370887,1.0698023,0.3625491,-1.1164211,-1.6532818,0.12621619,-0.05142538,0.20510502,1.1623001,-0.3191527
-0.2,0.10000000000000003,0.7999999999999999,-0.5235987755982988,-0.5235987755982988,0,1.3923669,0.5862308,0.17865199,0.16507359,0.22407475,1.0668504,0.31729898,-0.3253501,-1.7754724,0.07329841,-0.0429777,-0.12116042,1.1939778,-0.75424504
-0.2,0.10000000000000003,0.7999999999999999,-0.5235987755982988,-0.5235987755982988,0,1.3942055,0.59488785,0.16951244,0.13886333,0.22249359,1.0672154,0.32813445,-0.2858736,-1.8376586,0.10654103,0.02959444,-0.049062006,1.2014422,0.31821558
-0.2,0.10000000000000003,0.7999999999999999,-0.5235987755982988,-0.5235987755982988,0,1.3849022,0.58942324,0.16963606,0.14377993,0.23844202,1.0566552,0.31271446,-0.64847445,-1.7114626,-0.06648788,-0.047134623,-0.40026724,0.93298024,0.13148905
-0.2,0.10000000000000003,0.7999999999999999,-0.5235987755982988,-0.5235987755982988,0,1.3954992,0.5937642,0.16168335,0.1297129,0.24030629,1.0543449,0.32149976,0.6276201,-1.7634999,0.13663599,-0.07766209,-0.19606714,1.2009573,-0.4618606
-0.2,0.10000000000000003,0.7999999999999999,-0.5235987755982988,-0.5235987755982988,0,1.3862172,0.5913451,0.16992024,0.15725283,0.19530882,1.0597783,0.35184175,0.9342915,-1.6509502,-0.19641668,-0.10270865,-0.06983314,0.9992744,-0.08391199
-0.2,0.10000000000000003,0.7999999999999999,-0.5235987755982988,-0.5235987755982988,0,1.3820667,0.59576553,0.17900933,0.15818857,0.23076567,1.055221,0.39070812,0.84766567,-1.7696744,0.0669678,-0.04495646,0.20398764,1.0844047,-0.09098716
-0.2,0.10000000000000003,0.7999999999999999,-0.5235987755982988,-0.5235987755982988,0,1.3852357,0.5796905,0.18221876,0.15207347,0.21169944,1.0757476,0.33237892,-1.5428556,-1.8587981,-0.005696701,-0.105285816,-0.35180306,0.99542034,0.107682124
-0.2,0.10000000000000003,0.7999999999999999,-0.5235987755982988,-0.5235987755982988,0,1.3948424,0.5832445,0.16640443,0.16067503,0.1972629,1.0623089,0.39843053,0.4710094,-1.7177888,0.33613622,-0.05885034,-0.17800045,1.0206146,0.37221417
-0.2,0.10000000000000003,0.7999999999999999,-0.5235987755982988,-0.5235987755982988,0,1.3999506,0.5823324,0.16145645,0.14554444,0.22390594,1.0660411,0.41160992,-0.46615285,-1.7026179,0.16695262,-0.1365832,0.14032349,1.0440621,0.19746298
-0.2,0.10000000000000003,0.7999999999999999,-0.5235987755982988,-0.5235987755982988,0,1.3887258,0.5791169,0.15987481,0.1585954,0.23675516,1.056756,0.32866356,0.63213545,-1.6922382,0.15283236,-0.08017806,-0.17524844,1.0458286,-0.19233899
-0.2,0.10000000000000003,0.7999999999999999,-0.5235987755982988,-0.5235987755982988,0,1.3921931,0.5779475,0.16800688,0.1694323,0.21895832,1.0602641,0.35805666,-0.12153905,-1.6775987,0.21166927,-0.020108433,-0.05070225,1.1562302,-1.418784
-0.2,0.10000000000000003,0.7999999999999999,-0.5235987755982988,-0.5235987755982988,0,1.3898039,0.57729626,0.16707464,0.16899057,0.2341818,1.067057,0.30622482,-0.9027681,-1.7038647,-0.024756776,-0.062294524,-0.21169412,1.0605968,-0.14224885
-0.2,0.10000000000000003,0.7999999999999999,-0.5235987755982988,-0.5235987755982988,0,1.3898257,0.5830454,0.17712194,0.14870213,0.22680631,1.055794,0.36608282,-1.1814183,-1.6035314,0.07441036,-0.116206,-0.14184418,0.9066835,0.090745784
-0.2,0.10000000000000003,0.7999999999999999,-0.5235987755982988,-0.5235987755982988,0,1.3868439,0.5798611,0.16871127,0.15145423,0.2198407,1.0422413,0.34432423,0.21290055,-1.6327271,0.32133624,-0.020649314,-0.20934744,1.0983098,0.15157776
-0.2,0.10000000000000003,0.7999999999999999,-0.5235987755982988,-0.5235987755982988,0,1.389412,0.5751271,0.17140947,0.16625167,0.21357916,1.048455,0.32504955,0.20290677,-1.7800164,-0.050617497,0.032322597,-0.118137956,1.2073895,-0.47451147
-0.2,0.10000000000000003,0.7999999999999999,-0.5235987755982988,-0.5235987755982988,0,1.3904656,0.578934,0.17312592,0.15576136,0.22910498,1.0589635,0.34282964,0.32756564,-1.8013623,0.29570368,-0.017487375,-0.43944696,1.0494641,0.014873508
-0.2,0.10000000000000003,0.7999999999999999,-0.5235987755982988,-0.5235987755982988,0,1.3865592,0.5915043,0.1828784,0.13970235,0.20857814,1.0738702,0.3657902,1.4916681,-1.5950137,-0.082821004,-0.0222121,0.23848613,1.1847934,-0.8476048
-0.2,0.10000000000000003,0.7999999999999999,-0.5235987755982988,-0.5235987755982988,0,1.387793,0.58965164,0.17309634,0.14722824,0.20615819,1.0747193,0.37942967,-0.1187001,-1.8506336,-0.06572732,-0.02847652,-0.22176357,0.97490126,-0.47857982
-0.2,0.10000000000000003,0.7999999999999999,-0.5235987755982988,-0.5235987755982988,0,1.3936098,0.5765307,0.17158014,0.16248071,0.2239918,1.060495,0.34322193,1.0975152,-1.741169,-0.2358869,-0.08906313,0.10062479,1.276076,-1.3487564
-0.2,0.10000000000000003,0.7999999999999999,-0.5235987755982988,-0.5235987755982988,0,1.388988,0.58262056,0.17792726,0.15218075,0.20604335,1.0533578,0.35040057,-0.19770117,-1.758893,-0.19186844,-0.06620837,-0.0534741,0.9664687,-0.03174117
-0.2,0.10000000000000003,0.7999999999999999,-0.5235987755982988,-0.5235987755982988,0,1.3989861,0.57851255,0.16413993,0.15598115,0.21655771,1.0618994,0.33238533,-1.0810633,-1.7307938,-0.07780571,-0.11914347,-0.24796288,1.3378549,0.4862859
-0.2,0.10000000000000003,0.7999999999999999,-0.5235987755982988,-0.5235987755982988,0,1.3867188,0.57943803,0.17546086,0.15549052,0.22536603,1.0559037,0.3403185,0.1700318,-1.7601674,-0.12872587,-0.02418865,0.26241043,1.0925782,-0.71755624
-0.2,0.10000000000000003,0.7999999999999999,-0.5235987755982988,-0.5235987755982988,0,1.3822012,0.5858428,0.17602648,0.14566572,0.21130939,1.0603426,0.39548022,2.2059844,-1.6903191,-0.034893345,-0.042751275,0.37247184,1.1175364,0.7478745
-0.2,0.10000000000000003,0.7999999999999999,-0.5235987755982988,-0.5235987755982988,0,1.3927429,0.58210796,0.17731966,0.15189153,0.2008927,1.0633091,0.34671137,1.1414833,-1.7985462,-0.027503405,-0.09205211,-0.17112532,1.1315491,0.9416199
-0.2,0.10000000000000003,0.7999999999999999,-0.5235987755982988,-0.5235987755982988,0,1.3952568,0.58661836,0.17243011,0.15032303,0.22746567,1.0720092,0.36124387,0.8859854,-1.7569357,-0.062034056,-0.034538385,0.40278345,1.1404809,0.19475023
-0.2,0.10000000000000003,0.7999999999999999,-0.5235987755982988,-0.5235987755982988,0,1.3872828,0.5852769,0.1671623,0.16059102,0.22545455,1.0699389,0.36791483,-0.8289093,-1.7644032,-0.050420113,-0.0671853,0.037710022,1.314681,-0.77756125
-0.2,0.10000000000000003,0.7999999999999999,-0.5235987755982988,-0.5235987755982988,0,1.4039019,0.5821797,0.16271888,0.15211576,0.22024329,1.0611671,0.37039804,-0.44293928,-1.727282,-0.1432775,-0.057545587,0.28860894,1.1644229,-0.6568095
-0.2,0.10000000000000003,0.7999999999999999,-0.5235987755982988,-0.5235987755982988,0,1.3893782,0.5791025,0.16911425,0.15404102,0.22133093,1.0513859,0.34986448,0.78105134,-1.7622156,-0.25504258,0.012916284,0.19299807,1.2016634,-0.7011419
-0.2,0.10000000000000003,0.7999999999999999,-0.5235987755982988,-0.5235987755982988,0,1.3956188,0.58874184,0.17185786,0.1378577,0.21617112,1.0423731,0.35254803,0.06744421,-1.7161697,0.2594939,-0.049976423,-0.111870274,1.0924382,-0.60839653
-0.2,0.10000000000000003,0.7999999999999999,-0.5235987755982988,-0.5235987755982988,0,1.3866919,0.5896241,0.16609581,0.1501674,0.24292803,1.061111,0.3429749,0.18613681,-1.8381947,0.46132168,-0.03857955,-0.23762135,1.0604485,0.43350026
-0.2,0.10000000000000003,0.7999999999999999,-0.5235987755982988,-0.5235987755982988,0,1.3897424,0.5873296,0.1704546,0.14301223,0.23203565,1.0665746,0.3454056,-0.3945392,-1.7448751,0.118217394,0.013757073,-0.14526902,1.265265,0.22585152
-0.2,0.10000000000000003,0.7999999999999999,-0.5235987755982988,-0.5235987755982988,0,1.3896462,0.58730125,0.17292382,0.15197358,0.20553936,1.0530796,0.40135178,-1.0082567,-1.7052364,0.22734644,-0.11457479,0.1548759,1.1247636,-0.3759525
-0.2,0.10000000000000003,0.7999999999999999,-0.5235987755982988,-0.5235987755982988,0,1.3941139,0.5783194,0.17251496,0.15526314,0.22217393,1.0580451,0.33795244,-0.1387389,-1.6414388,0.01780265,-0.07343549,-0.24744825,1.2177719,0.035301987
-0.2,0.10000000000000003,0.7999999999999999,-0.5235987755982988,-0.5235987755982988,0,1.3961802,0.59703505,0.17963599,0.1509777,0.21336564,1.0516216,0.34979796,-1.1682922,-1.6150506,-0.10140542,-0.008867836,0.06497537,0.96108425,-0.5422039
-0.2,0.10000000000000003,0.7999999999999999,-0.5235987755982988,-0.5235987755982988,0,1.398085,0.5798807,0.16935061,0.15579093,0.23093982,1.0700868,0.3352978,-0.06442201,-1.6963205,-0.33118644,-0.06208459,0.352599,1.2197891,-0.6664389
-0.2,0.10000000000000003,0.7999999999999999,-0.5235987755982988,-0.5235987755982988,0,1.3949442,0.58150196,0.16808382,0.15209614,0.21434592,1.0528998,0.34698027,0.51797116,-1.7751364,-0.19724004,-0.004902107,-0.10097465,1.1990587,0.06424207
-0.2,0.10000000000000003,0.7999999999999999,-0.5235987755982988,-0.5235987755982988,0,1.3965411,0.5905869,0.16926707,0.14978097,0.21379694,1.0620332,0.38586846,0.67212534,-1.7951239,-0.089355096,-0.022766834,-0.021257507,1.2411296,-0.60772836
-0.2,0.10000000000000003,0.7999999999999999,-0.5235987755982988,-0.5235987755982988,0,1.3939908,0.58983564,0.16252217,0.1507102,0.23553997,1.0635676,0.38340777,0.9490063,-1.5294496,0.106415406,-0.077595405,-0.11211846,1.0749075,-1.1941878
-0.2,0.10000000000000003,0.7999999999999999,-0.5235987755982988,-0.5235987755982988,0,1.3893785,0.58110493,0.17252429,0.16357176,0.21483362,1.0528004,0.40904036,0.7295266,-1.6608489,-0.021236084,-0.04478305,-0.09775701,1.1494327,0.1885854
-0.2,0.10000000000000003,0.7999999999999999,-0.5235987755982988,-0.5235987755982988,0,1.3885875,0.58213,0.16332376,0.15507904,0.22038998,1.047735,0.3665841,-0.025996882,-1.7220888,0.092539094,-0.03303257,-0.17523822,1.1324953,-1.0559193
-0.2,0.10000000000000003,0.7999999999999999,-0.5235987755982988,-0.5235987755982988,0,1.3875709,0.58551794,0.1603923,0.1485908,0.23899989,1.0504586,0.32687885,-1.8934549,-1.8488684,-0.0211727,-0.03959948,0.2658267,1.1545032,-0.33496055
-0.2,0.10000000000000003,0.7999999999999999,-0.5235987755982988,-0.5235987755982988,0,1.3969743,0.58581465,0.18093298,0.15739821,0.23350412,1.0898325,0.33622584,-0.6561259,-1.7327598,0.12447587,-0.022640558,0.19419071,1.0315658,-0.43873855
-0.2,0.10000000000000003,0.7999999999999999,-0.5235987755982988,-0.5235987755982988,0,1.3879688,0.5839456,0.16984193,0.14932166,0.23327236,1.0660244,0.3562728,0.91902035,-1.7764249,0.057674434,-0.062251996,-0.046147782,1.2260295,-0.90983695
-0.2,0.10000000000000003,0.7999999999999999,-0.5235987755982988,-0.5235987755982988,0,1.4035017,0.5843704,0.161446,0.1478753,0.22801736,1.0522841,0.3570173,-1.5479108,-1.7012075,-0.11688339,-0.06490523,0.30051124,1.1744888,-0.8148217
-0.2,0.10000000000000003,0.7999999999999999,-0.5235987755982988,-0.5235987755982988,0,1.3855664,0.58370924,0.16653304,0.16111523,0.24142028,1.0606883,0.40646166,-0.32629803,-1.6938957,-0.09707225,-0.10026699,0.07616031,1.2587265,-0.12625994
-0.2,0.10000000000000003,0.7999999999999999,-0.5235987755982988,-0.5235987755982988,0,1.3983768,0.5840423,0.15957582,0.15663505,0.22714697,1.0685339,0.3625185,0.47088763,-1.7942082,0.19043449,-0.0049106707,-0.07306686,1.1194018,-1.010948
-0.2,0.10000000000000003,0.7999999999999999,-0.5235987755982988,-0.5235987755982988,0,1.3908294,0.5857062,0.16528818,0.15429622,0.21265496,1.044227,0.34474012,-0.005926935,-1.8051618,0.21015562,-0.057394147,-0.064939745,1.030016,-0.034549072
-0.2,0.10000000000000003,0.7999999999999999,-0.5235987755982988,-0.5235987755982988,0,1.3887434,0.59085745,0.15551898,0.1445828,0.25159457,1.062564,0.35931745,2.317632,-1.5730718,0.02271326,-0.109631985,0.14560871,1.0443397,-0.51822263
-0.2,0.10000000000000003,0.7999999999999999,-0.5235987755982988,-0.5235987755982988,0,1.3864743,0.5823815,0.15743658,0.15157275,0.24535426,1.0437795,0.33448827,1.724739,-1.5863187,-0.2735713,-0.07630506,-0.21272698,1.2423326,-0.503652
-0.2,0.10000000000000003,0.7999999999999999,-0.5235987755982988,-0.5235987755982988,0,1.3955135,0.5753281,0.17503326,0.17025441,0.23039964,1.0655499,0.33028486,-0.13608508,-1.7757859,-0.039195072,-0.09072391,0.26405695,1.3312862,-0.304001
-0.2,0.10000000000000003,0.7999999999999999,-0.5235987755982988,-0.5235987755982988,0,1.3849319,0.5858326,0.16690624,0.14674486,0.22911061,1.0590248,0.32530388,-0.64183253,-1.7325397,0.23511133,-0.08072479,-0.2822794,1.0596696,-0.60938644
-0.2,0.10000000000000003,0.7999999999999999,-0.5235987755982988,-0.5235987755982988,0,1.39307,0.5843882,0.16900998,0.1472867,0.21747397,1.0640038,0.32468253,0.9498522,-1.7772002,-0.36143422,-0.061261382,-0.01119392,1.3177983,-0.15245466
-0.2,0.10000000000000003,0.7999999999999999,-0.5235987755982988,-0.5235987755982988,0,1.395601,0.59864944,0.17461115,0.14489481,0.2397389,1.0525528,0.33071852,0.8588875,-1.6844864,0.040126607,0.03321582,0.5790761,1.1990472,-0.74422425
-0.2,0.10000000000000003,0.7999999999999999,-0.5235987755982988,-0.5235987755982988,0,1.388762,0.58315766,0.17868276,0.14661817,0.21625473,1.0632924,0.33402488,0.18325283,-1.6135281,0.30881724,0.030350396,0.015753174,1.0315796,-0.63264245
-0.2,0.10000000000000003,0.7999999999999999,-0.5235987755982988,-0.5235987755982988,0,1.3956773,0.59895265,0.16273165,0.1242632,0.23006335,1.0616424,0.32852447,0.3878015,-1.7747312,0.20851296,-0.0132833645,0.05253467,1.0652981,-0.4977595
-0.2,0.10000000000000003,0.7999999999999999,-0.5235987755982988,-0.5235987755982988,0,1.3887058,0.59476155,0.17111485,0.13121812,0.23140131,1.064372,0.3538277,1.8773836,-1.5994949,0.22440161,-0.0738835,-0.22853842,1.1339557,-0.38837925
-0.2,0.10000000000000003,0.7999999999999999,-0.5235987755982988,-0.5235987755982988,0,1.3862376,0.5796966,0.16253056,0.16490185,0.23645219,1.0428091,0.35023722,-0.57833135,-1.713307,-0.3973019,-0.034918033,0.069297545,1.2423447,-0.48292008
-0.2,0.10000000000000003,0.7999999999999999,-0.5235987755982988,-0.5235987755982988,0,1.3949443,0.59183604,0.167476,0.14155425,0.24105503,1.0672182,0.36994436,-0.3106,-1.7751175,-0.06130565,-0.0042064413,0.08731158,1.2979413,0.2685224
-0.2,0.10000000000000003,0.7999999999999999,-0.5235987755982988,-0.5235987755982988,0,1.3938526,0.5880497,0.16671072,0.15244056,0.23652336,1.057413,0.36833322,-0.32408714,-1.6976637,0.0055794804,-0.108132094,0.0742929,1.0637132,-0.18533587
-0.2,0.10000000000000003,0.7999999999999999,-0.5235987755982988,-0.5235987755982988,0,1.3850819,0.5956229,0.19145878,0.12920946,0.21529116,1.0718312,0.33634803,1.00544,-1.8754033,-0.090913534,-0.05235508,0.14087531,1.0812738,-0.7024424
-0.2,0.10000000000000003,0.7999999999999999,-0.5235987755982988,-0.5235987755982988,0,1.3889356,0.5878088,0.1545677,0.14697154,0.2418947,1.0420363,0.37957552,-0.3954535,-1.7455047,-0.23148201,-0.113348596,-0.31481975,1.1612049,-0.34299624
-0.2,0.10000000000000003,0.7999999999999999,-0.5235987755982988,-0.5235987755982988,0,1.3914244,0.59569687,0.1590747,0.14159065,0.26935193,1.0691518,0.30317053,1.8867552,-1.6233352,-0.044999678,0.05451575,0.040963728,1.2464157,-0.3258341
-0.2,0.10000000000000003,0.7999999999999999,-0.5235987755982988,-0.5235987755982988,0,1.3879067,0.59020644,0.17347185,0.15205973,0.24840043,1.0631562,0.36094218,-1.120695,-1.5839425,0.01629026,0.018443812,-0.33005753,1.1901716,-0.08721028
-0.2,0.10000000000000003,0.7999999999999999,-0.5235987755982988,-0.5235987755982988,0,1.3911017,0.58858186,0.16825362,0.14876705,0.22829948,1.057778,0.3027777,-0.33980492,-1.7565769,-0.118246675,-0.07211773,-0.33049098,1.0447971,-0.21213605
-0.2,0.10000000000000003,0.7999999999999999,-0.5235987755982988,-0.5235987755982988,0,1.3934273,0.5941816,0.17415838,0.1314982,0.22652039,1.0573012,0.39562342,0.36766806,-1.7002844,0.13976468,-0.060602672,0.115915045,1.0633607,0.902302
-0.2,0.10000000000000003,0.7999999999999999,-0.5235987755982988,-0.5235987755982988,0,1.38929,0.59768945,0.16159216,0.13689168,0.23588322,1.0660459,0.32368422,1.7163036,-1.7553685,0.121463224,-0.07915329,-0.25468802,1.1774759,-1.2165747
-0.2,0.10000000000000003,0.7999999999999999,-0.5235987755982988,-0.5235987755982988,0,1.3882881,0.59611624,0.16380347,0.13420519,0.22248305,1.0766399,0.30008218,0.26425323,-1.7132244,-0.22361553,0.026264185,-0.13537215,1.061471,-0.29956725
-0.2,0.10000000000000003,0.7999999999999999,-0.5235987755982988,-0.5235987755982988,0,1.3868705,0.58474326,0.18219467,0.14775945,0.22228113,1.0573387,0.3531138,-0.57677203,-1.737576,0.07563602,-0.06405974,0.25062025,1.1148838,0.2709816
-0.2,0.10000000000000003,0.7999999999999999,-0.5235987755982988,-0.5235987755982988,0,1.4015673,0.59797066,0.17163676,0.1334231,0.22016947,1.0362473,0.35624525,0.41373253,-1.7470738,0.15184651,-0.0011426213,-0.21033166,1.2365841,0.35515058
-0.2,0.10000000000000003,0.7999999999999999,-0.5235987755982988,-0.5235987755982988,0,1.3815129,0.59504384,0.17421797,0.13354897,0.22528872,1.0558162,0.34203374,1.2156177,-1.7894181,0.09211578,-0.0071476228,-0.10312074,1.2019242,0.36684114
-0.2,0.10000000000000003,0.7999999999999999,-0.5235987755982988,-0.5235987755982988,0,1.3922075,0.5882043,0.17903543,0.14666598,0.24530861,1.0707601,0.3269308,0.16485393,-1.8337935,-0.055841688,-0.0005512738,0.003315169,1.4661895,-0.11110718
-0.2,0.10000000000000003,0.7999999999999999,-0.5235987755982988,-0.5235987755982988,0,1.3964881,0.5991093,0.1796236,0.1313825,0.22456606,1.0497365,0.33826107,0.4829972,-1.8683774,0.21024461,-0.072435685,-0.23308477,1.077002,-0.4594969
-0.2,0.10000000000000003,0.7999999999999999,-0.5235987755982988,-0.5235987755982988,0,1.3941377,0.59835213,0.18006448,0.14203994,0.24843428,1.0708241,0.32961825,1.5713418,-1.7607377,-0.3777361,-0.013083135,0.15353099,1.1358982,-0.12019762
-0.2,0.10000000000000003,0.7999999999999999,-0.5235987755982988,-0.5235987755982988,0,1.3837681,0.59788805,0.16682151,0.124553874,0.2358756,1.0563594,0.3567928,-0.37374997,-1.7490027,-0.3024217,-0.03170578,-0.07357452,1.1965022,-0.9681497
-0.2,0.10000000000000003,0.7999999999999999,-0.5235987755982988,-0.5235987755982988,0,1.3882924,0.5864994,0.18146305,0.15076876,0.22123832,1.0544885,0.3329201,-0.19249035,-1.7467263,0.04509881,-0.026696498,0.013317408,1.207416,-1.1057165
-0.2,0.10000000000000003,0.7999999999999999,-0.5235987755982988,-0.5235987755982988,0,1.3927567,0.58992785,0.18169361,0.14399378,0.23706159,1.0698262,0.34748593,0.16553475,-1.6921,0.08433005,-0.11424913,0.23802845,1.0499603,0.07869102
-0.2,0.10000000000000003,0.7999999999999999,-0.5235987755982988,-0.5235987755982988,0,1.3934901,0.58457524,0.17576297,0.1583606,0.24850968,1.0470798,0.33589765,0.4332836,-1.8149244,0.112952106,-0.006264895,-0.06685056,1.1701974,-0.20874636
-0.2,0.10000000000000003,0.7999999999999999,-0.5235987755982988,-0.5235987755982988,0,1.383442,0.584128,0.16746907,0.15516691,0.22547731,1.0586203,0.37988478,-0.8264264,-1.6494273,-0.080040954,-0.05763411,0.024399998,1.1364539,-0.27521202
-0.2,0.10000000000000003,0.7999999999999999,-0.5235987755982988,-0.5235987755982988,0,1.3904194,0.5924999,0.19000566,0.15193349,0.2538887,1.0562925,0.3339135,1.4512237,-1.7375611,-0.011776026,-0.120631866,-0.19927102,1.033039,-0.9629665
-0.2,0.10000000000000003,0.7999999999999999,-0.5235987755982988,-0.5235987755982988,0,1.3833792,0.5921891,0.15280373,0.15252212,0.2425006,1.0667411,0.3489826,-0.23690692,-1.8071299,0.02724423,-0.087164834,0.07078812,1.2960801,-0.72276175
-0.2,0.10000000000000003,0.7999999999999999,-0.5235987755982988,-0.5235987755982988,0,1.3961793,0.5854445,0.16711907,0.14397387,0.21363477,1.0709591,0.3188631,-0.6384862,-1.8175207,0.26201874,-0.05879917,-0.2050379,1.1850413,-0.053401362
-0.2,0.10000000000000003,0.7999999999999999,-0.5235987755982988,-0.5235987755982988,0,1.3893496,0.5872585,0.16839403,0.1568431,0.24810492,1.0517148,0.35500476,-0.4269959,-1.8006179,-0.11664,0.058138452,-0.109224685,1.2252542,0.20938696
-0.2,0.10000000000000003,0.7999999999999999,-0.5235987755982988,-0.5235987755982988,0,1.3884969,0.5836053,0.17989492,0.16025688,0.24177809,1.0540822,0.37950435,-0.030664489,-1.7225069,-0.17079577,0.012623985,-0.10240484,1.1402416,-0.28484607
-0.2,0.10000000000000003,0.7999999999999999,-0.5235987755982988,-0.5235987755982988,0,1.3838235,0.58223176,0.17474551,0.15453826,0.23219119,1.0489203,0.38082805,0.48562714,-1.5814439,-0.021708556,-0.0846112,-0.1268986,1.108229,0.4409459
-0.2,0.10000000000000003,0.7999999999999999,-0.5235987755982988,-0.5235987755982988,0,1.3785161,0.5921998,0.17774317,0.16353752,0.19693452,1.0464865,0.32863817,-0.32080486,-1.7511793,-0.0032358447,-0.06646893,0.08074277,1.0869733,-0.08229498
-0.2,0.10000000000000003,0.7999999999999999,-0.5235987755982988,-0.5235987755982988,0,1.3853995,0.5889973,0.16632065,0.15765145,0.23223709,1.0565906,0.36540455,0.06674494,-1.7035029,-0.10440187,-0.052282654,-0.25065893,1.2720636,-1.0761169
-0.2,0.10000000000000003,0.7999999999999999,-0.5235987755982988,-0.5235987755982988,0,1.3906351,0.5868042,0.16672735,0.16405447,0.2086223,1.0512332,0.3355569,0.868945,-1.7800426,0.023637569,-0.10094412,-0.23843676,0.98513293,-0.28369692
-0.2,0.10000000000000003,0.7999999999999999,-0.5235987755982988,-0.5235987755982988,0,1.3901689,0.58513916,0.16757526,0.16888052,0.20897701,1.0464286,0.32050022,0.03135446,-1.6402367,0.19595958,-0.025533246,0.17377518,1.0828967,-0.57442987
-0.2,0.10000000000000003,0.7999999999999999,-0.5235987755982988,-0.5235987755982988,0,1.3915137,0.59333056,0.17369467,0.15409368,0.21905352,1.0590869,0.36803156,-1.7763667,-1.749526,-0.0069409376,-0.07776644,-0.38167056,1.3210671,-0.7922042
-0.2,0.10000000000000003,0.7999999999999999,-0.5235987755982988,-0.5235987755982988,0,1.3849554,0.58477503,0.15309012,0.15941314,0.24488014,1.0498861,0.34826216,0.7072179,-1.7210221,0.12687188,-0.012839116,-0.22484931,1.1483268,0.029102052
-0.2,0.10000000000000003,0.7999999999999999,-0.5235987755982988,-0.5235987755982988,0,1.395425,0.589859,0.17337623,0.16106927,0.19699368,1.0551096,0.33140582,0.7480647,-1.817076,0.05847639,-0.029536974,0.17545274,1.0239295,-0.26443282
-0.2,0.10000000000000003,0.7999999999999999,-0.5235987755982988,-0.5235987755982988,0,1.3840458,0.5928748,0.17493844,0.15506499,0.20293552,1.0609548,0.34388268,0.9379937,-1.5993886,-0.012127774,-0.048491504,0.09559315,1.0420517,-0.32912168
-0.2,0.10000000000000003,0.7999999999999999,-0.5235987755982988,-0.5235987755982988,0,1.38476,0.59110916,0.15694149,0.15203296,0.26228523,1.0660186,0.33755594,0.6367667,-1.6352774,-0.00028595398,-0.05677422,-0.12212354,1.1941586,-0.4197841
-0.2,0.10000000000000003,0.7999999999999999,-0.5235987755982988,-0.5235987755982988,0,1.3927497,0.58443785,0.15789098,0.15305097,0.23490897,1.068372,0.35608712,-0.21036047,-1.7768333,-0.1578996,-0.052129265,-0.2406454,1.2061981,-0.6261568
-0.2,0.10000000000000003,0.7999999999999999,-0.5235987755982988,-0.5235987755982988,0,1.3839067,0.5717164,0.1634471,0.16456655,0.20476419,1.0575807,0.37310937,-1.1289482,-1.8115385,0.061359487,-0.075655095,0.13324006,1.1977177,0.32524508
-0.2,0.10000000000000003,0.7999999999999999,-0.5235987755982988,-0.5235987755982988,0,1.3899148,0.59687924,0.16835743,0.15209843,0.21801907,1.0570567,0.3460243,-0.8722477,-1.8115395,0.10656632,-0.017890569,0.124582745,1.2008988,-1.1661254
-0.2,0.10000000000000003,0.7999999999999999,-0.5235987755982988,-0.5235987755982988,0,1.3983738,0.5860745,0.17423925,0.1510078,0.22328894,1.0374147,0.3441173,-0.72100395,-1.7767999,0.04833689,-0.038404737,0.03792031,1.209923,-0.60103
-0.2,0.10000000000000003,0.7999999999999999,-0.5235987755982988,-0.5235987755982988,0,1.3967012,0.5900461,0.16209178,0.14861862,0.23344535,1.0504017,0.3982752,-0.45410252,-1.6836245,0.024468021,-0.09333059,-0.18594113,1.2787209,-0.22800578
-0.2,0.10000000000000003,0.7999999999999999,-0.5235987755982988,-0.5235987755982988,0,1.3928684,0.6008283,0.17443208,0.13553625,0.22439447,1.0506632,0.37316555,-0.7985596,-1.8621193,-0.008675995,-0.03775181,0.10131587,1.117983,-0.27064177
-0.2,0.10000000000000003,0.7999999999999999,-0.5235987755982988,-0.5235987755982988,0,1.3928012,0.59631675,0.16452736,0.15231422,0.24488676,1.0662981,0.35570213,-0.018550735,-1.6722507,0.13101491,-0.038372967,-0.1230883,1.1264253,0.42003614
-0.2,0.10000000000000003,0.7999999999999999,-0.5235987755982988,-0.5235987755982988,0,1.3902236,0.5931756,0.18053493,0.15332462,0.21694475,1.0643107,0.38198662,-0.15330662,-1.7449305,0.18839324,-0.06641485,-0.13502316,1.1680841,0.10192951
-0.2,0.10000000000000003,0.7999999999999999,-0.5235987755982988,-0.5235987755982988,0,1.3949331,0.5734345,0.17414963,0.16894136,0.21872976,1.0547543,0.34916106,-0.38871843,-1.7799242,0.3466801,-0.0383486,0.13123825,1.2408363,0.19641341
-0.2,0.10000000000000003,0.7999999999999999,-0.5235987755982988,-0.5235987755982988,0,1.4056532,0.5859864,0.16790743,0.14924093,0.24483526,1.0656791,0.3721503,-0.3007386,-1.7607571,-0.24696495,-0.059758533,0.12842202,1.3231591,-0.7158696
-0.2,0.10000000000000003,0.7999999999999999,-0.5235987755982988,-0.5235987755982988,0,1.3957511,0.589602,0.1749659,0.14907375,0.22747536,1.050749,0.32248995,0.54072624,-1.6168274,0.25864485,-0.14210233,-0.32645282,1.1608249,-0.5251568
-0.2,0.10000000000000003,0.7999999999999999,-0.5235987755982988,-0.5235987755982988,0,1.4007883,0.5891194,0.18116443,0.14998695,0.2334999,1.0549512,0.3864375,-0.81302166,-1.6936132,-0.060264282,-0.02053166,-0.16448927,1.2616475,-0.52040684
-0.2,0.10000000000000003,0.7999999999999999,-0.5235987755982988,-0.5235987755982988,0,1.3907754,0.5850199,0.16728513,0.15799609,0.22665003,1.0685486,0.4018204,1.0964749,-1.7418525,0.22102606,-0.06492117,-0.074396916,1.2504908,-0.48104835
-0.2,0.10000000000000003,0.7999999999999999,-0.5235987755982988,-0.5235987755982988,0,1.3984416,0.58548725,0.18791711,0.14842814,0.23722035,1.0591398,0.31415144,0.037124675,-1.7367882,0.20450626,-0.049701918,-0.17781793,1.0003712,0.11358221
-0.2,0.10000000000000003,0.7999999999999999,-0.5235987755982988,-0.5235987755982988,0,1.397096,0.58942854,0.16632108,0.14469044,0.23003185,1.0539179,0.35724348,1.7044884,-1.6890845,0.07016602,0.03612011,0.10416989,1.1456493,-0.46086183
-0.2,0.10000000000000003,0.7999999999999999,-0.5235987755982988,-0.5235987755982988,0,1.3875612,0.5866723,0.17094105,0.14171016,0.23285122,1.0423775,0.3526684,-0.10006944,-1.7200891,0.2341014,0.013370868,-0.08244908,1.2487559,0.088457145
-0.2,0.10000000000000003,0.7999999999999999,-0.5235987755982988,-0.5235987755982988,0,1.3898245,0.5856374,0.17480448,0.14950314,0.21185753,1.0557989,0.27726653,0.784817,-1.6710914,-0.08407849,-0.081882544,-0.31966925,1.1422596,-0.7643017
-0.2,0.10000000000000003,0.7999999999999999,-0.5235987755982988,-0.5235987755982988,0,1.3908894,0.590524,0.17586382,0.14310984,0.23286465,1.0465041,0.2807137,-0.6096686,-1.9067047,-0.11789571,-0.015486433,0.22678772,1.133218,-0.43616965
-0.2,0.10000000000000003,0.7999999999999999,-0.5235987755982988,-0.5235987755982988,0,1.3951811,0.58568776,0.17102456,0.16095152,0.2201433,1.0438867,0.3841352,1.165728,-1.9400604,-0.072582915,-0.014452091,-0.23841734,0.9905509,0.37197614
-0.2,0.10000000000000003,0.7999999999999999,-0.5235987755982988,-0.5235987755982988,0,1.4015218,0.5809726,0.16080451,0.15481053,0.19713111,1.0625298,0.36632797,0.060096867,-1.699429,-0.03439487,-0.050703567,-0.19501783,1.335518,-1.1555955
-0.2,0.10000000000000003,0.7999999999999999,-0.5235987755982988,-0.5235987755982988,0,1.4017341,0.597457,0.1783513,0.16872302,0.20495978,1.0520866,0.34786403,0.17331475,-1.8437173,0.012447705,-0.10158805,0.2874176,1.1156689,0.39488405
-0.2,0.10000000000000003,0.7999999999999999,-0.5235987755982988,-0.5235987755982988,0,1.3963673,0.58386403,0.1664018,0.15240262,0.22456388,1.0511348,0.40688214,-0.14536558,-1.7239081,0.058705807,-0.083665,0.08797416,1.1538206,-0.48447967
-0.2,0.10000000000000003,0.7999999999999999,-0.5235987755982988,-0.5235987755982988,0,1.3845925,0.5860772,0.17099825,0.15696923,0.23763923,1.0600789,0.38367578,0.40919134,-1.6932647,0.043221317,-0.03624361,-0.042090777,1.2038691,-0.7830481
-0.2,0.10000000000000003,0.7999999999999999,-0.5235987755982988,-0.5235987755982988,0,1.3882266,0.5882892,0.17529689,0.14531617,0.23117605,1.0604606,0.33209428,1.4480581,-1.8263276,-0.05812263,-0.09947723,-0.055973567,1.1018662,-0.51285547
