sanky1234/BimanualDexCatch/isaacgymenvs/cem_results/football_pose_0.1_0.0_1.1999999999999997_0.0_-0.5235987755982988_0_2025-05-26.csv
x,y,z,roll,pitch,yaw,robot1/joint1,robot1/joint2,robot1/joint3,robot1/joint4,robot1/joint5,robot1/joint6,robot1/joint7,robot2/joint1,robot2/joint2,robot2/joint3,robot2/joint4,robot2/joint5,robot2/joint6,robot2/joint7
0.1,0.0,1.1999999999999997,0.0,-0.5235987755982988,0,-1.3479322,0.8144731,-0.75935316,0.6014999,-0.428261,1.3060464,-0.73521155,1.5186805,-1.3578805,-1.9246216,-0.052875057,-0.021540647,1.1057805,0.1197477
0.1,0.0,1.1999999999999997,0.0,-0.5235987755982988,0,-1.3482211,0.80987185,-0.7595452,0.60162324,-0.42927098,1.3048352,-0.73545533,1.2828968,-1.3335878,-1.5319282,-0.033673406,-0.07575038,1.206636,0.45651236
0.1,0.0,1.1999999999999997,0.0,-0.5235987755982988,0,-1.3486599,0.81155556,-0.7596663,0.6016183,-0.42960206,1.3050388,-0.7336339,1.0716256,-1.3879421,-1.1478771,-0.043561693,-0.08941728,1.1903852,-0.036434177
0.1,0.0,1.1999999999999997,0.0,-0.5235987755982988,0,-1.3483943,0.8150579,-0.7587182,0.6010336,-0.43105042,1.3042463,-0.73505855,0.6227143,-1.4026712,-2.8858702,-0.076059975,0.11606152,1.0151707,0.5501701
0.1,0.0,1.1999999999999997,0.0,-0.5235987755982988,0,-1.3481725,0.81153756,-0.75789464,0.60012054,-0.42919275,1.3051673,-0.7334396,1.9332825,-1.3855143,-2.611717,-0.097775534,0.056315497,1.2400446,1.6884328
0.1,0.0,1.1999999999999997,0.0,-0.5235987755982988,0,-1.347844,0.8153535,-0.75845784,0.6003233,-0.43047827,1.3058822,-0.734591,1.6132153,-1.3641441,-2.8649023,-0.044782612,0.037047602,1.1407765,0.23649056
0.1,0.0,1.1999999999999997,0.0,-0.5235987755982988,0,-1.3488839,0.8156304,-0.75873494,0.6021,-0.43118918,1.3052491,-0.73443794,1.1075071,-1.4086554,-1.7495327,-0.12227408,0.15031865,1.2151425,-1.0274554
0.1,0.0,1.1999999999999997,0.0,-0.5235987755982988,0,-1.347601,0.81322837,-0.759152,0.6008205,-0.4292263,1.3055661,-0.73395085,2.011865,-1.3676436,-2.4044816,0.00676956,-0.1489466,1.1290425,0.2310099
0.1,0.0,1.1999999999999997,0.0,-0.5235987755982988,0,-1.3484063,0.81201565,-0.75799894,0.6006684,-0.43039933,1.3049641,-0.73407763,1.5885731,-1.3676387,-1.9443678,-0.131764,-0.10907186,1.1634687,-0.15445352
0.1,0.0,1.1999999999999997,0.0,-0.5235987755982988,0,-1.3486964,0.81374407,-0.75804245,0.6005773,-0.43041337,1.305827,-0.735249,1.4203451,-1.3968042,-2.1907325,0.004715139,0.09118499,1.2024337,0.32548282
0.1,0.0,1.1999999999999997,0.0,-0.5235987755982988,0,-1.3493509,0.8132017,-0.759567,0.60090035,-0.42803565,1.3039061,-0.7362441,1.7320638,-1.4318874,-1.8001535,-0.07678451,0.1633839,1.2485546,0.017946098
0.1,0.0,1.1999999999999997,0.0,-0.5235987755982988,0,-1.3483655,0.8109471,-0.759592,0.6024459,-0.42987585,1.3043826,-0.7346893,1.799107,-1.3953127,-1.8919367,-0.10023077,0.037484348,1.140472,0.17527235
0.1,0.0,1.1999999999999997,0.0,-0.5235987755982988,0,-1.3497118,0.8065092,-0.7585446,0.6012404,-0.4297023,1.3058861,-0.7345998,0.6378046,-1.4171617,-1.5310432,-0.08378909,0.21172698,1.2174824,0.19695622
0.1,0.0,1.1999999999999997,0.0,-0.5235987755982988,0,-1.3499007,0.814652,-0.758887,0.60193396,-0.4295319,1.3052415,-0.73574376,1.7202004,-1.3870113,-1.9460158,-0.08373096,0.037222393,1.0871181,0.7262303
0.1,0.0,1.1999999999999997,0.0,-0.5235987755982988,0,-1.3482286,0.8107827,-0.75930685,0.6010771,-0.4296277,1.3045337,-0.7345033,1.7234118,-1.3896675,-2.033217,-0.10813087,0.06828275,1.1450025,0.28306946
0.1,0.0,1.1999999999999997,0.0,-0.5235987755982988,0,-1.3494246,0.8147292,-0.7592853,0.6003421,-0.42948425,1.3053596,-0.7340379,1.9957664,-1.3717732,-2.0228095,-0.057753365,0.23267215,1.0512376,0.48116553
0.1,0.0,1.1999999999999997,0.0,-0.5235987755982988,0,-1.3483925,0.81561977,-0.75920635,0.6020676,-0.4296304,1.3049377,-0.7331247,1.6200776,-1.3612574,-1.7312838,-0.038961846,0.050171852,1.1765133,-0.5860421
0.1,0.0,1.1999999999999997,0.0,-0.5235987755982988,0,-1.3477625,0.8093115,-0.75899184,0.60121775,-0.42795154,1.3026422,-0.73471445,1.5607631,-1.4099884,-1.5265765,-0.07857238,-0.036786094,1.2286958,0.8355508
0.1,0.0,1.1999999999999997,0.0,-0.5235987755982988,0,-1.3491607,0.814032,-0.75952834,0.60235703,-0.42890248,1.3049631,-0.7333459,1.4393184,-1.3965018,-2.0395415,-0.031565458,0.0039932183,1.1495738,-0.15893282
0.1,0.0,1.1999999999999997,0.0,-0.5235987755982988,0,-1.3478572,0.8095205,-0.75993705,0.60223305,-0.42878515,1.306356,-0.73701704,1.8014094,-1.4081858,-1.9962697,-0.09067137,0.2030207,1.0726784,-0.15547708
0.1,0.0,1.1999999999999997,0.0,-0.5235987755982988,0,-1.3493147,0.8118796,-0.7581568,0.6009952,-0.4300774,1.3048333,-0.7346094,1.3848104,-1.3925518,-1.5565065,-0.041118313,-0.024733968,1.1372714,-0.14760658
0.1,0.0,1.1999999999999997,0.0,-0.5235987755982988,0,-1.3483622,0.8108177,-0.75969875,0.6020641,-0.43017852,1.3034402,-0.7340491,1.1095917,-1.3820944,-2.1989594,-0.011126134,0.06372385,1.0932944,0.3339738
0.1,0.0,1.1999999999999997,0.0,-0.5235987755982988,0,-1.3477886,0.8134431,-0.7584487,0.601637,-0.43040657,1.303748,-0.7353864,1.668626,-1.3995565,-2.3826797,-0.058997333,-0.149454,1.0579329,0.40845686
0.1,0.0,1.1999999999999997,0.0,-0.5235987755982988,0,-1.3473927,0.8120339,-0.76023877,0.6020444,-0.42936316,1.304622,-0.7363113,1.6850344,-1.4393613,-2.852906,-0.015264231,0.08660855,1.1665127,-0.10030275
0.1,0.0,1.1999999999999997,0.0,-0.5235987755982988,0,-1.3478143,0.812358,-0.75918525,0.6006694,-0.42886338,1.3048176,-0.7346354,1.4291711,-1.3855287,-1.8397627,-0.09683673,-0.042896423,1.1384909,0.6424394
0.1,0.0,1.1999999999999997,0.0,-0.5235987755982988,0,-1.3486397,0.8160871,-0.7586135,0.6018126,-0.43032902,1.3040692,-0.7350196,0.9239108,-1.4007081,-2.2747498,-0.047092844,0.077541426,1.2210433,0.94640636
0.1,0.0,1.1999999999999997,0.0,-0.5235987755982988,0,-1.3476049,0.81215143,-0.7594817,0.60168886,-0.42961904,1.3044944,-0.7333619,1.3143674,-1.3816215,-1.6997868,-0.06737933,-0.055257004,1.2192545,0.2872595
0.1,0.0,1.1999999999999997,0.0,-0.5235987755982988,0,-1.3474213,0.8110221,-0.75969243,0.60074025,-0.4296221,1.3039613,-0.73274153,1.8715383,-1.34464,-2.150544,-0.001187872,-0.045528736,1.1973084,0.2519812
0.1,0.0,1.1999999999999997,0.0,-0.5235987755982988,0,-1.349254,0.8143704,-0.7583938,0.60178584,-0.4296537,1.3056022,-0.73410887,1.6852535,-1.3659842,-1.4889643,-0.09839736,0.04085881,1.0689641,0.6420927
0.1,0.0,1.1999999999999997,0.0,-0.5235987755982988,0,-1.3494822,0.81715167,-0.75875044,0.60218173,-0.42986456,1.3037232,-0.7335443,1.7723206,-1.3514656,-1.9928302,-0.015491839,0.056104336,1.1800575,0.06882658
0.1,0.0,1.1999999999999997,0.0,-0.5235987755982988,0,-1.3485233,0.81335515,-0.7590383,0.6020281,-0.4293862,1.3044386,-0.73427325,1.8082759,-1.4270843,-1.5649257,-0.09296613,-0.032828066,1.150876,-0.46687415
0.1,0.0,1.1999999999999997,0.0,-0.5235987755982988,0,-1.3492073,0.8115092,-0.7587942,0.60022,-0.43011445,1.3063815,-0.7331638,2.6265407,-1.3508992,-1.6102939,-0.07085709,-0.017645283,1.1870453,0.27333042
0.1,0.0,1.1999999999999997,0.0,-0.5235987755982988,0,-1.3478297,0.8140968,-0.7594678,0.6013415,-0.42901626,1.3042544,-0.7347024,2.1529648,-1.3949018,-2.8735673,-0.015629303,0.08360776,1.1791384,1.2282157
0.1,0.0,1.1999999999999997,0.0,-0.5235987755982988,0,-1.3477626,0.81257385,-0.75835854,0.60135067,-0.4289087,1.3057971,-0.73480135,0.91353416,-1.3802519,-2.4000494,-0.03776453,-0.12241907,1.061628,0.43142828
0.1,0.0,1.1999999999999997,0.0,-0.5235987755982988,0,-1.348089,0.811341,-0.75884646,0.6012504,-0.4299216,1.3042102,-0.73442703,1.5018294,-1.3577238,-2.1598227,-0.09024374,-0.08157857,1.1450675,0.41574946
0.1,0.0,1.1999999999999997,0.0,-0.5235987755982988,0,-1.348165,0.8128331,-0.7587307,0.6019266,-0.42947796,1.3070819,-0.73331386,1.7027276,-1.37659,-2.5080075,-0.08780069,-0.002764359,1.1193672,-0.033734143
0.1,0.0,1.1999999999999997,0.0,-0.5235987755982988,0,-1.3494588,0.81332433,-0.758849,0.6003774,-0.4301582,1.3043407,-0.7368192,1.7641376,-1.4189745,-2.4915116,-0.12175543,0.18341441,1.094951,0.35292628
0.1,0.0,1.1999999999999997,0.0,-0.5235987755982988,0,-1.3477061,0.81249464,-0.7591993,0.60108244,-0.42962542,1.3062125,-0.7343273,1.1580664,-1.4094971,-1.9734342,-0.0062933885,0.0034823418,1.1405144,0.05994183
0.1,0.0,1.1999999999999997,0.0,-0.5235987755982988,0,-1.3497243,0.811875,-0.758353,0.60181457,-0.42914972,1.3050789,-0.7333734,1.0203004,-1.3855633,-1.4780433,-0.14589395,0.00028150505,1.2044314,0.62226564
0.1,0.0,1.1999999999999997,0.0,-0.5235987755982988,0,-1.3483839,0.8140892,-0.7585905,0.6004397,-0.42867005,1.3048285,-0.73299974,1.2673637,-1.3863859,-2.9723938,-0.065347135,0.07389531,1.1903528,0.4948307
0.1,0.0,1.1999999999999997,0.0,-0.5235987755982988,0,-1.3484322,0.81429046,-0.75863564,0.60157657,-0.4281867,1.306239,-0.733492,2.1511939,-1.3573986,-2.5080123,-0.016716467,0.10155799,1.1527536,-0.17685045
0.1,0.0,1.1999999999999997,0.0,-0.5235987755982988,0,-1.3497008,0.812825,-0.758862,0.6013895,-0.4317472,1.304188,-0.73340267,1.5645223,-1.3659885,-2.2007573,-0.029400047,0.06909825,1.09906,0.70909023
0.1,0.0,1.1999999999999997,0.0,-0.5235987755982988,0,-1.3487378,0.8088118,-0.7580864,0.6003519,-0.43122047,1.3047098,-0.73283124,2.1748621,-1.4492669,-2.5677347,-0.052129507,0.06482019,1.2045965,-0.18443614
0.1,0.0,1.1999999999999997,0.0,-0.5235987755982988,0,-1.3486906,0.81246203,-0.75890374,0.6014871,-0.42984495,1.3043137,-0.7342784,1.7248151,-1.3659263,-2.406718,-0.011043116,0.13429227,1.1227165,1.021345
0.1,0.0,1.1999999999999997,0.0,-0.5235987755982988,0,-1.3461251,0.80904824,-0.7583878,0.6011784,-0.43026438,1.3039734,-0.7335133,2.0617847,-1.3353745,-3.0539129,-0.12849975,0.22139724,1.1171067,-0.90687174
0.1,0.0,1.1999999999999997,0.0,-0.5235987755982988,0,-1.348501,0.8121902,-0.75874585,0.6013393,-0.42887977,1.305295,-0.7329555,0.69574857,-1.3827946,-1.6871969,-0.05779447,-0.049058706,1.1178191,0.16474608
0.1,0.0,1.1999999999999997,0.0,-0.5235987755982988,0,-1.3486359,0.8105509,-0.75896615,0.60151684,-0.42938626,1.3058243,-0.7335508,1.9966283,-1.3213161,-1.9463168,-0.054282453,-0.13139182,1.1140475,1.0177714
0.1,0.0,1.1999999999999997,0.0,-0.5235987755982988,0,-1.3486713,0.8131106,-0.75809157,0.60117465,-0.4302618,1.3049041,-0.73495924,2.1662657,-1.3877931,-1.8843305,-0.08798654,0.103683345,1.1790329,0.98941725
0.1,0.0,1.1999999999999997,0.0,-0.5235987755982988,0,-1.3488458,0.8105911,-0.7596511,0.6009671,-0.42983788,1.3054401,-0.73477346,1.6768944,-1.3826163,-1.9569722,-0.049686857,-0.014180247,1.0936806,1.4313222
0.1,0.0,1.1999999999999997,0.0,-0.5235987755982988,0,-1.3489907,0.80858815,-0.7578683,0.60221726,-0.43044642,1.3050092,-0.73541564,1.1076907,-1.3921686,-2.1771784,-0.10646617,0.06071826,1.1512488,-0.07340903
0.1,0.0,1.1999999999999997,0.0,-0.5235987755982988,0,-1.3488852,0.81526357,-0.75904167,0.6008714,-0.4288169,1.3047453,-0.7335189,1.8059497,-1.3305331,-2.3160996,-0.052041426,-0.038391482,1.164619,0.78784776
0.1,0.0,1.1999999999999997,0.0,-0.5235987755982988,0,-1.3487074,0.8140328,-0.75912225,0.60194534,-0.43092883,1.3050432,-0.733413,2.0741465,-1.3777702,-2.126287,-0.066897556,-0.011521356,1.0330483,0.548781
0.1,0.0,1.1999999999999997,0.0,-0.5235987755982988,0,-1.3474914,0.8141264,-0.75988054,0.60178125,-0.4291063,1.305756,-0.7335109,1.5894471,-1.4172593,-1.9467474,-0.10909784,-0.008144828,1.1458851,0.28747228
0.1,0.0,1.1999999999999997,0.0,-0.5235987755982988,0,-1.348807,0.80975765,-0.7585535,0.6017584,-0.43030056,1.3046681,-0.7325761,1.6892295,-1.3764387,-2.3584235,-0.03800838,0.05733108,1.1265773,-0.68616384
0.1,0.0,1.1999999999999997,0.0,-0.5235987755982988,0,-1.3481042,0.8133522,-0.75960356,0.6018984,-0.43017647,1.3047074,-0.7364411,1.7786955,-1.3808025,-2.056497,-0.06912518,-0.069844544,1.1472034,0.13876739
0.1,0.0,1.1999999999999997,0.0,-0.5235987755982988,0,-1.3490877,0.81642324,-0.75962496,0.6023112,-0.42985702,1.3059309,-0.7341715,1.0613307,-1.3833241,-2.0996788,-0.06353642,0.05288442,1.0476989,0.1565124
0.1,0.0,1.1999999999999997,0.0,-0.5235987755982988,0,-1.3487089,0.81349546,-0.7587891,0.6019062,-0.42932186,1.3045461,-0.73499197,1.3497663,-1.4107997,-1.7668109,-0.05597246,0.016573397,1.1022536,0.10188189
0.1,0.0,1.1999999999999997,0.0,-0.5235987755982988,0,-1.3486538,0.8150459,-0.7581655,0.60232055,-0.4297376,1.3046186,-0.7338724,2.2251117,-1.349693,-2.4231439,-0.04840209,-0.1317813,1.1774986,0.082492895
0.1,0.0,1.1999999999999997,0.0,-0.5235987755982988,0,-1.3480313,0.8126428,-0.75830954,0.60097724,-0.42926738,1.3036786,-0.7353462,1.6961076,-1.3663704,-2.943177,-0.0748889,0.18017368,1.1260461,0.47289166
0.1,0.0,1.1999999999999997,0.0,-0.5235987755982988,0,-1.3479459,0.81406415,-0.758926,0.60014457,-0.42937875,1.3064779,-0.73448044,1.7631712,-1.339114,-2.300901,-0.06656582,0.060379792,1.097255,0.24219571
0.1,0.0,1.1999999999999997,0.0,-0.5235987755982988,0,-1.3475318,0.8108377,-0.7594562,0.599292,-0.42980042,1.3049896,-0.73276514,1.9794909,-1.3841819,-2.1500285,-0.051593542,0.09414687,1.1679232,-0.43464804
0.1,0.0,1.1999999999999997,0.0,-0.5235987755982988,0,-1.3473788,0.81408787,-0.75867033,0.6008174,-0.43019757,1.3038328,-0.73616415,1.1460639,-1.3495059,-2.6565895,-0.041811664,-0.17018916,1.1685276,-0.57570547
0.1,0.0,1.1999999999999997,0.0,-0.5235987755982988,0,-1.3471423,0.81091714,-0.75896496,0.6012285,-0.42997435,1.3068852,-0.73558193,0.6412722,-1.4011757,-2.5934691,-0.09220263,-0.18088971,1.1167309,-0.130522
0.1,0.0,1.1999999999999997,0.0,-0.5235987755982988,0,-1.3484999,0.8133542,-0.7587077,0.6016008,-0.42949563,1.304457,-0.73401403,1.514759,-1.346519,-2.5302446,0.022019157,0.050176255,1.1959826,-0.31044027
0.1,0.0,1.1999999999999997,0.0,-0.5235987755982988,0,-1.3487139,0.8125881,-0.7594676,0.60176474,-0.429623,1.304138,-0.7329399,0.73637664,-1.3785287,-2.1103034,-0.05591791,0.07344038,1.1848319,1.3160653
0.1,0.0,1.1999999999999997,0.0,-0.5235987755982988,0,-1.3479943,0.8113927,-0.7596493,0.6013989,-0.4274141,1.3042744,-0.7360037,1.7875756,-1.3858184,-2.1395946,0.0040859226,0.03127855,1.2585058,0.61714995
0.1,0.0,1.1999999999999997,0.0,-0.5235987755982988,0,-1.3472719,0.81317455,-0.7590437,0.6014638,-0.4297195,1.3056979,-0.73328257,1.7976344,-1.4464062,-2.0560896,-0.09171877,0.009128177,1.1103435,-0.8650766
0.1,0.0,1.1999999999999997,0.0,-0.5235987755982988,0,-1.3490932,0.81109387,-0.7585905,0.6019352,-0.42950585,1.3058363,-0.73627204,1.7861172,-1.3647497,-2.0026135,-0.060597546,-0.101313405,1.1236131,0.44678378
0.1,0.0,1.1999999999999997,0.0,-0.5235987755982988,0,-1.3494767,0.8128488,-0.7580574,0.60051847,-0.43008602,1.3054991,-0.7357054,1.4530908,-1.3523862,-2.5501175,-0.031164031,0.05214708,1.1990321,1.0312343
0.1,0.0,1.1999999999999997,0.0,-0.5235987755982988,0,-1.3480731,0.81243473,-0.75865024,0.6007063,-0.4288174,1.3054132,-0.7322857,1.3734457,-1.3780663,-2.3320048,-0.08977588,-0.029371783,1.0832949,1.4115654
0.1,0.0,1.1999999999999997,0.0,-0.5235987755982988,0,-1.347688,0.8145198,-0.7591389,0.6010509,-0.42982113,1.3059416,-0.7360504,2.0114257,-1.3920447,-2.7107055,-0.07674325,0.115870744,1.0957246,0.6861354
0.1,0.0,1.1999999999999997,0.0,-0.5235987755982988,0,-1.3494684,0.81380624,-0.75852007,0.60149443,-0.42907187,1.3062183,-0.73385704,1.7225623,-1.3824962,-1.8939515,-0.08446908,-0.05105122,1.1377988,-0.03898244
0.1,0.0,1.1999999999999997,0.0,-0.5235987755982988,0,-1.3479581,0.80794483,-0.75908285,0.6004636,-0.4289372,1.3037541,-0.7323691,1.5173488,-1.3544971,-2.9189048,-0.031633675,-0.010689948,1.2202653,0.5852049
0.1,0.0,1.1999999999999997,0.0,-0.5235987755982988,0,-1.34764,0.81570727,-0.75912297,0.6008301,-0.42871255,1.3059118,-0.73592913,1.8976994,-1.417203,-2.7238255,-0.056859296,0.21119756,1.1618177,0.3503508
0.1,0.0,1.1999999999999997,0.0,-0.5235987755982988,0,-1.3487328,0.81611466,-0.7587918,0.6004195,-0.42891344,1.3049833,-0.73427534,1.6267395,-1.3559132,-2.691615,-0.09654184,-0.029204268,1.1551491,0.82605124
0.1,0.0,1.1999999999999997,0.0,-0.5235987755982988,0,-1.3490857,0.81275237,-0.7581162,0.6011007,-0.42934707,1.3033439,-0.7331012,1.1568376,-1.3887943,-2.5512316,-0.06512691,0.15157898,1.0968244,-0.2550041
0.1,0.0,1.1999999999999997,0.0,-0.5235987755982988,0,-1.3489157,0.8104077,-0.75880694,0.60073864,-0.43027988,1.3049259,-0.7342368,1.470634,-1.3539555,-1.9593798,-0.05059433,0.09811788,1.0754232,-0.133947
0.1,0.0,1.1999999999999997,0.0,-0.5235987755982988,0,-1.3470498,0.81116897,-0.7592818,0.6009952,-0.4289937,1.3065547,-0.7324522,2.0714166,-1.4077109,-2.424416,-0.0067854472,0.053190432,1.1635057,0.8119064
0.1,0.0,1.1999999999999997,0.0,-0.5235987755982988,0,-1.3481063,0.814697,-0.758964,0.60119414,-0.4297984,1.3056266,-0.73374593,2.3831244,-1.3708966,-2.5983703,-0.09411662,-0.058458734,1.1334434,0.24395238
0.1,0.0,1.1999999999999997,0.0,-0.5235987755982988,0,-1.3476491,0.81123716,-0.7587207,0.60221535,-0.43033248,1.304855,-0.73548436,1.5441343,-1.3823702,-2.9863815,-0.029849088,0.03524498,1.1664016,0.5103648
0.1,0.0,1.1999999999999997,0.0,-0.5235987755982988,0,-1.3480856,0.81307524,-0.75918,0.6015398,-0.43019015,1.306286,-0.73198605,2.0700514,-1.3784292,-2.0391877,-0.0263786,0.07650847,1.0685722,0.5429639
0.1,0.0,1.1999999999999997,0.0,-0.5235987755982988,0,-1.349123,0.8111377,-0.75884724,0.60191983,-0.42952254,1.3043398,-0.7353994,1.6609899,-1.3679649,-2.3584878,-0.013908257,-0.011980711,1.0874608,0.664279
0.1,0.0,1.1999999999999997,0.0,-0.5235987755982988,0,-1.3476949,0.81094563,-0.75939673,0.60032743,-0.42899996,1.3065859,-0.73356205,1.8701959,-1.4180543,-1.9882793,-0.044972815,0.15579548,1.1421176,0.76185024
0.1,0.0,1.1999999999999997,0.0,-0.5235987755982988,0,-1.3475888,0.8124901,-0.75899994,0.6012959,-0.4293343,1.3050041,-0.73396283,0.8638733,-1.3844811,-2.2372372,-0.14927134,-0.15906315,1.1718931,1.1881889
0.1,0.0,1.1999999999999997,0.0,-0.5235987755982988,0,-1.3476236,0.80947083,-0.7595582,0.6017538,-0.42919165,1.3070017,-0.73555493,1.9184397,-1.4029982,-1.6190861,-0.09120417,0.23383725,1.149814,0.45885944
0.1,0.0,1.1999999999999997,0.0,-0.5235987755982988,0,-1.3483127,0.8107063,-0.7596878,0.6017282,-0.42945653,1.3044596,-0.7347009,1.2536054,-1.4001235,-2.462579,-0.091845416,-0.013666405,1.1665688,0.40938324
0.1,0.0,1.1999999999999997,0.0,-0.5235987755982988,0,-1.3483896,0.8139915,-0.75905323,0.6008706,-0.42947727,1.305413,-0.735389,0.9150557,-1.3647608,-2.2640374,-0.057872184,0.0027090095,1.1393625,-0.22612917
0.1,0.0,1.1999999999999997,0.0,-0.5235987755982988,0,-1.3477196,0.8122985,-0.7590656,0.60127854,-0.43027857,1.305447,-0.7345709,2.1700318,-1.4156561,-2.2835999,-0.034123722,-0.09574476,1.1609837,1.2529238
0.1,0.0,1.1999999999999997,0.0,-0.5235987755982988,0,-1.3497503,0.81491196,-0.7590008,0.6012914,-0.42877287,1.304079,-0.7329834,2.3589585,-1.3783715,-2.4181037,-0.0918551,-0.04618989,1.1757356,-0.36688286
0.1,0.0,1.1999999999999997,0.0,-0.5235987755982988,0,-1.349828,0.81632143,-0.7582541,0.60074604,-0.4298451,1.3086618,-0.73424757,2.0563526,-1.4009439,-2.1686149,-0.031277984,-0.1435485,1.1829673,0.14573728
0.1,0.0,1.1999999999999997,0.0,-0.5235987755982988,0,-1.348685,0.8115621,-0.7580772,0.601268,-0.43019837,1.3061597,-0.7351244,2.2987678,-1.4370563,-2.0860953,-0.11658284,0.06274872,1.1804711,-0.09794647
0.1,0.0,1.1999999999999997,0.0,-0.5235987755982988,0,-1.3484446,0.8115238,-0.7591613,0.60241866,-0.42985752,1.3052733,-0.7335357,2.008508,-1.3905786,-1.6720047,-0.11336332,0.13790101,1.1669551,1.2768852
0.1,0.0,1.1999999999999997,0.0,-0.5235987755982988,0,-1.3496792,0.8111029,-0.7594798,0.6008979,-0.42873773,1.3059336,-0.73431927,1.4087647,-1.4084815,-2.3137622,-0.10479375,-0.047932576,1.2324464,-0.7890503
0.1,0.0,1.1999999999999997,0.0,-0.5235987755982988,0,-1.3489443,0.81469655,-0.7580395,0.60066116,-0.43056917,1.3052824,-0.73406506,2.1632578,-1.3828194,-2.7589738,-0.09019361,0.033737883,1.2357266,-0.6443159
0.1,0.0,1.1999999999999997,0.0,-0.5235987755982988,0,-1.3482921,0.81111276,-0.75927633,0.60076284,-0.43076396,1.3053155,-0.734706,2.1133566,-1.4129236,-2.043736,-0.071934246,0.061555646,1.1260237,0.63288146
0.1,0.0,1.1999999999999997,0.0,-0.5235987755982988,0,-1.3473197,0.8124632,-0.7601274,0.6018359,-0.42914972,1.3045784,-0.7358953,1.1598488,-1.3799825,-2.7238305,-0.1547234,0.11433164,1.1721196,0.91783315
0.1,0.0,1.1999999999999997,0.0,-0.5235987755982988,0,-1.347706,0.81086457,-0.7575941,0.6021199,-0.42995867,1.3056055,-0.7323048,1.1583432,-1.3934042,-2.4077482,-0.10437325,-0.07621819,1.1295444,1.0512267
0.1,0.0,1.1999999999999997,0.0,-0.5235987755982988,0,-1.3478917,0.8145427,-0.75943863,0.6011075,-0.42960697,1.3073746,-0.73510414,1.5828058,-1.3879824,-2.2297158,-0.044496696,0.006218641,1.2396163,1.408019
0.1,0.0,1.1999999999999997,0.0,-0.5235987755982988,0,-1.3507551,0.8159451,-0.75920594,0.6007174,-0.4296719,1.3060524,-0.7333688,2.091222,-1.3465967,-1.7530003,-0.07675185,-0.07424931,1.2295744,-0.13139094
0.1,0.0,1.1999999999999997,0.0,-0.5235987755982988,0,-1.3493208,0.8150229,-0.75941753,0.6021544,-0.42832646,1.3048187,-0.73200023,1.5939521,-1.3828206,-2.0464947,-0.17538764,0.04709543,1.1657778,0.59006727
0.1,0.0,1.1999999999999997,0.0,-0.5235987755982988,0,-1.3477674,0.8133393,-0.7589912,0.6023644,-0.43043226,1.3051751,-0.7334461,1.9923844,-1.4000549,-2.6213422,-0.00794699,-0.052085023,1.1496696,0.28463176
0.1,0.0,1.1999999999999997,0.0,-0.5235987755982988,0,-1.3473853,0.8129067,-0.7593879,0.6016028,-0.42954442,1.3046006,-0.73392695,0.5107367,-1.3604398,-2.5874631,-0.04905335,0.0047162166,1.2416782,0.6649618
0.1,0.0,1.1999999999999997,0.0,-0.5235987755982988,0,-1.3481578,0.81241196,-0.7589726,0.60246366,-0.42944667,1.3051078,-0.7325489,2.2758915,-1.4175298,-2.0308459,-0.022491902,-0.09059837,1.2090524,1.0639894
0.1,0.0,1.1999999999999997,0.0,-0.5235987755982988,0,-1.3484843,0.8079904,-0.75810796,0.6012135,-0.42935905,1.3051864,-0.7346283,1.1416508,-1.4226321,-2.6047852,-0.06883518,0.013993921,1.1416355,0.5542007
0.1,0.0,1.1999999999999997,0.0,-0.5235987755982988,0,-1.3473854,0.8080376,-0.75948554,0.6015359,-0.42935717,1.304461,-0.7361843,1.7532277,-1.3959111,-2.0304515,-0.11361628,0.009061113,1.1329751,0.325464
0.1,0.0,1.1999999999999997,0.0,-0.5235987755982988,0,-1.3483891,0.8128636,-0.75892234,0.6016893,-0.42985988,1.3047451,-0.73341423,1.1754433,-1.3786477,-2.5615795,-0.08829137,0.06566636,1.2107458,-0.40084895
0.1,0.0,1.1999999999999997,0.0,-0.5235987755982988,0,-1.3483957,0.8087899,-0.7585005,0.60070235,-0.4283504,1.3055692,-0.73558605,2.1854367,-1.3838992,-2.0176983,-0.0981209,-0.048014723,1.0934579,0.66172487
0.1,0.0,1.1999999999999997,0.0,-0.5235987755982988,0,-1.3488775,0.81189483,-0.75991577,0.60064167,-0.4309332,1.306165,-0.73270345,0.69391966,-1.3460026,-2.1122704,-0.12676804,-0.030908046,1.1204741,-1.1254153
0.1,0.0,1.1999999999999997,0.0,-0.5235987755982988,0,-1.3487877,0.81247485,-0.7577024,0.60252637,-0.42967436,1.3052729,-0.73372394,0.9053269,-1.3886322,-2.6801906,-0.06847902,-0.015937485,1.1352332,0.89789575
0.1,0.0,1.1999999999999997,0.0,-0.5235987755982988,0,-1.3484064,0.81162286,-0.75838846,0.60101765,-0.42995763,1.3061663,-0.7347358,1.2818428,-1.3418534,-2.1685317,-0.07596348,0.17168632,1.2092996,-0.346339
0.1,0.0,1.1999999999999997,0.0,-0.5235987755982988,0,-1.3483208,0.80735725,-0.75877553,0.60229176,-0.4295023,1.303916,-0.73274946,1.5758892,-1.3623347,-3.0842147,-0.04350275,-0.106658846,1.1548995,-0.227255
0.1,0.0,1.1999999999999997,0.0,-0.5235987755982988,0,-1.3484741,0.81272733,-0.7588415,0.60163844,-0.4296669,1.3052443,-0.7348747,2.062596,-1.4081981,-2.3753288,-0.047649346,0.16710445,1.1951246,-0.28845385
0.1,0.0,1.1999999999999997,0.0,-0.5235987755982988,0,-1.3484251,0.8129848,-0.75899774,0.6017977,-0.42914698,1.3068489,-0.73315215,1.7723291,-1.3781238,-2.2407937,-0.047752146,-0.19406252,1.1967654,0.7308489
0.1,0.0,1.1999999999999997,0.0,-0.5235987755982988,0,-1.348498,0.8117044,-0.75987726,0.60181266,-0.42849177,1.3045226,-0.7349735,1.1243148,-1.3498526,-2.7231145,-0.11504125,0.1873291,1.1104991,0.9896064
0.1,0.0,1.1999999999999997,0.0,-0.5235987755982988,0,-1.3495172,0.8097405,-0.7592591,0.6016958,-0.42842337,1.305622,-0.7317165,2.6122525,-1.4016675,-2.4788313,-0.05131221,0.17157911,1.0982723,0.19733773
0.1,0.0,1.1999999999999997,0.0,-0.5235987755982988,0,-1.3484718,0.8122724,-0.7588605,0.60114765,-0.42855847,1.3060566,-0.7344983,0.8337063,-1.3862728,-2.4861596,-0.03923802,0.1926181,1.2114912,-0.07611118
0.1,0.0,1.1999999999999997,0.0,-0.5235987755982988,0,-1.3484765,0.80741537,-0.7584185,0.6007827,-0.42964044,1.3039129,-0.7334144,1.3612385,-1.3722475,-3.0315404,-0.062180195,0.061510496,1.1279994,-0.094555326
0.1,0.0,1.1999999999999997,0.0,-0.5235987755982988,0,-1.3488709,0.81110704,-0.7587207,0.6012874,-0.42907476,1.304902,-0.7336142,0.67296565,-1.3750447,-1.9760509,-0.011087044,-0.019085232,1.166708,0.27002084
0.1,0.0,1.1999999999999997,0.0,-0.5235987755982988,0,-1.3486285,0.8105361,-0.75876576,0.6020022,-0.42891386,1.3060375,-0.733687,0.8362187,-1.3524994,-2.1537812,-0.11193085,0.1165832,1.1364503,-0.41177604
0.1,0.0,1.1999999999999997,0.0,-0.5235987755982988,0,-1.3485146,0.811416,-0.75897396,0.60077107,-0.42879668,1.3064822,-0.7353146,2.2139795,-1.400443,-2.0302505,-0.047970895,-0.010886105,1.1401216,1.0134914
0.1,0.0,1.1999999999999997,0.0,-0.5235987755982988,0,-1.3481431,0.809756,-0.7588459,0.6020768,-0.42959186,1.3042904,-0.7316813,2.021974,-1.3764578,-2.3023205,-0.09310088,0.11833648,1.2303208,-0.83602196
0.1,0.0,1.1999999999999997,0.0,-0.5235987755982988,0,-1.3480453,0.80889076,-0.7589157,0.5994548,-0.43061858,1.3043823,-0.73461986,1.7928007,-1.3679422,-2.2637072,-0.08466561,0.06702962,1.1963936,0.80124086
0.1,0.0,1.1999999999999997,0.0,-0.5235987755982988,0,-1.3483156,0.80816376,-0.76016086,0.6026697,-0.42983836,1.3043028,-0.73678786,1.9977378,-1.3860042,-2.9792395,-0.05453099,0.049908772,1.2897489,1.0898683
0.1,0.0,1.1999999999999997,0.0,-0.5235987755982988,0,-1.3487275,0.8122431,-0.7583331,0.6024722,-0.4302555,1.3046837,-0.7332973,1.4346949,-1.3593696,-2.754872,0.025914766,-0.042137504,1.1636418,0.573315
0.1,0.0,1.1999999999999997,0.0,-0.5235987755982988,0,-1.348485,0.8119918,-0.7590906,0.6003517,-0.42942598,1.3063273,-0.73532635,1.3395127,-1.3803045,-2.5021796,-0.06011563,0.04879415,1.0871472,0.531625
0.1,0.0,1.1999999999999997,0.0,-0.5235987755982988,0,-1.3481109,0.809197,-0.7595849,0.60261595,-0.43044692,1.3051195,-0.7324146,2.171,-1.3280033,-1.361404,-0.13651338,-0.10264792,1.1727188,1.2164356
0.1,0.0,1.1999999999999997,0.0,-0.5235987755982988,0,-1.3485174,0.81381005,-0.75923365,0.60209036,-0.4299644,1.3061582,-0.73338944,1.5876104,-1.3820585,-2.3693016,-0.055196352,0.2049518,1.2481842,0.60251766
0.1,0.0,1.1999999999999997,0.0,-0.5235987755982988,0,-1.3492863,0.8151814,-0.7585666,0.6021619,-0.4289717,1.3060148,-0.7326736,2.6163423,-1.4041885,-2.5740163,-0.07557482,0.16655704,1.0714245,0.3317476
0.1,0.0,1.1999999999999997,0.0,-0.5235987755982988,0,-1.3486071,0.8111248,-0.75896424,0.60103565,-0.42970866,1.3044282,-0.7332796,1.6174486,-1.357911,-2.55593,-0.07001172,-0.20066652,1.1757897,-0.7307279
0.1,0.0,1.1999999999999997,0.0,-0.5235987755982988,0,-1.3497765,0.814143,-0.7584871,0.60110617,-0.43003264,1.3055791,-0.73513573,1.4956212,-1.4097004,-2.5090117,-0.0532394,0.06277371,1.1238182,0.1877199
0.1,0.0,1.1999999999999997,0.0,-0.5235987755982988,0,-1.3488321,0.81232303,-0.76020205,0.60074955,-0.43101195,1.3055838,-0.73265636,1.3780148,-1.3918531,-1.6670128,-0.0683492,0.018925557,1.090549,-0.8070937
0.1,0.0,1.1999999999999997,0.0,-0.5235987755982988,0,-1.3481627,0.8098478,-0.7601104,0.6003185,-0.4291043,1.30625,-0.73333573,2.1889348,-1.4135178,-1.7442968,-0.081232965,6.964498e-05,1.1984609,0.71275365
0.1,0.0,1.1999999999999997,0.0,-0.5235987755982988,0,-1.3476205,0.81256634,-0.7584912,0.5993528,-0.4281559,1.3045273,-0.7341084,1.3034871,-1.3587098,-0.65630966,-0.10749438,0.0020684532,1.1541053,0.31812593
0.1,0.0,1.1999999999999997,0.0,-0.5235987755982988,0,-1.3481655,0.81440926,-0.75752574,0.6026295,-0.4286071,1.3049293,-0.7337047,1.9739575,-1.3937966,-0.8931274,-0.052257612,0.098313995,1.0953414,0.8112765
0.1,0.0,1.1999999999999997,0.0,-0.5235987755982988,0,-1.347816,0.8130232,-0.7579492,0.60177153,-0.42930073,1.3043448,-0.7333252,0.90861213,-1.3704242,-1.6446171,-0.059713803,0.13568838,1.14683,0.1048599
0.1,0.0,1.1999999999999997,0.0,-0.5235987755982988,0,-1.3463464,0.8129453,-0.7586509,0.60090065,-0.42956734,1.3057215,-0.73247826,1.3758368,-1.30006,-1.7201086,-0.11484738,-0.040929083,1.1126282,0.90243775
0.1,0.0,1.1999999999999997,0.0,-0.5235987755982988,0,-1.348436,0.81500196,-0.7581947,0.60261995,-0.42851338,1.3060193,-0.73522794,1.436196,-1.330345,-0.7896874,-0.058317687,-0.02168324,1.1682621,0.6018339
0.1,0.0,1.1999999999999997,0.0,-0.5235987755982988,0,-1.3458933,0.8123684,-0.75810814,0.60106486,-0.42850643,1.3061974,-0.73390555,1.8774089,-1.3570733,-1.5059649,-0.09467246,-0.056670927,1.0980538,0.27908581
0.1,0.0,1.1999999999999997,0.0,-0.5235987755982988,0,-1.3491282,0.810883,-0.7581238,0.5995972,-0.42901424,1.3048453,-0.7349661,1.7601957,-1.3790083,-0.82835174,-0.08373557,-0.050777815,1.1058156,0.7082924
0.1,0.0,1.1999999999999997,0.0,-0.5235987755982988,0,-1.3471785,0.81727177,-0.75894403,0.60088617,-0.4293601,1.3042421,-0.73407,1.7947532,-1.3637531,-2.2437692,-0.056088448,-0.012253048,1.2324822,0.8778588
0.1,0.0,1.1999999999999997,0.0,-0.5235987755982988,0,-1.3472009,0.8176671,-0.7599451,0.59955114,-0.42840043,1.3055048,-0.73702943,1.4172208,-1.3815117,-2.290917,-0.013318567,-0.121138826,1.0926292,0.4722629
0.1,0.0,1.1999999999999997,0.0,-0.5235987755982988,0,-1.3477061,0.81456774,-0.7576273,0.60199225,-0.43160892,1.3047312,-0.7329114,2.5422614,-1.4350184,-1.924875,-0.043957572,-0.0020388728,1.146258,-0.21624589
0.1,0.0,1.1999999999999997,0.0,-0.5235987755982988,0,-1.3480136,0.8153344,-0.758861,0.60089415,-0.42890704,1.3055176,-0.7314438,1.5796714,-1.3828356,-2.1819382,0.031822745,0.12013875,1.0521282,0.6348475
0.1,0.0,1.1999999999999997,0.0,-0.5235987755982988,0,-1.3485945,0.8174091,-0.75919527,0.60051405,-0.429961,1.3040752,-0.7343283,2.4432425,-1.3924059,-1.6126698,-0.081990555,-0.029108103,1.1072416,0.7235892
0.1,0.0,1.1999999999999997,0.0,-0.5235987755982988,0,-1.3490691,0.8140018,-0.758802,0.60150075,-0.429198,1.3046793,-0.7329132,1.821451,-1.4206876,-2.4091218,-0.036725614,0.09632377,1.2187366,0.43738365
0.1,0.0,1.1999999999999997,0.0,-0.5235987755982988,0,-1.3478259,0.8116587,-0.7586477,0.60034513,-0.4296612,1.3045017,-0.736511,1.0171285,-1.3726963,-1.200985,-0.08583891,-0.016336856,1.1355243,1.442101
0.1,0.0,1.1999999999999997,0.0,-0.5235987755982988,0,-1.3479761,0.81350976,-0.75860494,0.601381,-0.42931277,1.3047935,-0.7364183,1.4293466,-1.3881543,-2.4299026,-0.10754219,0.1254752,1.1477894,-0.9798581
0.1,0.0,1.1999999999999997,0.0,-0.5235987755982988,0,-1.347604,0.81243926,-0.7579763,0.60038304,-0.42939827,1.3042337,-0.7361751,1.5507975,-1.3672799,-1.5567327,-0.07771134,0.0013030415,1.1307431,-0.13842267
0.1,0.0,1.1999999999999997,0.0,-0.5235987755982988,0,-1.3480042,0.81152534,-0.7581109,0.6018287,-0.42941985,1.3049268,-0.7358719,1.8557547,-1.4167839,-1.1453809,0.012759943,0.08919553,1.2123821,-0.09232857
0.1,0.0,1.1999999999999997,0.0,-0.5235987755982988,0,-1.3471296,0.8154423,-0.75874215,0.6006329,-0.4290048,1.3049605,-0.73249686,2.011206,-1.379066,-1.270306,-0.06591736,0.22915488,1.2043864,0.2980818
0.1,0.0,1.1999999999999997,0.0,-0.5235987755982988,0,-1.3491274,0.8128865,-0.75873804,0.60167384,-0.42889336,1.3050138,-0.7334863,1.6613299,-1.379196,-1.7360933,-0.072904155,-0.021182844,1.2265198,-0.57988244
0.1,0.0,1.1999999999999997,0.0,-0.5235987755982988,0,-1.3488871,0.81334776,-0.7584822,0.6003384,-0.4304321,1.3040471,-0.73346543,1.5457251,-1.3929843,-1.7876841,-0.0393979,-0.022727968,1.0951409,0.5579291
0.1,0.0,1.1999999999999997,0.0,-0.5235987755982988,0,-1.3477716,0.81651324,-0.75863516,0.60191923,-0.42919552,1.3035362,-0.73645395,1.3212032,-1.4093225,-1.602754,-0.0006103398,-0.109454736,1.1040096,0.82161486
0.1,0.0,1.1999999999999997,0.0,-0.5235987755982988,0,-1.348675,0.8155409,-0.759778,0.6012993,-0.42948478,1.303187,-0.73486215,1.5995581,-1.3538312,-1.2831212,-0.1451098,0.12864392,1.1808903,0.8226693
0.1,0.0,1.1999999999999997,0.0,-0.5235987755982988,0,-1.3483942,0.8177362,-0.75893384,0.60104245,-0.4287183,1.3046358,-0.73433113,1.6949795,-1.3733513,-1.325321,-0.03297778,-0.0015610674,1.2498724,-0.16017933
0.1,0.0,1.1999999999999997,0.0,-0.5235987755982988,0,-1.3464228,0.81464946,-0.75903124,0.6015868,-0.42877623,1.3058614,-0.73482424,2.014394,-1.3904552,-1.4755483,-0.018571084,0.1601363,1.1777236,0.3679346
0.1,0.0,1.1999999999999997,0.0,-0.5235987755982988,0,-1.3473384,0.8113089,-0.7579452,0.6022883,-0.43049106,1.3055379,-0.7349014,1.209232,-1.4428196,-1.3985633,-0.007548163,-0.121607356,1.1942688,0.2509143
0.1,0.0,1.1999999999999997,0.0,-0.5235987755982988,0,-1.347384,0.81410676,-0.75876343,0.60221386,-0.42838487,1.3031234,-0.7357675,1.7505445,-1.3736221,-2.1380615,-0.089161076,-0.0778456,1.086111,-0.3477403
0.1,0.0,1.1999999999999997,0.0,-0.5235987755982988,0,-1.3474274,0.8125832,-0.7574048,0.6013537,-0.42940292,1.3056314,-0.7330867,2.295002,-1.3907655,-1.9117577,-0.07277143,-0.04867662,1.1658636,0.062007688
0.1,0.0,1.1999999999999997,0.0,-0.5235987755982988,0,-1.348232,0.8138067,-0.75838834,0.6015116,-0.42969483,1.3053652,-0.73522556,0.96670884,-1.3940438,-1.135795,-0.09750701,0.119470514,1.1841284,0.8062101
0.1,0.0,1.1999999999999997,0.0,-0.5235987755982988,0,-1.3484837,0.81403583,-0.7592542,0.60279614,-0.43040538,1.3036937,-0.7354303,2.772431,-1.3601061,-0.977119,-0.02330095,-0.058454767,1.1163805,0.60664064
0.1,0.0,1.1999999999999997,0.0,-0.5235987755982988,0,-1.3502991,0.8146853,-0.75862074,0.6021597,-0.43000764,1.3058385,-0.73246086,1.9596176,-1.4266102,-1.5456079,-0.061005335,0.10094999,1.0637306,0.6871494
0.1,0.0,1.1999999999999997,0.0,-0.5235987755982988,0,-1.347318,0.81226647,-0.75879824,0.6002689,-0.4293455,1.3059627,-0.7331847,2.1486683,-1.3671864,-1.8111997,-0.068315886,0.26099765,1.0939085,-0.65584517
0.1,0.0,1.1999999999999997,0.0,-0.5235987755982988,0,-1.3474456,0.8112705,-0.758237,0.601611,-0.4286418,1.3044955,-0.73525655,1.6298784,-1.3457109,-1.7187302,-0.07837482,0.08968459,1.192222,1.1032245
0.1,0.0,1.1999999999999997,0.0,-0.5235987755982988,0,-1.3471557,0.81265545,-0.757688,0.6012795,-0.42950517,1.3050141,-0.7325022,0.82519954,-1.389397,-2.1748753,-0.093257576,-0.08787141,1.093344,-0.8845594
0.1,0.0,1.1999999999999997,0.0,-0.5235987755982988,0,-1.3490236,0.81065285,-0.75917095,0.601912,-0.42819163,1.3047919,-0.7334988,1.0800308,-1.3522799,-1.0501812,-0.08480465,0.043045495,1.1187595,0.003413143
0.1,0.0,1.1999999999999997,0.0,-0.5235987755982988,0,-1.3485025,0.8182939,-0.7597107,0.6010153,-0.42918953,1.3042151,-0.7347977,1.9553026,-1.3377562,-1.4704127,-0.057687715,0.04338676,1.0198517,0.73171747
0.1,0.0,1.1999999999999997,0.0,-0.5235987755982988,0,-1.3485409,0.8142304,-0.7582728,0.60194266,-0.42901677,1.3051529,-0.7345897,0.9454476,-1.3584628,-1.5591168,-0.0472777,0.018221311,1.1274686,0.317645
0.1,0.0,1.1999999999999997,0.0,-0.5235987755982988,0,-1.3484962,0.81891626,-0.7586579,0.6008602,-0.42924798,1.3038921,-0.736561,1.9144311,-1.3872821,-1.8732347,-0.09831957,-0.06766718,1.0583713,0.4451802
0.1,0.0,1.1999999999999997,0.0,-0.5235987755982988,0,-1.3491895,0.8175717,-0.7586021,0.6001436,-0.4297426,1.303942,-0.734124,1.8975146,-1.4155078,-0.96216047,-0.022601357,0.03795908,1.1346272,1.046863
0.1,0.0,1.1999999999999997,0.0,-0.5235987755982988,0,-1.3486546,0.8129241,-0.7584457,0.6020687,-0.42905033,1.303943,-0.7347902,1.378255,-1.333026,-2.4031322,-0.022839863,0.20989722,1.1375701,-0.37893528
0.1,0.0,1.1999999999999997,0.0,-0.5235987755982988,0,-1.3472594,0.81237334,-0.75883764,0.60147953,-0.42970687,1.3048635,-0.7350063,2.1511226,-1.3352518,-1.9315372,-0.086619474,-0.041630667,1.148121,0.21203533
0.1,0.0,1.1999999999999997,0.0,-0.5235987755982988,0,-1.3476505,0.8123653,-0.7588116,0.6024776,-0.42934176,1.305128,-0.73492813,1.8554358,-1.3250506,-2.084781,-0.1918326,-0.026686762,1.1907897,-0.26538554
0.1,0.0,1.1999999999999997,0.0,-0.5235987755982988,0,-1.3489101,0.81206894,-0.7587606,0.6013175,-0.4296508,1.3036411,-0.7356587,1.8087655,-1.4337152,-1.4289635,-0.07500178,-0.012125636,1.0834676,0.57696444
0.1,0.0,1.1999999999999997,0.0,-0.5235987755982988,0,-1.3487315,0.8160133,-0.75891507,0.601087,-0.4300178,1.3052629,-0.7344546,2.0716782,-1.4008715,-1.9018662,-0.04338532,0.08941827,1.12627,0.28079847
0.1,0.0,1.1999999999999997,0.0,-0.5235987755982988,0,-1.3476557,0.8138744,-0.7591418,0.5997612,-0.4299105,1.3043625,-0.73490024,1.9818166,-1.385974,-1.7261999,-0.061327957,0.13917515,1.1331241,-1.0651672
0.1,0.0,1.1999999999999997,0.0,-0.5235987755982988,0,-1.3481565,0.8148172,-0.75945914,0.60089904,-0.42917067,1.3049676,-0.73247904,1.0143133,-1.355535,-1.528669,-0.09211345,-0.224385,1.185541,0.40624923
0.1,0.0,1.1999999999999997,0.0,-0.5235987755982988,0,-1.3485664,0.8142523,-0.75954616,0.59951663,-0.43043065,1.303574,-0.7369125,1.8842497,-1.4105337,-1.6418759,-0.059997458,-0.08080663,1.1773604,0.36724108
0.1,0.0,1.1999999999999997,0.0,-0.5235987755982988,0,-1.347298,0.8121681,-0.7582221,0.6003228,-0.4293818,1.3057935,-0.73648167,1.3660334,-1.3972845,-2.0744493,-0.08971394,-0.02824987,1.1118978,-0.14222212
0.1,0.0,1.1999999999999997,0.0,-0.5235987755982988,0,-1.347248,0.8116319,-0.7586439,0.6027211,-0.4289565,1.3042186,-0.7339291,2.4101603,-1.4401287,-2.1536613,-0.09469332,0.16185755,1.1684264,0.263723
0.1,0.0,1.1999999999999997,0.0,-0.5235987755982988,0,-1.3494785,0.81299096,-0.7592016,0.6014545,-0.4287953,1.305757,-0.7354451,1.8637931,-1.3878145,-2.581721,-0.13388433,0.2862108,1.1886814,-1.544235
0.1,0.0,1.1999999999999997,0.0,-0.5235987755982988,0,-1.3486035,0.8108962,-0.75828594,0.5998703,-0.43004903,1.3048908,-0.73393714,1.4231056,-1.3278328,-2.2227538,-0.078344606,-0.10591542,1.1619223,-0.18734616
0.1,0.0,1.1999999999999997,0.0,-0.5235987755982988,0,-1.3476967,0.8129462,-0.75836325,0.60041845,-0.4292924,1.3047518,-0.73335254,2.1014073,-1.4107924,-1.5452061,-0.059060685,-0.19303243,1.2398747,-0.15800743
0.1,0.0,1.1999999999999997,0.0,-0.5235987755982988,0,-1.3485767,0.8154301,-0.7588073,0.6000104,-0.4288878,1.3054281,-0.73648703,1.629354,-1.366471,-1.8304806,-0.125944,0.1902995,1.1639524,0.21403153
0.1,0.0,1.1999999999999997,0.0,-0.5235987755982988,0,-1.3473791,0.80773556,-0.75892466,0.6008074,-0.4304533,1.3037238,-0.7331769,1.6872599,-1.3802794,-1.6147676,0.0028925694,0.0060336906,1.1851739,0.73792064
0.1,0.0,1.1999999999999997,0.0,-0.5235987755982988,0,-1.3479716,0.8110493,-0.75815386,0.60116,-0.42974895,1.3067548,-0.735599,1.5655484,-1.3910697,-1.7458934,-0.05413973,-0.07577886,1.1598479,0.20355177
0.1,0.0,1.1999999999999997,0.0,-0.5235987755982988,0,-1.3482776,0.8146076,-0.7582708,0.6018483,-0.42972535,1.3048297,-0.7355875,1.8795602,-1.3554478,-1.7309517,-0.07588626,-0.07110891,1.1519324,-0.04335502
0.1,0.0,1.1999999999999997,0.0,-0.5235987755982988,0,-1.3485165,0.8145016,-0.7584139,0.60156834,-0.42904794,1.3074881,-0.73449665,2.0909345,-1.4105825,-1.6336207,-0.0694954,-0.0017750512,1.2346059,1.2309676
0.1,0.0,1.1999999999999997,0.0,-0.5235987755982988,0,-1.3482715,0.8147857,-0.7586794,0.600954,-0.42940274,1.3047513,-0.7344696,0.94136584,-1.3664029,-2.114604,-0.10164373,0.07825255,1.1290674,-0.012707457
0.1,0.0,1.1999999999999997,0.0,-0.5235987755982988,0,-1.3474457,0.812791,-0.7588827,0.60166883,-0.42907456,1.3046526,-0.73573744,1.5306505,-1.3752214,-1.9306965,-0.08083743,0.053688638,1.0177878,0.05509263
0.1,0.0,1.1999999999999997,0.0,-0.5235987755982988,0,-1.3474146,0.81214154,-0.7587347,0.6012437,-0.4285721,1.305591,-0.7323569,1.735795,-1.3961991,-2.1459887,-0.0978417,-0.16583404,1.1437327,0.6774975
0.1,0.0,1.1999999999999997,0.0,-0.5235987755982988,0,-1.3471862,0.81712115,-0.75972545,0.60109615,-0.43002805,1.305908,-0.73412097,2.289407,-1.3835127,-2.500038,-0.05855814,0.006965079,1.0518792,0.6319874
0.1,0.0,1.1999999999999997,0.0,-0.5235987755982988,0,-1.3481708,0.81126225,-0.75882053,0.60172576,-0.42899206,1.304676,-0.73365784,1.4583004,-1.3766632,-1.5964115,-0.12809867,-0.11616418,1.166371,-0.3562606
0.1,0.0,1.1999999999999997,0.0,-0.5235987755982988,0,-1.3490419,0.8154007,-0.7582867,0.5996206,-0.42993322,1.3052976,-0.7334767,2.130571,-1.3858573,-2.3920002,-0.0702091,-0.056375686,1.224708,0.2731455
0.1,0.0,1.1999999999999997,0.0,-0.5235987755982988,0,-1.3475367,0.81487453,-0.7595927,0.60282695,-0.42929828,1.3045437,-0.7369523,2.2555718,-1.3735936,-2.71848,-0.029058987,0.06472156,1.0652107,0.22672649
0.1,0.0,1.1999999999999997,0.0,-0.5235987755982988,0,-1.3488393,0.81066597,-0.75852746,0.600913,-0.4296737,1.3044485,-0.7323133,0.79522544,-1.3918325,-2.2732491,-0.07458734,0.028080733,1.1408944,0.46284273
0.1,0.0,1.1999999999999997,0.0,-0.5235987755982988,0,-1.3484865,0.81080884,-0.75823486,0.60132194,-0.43011242,1.3035551,-0.7346985,2.0106988,-1.3315779,-2.806489,-0.09644924,0.087650664,1.1865678,0.8224991
0.1,0.0,1.1999999999999997,0.0,-0.5235987755982988,0,-1.348733,0.8182413,-0.75845486,0.6017512,-0.42938355,1.3061564,-0.7352942,1.1893162,-1.4188937,-1.78284,-0.093773425,-0.013830696,1.1567733,0.17298262
0.1,0.0,1.1999999999999997,0.0,-0.5235987755982988,0,-1.3497678,0.81075686,-0.7586989,0.5993497,-0.4306932,1.3054502,-0.7375884,1.7601619,-1.3781474,-2.0444388,-0.07234812,0.08787616,1.1124048,-0.09756328
0.1,0.0,1.1999999999999997,0.0,-0.5235987755982988,0,-1.3488106,0.8105458,-0.7595555,0.6016597,-0.4299847,1.3021587,-0.73629695,2.1934624,-1.4401647,-1.2003587,0.027221855,-0.028490549,1.1742738,0.7027379
0.1,0.0,1.1999999999999997,0.0,-0.5235987755982988,0,-1.3476244,0.81331915,-0.75904584,0.6020658,-0.42884016,1.306191,-0.7342173,1.4617001,-1.3911629,-1.8033758,0.014693618,-0.19971463,1.1291026,0.83468974
0.1,0.0,1.1999999999999997,0.0,-0.5235987755982988,0,-1.3491154,0.8146995,-0.7587774,0.6016954,-0.42770788,1.3050498,-0.7343993,1.5568503,-1.4068253,-1.8804141,-0.076802194,-0.2499157,1.1420419,0.20181376
0.1,0.0,1.1999999999999997,0.0,-0.5235987755982988,0,-1.348168,0.8135037,-0.75874597,0.60092854,-0.42984685,1.3053399,-0.73356026,1.6262106,-1.3801683,-2.78263,-0.17672835,-0.062161244,1.0690519,-0.08784546
0.1,0.0,1.1999999999999997,0.0,-0.5235987755982988,0,-1.3474026,0.8117225,-0.7586709,0.60146296,-0.42898956,1.3026004,-0.7360025,2.033064,-1.4395856,-2.156336,-0.023372052,0.004613853,1.1892179,0.21112776
0.1,0.0,1.1999999999999997,0.0,-0.5235987755982988,0,-1.3486003,0.8135259,-0.7581115,0.6020898,-0.42845315,1.3048278,-0.73504794,0.7994728,-1.3923221,-2.007267,-0.056689072,0.21738431,1.142576,0.39628854
0.1,0.0,1.1999999999999997,0.0,-0.5235987755982988,0,-1.3477658,0.8115478,-0.75982565,0.60082984,-0.4298215,1.3038013,-0.73547703,1.841689,-1.3682458,-2.057228,-0.052356202,0.24433696,1.2115287,0.37521374
0.1,0.0,1.1999999999999997,0.0,-0.5235987755982988,0,-1.3499223,0.8116506,-0.75815725,0.6015682,-0.43099636,1.3062665,-0.735128,1.7847478,-1.3921101,-1.9074913,-0.050728917,-0.096737675,1.1893837,0.7934514
0.1,0.0,1.1999999999999997,0.0,-0.5235987755982988,0,-1.3473364,0.81132156,-0.75949496,0.6013636,-0.43051055,1.3052065,-0.7327417,1.3479458,-1.3849134,-1.7501092,-0.08742053,-0.07963425,1.1643875,-0.3411631
0.1,0.0,1.1999999999999997,0.0,-0.5235987755982988,0,-1.3486078,0.8113648,-0.75930524,0.60115355,-0.42933324,1.3026928,-0.7357671,1.7758073,-1.4071817,-1.9011421,-0.13756073,0.2186276,1.2392062,0.121805996
0.1,0.0,1.1999999999999997,0.0,-0.5235987755982988,0,-1.3480097,0.81753933,-0.7590493,0.60249215,-0.4302212,1.3057907,-0.7341142,1.8060182,-1.3884087,-2.2883177,-0.02837594,0.11779782,1.0919968,0.61153144
0.1,0.0,1.1999999999999997,0.0,-0.5235987755982988,0,-1.3473802,0.8121706,-0.7587849,0.6018377,-0.43026292,1.305094,-0.73178285,1.5194445,-1.369752,-2.1246133,-0.06623092,0.12622844,1.0877439,0.3732582
0.1,0.0,1.1999999999999997,0.0,-0.5235987755982988,0,-1.3489915,0.8125604,-0.7583402,0.6006439,-0.4294713,1.3050858,-0.73601204,1.6877496,-1.361205,-1.7890673,-0.047561232,-0.10410511,1.1221666,0.3063178
0.1,0.0,1.1999999999999997,0.0,-0.5235987755982988,0,-1.3473531,0.8103615,-0.7586103,0.60048604,-0.4302249,1.3056448,-0.733048,2.2453952,-1.380554,-1.9303551,-0.034234658,0.08319845,1.0864189,2.0645254
0.1,0.0,1.1999999999999997,0.0,-0.5235987755982988,0,-1.3485429,0.81258285,-0.75880176,0.600871,-0.43041176,1.3034859,-0.73564243,1.0366554,-1.3933709,-2.5140607,-0.12132241,0.2222308,1.2412206,-0.3042093
0.1,0.0,1.1999999999999997,0.0,-0.5235987755982988,0,-1.3481109,0.8131618,-0.75946164,0.59940755,-0.4283196,1.3044871,-0.73524266,1.4197161,-1.4332013,-1.9445364,-0.11157771,0.08522121,1.2556186,0.605548
0.1,0.0,1.1999999999999997,0.0,-0.5235987755982988,0,-1.349252,0.8148816,-0.7588826,0.6007113,-0.42991853,1.3053654,-0.7343343,2.2173657,-1.3701844,-1.9141327,-0.09307458,0.006045679,1.0984935,-0.4949487
0.1,0.0,1.1999999999999997,0.0,-0.5235987755982988,0,-1.3494945,0.81236964,-0.7589709,0.6014584,-0.42859498,1.3039397,-0.7335148,1.5778208,-1.4103303,-1.9739836,-0.08485459,-0.10251613,1.2217582,1.0014108
0.1,0.0,1.1999999999999997,0.0,-0.5235987755982988,0,-1.3486894,0.811109,-0.7592511,0.60172945,-0.42872307,1.3047633,-0.73375136,1.5610328,-1.3838904,-1.6712346,-0.10415954,-0.030855058,1.1616338,-0.25669453
0.1,0.0,1.1999999999999997,0.0,-0.5235987755982988,0,-1.3480157,0.8141591,-0.7593645,0.60098916,-0.42993304,1.3062967,-0.73434573,1.6763802,-1.3669031,-2.1150558,-0.025264822,-0.029930864,1.0495458,0.47525036
0.1,0.0,1.1999999999999997,0.0,-0.5235987755982988,0,-1.3482773,0.8104386,-0.7590629,0.6006805,-0.42880496,1.3055311,-0.7350683,2.3358567,-1.3963567,-1.4092994,-0.10123581,-0.15607171,1.1663874,0.089309864
0.1,0.0,1.1999999999999997,0.0,-0.5235987755982988,0,-1.3484788,0.8159334,-0.75823104,0.6009704,-0.4298436,1.3053895,-0.73542595,0.74059725,-1.3943745,-2.7974868,-0.094122455,0.040769827,1.1631628,1.108447
0.1,0.0,1.1999999999999997,0.0,-0.5235987755982988,0,-1.347803,0.8093785,-0.7588376,0.6013031,-0.4285835,1.3056973,-0.7332186,2.7320726,-1.3773265,-2.7043455,-0.0895759,0.048824128,1.1013095,0.33067423
0.1,0.0,1.1999999999999997,0.0,-0.5235987755982988,0,-1.3486513,0.8130274,-0.7585464,0.60202515,-0.43011558,1.3042749,-0.73515844,1.9886459,-1.4050174,-1.7459852,-0.10333258,0.1799932,1.1214437,0.10720169
0.1,0.0,1.1999999999999997,0.0,-0.5235987755982988,0,-1.3488075,0.81051683,-0.7581746,0.6018196,-0.42918375,1.3045722,-0.7330213,1.4253672,-1.4000722,-2.4804752,-0.06638107,0.25353658,0.97250056,0.57769364
0.1,0.0,1.1999999999999997,0.0,-0.5235987755982988,0,-1.3489724,0.810054,-0.7591646,0.60021025,-0.42762944,1.305011,-0.73412174,1.5621153,-1.3466576,-2.4503431,-0.10514132,-0.06409882,1.2278891,-0.35486254
0.1,0.0,1.1999999999999997,0.0,-0.5235987755982988,0,-1.3475696,0.81276435,-0.7590794,0.60115606,-0.43128818,1.3046874,-0.7341284,1.9921714,-1.4001535,-2.814072,-0.0542911,0.055045493,1.0914665,1.8215374
0.1,0.0,1.1999999999999997,0.0,-0.5235987755982988,0,-1.348715,0.81173635,-0.7588355,0.602395,-0.43033388,1.3059354,-0.73424554,1.8748561,-1.4068602,-1.5480026,-0.013983726,0.17128856,1.1604056,0.21386513
0.1,0.0,1.1999999999999997,0.0,-0.5235987755982988,0,-1.3482484,0.81411994,-0.75921077,0.6019967,-0.4305854,1.3040934,-0.73435533,1.6965425,-1.3386412,-2.207413,0.008357684,0.001487379,1.1475317,1.4471233
0.1,0.0,1.1999999999999997,0.0,-0.5235987755982988,0,-1.3481637,0.81063807,-0.75898826,0.6020773,-0.42898116,1.3048047,-0.7357257,1.6100028,-1.3441803,-2.646923,-0.054040357,0.12132686,1.1779202,0.74092406
0.1,0.0,1.1999999999999997,0.0,-0.5235987755982988,0,-1.347534,0.8083326,-0.75830406,0.6010902,-0.43005398,1.3038527,-0.7327571,1.7948993,-1.3794224,-2.064354,-0.12356537,0.16260462,1.1439333,0.17350695
0.1,0.0,1.1999999999999997,0.0,-0.5235987755982988,0,-1.3482672,0.8121171,-0.7585279,0.6011818,-0.42889956,1.3056527,-0.7350944,2.117198,-1.3550609,-2.2350779,-0.031357143,0.121167935,1.267368,0.7261469
0.1,0.0,1.1999999999999997,0.0,-0.5235987755982988,0,-1.3484669,0.8126794,-0.75814116,0.6007657,-0.42886317,1.3052734,-0.73286086,1.4935205,-1.3337734,-2.6228147,-0.10930936,0.11171155,1.1844531,-0.3171873
0.1,0.0,1.1999999999999997,0.0,-0.5235987755982988,0,-1.349019,0.80997527,-0.75781524,0.60198,-0.429926,1.3071886,-0.73256093,0.8332665,-1.4095765,-2.7660666,-0.03182975,-0.038982548,1.0901583,0.27446428
0.1,0.0,1.1999999999999997,0.0,-0.5235987755982988,0,-1.3486536,0.8138503,-0.7588269,0.6000558,-0.4307584,1.3041787,-0.73508835,2.066543,-1.3939407,-2.5678656,-0.10221462,0.09914844,1.2019379,0.882406
0.1,0.0,1.1999999999999997,0.0,-0.5235987755982988,0,-1.3478521,0.81204754,-0.7587742,0.6011405,-0.42996457,1.3071618,-0.73476356,1.5269772,-1.3797896,-2.2464716,-0.09339442,0.07738411,1.1604152,0.026956065
0.1,0.0,1.1999999999999997,0.0,-0.5235987755982988,0,-1.3487055,0.81079847,-0.7582548,0.60105944,-0.42865905,1.3048056,-0.7342012,1.2361509,-1.3832498,-2.4590104,-0.061125018,-0.03615849,1.216621,1.3958596
0.1,0.0,1.1999999999999997,0.0,-0.5235987755982988,0,-1.3492479,0.8122443,-0.75846034,0.6010944,-0.4301643,1.3060017,-0.73445296,2.3789222,-1.3880742,-2.1688182,-0.09643175,0.02794655,1.100844,0.24311279
0.1,0.0,1.1999999999999997,0.0,-0.5235987755982988,0,-1.3474804,0.8117839,-0.75889254,0.6017719,-0.4285219,1.3033543,-0.73361444,2.1705775,-1.4112945,-1.5652179,-0.074893795,0.11972919,1.0877063,0.028836777
0.1,0.0,1.1999999999999997,0.0,-0.5235987755982988,0,-1.3493892,0.8157954,-0.7603737,0.5992358,-0.42877877,1.3045259,-0.7332043,0.93458456,-1.3740706,-1.7544348,-0.07831706,-0.09859581,1.1323323,1.0306125
0.1,0.0,1.1999999999999997,0.0,-0.5235987755982988,0,-1.3494225,0.81460977,-0.75874364,0.6011334,-0.43010953,1.3040291,-0.73602045,1.3070872,-1.3597714,-1.3854107,-0.11265636,0.055388194,1.1539379,1.2779992
0.1,0.0,1.1999999999999997,0.0,-0.5235987755982988,0,-1.3480124,0.8138109,-0.7583191,0.6012902,-0.4277449,1.3059267,-0.73588216,1.8976798,-1.4155914,-1.4970294,-0.026527733,0.23586711,1.1246179,0.7137246
0.1,0.0,1.1999999999999997,0.0,-0.5235987755982988,0,-1.3486483,0.81506526,-0.75864285,0.60045815,-0.42934296,1.3031116,-0.7359784,1.645671,-1.3907107,-1.6085132,-0.04274129,0.012638917,1.1263633,1.5245109
0.1,0.0,1.1999999999999997,0.0,-0.5235987755982988,0,-1.3472528,0.81476897,-0.7587696,0.60131705,-0.4289146,1.3037311,-0.73568237,1.3903828,-1.3714863,-1.9172893,-0.019650573,-0.01299822,1.1277655,0.032333482
0.1,0.0,1.1999999999999997,0.0,-0.5235987755982988,0,-1.3488752,0.8119986,-0.75996953,0.6012934,-0.4288195,1.3024749,-0.73236644,0.9013458,-1.3482777,-1.7803084,-0.10270462,0.109499425,1.2106931,-0.18230842
0.1,0.0,1.1999999999999997,0.0,-0.5235987755982988,0,-1.3488812,0.8130788,-0.75955266,0.60179913,-0.43092316,1.303561,-0.7322066,2.08803,-1.3729147,-1.1019841,-0.073288515,-0.011261349,1.103881,0.4125301
0.1,0.0,1.1999999999999997,0.0,-0.5235987755982988,0,-1.3481491,0.81285673,-0.75906956,0.6014363,-0.42793018,1.3060832,-0.73440117,1.180111,-1.373121,-1.7378213,-0.11660787,0.013490532,1.189441,0.2965225
0.1,0.0,1.1999999999999997,0.0,-0.5235987755982988,0,-1.3484356,0.812433,-0.7595299,0.6006169,-0.4306751,1.3050194,-0.7383642,2.8723598,-1.3383272,-2.1344519,-0.024736209,0.122006185,1.0761445,0.5790268
0.1,0.0,1.1999999999999997,0.0,-0.5235987755982988,0,-1.349167,0.81612605,-0.75934905,0.60109085,-0.42896348,1.3067503,-0.7352519,1.4610305,-1.4037058,-1.9484516,-0.09177133,-0.025534905,1.1372722,0.86430305
0.1,0.0,1.1999999999999997,0.0,-0.5235987755982988,0,-1.3469282,0.81032705,-0.75949633,0.6020626,-0.4284972,1.3043762,-0.73342997,1.227754,-1.3496916,-1.6203754,-0.05889498,-0.07756173,1.2102966,0.72795856
0.1,0.0,1.1999999999999997,0.0,-0.5235987755982988,0,-1.3493478,0.8143061,-0.7589704,0.6009584,-0.42929813,1.3034894,-0.7366153,0.95713687,-1.3284675,-2.7947388,-0.059587944,-0.03892351,1.0915196,0.31604367
0.1,0.0,1.1999999999999997,0.0,-0.5235987755982988,0,-1.3481928,0.8132998,-0.75974804,0.60123867,-0.42958328,1.3041112,-0.7352075,1.8320819,-1.4253792,-2.1186395,-0.06316134,0.057098247,1.0709445,0.65020883
0.1,0.0,1.1999999999999997,0.0,-0.5235987755982988,0,-1.3477422,0.8161267,-0.757789,0.6006965,-0.4288048,1.3054819,-0.73498935,1.8051732,-1.3713928,-2.0187414,-0.09493941,0.050608266,1.158095,-0.011585342
0.1,0.0,1.1999999999999997,0.0,-0.5235987755982988,0,-1.348163,0.8117447,-0.7597264,0.6002903,-0.4300828,1.3049549,-0.735506,1.441088,-1.4233024,-2.0936255,-0.04761973,-0.0935872,1.1712209,-0.34889796
0.1,0.0,1.1999999999999997,0.0,-0.5235987755982988,0,-1.3474867,0.81263477,-0.7596994,0.60204303,-0.43015745,1.3047416,-0.7354966,0.99739933,-1.3837509,-1.891522,-0.09494113,0.019962369,1.1648772,0.6589242
0.1,0.0,1.1999999999999997,0.0,-0.5235987755982988,0,-1.3481885,0.8154211,-0.7589242,0.601255,-0.43000135,1.3041191,-0.73396575,1.2743857,-1.3500198,-2.3062909,-0.06079929,-0.17049466,1.1568118,0.48022982
0.1,0.0,1.1999999999999997,0.0,-0.5235987755982988,0,-1.3477979,0.8162461,-0.7582716,0.6017965,-0.42877752,1.3057941,-0.73260295,1.1850666,-1.3741636,-1.7912067,-0.012819902,-0.03725474,1.1298859,-0.9363789
