sanky1234/BimanualDexCatch/isaacgymenvs/cem_results/football_pose_0.0_0.0_1.4999999999999998_-0.5235987755982988_-0.5235987755982988_0_2025-05-26.csv
x,y,z,roll,pitch,yaw,robot1/joint1,robot1/joint2,robot1/joint3,robot1/joint4,robot1/joint5,robot1/joint6,robot1/joint7,robot2/joint1,robot2/joint2,robot2/joint3,robot2/joint4,robot2/joint5,robot2/joint6,robot2/joint7
0.0,0.0,1.4999999999999998,-0.5235987755982988,-0.5235987755982988,0,0.5706499,-1.1467667,-1.3508375,-0.05682528,-0.061850388,1.2373354,-0.44884977,-0.3811299,1.265402,-0.031690538,-0.09866225,-0.061461113,1.2679955,-0.66514117
0.0,0.0,1.4999999999999998,-0.5235987755982988,-0.5235987755982988,0,0.5706372,-1.146928,-1.3499262,-0.049002893,-0.0069508115,1.2194257,0.08087818,-0.41335413,1.3105356,-0.106460914,-0.065067485,0.04451434,1.245102,0.5821213
0.0,0.0,1.4999999999999998,-0.5235987755982988,-0.5235987755982988,0,0.57058,-1.1468015,-1.350551,-0.055666648,-0.030927474,1.1666117,0.46571997,-0.50631064,1.2671133,-0.004262008,-0.090571955,0.017397458,1.2500274,-0.010414568
0.0,0.0,1.4999999999999998,-0.5235987755982988,-0.5235987755982988,0,0.5706312,-1.1470083,-1.3500441,-0.056584198,-0.058133055,1.2360853,-0.6317998,-0.5372345,1.2675499,0.099467546,-0.094811544,-0.0162996,1.2735524,-0.2562348
0.0,0.0,1.4999999999999998,-0.5235987755982988,-0.5235987755982988,0,0.5707417,-1.1468755,-1.3498331,-0.053789634,-0.058903355,1.177836,0.6079184,-0.2978639,1.2523456,0.07547384,-0.09632564,0.025048869,1.2593513,-0.6594961
0.0,0.0,1.4999999999999998,-0.5235987755982988,-0.5235987755982988,0,0.57044137,-1.1468644,-1.3495028,-0.055799656,-0.01798799,1.1754831,0.77345616,-0.6306212,1.2753012,-0.009992575,-0.06679663,-0.02409661,1.2599964,-0.47520295
0.0,0.0,1.4999999999999998,-0.5235987755982988,-0.5235987755982988,0,0.57071704,-1.1469332,-1.3504181,-0.055338606,-0.09140414,1.1799812,-1.1144432,-0.5502217,1.2704874,-0.07808189,-0.11970888,0.033369537,1.257009,-0.96425897
0.0,0.0,1.4999999999999998,-0.5235987755982988,-0.5235987755982988,0,0.57065475,-1.146952,-1.3501464,-0.055680525,-0.08727954,1.1649721,-0.22826654,-0.5128261,1.2564712,-0.1981858,-0.112488255,0.049231373,1.2668396,-0.79937255
0.0,0.0,1.4999999999999998,-0.5235987755982988,-0.5235987755982988,0,0.5706027,-1.1469165,-1.3499159,-0.054862402,-0.035962954,1.216988,-0.23426665,-0.468804,1.2526954,-0.0022292607,-0.06817165,0.007292009,1.2468165,-1.0301008
0.0,0.0,1.4999999999999998,-0.5235987755982988,-0.5235987755982988,0,0.57084155,-1.1469026,-1.3507121,-0.056723665,0.026912251,1.1801364,-0.36644778,-0.4511708,1.2862391,0.05978719,-0.095417224,-0.001237322,1.2769735,-0.27075127
0.0,0.0,1.4999999999999998,-0.5235987755982988,-0.5235987755982988,0,0.57071304,-1.1469142,-1.3498449,-0.05224812,-0.067438714,1.1669832,-1.2241179,-0.5268514,1.2819986,-0.13876003,-0.06496082,-0.04905278,1.2563492,-1.3755105
0.0,0.0,1.4999999999999998,-0.5235987755982988,-0.5235987755982988,0,0.5707355,-1.1468586,-1.3506198,-0.05578012,-0.027892955,1.1523552,-0.77035993,-0.36065716,1.2828314,0.059232954,-0.094053484,-0.002792287,1.3140364,0.4574902
0.0,0.0,1.4999999999999998,-0.5235987755982988,-0.5235987755982988,0,0.5708248,-1.1470101,-1.3504755,-0.055605095,-0.0480891,1.1922377,-0.2785035,-0.40966266,1.2870396,0.12666923,-0.07487329,0.1071166,1.302322,-0.12480941
0.0,0.0,1.4999999999999998,-0.5235987755982988,-0.5235987755982988,0,0.57070124,-1.1469083,-1.3508635,-0.059580576,-0.066284396,1.2015464,-0.68803704,-0.518792,1.2806983,-0.10976606,-0.078564115,-0.041332006,1.294659,-1.0556554
0.0,0.0,1.4999999999999998,-0.5235987755982988,-0.5235987755982988,0,0.5706052,-1.1469742,-1.3495728,-0.06084144,-0.024690298,1.2495271,-1.0335345,-0.5155306,1.2564467,0.17235765,-0.05918203,0.0014583336,1.260488,-0.42537177
0.0,0.0,1.4999999999999998,-0.5235987755982988,-0.5235987755982988,0,0.57050294,-1.1469269,-1.3496069,-0.057545327,0.013965498,1.2064911,-0.8963014,-0.39025173,1.3012818,0.061610248,-0.09626753,-0.02174118,1.2852714,-0.25555617
0.0,0.0,1.4999999999999998,-0.5235987755982988,-0.5235987755982988,0,0.5705417,-1.1469007,-1.3496662,-0.06066307,-0.061745346,1.2252336,-0.86055315,-0.51881033,1.2761195,-0.06325258,-0.089626804,-0.040783472,1.3047558,-1.429778
0.0,0.0,1.4999999999999998,-0.5235987755982988,-0.5235987755982988,0,0.5706432,-1.146858,-1.3503244,-0.05347877,-0.052652214,1.2727965,-0.8551014,-0.33212602,1.2841456,0.019133307,-0.092565715,0.022587929,1.2789704,-1.7878152
0.0,0.0,1.4999999999999998,-0.5235987755982988,-0.5235987755982988,0,0.5704235,-1.1468627,-1.3495275,-0.058527976,-0.022631092,1.1869521,-0.35389793,-0.27497745,1.2502223,0.10366247,-0.08528522,-0.004948405,1.2833781,-0.18442576
0.0,0.0,1.4999999999999998,-0.5235987755982988,-0.5235987755982988,0,0.5706983,-1.1469333,-1.3504936,-0.056335215,0.02120477,1.2386528,0.24971305,-0.28855273,1.2791365,0.05284748,-0.08462441,0.071883105,1.2668456,-0.8440224
0.0,0.0,1.4999999999999998,-0.5235987755982988,-0.5235987755982988,0,0.5708593,-1.1469129,-1.3502804,-0.054957993,-0.0072029205,1.2086308,-0.43779582,-0.6571571,1.222816,-0.00851591,-0.09838742,0.044138193,1.2160299,-0.45838764
0.0,0.0,1.4999999999999998,-0.5235987755982988,-0.5235987755982988,0,0.57084435,-1.146966,-1.3497524,-0.0578328,0.0050622746,1.2450138,-1.4875963,-0.37283355,1.2910435,0.09734453,-0.08411972,0.07249208,1.2375566,0.061042853
0.0,0.0,1.4999999999999998,-0.5235987755982988,-0.5235987755982988,0,0.5708613,-1.1468928,-1.3510666,-0.055250194,-0.025885148,1.2171398,-1.0188915,-0.37366074,1.2671748,-0.08216454,-0.08290208,0.06345355,1.2822115,0.38944188
0.0,0.0,1.4999999999999998,-0.5235987755982988,-0.5235987755982988,0,0.5706454,-1.1468794,-1.3510472,-0.056877244,-0.06560008,1.2379221,0.654086,-0.50490934,1.2781385,-0.06428264,-0.09385192,0.048157122,1.2580504,-0.85518515
0.0,0.0,1.4999999999999998,-0.5235987755982988,-0.5235987755982988,0,0.57075185,-1.1468253,-1.3512238,-0.055214442,-0.034936246,1.1757299,0.5374049,-0.49670628,1.2889646,0.050588917,-0.07908192,-0.007113395,1.2928351,-0.18910411
0.0,0.0,1.4999999999999998,-0.5235987755982988,-0.5235987755982988,0,0.57066244,-1.1468363,-1.3502479,-0.05388124,-0.063115396,1.1614779,-0.9906985,-0.44866893,1.263068,0.047586072,-0.06319537,0.00038448712,1.2569474,-0.6925178
0.0,0.0,1.4999999999999998,-0.5235987755982988,-0.5235987755982988,0,0.5707238,-1.1469096,-1.350588,-0.055567384,-0.041502208,1.1503588,-0.006455636,-0.47454694,1.2834239,0.0075222873,-0.07073337,0.033557516,1.2458116,-0.42047215
0.0,0.0,1.4999999999999998,-0.5235987755982988,-0.5235987755982988,0,0.57082045,-1.1469678,-1.3508378,-0.058880545,-0.014480644,1.1801047,0.435868,-0.3776143,1.2629424,-0.04145358,-0.07947463,0.06116104,1.3307891,-1.0023626
0.0,0.0,1.4999999999999998,-0.5235987755982988,-0.5235987755982988,0,0.57043326,-1.1467831,-1.3498381,-0.05527579,-0.092294276,1.1359118,0.28065455,-0.40624708,1.2942684,0.07685793,-0.08594443,0.024742704,1.2743235,-0.5509918
0.0,0.0,1.4999999999999998,-0.5235987755982988,-0.5235987755982988,0,0.5705626,-1.1468331,-1.3500361,-0.053539116,-0.10232628,1.1664541,0.1628145,-0.5261162,1.2764053,-0.11896145,-0.08863001,0.016451668,1.331599,-0.6780317
0.0,0.0,1.4999999999999998,-0.5235987755982988,-0.5235987755982988,0,0.5707551,-1.1468612,-1.3498728,-0.058133144,-0.008302177,1.2075554,0.2700576,-0.41010705,1.2810143,-0.12523171,-0.08440357,-0.020198287,1.2658597,0.434623
0.0,0.0,1.4999999999999998,-0.5235987755982988,-0.5235987755982988,0,0.57056165,-1.1467674,-1.3503022,-0.055769797,-0.06601378,1.1699424,0.043099064,-0.48038375,1.2827178,-0.04121409,-0.08616687,0.06882057,1.2807755,-0.76070505
0.0,0.0,1.4999999999999998,-0.5235987755982988,-0.5235987755982988,0,0.57058984,-1.1468047,-1.3509891,-0.054455932,-0.041870065,1.1722033,0.14986892,-0.47890016,1.2644244,-0.054694217,-0.075031206,0.04019748,1.2130936,-0.50224835
0.0,0.0,1.4999999999999998,-0.5235987755982988,-0.5235987755982988,0,0.5707793,-1.1468483,-1.350345,-0.054997787,-0.009217763,1.1997248,-0.23452704,-0.51904106,1.2764252,0.0379443,-0.09388489,0.06039403,1.2965721,-0.46536404
0.0,0.0,1.4999999999999998,-0.5235987755982988,-0.5235987755982988,0,0.5707307,-1.1467357,-1.3512627,-0.05312504,-0.038861707,1.1914542,1.0324293,-0.41560408,1.271779,-0.028546635,-0.06475158,-0.032594066,1.2508177,-0.7913231
0.0,0.0,1.4999999999999998,-0.5235987755982988,-0.5235987755982988,0,0.57049996,-1.1468339,-1.3505472,-0.058675893,-0.022189653,1.2124597,-0.88471603,-0.43549198,1.272714,-0.02950192,-0.08759954,0.019566882,1.2186784,-1.4549396
0.0,0.0,1.4999999999999998,-0.5235987755982988,-0.5235987755982988,0,0.57073736,-1.1468524,-1.3509221,-0.05553066,-0.01605306,1.1931559,0.35975516,-0.50115466,1.2736923,-0.069185995,-0.07834834,0.016046355,1.2518262,-1.2120248
0.0,0.0,1.4999999999999998,-0.5235987755982988,-0.5235987755982988,0,0.5706996,-1.1467297,-1.3514868,-0.0557181,-0.01625375,1.2070054,0.7900813,-0.3939157,1.2822692,0.05760272,-0.09184026,0.009154838,1.2685798,-0.5279428
0.0,0.0,1.4999999999999998,-0.5235987755982988,-0.5235987755982988,0,0.57070315,-1.1468482,-1.3505924,-0.054656606,-0.046527058,1.2130792,-0.20977591,-0.46521312,1.2754332,-0.009362525,-0.08972525,-0.022081424,1.2788492,-0.2677794
0.0,0.0,1.4999999999999998,-0.5235987755982988,-0.5235987755982988,0,0.57045376,-1.1468741,-1.348853,-0.05842878,-0.047025755,1.1931466,0.13315645,-0.33539212,1.2690958,-0.085133165,-0.09695306,0.035881966,1.2240987,-0.06485304
0.0,0.0,1.4999999999999998,-0.5235987755982988,-0.5235987755982988,0,0.57078266,-1.1468892,-1.350739,-0.0554133,-0.015867788,1.1902204,-0.2511229,-0.4312094,1.2618496,0.10997252,-0.06320418,0.07825087,1.228623,-1.0257242
0.0,0.0,1.4999999999999998,-0.5235987755982988,-0.5235987755982988,0,0.570706,-1.1469041,-1.3497353,-0.0564948,-0.036803953,1.1994702,0.06568215,-0.47572535,1.3045506,-0.080431186,-0.087617405,0.034475457,1.277934,-0.68647337
0.0,0.0,1.4999999999999998,-0.5235987755982988,-0.5235987755982988,0,0.5707205,-1.1469653,-1.3502406,-0.055784978,-0.048412416,1.209524,0.32821617,-0.4662607,1.2718956,-0.005910093,-0.072819024,0.0009897222,1.2220856,-0.89551
0.0,0.0,1.4999999999999998,-0.5235987755982988,-0.5235987755982988,0,0.5704864,-1.1469406,-1.3501153,-0.05861232,-0.03454685,1.198861,-1.2882879,-0.4308805,1.2822834,-0.04942204,-0.0791161,-0.017120488,1.2192765,-0.5210737
0.0,0.0,1.4999999999999998,-0.5235987755982988,-0.5235987755982988,0,0.5705537,-1.1468289,-1.3505245,-0.054501846,-0.002454253,1.2123697,-0.28939793,-0.41583928,1.2580194,0.07466099,-0.093468696,0.026244605,1.2727995,-0.82981807
0.0,0.0,1.4999999999999998,-0.5235987755982988,-0.5235987755982988,0,0.5705882,-1.1468734,-1.3498198,-0.053375036,0.02901248,1.2110118,1.2854466,-0.3671803,1.2901745,-0.15110466,-0.08114016,0.0064160945,1.2893914,-0.6440661
0.0,0.0,1.4999999999999998,-0.5235987755982988,-0.5235987755982988,0,0.5707803,-1.1469852,-1.3503907,-0.05476857,-0.019929929,1.1905065,-0.5775395,-0.4175042,1.260899,-0.0505783,-0.092949726,0.031931255,1.2348244,-0.64416844
0.0,0.0,1.4999999999999998,-0.5235987755982988,-0.5235987755982988,0,0.57085925,-1.1469722,-1.3507512,-0.05658594,-0.0073939604,1.1963104,-0.16903242,-0.54048145,1.311395,-0.025141,-0.08648078,-0.027726753,1.2515419,-0.52740693
0.0,0.0,1.4999999999999998,-0.5235987755982988,-0.5235987755982988,0,0.57077765,-1.146953,-1.3508497,-0.059327226,-0.05865548,1.1758091,0.55198187,-0.5231299,1.2794067,-0.14277239,-0.07843606,-0.014092028,1.2358946,-0.75074196
0.0,0.0,1.4999999999999998,-0.5235987755982988,-0.5235987755982988,0,0.5707532,-1.146917,-1.350403,-0.054369844,-0.00058229023,1.1997606,-0.7835022,-0.39411256,1.2863184,0.009913084,-0.078491,-0.010022128,1.2444437,-0.43099582
0.0,0.0,1.4999999999999998,-0.5235987755982988,-0.5235987755982988,0,0.5705037,-1.1468397,-1.3505467,-0.056686036,-0.07413428,1.2518581,-0.569044,-0.44990826,1.2655822,0.057952788,-0.075294,-0.031732652,1.2309428,-0.33508772
0.0,0.0,1.4999999999999998,-0.5235987755982988,-0.5235987755982988,0,0.5708232,-1.1468775,-1.3511056,-0.056501143,-0.038295843,1.2025845,-0.8037822,-0.42770985,1.2305655,-0.022139953,-0.07765255,-0.029819766,1.2762215,-1.0108691
0.0,0.0,1.4999999999999998,-0.5235987755982988,-0.5235987755982988,0,0.5706647,-1.1468208,-1.3504661,-0.057577126,-0.011031566,1.214209,-0.6067669,-0.31012028,1.2629217,-0.010789262,-0.10309462,0.031153813,1.2504318,-0.9998956
0.0,0.0,1.4999999999999998,-0.5235987755982988,-0.5235987755982988,0,0.57045805,-1.1469109,-1.350287,-0.05602667,-0.021287873,1.231853,0.17548668,-0.3771907,1.2700837,-0.042914174,-0.08457963,-0.015737522,1.2433392,-1.1247437
0.0,0.0,1.4999999999999998,-0.5235987755982988,-0.5235987755982988,0,0.5703361,-1.1467899,-1.3500199,-0.053509455,-0.04811906,1.2343342,-0.10012517,-0.53824764,1.270149,0.10392272,-0.08348145,0.033226985,1.3158027,0.33069152
0.0,0.0,1.4999999999999998,-0.5235987755982988,-0.5235987755982988,0,0.5703828,-1.1468824,-1.3494968,-0.054873213,0.01581036,1.2212822,-0.6102315,-0.42312795,1.2842166,-0.06630779,-0.097396016,0.045849077,1.2340417,-0.5852076
0.0,0.0,1.4999999999999998,-0.5235987755982988,-0.5235987755982988,0,0.57083607,-1.1469806,-1.3503424,-0.053152308,-0.03555697,1.1949712,0.9073644,-0.5580145,1.266934,-0.019304143,-0.09263215,-0.0421089,1.2997277,-1.303736
0.0,0.0,1.4999999999999998,-0.5235987755982988,-0.5235987755982988,0,0.5706067,-1.1469702,-1.349401,-0.055503976,-0.088425815,1.1650357,-0.24545185,-0.47220293,1.2285966,0.027580801,-0.097057045,0.011698421,1.3314492,-0.61644673
0.0,0.0,1.4999999999999998,-0.5235987755982988,-0.5235987755982988,0,0.5705946,-1.1467748,-1.3507531,-0.055439755,0.005894216,1.1876998,0.25547925,-0.3852584,1.2742372,-0.03986706,-0.08279472,-0.06079941,1.2531973,-1.2543932
0.0,0.0,1.4999999999999998,-0.5235987755982988,-0.5235987755982988,0,0.5705093,-1.1469449,-1.350674,-0.05416449,-0.039064795,1.2190276,0.28542423,-0.29266995,1.2990947,-0.013926858,-0.09202813,-0.035863206,1.2278814,0.02348237
0.0,0.0,1.4999999999999998,-0.5235987755982988,-0.5235987755982988,0,0.5704394,-1.146847,-1.3497733,-0.053706463,-0.028177787,1.1778356,-0.36498114,-0.52344847,1.2934661,0.031122508,-0.091156036,-0.04402721,1.3063045,0.4454553
0.0,0.0,1.4999999999999998,-0.5235987755982988,-0.5235987755982988,0,0.5705874,-1.1469269,-1.3499013,-0.05239036,-0.025117556,1.1590265,-0.08094417,-0.48137465,1.2624401,0.0638753,-0.07210363,-0.0049757874,1.2885017,-0.38378683
0.0,0.0,1.4999999999999998,-0.5235987755982988,-0.5235987755982988,0,0.57043684,-1.1466987,-1.3512015,-0.05228061,-0.06492529,1.2397685,-0.58318824,-0.4547099,1.2577711,-0.07589927,-0.071922585,-0.0052808435,1.2795305,0.37194386
0.0,0.0,1.4999999999999998,-0.5235987755982988,-0.5235987755982988,0,0.5706791,-1.1468246,-1.351482,-0.059500165,-0.019823473,1.2140888,-0.1436947,-0.52495754,1.2818292,-0.05369119,-0.066452526,-0.004253022,1.2823435,-0.22458653
0.0,0.0,1.4999999999999998,-0.5235987755982988,-0.5235987755982988,0,0.57051235,-1.1469179,-1.3492762,-0.05647619,-0.06221142,1.218479,-0.7269559,-0.40840605,1.2664261,0.11955975,-0.083229855,0.055101786,1.2773337,-0.28536552
0.0,0.0,1.4999999999999998,-0.5235987755982988,-0.5235987755982988,0,0.57061386,-1.1467857,-1.3509793,-0.055695564,-0.022068877,1.1293943,-1.3278149,-0.30146852,1.2729625,0.0744956,-0.08781008,0.02808861,1.2259895,0.601571
0.0,0.0,1.4999999999999998,-0.5235987755982988,-0.5235987755982988,0,0.570644,-1.1469682,-1.3498869,-0.06035076,0.017430445,1.219245,0.13992125,-0.5649058,1.2871252,-0.015832957,-0.07353059,0.04703197,1.2412653,-1.0674622
0.0,0.0,1.4999999999999998,-0.5235987755982988,-0.5235987755982988,0,0.5705242,-1.1468395,-1.3508278,-0.060178086,-0.06595167,1.2033972,-0.26615575,-0.4078996,1.2843993,0.04253658,-0.08477287,-0.041666534,1.2599868,-1.0340059
0.0,0.0,1.4999999999999998,-0.5235987755982988,-0.5235987755982988,0,0.5706278,-1.1469336,-1.350531,-0.05612717,-0.04793195,1.2133758,-0.63199884,-0.54679286,1.3074331,0.035812307,-0.07393743,-0.050179232,1.2730161,-0.5395667
0.0,0.0,1.4999999999999998,-0.5235987755982988,-0.5235987755982988,0,0.5706134,-1.1469119,-1.3510972,-0.0529902,-0.028461773,1.1428063,-1.0152936,-0.5037329,1.2349898,0.059324797,-0.105928764,-0.033232655,1.2739502,0.18703641
0.0,0.0,1.4999999999999998,-0.5235987755982988,-0.5235987755982988,0,0.5706393,-1.1468481,-1.3509994,-0.056518096,0.003933546,1.1875358,-0.59660196,-0.4075818,1.2559227,-0.043259285,-0.102515556,-0.002033219,1.2333641,-0.35415623
0.0,0.0,1.4999999999999998,-0.5235987755982988,-0.5235987755982988,0,0.5704279,-1.1469014,-1.3497924,-0.055224024,-0.072686784,1.1966083,0.08010372,-0.6155974,1.2942443,-0.074231036,-0.10496106,-0.0019696353,1.2993671,-0.14518476
0.0,0.0,1.4999999999999998,-0.5235987755982988,-0.5235987755982988,0,0.5707191,-1.1467507,-1.3518614,-0.054742545,-0.03907119,1.1822839,0.17117147,-0.5865111,1.3021985,0.013255077,-0.066850916,0.002144056,1.2596904,-1.523909
0.0,0.0,1.4999999999999998,-0.5235987755982988,-0.5235987755982988,0,0.5706309,-1.1468548,-1.3500674,-0.054777116,-0.005154558,1.2438407,-0.5805609,-0.60440385,1.27988,-0.10426661,-0.108360976,0.009957264,1.2704345,-0.58746845
0.0,0.0,1.4999999999999998,-0.5235987755982988,-0.5235987755982988,0,0.57063675,-1.1469417,-1.3508245,-0.05207861,-0.010744203,1.1843921,0.5234504,-0.20150927,1.2659398,-0.08911026,-0.053208828,0.0138937,1.2692676,-0.7928377
0.0,0.0,1.4999999999999998,-0.5235987755982988,-0.5235987755982988,0,0.5705901,-1.146869,-1.3510252,-0.0566551,-0.017683445,1.2158946,-0.37213024,-0.36165833,1.2952676,-0.09605769,-0.08050542,0.016970452,1.211381,-1.0156584
0.0,0.0,1.4999999999999998,-0.5235987755982988,-0.5235987755982988,0,0.5707662,-1.1468472,-1.3509291,-0.0570393,-0.04024207,1.1879046,-0.1973347,-0.3826759,1.2873712,-0.04952383,-0.074138984,-0.0021600788,1.2612895,-0.8079767
0.0,0.0,1.4999999999999998,-0.5235987755982988,-0.5235987755982988,0,0.57053417,-1.1468294,-1.3505577,-0.055803623,-0.008164282,1.1547381,0.8159576,-0.21762232,1.2798483,0.07318132,-0.08576044,0.008194933,1.2593769,-0.87545097
0.0,0.0,1.4999999999999998,-0.5235987755982988,-0.5235987755982988,0,0.5704446,-1.1468093,-1.3502282,-0.060263235,-0.028533082,1.1925094,-0.30620176,-0.24946481,1.2520972,-0.26208842,-0.10477496,0.00010691556,1.2630177,-1.7710848
0.0,0.0,1.4999999999999998,-0.5235987755982988,-0.5235987755982988,0,0.57058704,-1.146883,-1.3514361,-0.060408186,-0.0230111,1.2058823,-1.5097911,-0.29152474,1.2840595,0.022290986,-0.06306081,0.00539131,1.2939043,-0.030593768
0.0,0.0,1.4999999999999998,-0.5235987755982988,-0.5235987755982988,0,0.57050675,-1.146845,-1.3501695,-0.056306522,-0.04931264,1.2574434,-0.24281251,-0.56914973,1.2846628,0.021222385,-0.08763394,0.005178491,1.2772354,-0.41298082
0.0,0.0,1.4999999999999998,-0.5235987755982988,-0.5235987755982988,0,0.570748,-1.1468487,-1.3496746,-0.05462051,-0.03545032,1.1905597,0.03807074,-0.51584625,1.2673252,0.105626866,-0.0710553,-0.014203365,1.2580789,-0.7328793
0.0,0.0,1.4999999999999998,-0.5235987755982988,-0.5235987755982988,0,0.5705925,-1.1468347,-1.3507075,-0.05444705,-0.054767366,1.2141676,-1.1944848,-0.44709986,1.2642196,-0.109353006,-0.08644774,-0.02740638,1.2504941,-0.28278017
0.0,0.0,1.4999999999999998,-0.5235987755982988,-0.5235987755982988,0,0.5706381,-1.1468903,-1.3499377,-0.057498645,-0.008460022,1.1973732,0.52745813,-0.31307292,1.2690686,-0.03839924,-0.103457995,0.045233123,1.2713934,-1.6577325
0.0,0.0,1.4999999999999998,-0.5235987755982988,-0.5235987755982988,0,0.5705236,-1.1468042,-1.3507563,-0.058782753,-0.10921668,1.1944528,0.058161926,-0.57378846,1.2839346,-0.1430249,-0.11435473,-0.033750933,1.2769572,-0.8737377
0.0,0.0,1.4999999999999998,-0.5235987755982988,-0.5235987755982988,0,0.5704062,-1.1467674,-1.3497114,-0.058606647,-0.01913628,1.1709145,-0.11286381,-0.49929044,1.2917702,-0.050562583,-0.062276624,0.080809295,1.2766142,-0.25088012
0.0,0.0,1.4999999999999998,-0.5235987755982988,-0.5235987755982988,0,0.5705808,-1.1469228,-1.3500979,-0.054830346,-0.024524353,1.2105154,0.20906357,-0.27676213,1.249757,-0.016413648,-0.0765623,0.013056035,1.2613348,0.40834743
0.0,0.0,1.4999999999999998,-0.5235987755982988,-0.5235987755982988,0,0.5708435,-1.1467394,-1.3499475,-0.058593992,-0.0571273,1.1623354,-0.2786909,-0.42205504,1.2421861,0.009583935,-0.09797385,-0.016633274,1.2591784,-1.6820642
0.0,0.0,1.4999999999999998,-0.5235987755982988,-0.5235987755982988,0,0.57058114,-1.146869,-1.3511944,-0.05552451,-0.044380296,1.2043931,0.7423899,-0.5989911,1.2784894,0.041013006,-0.09911302,0.030019466,1.2568592,-1.0427691
0.0,0.0,1.4999999999999998,-0.5235987755982988,-0.5235987755982988,0,0.57044685,-1.1468847,-1.3491886,-0.05682337,-0.12921886,1.1900362,-0.24554154,-0.34673202,1.3341206,0.035484716,-0.08227553,0.0672317,1.2535696,-0.8448062
0.0,0.0,1.4999999999999998,-0.5235987755982988,-0.5235987755982988,0,0.5705248,-1.1468903,-1.350579,-0.05609419,-0.06058905,1.145967,-0.47831193,-0.43711007,1.2769679,0.03690977,-0.09114535,0.061954293,1.2408714,-1.1059324
0.0,0.0,1.4999999999999998,-0.5235987755982988,-0.5235987755982988,0,0.5705748,-1.1468784,-1.3502005,-0.058929037,-0.042601775,1.2091584,0.31997687,-0.4951115,1.2740548,-0.08353491,-0.10128881,0.024393348,1.2963117,-0.768914
0.0,0.0,1.4999999999999998,-0.5235987755982988,-0.5235987755982988,0,0.57072794,-1.1468637,-1.351182,-0.057992432,-0.033392344,1.2290154,-0.86032313,-0.3723405,1.2845507,-0.28878483,-0.060960345,0.024684211,1.2773567,-0.8795412
0.0,0.0,1.4999999999999998,-0.5235987755982988,-0.5235987755982988,0,0.5705134,-1.1468066,-1.3505974,-0.053001497,-0.0118694035,1.1809838,0.8049798,-0.26805136,1.2853067,-0.025332475,-0.0985212,0.016660305,1.2974244,0.04217092
0.0,0.0,1.4999999999999998,-0.5235987755982988,-0.5235987755982988,0,0.5704751,-1.1469784,-1.349985,-0.0620875,-0.10330372,1.2236573,-0.5310441,-0.5236638,1.2794746,-0.042352516,-0.08852727,0.03860757,1.2563813,0.0360413
0.0,0.0,1.4999999999999998,-0.5235987755982988,-0.5235987755982988,0,0.57055146,-1.1469533,-1.3502545,-0.05749384,-0.009892269,1.1895659,-0.13826127,-0.44184276,1.302306,-0.0075162617,-0.08932445,0.03840349,1.2839161,-1.1022778
0.0,0.0,1.4999999999999998,-0.5235987755982988,-0.5235987755982988,0,0.57079756,-1.1466494,-1.349526,-0.060708415,-0.051192798,1.2172191,0.11491003,-0.33030713,1.2829322,-0.0037721368,-0.07803918,0.015903784,1.2590209,-1.2053052
0.0,0.0,1.4999999999999998,-0.5235987755982988,-0.5235987755982988,0,0.57057345,-1.1468892,-1.3504575,-0.05650846,-0.0058660083,1.2359341,0.22108528,-0.65767527,1.2491403,0.018551327,-0.083577454,-0.021222645,1.289009,-1.4983252
0.0,0.0,1.4999999999999998,-0.5235987755982988,-0.5235987755982988,0,0.57071793,-1.1468623,-1.3507751,-0.05583905,-0.06367649,1.262459,1.1754287,-0.37752554,1.2829646,0.066209674,-0.11050329,0.00048396175,1.2919294,-0.70324546
0.0,0.0,1.4999999999999998,-0.5235987755982988,-0.5235987755982988,0,0.57061315,-1.146872,-1.3490902,-0.057269286,-0.04319962,1.2440237,-1.6200688,-0.49849513,1.2649815,0.038504336,-0.07750582,-0.018052092,1.260118,-0.6823743
0.0,0.0,1.4999999999999998,-0.5235987755982988,-0.5235987755982988,0,0.57081616,-1.1467541,-1.350049,-0.058726553,0.013256407,1.1490583,0.77480006,-0.33789244,1.3110077,0.07622504,-0.07246986,0.04067872,1.312379,-0.3040156
0.0,0.0,1.4999999999999998,-0.5235987755982988,-0.5235987755982988,0,0.5706074,-1.1468197,-1.3503995,-0.056209885,-0.020737968,1.221634,0.0354934,-0.3853871,1.2790288,0.06563338,-0.09136261,-0.0061514257,1.25077,-0.8361704
0.0,0.0,1.4999999999999998,-0.5235987755982988,-0.5235987755982988,0,0.57047707,-1.146755,-1.3498802,-0.057646662,-0.032806136,1.2087793,-0.4962991,-0.3023263,1.2779906,0.047966164,-0.061413698,0.02743125,1.2718717,-0.09678058
0.0,0.0,1.4999999999999998,-0.5235987755982988,-0.5235987755982988,0,0.5706849,-1.1469102,-1.3496293,-0.05974384,-0.054535,1.2356927,-0.8101516,-0.45994738,1.2667834,0.09336371,-0.096232496,0.0060479622,1.2347852,-0.5355989
0.0,0.0,1.4999999999999998,-0.5235987755982988,-0.5235987755982988,0,0.5705685,-1.1469263,-1.3509462,-0.058978938,-0.026622111,1.2120157,-0.42233104,-0.435473,1.2845794,-0.033794913,-0.080968946,-0.030815048,1.2519969,-0.2995683
0.0,0.0,1.4999999999999998,-0.5235987755982988,-0.5235987755982988,0,0.57046163,-1.1469228,-1.3505192,-0.055351764,-0.04774593,1.2245564,-1.2630093,-0.48423076,1.2987493,-0.10451704,-0.07673852,0.030042086,1.2813717,-1.7622088
0.0,0.0,1.4999999999999998,-0.5235987755982988,-0.5235987755982988,0,0.5705759,-1.1468832,-1.3502982,-0.05745351,0.0069166874,1.228319,-0.61558557,-0.45657223,1.2689276,-0.04270191,-0.08738803,-0.024463568,1.2762057,-0.7974055
0.0,0.0,1.4999999999999998,-0.5235987755982988,-0.5235987755982988,0,0.5706788,-1.1468861,-1.3501731,-0.05630106,-0.03126372,1.2151213,-0.041087147,-0.70311093,1.2792534,0.09060951,-0.107698366,0.038794596,1.275241,-0.42552876
0.0,0.0,1.4999999999999998,-0.5235987755982988,-0.5235987755982988,0,0.5705492,-1.1468403,-1.3508692,-0.05509116,-0.044464286,1.1577163,-1.1645967,-0.37104407,1.2684791,-0.062219586,-0.072443314,-0.0025655718,1.2203329,-0.5130771
0.0,0.0,1.4999999999999998,-0.5235987755982988,-0.5235987755982988,0,0.5706934,-1.1467955,-1.350441,-0.056304418,0.05742632,1.2285537,-1.0162135,-0.4136874,1.31457,-0.1826005,-0.08099195,0.008054814,1.2858883,-0.70260274
0.0,0.0,1.4999999999999998,-0.5235987755982988,-0.5235987755982988,0,0.5707421,-1.1467258,-1.3492277,-0.05593773,-0.039319858,1.1980875,-0.54803354,-0.43241394,1.3017311,0.017343385,-0.07912579,-0.018325966,1.2536318,-0.2607387
0.0,0.0,1.4999999999999998,-0.5235987755982988,-0.5235987755982988,0,0.5705583,-1.1468604,-1.3511384,-0.05648274,-0.06749784,1.1877983,0.9371003,-0.5472557,1.2516721,0.124316625,-0.07592156,0.020324212,1.2880238,-0.8082209
0.0,0.0,1.4999999999999998,-0.5235987755982988,-0.5235987755982988,0,0.57071996,-1.1470244,-1.350575,-0.05687546,-0.022195624,1.2087247,0.019092552,-0.49986202,1.2558715,-0.03162355,-0.058176596,-0.037130296,1.2721561,-0.7579029
0.0,0.0,1.4999999999999998,-0.5235987755982988,-0.5235987755982988,0,0.57083803,-1.1466212,-1.348649,-0.060513146,-0.08965927,1.188815,0.0066089844,-0.2533504,1.2990533,-0.16371912,-0.080098465,-0.024844976,1.2414471,0.27821782
0.0,0.0,1.4999999999999998,-0.5235987755982988,-0.5235987755982988,0,0.5708788,-1.1467482,-1.3495469,-0.05669126,-0.10634083,1.146272,-0.7846142,-0.4711442,1.2757349,-0.0016373057,-0.08850074,-0.013885386,1.2808946,-1.0527186
0.0,0.0,1.4999999999999998,-0.5235987755982988,-0.5235987755982988,0,0.570685,-1.1467882,-1.3502256,-0.06063552,-0.066110425,1.1845418,1.5435314,-0.51851803,1.282811,0.036574353,-0.0809471,0.06946358,1.2281497,-1.0132943
0.0,0.0,1.4999999999999998,-0.5235987755982988,-0.5235987755982988,0,0.570738,-1.1468247,-1.3500797,-0.05765226,0.007366033,1.2180876,-0.30143285,-0.36354324,1.294135,-0.02741261,-0.09507234,-0.0376685,1.2679167,-0.7359035
0.0,0.0,1.4999999999999998,-0.5235987755982988,-0.5235987755982988,0,0.5707086,-1.1467458,-1.3506912,-0.056103952,-0.060778543,1.1555059,-0.25375187,-0.47415903,1.2776077,-0.010095673,-0.1074112,0.049903873,1.2141701,0.30145618
0.0,0.0,1.4999999999999998,-0.5235987755982988,-0.5235987755982988,0,0.5709969,-1.1468691,-1.3495166,-0.057299044,-0.0015451942,1.1884404,-0.8799663,-0.3735152,1.2890887,0.07406053,-0.07377449,0.006955909,1.2659746,-0.73066574
0.0,0.0,1.4999999999999998,-0.5235987755982988,-0.5235987755982988,0,0.5707155,-1.1468879,-1.3497362,-0.056423284,0.010397549,1.2049545,-1.1423569,-0.3436806,1.3007736,-0.08589414,-0.06607485,0.059921477,1.2469829,-0.9399003
0.0,0.0,1.4999999999999998,-0.5235987755982988,-0.5235987755982988,0,0.5707421,-1.1469465,-1.350247,-0.05765301,-0.062057063,1.197516,-0.25715736,-0.5171951,1.2864397,0.03497875,-0.0922761,-0.05622856,1.2640173,-0.7286682
0.0,0.0,1.4999999999999998,-0.5235987755982988,-0.5235987755982988,0,0.5706834,-1.1468445,-1.3490983,-0.05785111,-0.04415983,1.215694,-0.78172773,-0.25461364,1.2634853,-0.054123897,-0.089012645,0.015857693,1.2425419,-0.9504477
0.0,0.0,1.4999999999999998,-0.5235987755982988,-0.5235987755982988,0,0.5708667,-1.1468161,-1.3490173,-0.057809122,-0.05810408,1.1811894,-0.22104387,-0.5524702,1.3093619,-0.13378814,-0.09801468,0.00071306917,1.2459452,-0.5140909
0.0,0.0,1.4999999999999998,-0.5235987755982988,-0.5235987755982988,0,0.5706644,-1.1469202,-1.351136,-0.056477994,0.0081539275,1.1651086,-0.14523442,-0.49516174,1.2732307,0.020044493,-0.080471665,-0.025267132,1.3126416,-0.66058296
0.0,0.0,1.4999999999999998,-0.5235987755982988,-0.5235987755982988,0,0.57073724,-1.1467953,-1.3506036,-0.055183493,-0.046233647,1.1838961,0.04625731,-0.26149082,1.254389,0.05612051,-0.087281406,0.042446673,1.2906287,0.5732502
0.0,0.0,1.4999999999999998,-0.5235987755982988,-0.5235987755982988,0,0.57076275,-1.1468266,-1.3507835,-0.056747653,-0.057885982,1.1942503,-0.405048,-0.31180066,1.2488006,-0.05357853,-0.08768193,0.00785473,1.2925224,-0.9288842
0.0,0.0,1.4999999999999998,-0.5235987755982988,-0.5235987755982988,0,0.57068014,-1.1467646,-1.3507007,-0.054370984,-0.012586986,1.1962996,0.12937002,-0.6454264,1.2754318,0.027496565,-0.10215743,0.049207795,1.2796149,-0.5653489
0.0,0.0,1.4999999999999998,-0.5235987755982988,-0.5235987755982988,0,0.5706877,-1.1468024,-1.3494455,-0.056052353,0.07017448,1.1843797,-0.23705426,-0.34953573,1.270484,0.026828136,-0.09755176,0.033661224,1.2783556,0.104046464
0.0,0.0,1.4999999999999998,-0.5235987755982988,-0.5235987755982988,0,0.5708063,-1.1469047,-1.3503534,-0.053108852,0.01592877,1.1370769,0.5551973,-0.4974964,1.3031949,-0.08524556,-0.083681956,0.012028422,1.2600857,-0.99642265
0.0,0.0,1.4999999999999998,-0.5235987755982988,-0.5235987755982988,0,0.5708161,-1.1467905,-1.350941,-0.061142806,-0.050325524,1.1845571,0.63254,-0.5463569,1.2756373,0.078696,-0.10771713,-0.018523224,1.3221895,-0.3791342
0.0,0.0,1.4999999999999998,-0.5235987755982988,-0.5235987755982988,0,0.570485,-1.1469301,-1.3505306,-0.055109136,-0.03246177,1.1919551,-0.6606115,-0.55863035,1.2938138,0.045740556,-0.10908184,-0.022372236,1.2581449,-0.45638347
0.0,0.0,1.4999999999999998,-0.5235987755982988,-0.5235987755982988,0,0.5707838,-1.1467291,-1.3502178,-0.053612296,-0.048640035,1.2288728,0.3376958,-0.48849133,1.2824823,-0.052058067,-0.09321687,0.040186092,1.2534299,-0.436886
0.0,0.0,1.4999999999999998,-0.5235987755982988,-0.5235987755982988,0,0.5709044,-1.1467955,-1.3506789,-0.056980155,-0.027420405,1.2037848,-0.35862824,-0.40827492,1.2542046,0.095450364,-0.077651046,0.023750395,1.2487845,-0.67695224
0.0,0.0,1.4999999999999998,-0.5235987755982988,-0.5235987755982988,0,0.5707371,-1.146897,-1.3499656,-0.062636115,-0.084994726,1.1465487,-1.2406577,-0.55168056,1.2924533,0.0022521245,-0.0850564,0.03678145,1.2507807,-0.3053649
0.0,0.0,1.4999999999999998,-0.5235987755982988,-0.5235987755982988,0,0.5706863,-1.1468078,-1.3494841,-0.056024488,0.048235822,1.1680452,0.19829306,-0.6931237,1.2980924,-0.04701397,-0.08045778,0.098366134,1.2870398,-0.74765164
0.0,0.0,1.4999999999999998,-0.5235987755982988,-0.5235987755982988,0,0.5707283,-1.1467218,-1.3507448,-0.05454653,-0.026813734,1.2135643,-0.4671959,-0.33736452,1.2855164,-0.10883598,-0.09205115,-0.024396623,1.2791274,0.33893955
0.0,0.0,1.4999999999999998,-0.5235987755982988,-0.5235987755982988,0,0.5707341,-1.146932,-1.3508337,-0.057812247,-0.03319364,1.167401,-1.414326,-0.47815385,1.2555141,-0.08857991,-0.09179735,-0.010288751,1.2611395,-1.105112
0.0,0.0,1.4999999999999998,-0.5235987755982988,-0.5235987755982988,0,0.5708023,-1.1468121,-1.3504839,-0.057104405,-0.09345592,1.2148892,-0.004596632,-0.44562045,1.2847766,0.052364316,-0.09521699,-0.002038116,1.2741729,-1.2113538
0.0,0.0,1.4999999999999998,-0.5235987755982988,-0.5235987755982988,0,0.57080764,-1.1467153,-1.348959,-0.05633217,-0.040842317,1.1895888,-0.5590115,-0.5344492,1.2797223,-0.013361993,-0.08162901,0.023570336,1.3083823,-0.96767
0.0,0.0,1.4999999999999998,-0.5235987755982988,-0.5235987755982988,0,0.5707218,-1.1466707,-1.3506382,-0.055951152,-0.041690126,1.1866425,-0.02274965,-0.29559126,1.2695248,0.008872141,-0.07830354,-0.0028808124,1.2716255,-1.1284273
0.0,0.0,1.4999999999999998,-0.5235987755982988,-0.5235987755982988,0,0.5710964,-1.146818,-1.350475,-0.059700336,-0.03510818,1.1804019,-0.28440297,-0.5927651,1.2597194,0.039133947,-0.08525362,-0.0124248965,1.2869505,-0.107075155
0.0,0.0,1.4999999999999998,-0.5235987755982988,-0.5235987755982988,0,0.5709747,-1.146801,-1.3506889,-0.061705004,-0.032438725,1.1587558,-0.41437882,-0.53820324,1.2627313,-0.012839333,-0.07210676,0.090398006,1.3212419,-0.79242605
0.0,0.0,1.4999999999999998,-0.5235987755982988,-0.5235987755982988,0,0.5707506,-1.1469185,-1.3509532,-0.05795991,-0.07117931,1.2108572,-0.06909106,-0.5816031,1.2660577,-0.055578265,-0.10144153,-0.025990443,1.3027041,-0.40574807
0.0,0.0,1.4999999999999998,-0.5235987755982988,-0.5235987755982988,0,0.57056737,-1.1469792,-1.3503499,-0.055189185,-0.0029014463,1.1688683,-0.6567715,-0.5520846,1.2915744,0.005342366,-0.091036126,-0.050020035,1.2732981,-0.360051
0.0,0.0,1.4999999999999998,-0.5235987755982988,-0.5235987755982988,0,0.57096213,-1.1469064,-1.3502251,-0.059777398,-0.024772663,1.2396607,0.23939086,-0.5116584,1.2454768,-0.042784683,-0.12310771,0.080570385,1.2670301,-0.97105646
0.0,0.0,1.4999999999999998,-0.5235987755982988,-0.5235987755982988,0,0.5707914,-1.1467258,-1.3511561,-0.05543741,0.006220281,1.1885247,0.09936251,-0.23069371,1.2832989,-0.007583266,-0.08716332,0.043314505,1.3071268,0.105217054
0.0,0.0,1.4999999999999998,-0.5235987755982988,-0.5235987755982988,0,0.5709559,-1.1468107,-1.3497847,-0.058949705,-0.049020242,1.185469,-0.026285741,-0.20161839,1.2741606,-0.15958367,-0.090696916,0.023458332,1.2776018,0.21999212
0.0,0.0,1.4999999999999998,-0.5235987755982988,-0.5235987755982988,0,0.57078254,-1.1468471,-1.3514223,-0.058159135,-0.014380346,1.1742054,-0.21164128,-0.51368856,1.2856779,-0.12562852,-0.100797415,-0.010796519,1.2596987,-1.2859305
0.0,0.0,1.4999999999999998,-0.5235987755982988,-0.5235987755982988,0,0.5708139,-1.1468182,-1.3498858,-0.05487681,-0.01706336,1.2334895,-1.2143508,-0.59534216,1.3046234,0.034072142,-0.07890791,0.051974017,1.2380308,-0.7230573
0.0,0.0,1.4999999999999998,-0.5235987755982988,-0.5235987755982988,0,0.57090217,-1.1468368,-1.350296,-0.06258809,0.0042947745,1.1880951,0.49383086,-0.6337225,1.2592552,0.06814101,-0.093684115,-0.03258797,1.2918664,-0.95228726
0.0,0.0,1.4999999999999998,-0.5235987755982988,-0.5235987755982988,0,0.5711756,-1.1467386,-1.3497913,-0.05943777,-0.025498005,1.1900746,0.2286789,-0.49730012,1.2423996,0.051972777,-0.067334235,-0.006515402,1.3288752,-1.5406799
0.0,0.0,1.4999999999999998,-0.5235987755982988,-0.5235987755982988,0,0.5709504,-1.1467277,-1.3503156,-0.053656682,-0.004722142,1.1793181,0.16262423,-0.55192804,1.2627525,0.0067672203,-0.09509602,0.013200066,1.2775838,0.02556009
0.0,0.0,1.4999999999999998,-0.5235987755982988,-0.5235987755982988,0,0.5708017,-1.1468337,-1.3501595,-0.058154225,0.014516357,1.2142766,-0.21187797,-0.4871603,1.2826004,-0.16286425,-0.07276377,-0.018736145,1.239742,0.026195304
0.0,0.0,1.4999999999999998,-0.5235987755982988,-0.5235987755982988,0,0.5709144,-1.1468589,-1.3499404,-0.058611672,-0.009933239,1.1969707,-0.42048454,-0.6032891,1.2779142,-0.024073772,-0.082304865,-0.0025662447,1.2819496,-1.1700686
0.0,0.0,1.4999999999999998,-0.5235987755982988,-0.5235987755982988,0,0.57043916,-1.1467681,-1.350046,-0.056443054,-0.01380432,1.2262748,0.29332379,-0.40902692,1.2310785,-0.03795373,-0.08858791,0.07253869,1.2911547,-0.44980213
0.0,0.0,1.4999999999999998,-0.5235987755982988,-0.5235987755982988,0,0.5708623,-1.146872,-1.3495612,-0.058457296,0.018057272,1.1373034,0.04706306,-0.50271356,1.2646253,0.01743222,-0.0914801,0.0020232159,1.2827799,-0.2888942
0.0,0.0,1.4999999999999998,-0.5235987755982988,-0.5235987755982988,0,0.5708828,-1.1468393,-1.3502616,-0.055106293,0.003670471,1.1716888,0.53769755,-0.4406365,1.2777253,-0.1424419,-0.086881615,0.01236841,1.2891532,-1.1309243
0.0,0.0,1.4999999999999998,-0.5235987755982988,-0.5235987755982988,0,0.570886,-1.1469182,-1.3508304,-0.05908885,0.011573985,1.1898543,0.50652057,-0.5028853,1.2454121,0.10152049,-0.07998137,0.01637768,1.2079561,-0.6811866
0.0,0.0,1.4999999999999998,-0.5235987755982988,-0.5235987755982988,0,0.5705358,-1.1467865,-1.3495984,-0.056183185,-0.009008084,1.2088251,0.5616447,-0.5764596,1.2981586,0.13089925,-0.09307823,0.009963605,1.2569261,-0.38893825
0.0,0.0,1.4999999999999998,-0.5235987755982988,-0.5235987755982988,0,0.5703689,-1.1468122,-1.3505563,-0.056704648,-0.06753978,1.2414249,1.0088128,-0.40060657,1.288988,-0.044676434,-0.06740943,0.019579314,1.2765524,-0.62050253
0.0,0.0,1.4999999999999998,-0.5235987755982988,-0.5235987755982988,0,0.5708825,-1.1468257,-1.3503532,-0.05685897,0.011174101,1.1786158,-0.8405498,-0.3576962,1.2529134,-0.016536469,-0.08479797,0.06359741,1.2717911,-0.7037052
0.0,0.0,1.4999999999999998,-0.5235987755982988,-0.5235987755982988,0,0.57079923,-1.1469444,-1.349797,-0.05593663,-0.06607807,1.1690497,-0.83056504,-0.3905467,1.3016306,0.021886164,-0.099119164,-0.03862577,1.2584713,-0.8398081
0.0,0.0,1.4999999999999998,-0.5235987755982988,-0.5235987755982988,0,0.57080835,-1.1469691,-1.3505964,-0.05739442,-0.042287435,1.1763742,-0.3549041,-0.37997386,1.2670636,-0.04934277,-0.08535073,0.017885353,1.241767,-0.33126727
0.0,0.0,1.4999999999999998,-0.5235987755982988,-0.5235987755982988,0,0.57086396,-1.1466784,-1.3492423,-0.054443005,-0.066480406,1.1582272,-0.20276703,-0.54322475,1.3237085,-0.056565955,-0.089930356,-0.00038869228,1.2723002,-1.2851244
0.0,0.0,1.4999999999999998,-0.5235987755982988,-0.5235987755982988,0,0.5708436,-1.1467797,-1.3503535,-0.057999972,-0.018187772,1.2076144,-1.1803294,-0.5030766,1.2632555,-0.03447163,-0.09249624,0.08946154,1.3083562,-2.3265536
0.0,0.0,1.4999999999999998,-0.5235987755982988,-0.5235987755982988,0,0.57095236,-1.1468843,-1.3507798,-0.053166512,-0.039484084,1.1974399,-0.17037825,-0.547806,1.2885448,-0.06939882,-0.08460276,0.050356597,1.2765929,-0.1670352
0.0,0.0,1.4999999999999998,-0.5235987755982988,-0.5235987755982988,0,0.57079816,-1.1468272,-1.3517071,-0.058110245,-0.039216653,1.1729918,0.042089183,-0.2851155,1.2658637,-0.124269694,-0.06821902,-0.02536782,1.315355,-0.7379707
0.0,0.0,1.4999999999999998,-0.5235987755982988,-0.5235987755982988,0,0.5708902,-1.1468424,-1.350899,-0.060252517,0.0042834086,1.1993829,0.4905022,-0.4665514,1.2662121,-0.02338561,-0.096214175,-0.027873239,1.2451295,-0.5813005
0.0,0.0,1.4999999999999998,-0.5235987755982988,-0.5235987755982988,0,0.5710793,-1.1468749,-1.351027,-0.056990582,-0.14631289,1.1723244,0.25457364,-0.5213725,1.2875329,0.0083738705,-0.093027025,-0.060327016,1.2337275,-1.1223282
0.0,0.0,1.4999999999999998,-0.5235987755982988,-0.5235987755982988,0,0.5707742,-1.1467493,-1.350498,-0.055160232,-0.03269009,1.1706073,-0.4423653,-0.5653557,1.252457,0.010980908,-0.09794736,-0.023327356,1.2719277,-0.6974498
0.0,0.0,1.4999999999999998,-0.5235987755982988,-0.5235987755982988,0,0.5706502,-1.1469173,-1.3507148,-0.056295373,-0.041401457,1.2076219,0.7189651,-0.41886497,1.2544796,-0.052779105,-0.07759594,0.011251261,1.2371012,-0.64619994
0.0,0.0,1.4999999999999998,-0.5235987755982988,-0.5235987755982988,0,0.57098997,-1.1469419,-1.3502876,-0.055647057,-0.037810463,1.2314309,-0.29477,-0.55372727,1.2758787,0.057780985,-0.053279955,0.029213272,1.2704957,-1.7981977
0.0,0.0,1.4999999999999998,-0.5235987755982988,-0.5235987755982988,0,0.570544,-1.1468581,-1.3504674,-0.059145276,-0.10302635,1.2086197,-0.050283585,-0.49982625,1.2867603,-0.077424645,-0.074363254,-0.0122437,1.3110547,-0.04203824
0.0,0.0,1.4999999999999998,-0.5235987755982988,-0.5235987755982988,0,0.57090163,-1.146808,-1.3504457,-0.052096516,-0.017775359,1.1410185,-0.59901744,-0.44178185,1.2833343,0.04216336,-0.084126115,-0.023002626,1.2611159,0.07145917
0.0,0.0,1.4999999999999998,-0.5235987755982988,-0.5235987755982988,0,0.5708712,-1.1469036,-1.3515397,-0.05426426,-0.04815261,1.186164,0.37923583,-0.45777953,1.2924875,0.11534818,-0.09199162,0.043404926,1.2812979,-1.2233142
0.0,0.0,1.4999999999999998,-0.5235987755982988,-0.5235987755982988,0,0.57059616,-1.147017,-1.3503798,-0.05454682,-0.06250764,1.2321849,-1.5137565,-0.578706,1.2731451,-0.07788939,-0.12890415,0.054290865,1.2471358,-1.133937
0.0,0.0,1.4999999999999998,-0.5235987755982988,-0.5235987755982988,0,0.5705379,-1.1468704,-1.3496243,-0.057104938,0.031428203,1.2193599,0.2924455,-0.49382237,1.2783946,-0.012329774,-0.07433153,0.020624274,1.2748458,-0.7086848
0.0,0.0,1.4999999999999998,-0.5235987755982988,-0.5235987755982988,0,0.57087475,-1.1468512,-1.3507639,-0.054816786,-0.07148924,1.1585397,-0.76024306,-0.42351544,1.2709528,0.107768714,-0.081580386,-0.05207627,1.2986052,0.04367164
0.0,0.0,1.4999999999999998,-0.5235987755982988,-0.5235987755982988,0,0.5709018,-1.1468825,-1.3512917,-0.05645168,-0.0792894,1.2091526,-1.0801821,-0.39452404,1.2850127,0.019485272,-0.09113818,0.02862159,1.2581606,-0.28754044
0.0,0.0,1.4999999999999998,-0.5235987755982988,-0.5235987755982988,0,0.5709504,-1.1466339,-1.3499358,-0.0596917,-0.016234642,1.2172071,0.30917996,-0.5554874,1.2571757,-0.0044946913,-0.107370205,0.072629854,1.2669542,-1.3377459
0.0,0.0,1.4999999999999998,-0.5235987755982988,-0.5235987755982988,0,0.57095987,-1.1467563,-1.3500584,-0.05526429,-0.026491852,1.191433,-0.47206312,-0.47466964,1.3053151,-0.07413264,-0.07165447,-0.036498386,1.2322992,-0.5482491
0.0,0.0,1.4999999999999998,-0.5235987755982988,-0.5235987755982988,0,0.57076484,-1.1468512,-1.3500853,-0.059793517,-0.04100112,1.1878247,-0.55876654,-0.4172111,1.2551826,0.09782662,-0.08905108,0.024526885,1.2452263,-0.669071
0.0,0.0,1.4999999999999998,-0.5235987755982988,-0.5235987755982988,0,0.57097125,-1.1469282,-1.3496755,-0.05928078,-0.033844925,1.2116002,-0.23303135,-0.5182101,1.292938,-0.06610114,-0.05060558,0.06681915,1.3091949,-0.8059192
0.0,0.0,1.4999999999999998,-0.5235987755982988,-0.5235987755982988,0,0.570885,-1.1468942,-1.3498816,-0.054908514,-0.028891522,1.2023978,-1.0019175,-0.4876523,1.2539985,-0.013713467,-0.0664664,0.04983904,1.2405401,-1.0324582
0.0,0.0,1.4999999999999998,-0.5235987755982988,-0.5235987755982988,0,0.5709898,-1.1468061,-1.3515252,-0.057605322,-0.04790928,1.2060802,-0.22304322,-0.5194759,1.2835413,0.027438147,-0.08606484,0.027334172,1.2389423,-1.7843624
0.0,0.0,1.4999999999999998,-0.5235987755982988,-0.5235987755982988,0,0.5709548,-1.146966,-1.3494055,-0.057031002,-0.07981089,1.174549,0.25298396,-0.5014075,1.2830354,0.045513038,-0.07888611,0.036682572,1.2731302,-0.2205459
0.0,0.0,1.4999999999999998,-0.5235987755982988,-0.5235987755982988,0,0.5710977,-1.1469089,-1.3508768,-0.05487304,-0.048880327,1.2451783,-1.3233402,-0.5260425,1.3217208,-0.06642676,-0.082529865,0.023125317,1.2427944,-0.6006805
0.0,0.0,1.4999999999999998,-0.5235987755982988,-0.5235987755982988,0,0.57095706,-1.1467668,-1.3509327,-0.057096865,0.02521411,1.2019675,-0.7361545,-0.37724385,1.2761075,-0.021741116,-0.08195965,-0.06619449,1.2350734,0.036291797
0.0,0.0,1.4999999999999998,-0.5235987755982988,-0.5235987755982988,0,0.57094586,-1.1468222,-1.3502188,-0.0565074,0.025150532,1.2414771,-0.6746729,-0.3125193,1.2688167,-0.00093230157,-0.082840316,0.031680282,1.2456465,-0.8257777
0.0,0.0,1.4999999999999998,-0.5235987755982988,-0.5235987755982988,0,0.57087123,-1.1468015,-1.3508449,-0.0590731,-0.014024575,1.2069432,-0.4538261,-0.4828374,1.267954,0.08735106,-0.08936035,0.07442217,1.281399,-0.7324891
0.0,0.0,1.4999999999999998,-0.5235987755982988,-0.5235987755982988,0,0.5709451,-1.1468041,-1.3504864,-0.057003275,-0.034890402,1.1728125,0.25319734,-0.37439522,1.2504171,0.00012794268,-0.0944581,-0.011369895,1.2986954,-0.5948094
0.0,0.0,1.4999999999999998,-0.5235987755982988,-0.5235987755982988,0,0.5708621,-1.1467193,-1.3496668,-0.058525246,-0.060750064,1.1644458,0.39376456,-0.4938933,1.2563273,0.05159845,-0.07774194,0.063699424,1.2722161,-0.64459854
0.0,0.0,1.4999999999999998,-0.5235987755982988,-0.5235987755982988,0,0.5709481,-1.146826,-1.3513353,-0.05749003,-0.006325173,1.1880918,-0.76051617,-0.4775049,1.2333853,0.12076708,-0.09911271,0.07052476,1.2724878,0.33726647
0.0,0.0,1.4999999999999998,-0.5235987755982988,-0.5235987755982988,0,0.5706097,-1.1468687,-1.3502072,-0.059413187,0.0005246865,1.2860583,-0.33212495,-0.34630114,1.2681473,0.006265158,-0.084079646,0.009083473,1.2647989,-1.5749688
0.0,0.0,1.4999999999999998,-0.5235987755982988,-0.5235987755982988,0,0.5710389,-1.1469222,-1.3502771,-0.056873858,-0.05913531,1.2168626,-0.3224008,-0.3333399,1.3144522,-0.11346093,-0.07833937,0.029565131,1.259388,-0.095160246
0.0,0.0,1.4999999999999998,-0.5235987755982988,-0.5235987755982988,0,0.57101864,-1.1466861,-1.3487458,-0.054712813,-0.0061113266,1.1476971,0.40405557,-0.35616857,1.2583836,0.055657394,-0.10247026,0.06749871,1.2833959,-0.13695076
0.0,0.0,1.4999999999999998,-0.5235987755982988,-0.5235987755982988,0,0.57098156,-1.1468562,-1.3508347,-0.05452949,-0.022937179,1.1439899,-0.37000528,-0.44903064,1.2791411,-0.04947948,-0.09575163,-0.028496938,1.244743,0.5614583
0.0,0.0,1.4999999999999998,-0.5235987755982988,-0.5235987755982988,0,0.5708073,-1.1469648,-1.3512906,-0.056145154,-0.046447612,1.1776694,-0.03620727,-0.6560245,1.2765782,0.08649833,-0.09093118,-0.03595346,1.2729703,-1.1535553
0.0,0.0,1.4999999999999998,-0.5235987755982988,-0.5235987755982988,0,0.57049936,-1.146916,-1.3506469,-0.054818537,-0.052341826,1.1916287,-0.6212044,-0.5161447,1.2473464,0.053177133,-0.09372592,-0.055994745,1.2327514,-1.1379638
0.0,0.0,1.4999999999999998,-0.5235987755982988,-0.5235987755982988,0,0.57109785,-1.1468555,-1.3501344,-0.05336599,-0.041578904,1.1852361,-0.21419875,-0.371895,1.3069408,-0.07995534,-0.093397856,0.012215783,1.2787412,-0.89121246
0.0,0.0,1.4999999999999998,-0.5235987755982988,-0.5235987755982988,0,0.571167,-1.1468184,-1.3506423,-0.052717097,-0.04044444,1.2090213,-0.07494837,-0.3880858,1.2606145,-0.027994104,-0.07429805,-0.0021335653,1.222688,-0.67726445
0.0,0.0,1.4999999999999998,-0.5235987755982988,-0.5235987755982988,0,0.5710143,-1.1468455,-1.3491966,-0.058116358,-0.037710194,1.1934811,-0.8029164,-0.4391292,1.2740715,0.009580066,-0.1052405,0.059529707,1.2371489,-0.8408691
0.0,0.0,1.4999999999999998,-0.5235987755982988,-0.5235987755982988,0,0.5711204,-1.1467906,-1.3493559,-0.053728025,-0.035071265,1.2126114,1.0476305,-0.5247304,1.297163,-0.00056397176,-0.10502741,0.035250217,1.2509817,-1.2465316
0.0,0.0,1.4999999999999998,-0.5235987755982988,-0.5235987755982988,0,0.5703649,-1.1470103,-1.3504227,-0.056911264,-0.012507179,1.2170854,-0.4132442,-0.37035185,1.2972285,0.10647566,-0.086357474,0.09269779,1.2668612,-0.6003452
0.0,0.0,1.4999999999999998,-0.5235987755982988,-0.5235987755982988,0,0.5703048,-1.146836,-1.3510723,-0.05461407,-0.07291609,1.2346812,-0.17275997,-0.3817939,1.2663863,0.0010748511,-0.094109945,0.022696296,1.280546,-0.60711735
0.0,0.0,1.4999999999999998,-0.5235987755982988,-0.5235987755982988,0,0.5705056,-1.1469455,-1.350553,-0.058069643,-0.07404439,1.218865,-0.34070024,-0.48138204,1.2545577,0.059833784,-0.084461585,0.04592218,1.2680873,-0.77677464
0.0,0.0,1.4999999999999998,-0.5235987755982988,-0.5235987755982988,0,0.57066417,-1.1469679,-1.3513259,-0.059769306,-0.054624554,1.2181572,-0.43221873,-0.55600035,1.28499,0.09133862,-0.06003169,-0.012262409,1.2732011,-0.779545
0.0,0.0,1.4999999999999998,-0.5235987755982988,-0.5235987755982988,0,0.5703467,-1.1467319,-1.3512663,-0.057050027,-0.017655965,1.235587,-0.684333,-0.3419818,1.2700096,-0.052415423,-0.061690643,-0.008830844,1.290206,-1.0423346
0.0,0.0,1.4999999999999998,-0.5235987755982988,-0.5235987755982988,0,0.5707425,-1.1469278,-1.351841,-0.056951225,0.017345756,1.1786884,-0.6636505,-0.42457724,1.2489166,-0.038155276,-0.096139014,-0.014825656,1.2618096,-1.417195
0.0,0.0,1.4999999999999998,-0.5235987755982988,-0.5235987755982988,0,0.5704161,-1.1469401,-1.3502206,-0.055758275,0.018395673,1.2392422,0.7375895,-0.35015598,1.2622807,-0.021550888,-0.08361351,0.03650009,1.2789257,-0.39830983
0.0,0.0,1.4999999999999998,-0.5235987755982988,-0.5235987755982988,0,0.57057196,-1.1468772,-1.350174,-0.055328608,-0.060758915,1.1813285,0.23943622,-0.48010522,1.2594013,0.19227277,-0.0880615,-0.01375679,1.2681665,-1.2098786
0.0,0.0,1.4999999999999998,-0.5235987755982988,-0.5235987755982988,0,0.57051456,-1.1469028,-1.3499141,-0.055843428,-0.044002667,1.202742,-0.38675892,-0.3462657,1.2390977,-0.061507132,-0.102339685,-0.032898538,1.2330989,0.22808716
0.0,0.0,1.4999999999999998,-0.5235987755982988,-0.5235987755982988,0,0.5707605,-1.1469502,-1.3519758,-0.056128085,-0.05379563,1.2156533,-0.31549653,-0.34237334,1.282059,-0.009443112,-0.09120402,0.04596766,1.2177453,-0.46425083
0.0,0.0,1.4999999999999998,-0.5235987755982988,-0.5235987755982988,0,0.5706778,-1.1467308,-1.350759,-0.057149176,0.020581666,1.2175897,-1.5289809,-0.20174162,1.2804567,-0.0035955703,-0.08139565,-0.042684026,1.2735757,-1.794906
0.0,0.0,1.4999999999999998,-0.5235987755982988,-0.5235987755982988,0,0.57070786,-1.1468064,-1.3501527,-0.05636997,-0.030635737,1.212936,-1.3666679,-0.41815722,1.3086207,0.014067922,-0.08215598,0.058007214,1.2531284,-1.1802846
0.0,0.0,1.4999999999999998,-0.5235987755982988,-0.5235987755982988,0,0.57071096,-1.1469024,-1.3495946,-0.053763557,-0.05888122,1.216369,0.5528682,-0.36895904,1.2953182,0.040792838,-0.08638317,0.03240298,1.2737452,-0.87479305
0.0,0.0,1.4999999999999998,-0.5235987755982988,-0.5235987755982988,0,0.5706917,-1.146765,-1.3506137,-0.05456385,0.018515483,1.2035792,0.29120487,-0.51745707,1.2674288,-0.09326458,-0.0773734,-0.003939257,1.2910935,0.21232869
0.0,0.0,1.4999999999999998,-0.5235987755982988,-0.5235987755982988,0,0.5709335,-1.1468649,-1.3502659,-0.058986746,-0.039416194,1.2074901,-0.06032592,-0.35403025,1.26451,0.0426105,-0.067696385,0.060989928,1.2343291,-1.3467623
0.0,0.0,1.4999999999999998,-0.5235987755982988,-0.5235987755982988,0,0.5707558,-1.1468637,-1.3513342,-0.058304314,-0.075436056,1.1871647,-0.43237123,-0.4004681,1.262799,-0.09403317,-0.07736333,0.033284213,1.3089321,-0.44873333
0.0,0.0,1.4999999999999998,-0.5235987755982988,-0.5235987755982988,0,0.5708183,-1.1468375,-1.3508399,-0.05808037,-0.049111944,1.2201356,0.6810969,-0.30967548,1.2634242,-0.11756298,-0.08445031,-0.03950615,1.2923393,-0.85822636
0.0,0.0,1.4999999999999998,-0.5235987755982988,-0.5235987755982988,0,0.570682,-1.1467721,-1.349437,-0.057197317,-0.09860279,1.243094,-0.14763696,-0.6133543,1.3022597,-0.007947516,-0.079717934,0.0068577607,1.2758183,-0.6301113
0.0,0.0,1.4999999999999998,-0.5235987755982988,-0.5235987755982988,0,0.57093877,-1.1468543,-1.3510033,-0.05829123,-0.054062676,1.1901578,-0.40209016,-0.5301831,1.3016559,-0.04695555,-0.06965065,0.009954332,1.2556502,-0.58569896
0.0,0.0,1.4999999999999998,-0.5235987755982988,-0.5235987755982988,0,0.5705813,-1.146914,-1.3507564,-0.05377312,-0.0453687,1.2011485,0.5029003,-0.31616953,1.2993858,0.0046186484,-0.0923021,0.020704426,1.2675914,-1.1122932
0.0,0.0,1.4999999999999998,-0.5235987755982988,-0.5235987755982988,0,0.5707397,-1.1468496,-1.350223,-0.05658034,-0.030977946,1.1950066,-1.4280794,-0.50968826,1.273523,-0.07329798,-0.061864443,0.07277839,1.2754012,-0.7479918
0.0,0.0,1.4999999999999998,-0.5235987755982988,-0.5235987755982988,0,0.5708859,-1.146837,-1.3500249,-0.056426648,-0.033549603,1.1786499,-0.08588928,-0.24169113,1.2904342,-0.0798104,-0.08371052,0.026801359,1.2406473,-0.42168334
0.0,0.0,1.4999999999999998,-0.5235987755982988,-0.5235987755982988,0,0.5707538,-1.1468028,-1.3518848,-0.05574701,-0.10559754,1.2014401,-0.842936,-0.61243266,1.2909213,-0.034775916,-0.07179706,0.015535457,1.2539507,-0.84333766
0.0,0.0,1.4999999999999998,-0.5235987755982988,-0.5235987755982988,0,0.5709209,-1.1467828,-1.3488735,-0.05976457,-0.09598675,1.1657753,-0.157671,-0.39284295,1.297252,0.04153183,-0.102993585,0.08925296,1.3249772,-0.8655015
0.0,0.0,1.4999999999999998,-0.5235987755982988,-0.5235987755982988,0,0.5704157,-1.146846,-1.3500574,-0.05636466,-0.027354421,1.151603,-0.4273505,-0.3676888,1.2963386,-0.12604025,-0.09084212,0.006715847,1.2594029,0.2905377
0.0,0.0,1.4999999999999998,-0.5235987755982988,-0.5235987755982988,0,0.5707949,-1.146745,-1.3497901,-0.0575374,-0.030458063,1.1612908,-0.4930191,-0.5380505,1.2826062,-0.00056080916,-0.04140188,-0.0034460945,1.2612424,0.23628274
0.0,0.0,1.4999999999999998,-0.5235987755982988,-0.5235987755982988,0,0.570942,-1.146794,-1.349364,-0.054464407,0.010007396,1.1777613,0.12701415,-0.55932444,1.2715623,0.018830629,-0.090774514,-0.03213434,1.2309563,-0.53361994
0.0,0.0,1.4999999999999998,-0.5235987755982988,-0.5235987755982988,0,0.5708315,-1.1468575,-1.3504745,-0.058260813,-0.060330167,1.155783,-0.89217466,-0.549754,1.2764815,0.07641516,-0.08389845,0.052618943,1.2483659,-1.2242616
0.0,0.0,1.4999999999999998,-0.5235987755982988,-0.5235987755982988,0,0.5707195,-1.1467903,-1.3509527,-0.056753326,-0.042457804,1.2196192,0.20445551,-0.4237005,1.2952967,-0.06447173,-0.098342925,-0.009757782,1.3048226,-0.5677957
0.0,0.0,1.4999999999999998,-0.5235987755982988,-0.5235987755982988,0,0.5709446,-1.1467949,-1.3511995,-0.055620912,-0.0628303,1.1971351,0.29366475,-0.29603574,1.294091,-0.02404114,-0.08743321,0.00049071386,1.241598,-0.32100573
0.0,0.0,1.4999999999999998,-0.5235987755982988,-0.5235987755982988,0,0.57135355,-1.1468481,-1.3502152,-0.057017103,-0.013687442,1.137122,0.75922245,-0.36538014,1.2794232,-0.12915541,-0.05253354,0.045510806,1.2837347,-0.07696334
0.0,0.0,1.4999999999999998,-0.5235987755982988,-0.5235987755982988,0,0.57081044,-1.146846,-1.3492213,-0.055613205,0.015578911,1.1697412,-0.68697655,-0.47339967,1.2715218,-0.028741062,-0.08600823,0.048307333,1.2642264,0.42683995
0.0,0.0,1.4999999999999998,-0.5235987755982988,-0.5235987755982988,0,0.57071143,-1.1468331,-1.3499169,-0.056000594,-0.064131595,1.1831763,0.2889015,-0.4727017,1.2887672,0.02545889,-0.070853725,-0.025407787,1.2516773,-0.08478815
0.0,0.0,1.4999999999999998,-0.5235987755982988,-0.5235987755982988,0,0.57073635,-1.1468372,-1.3500147,-0.056654952,-0.052671093,1.2258251,-0.21894382,-0.2974265,1.2821383,0.00060322386,-0.047940236,0.04282686,1.2573768,-0.32680458
0.0,0.0,1.4999999999999998,-0.5235987755982988,-0.5235987755982988,0,0.57057863,-1.1468916,-1.3505124,-0.05595187,-0.009948552,1.2124016,1.0020541,-0.73782045,1.3054507,0.10264559,-0.06433158,0.079339735,1.2309049,-0.53890175
0.0,0.0,1.4999999999999998,-0.5235987755982988,-0.5235987755982988,0,0.57080024,-1.1467799,-1.3500732,-0.057508536,-0.002041641,1.1994672,-0.52734655,-0.4830295,1.2790107,-0.044414435,-0.057800993,0.029996565,1.2360649,-0.65320206
0.0,0.0,1.4999999999999998,-0.5235987755982988,-0.5235987755982988,0,0.57111764,-1.1468252,-1.3507187,-0.05867264,-0.032153975,1.1898373,0.9072414,-0.57745284,1.2867659,0.020802379,-0.0800087,-0.018122697,1.3194506,-0.5011842
0.0,0.0,1.4999999999999998,-0.5235987755982988,-0.5235987755982988,0,0.57080436,-1.1468658,-1.350192,-0.054918468,0.012004967,1.1976604,-1.0285428,-0.43805015,1.3046148,-0.075735,-0.080365,-0.07379376,1.2775152,0.23912759
0.0,0.0,1.4999999999999998,-0.5235987755982988,-0.5235987755982988,0,0.57089967,-1.1469501,-1.3512409,-0.058062613,-0.0145670995,1.205581,-1.0666571,-0.40654364,1.2991129,-0.02258249,-0.0849983,-0.01925977,1.2532504,-0.6321635
0.0,0.0,1.4999999999999998,-0.5235987755982988,-0.5235987755982988,0,0.57070637,-1.1467898,-1.3514535,-0.054013517,-0.013645393,1.2398367,-0.14854454,-0.4440022,1.2590854,-0.037184615,-0.09361953,0.066787444,1.273963,-0.08703096
0.0,0.0,1.4999999999999998,-0.5235987755982988,-0.5235987755982988,0,0.5706839,-1.1468575,-1.3515601,-0.05663517,-0.04658445,1.1672909,-0.28317267,-0.6504267,1.2925527,0.044985663,-0.08832236,-0.028309166,1.2845088,-0.86684275
0.0,0.0,1.4999999999999998,-0.5235987755982988,-0.5235987755982988,0,0.57082486,-1.1469438,-1.3504115,-0.053963177,-0.06604142,1.1928061,-1.1649127,-0.4781666,1.3039287,-0.035073638,-0.09929151,0.03200628,1.3098643,-0.7578392
0.0,0.0,1.4999999999999998,-0.5235987755982988,-0.5235987755982988,0,0.57081246,-1.146791,-1.3517056,-0.05870463,-0.022099705,1.2382272,-0.54364675,-0.5612051,1.3046843,-0.022245595,-0.10158421,-0.0044704215,1.2415524,-0.49234593
0.0,0.0,1.4999999999999998,-0.5235987755982988,-0.5235987755982988,0,0.5708383,-1.1467857,-1.3503691,-0.056117922,-0.08022338,1.1795223,0.29058424,-0.4997526,1.292804,-0.11641837,-0.08644174,-0.08050555,1.2451061,-0.8022462
0.0,0.0,1.4999999999999998,-0.5235987755982988,-0.5235987755982988,0,0.5708729,-1.1468781,-1.3499844,-0.060090434,-0.0072662076,1.1586212,0.88951635,-0.3552036,1.2658869,0.02855656,-0.06430087,-0.04278083,1.251616,-1.8627995
0.0,0.0,1.4999999999999998,-0.5235987755982988,-0.5235987755982988,0,0.5706682,-1.1467525,-1.3501325,-0.057553817,-0.033532742,1.1665771,0.25373194,-0.41040713,1.2698336,-0.0036232295,-0.09725188,0.02910258,1.2525727,-1.1174643
0.0,0.0,1.4999999999999998,-0.5235987755982988,-0.5235987755982988,0,0.57081926,-1.14665,-1.3504584,-0.055924453,-0.0699775,1.1871119,0.18014729,-0.40516514,1.2883523,-0.025791587,-0.093586236,-0.008769631,1.2907444,-1.7344828
0.0,0.0,1.4999999999999998,-0.5235987755982988,-0.5235987755982988,0,0.57064116,-1.1469487,-1.3505614,-0.05664723,-0.03238763,1.1885976,-0.6933645,-0.36647934,1.239527,0.044871233,-0.0972683,0.029524159,1.2425687,-0.8239711
0.0,0.0,1.4999999999999998,-0.5235987755982988,-0.5235987755982988,0,0.57100004,-1.1466846,-1.3497517,-0.05720641,-0.04792249,1.1823152,0.38924137,-0.38541257,1.2870204,-0.099944174,-0.055686463,0.021720517,1.2549958,-0.5661997
0.0,0.0,1.4999999999999998,-0.5235987755982988,-0.5235987755982988,0,0.5706901,-1.146907,-1.350552,-0.052720618,0.009436154,1.1897768,-0.21994433,-0.4404258,1.2789677,0.035534482,-0.0961322,0.06571874,1.3088483,-0.17541443
0.0,0.0,1.4999999999999998,-0.5235987755982988,-0.5235987755982988,0,0.5708655,-1.1467811,-1.3506624,-0.057015087,-0.0355269,1.1967942,-0.33643854,-0.5622938,1.3156055,0.025409175,-0.06845365,-0.019058958,1.2551275,-0.060421586
0.0,0.0,1.4999999999999998,-0.5235987755982988,-0.5235987755982988,0,0.57054365,-1.1468298,-1.3510264,-0.056289535,-0.026557954,1.1840591,0.15679605,-0.6531158,1.259313,-0.080449514,-0.06234174,-1.7324632e-05,1.2894613,-1.0684894
0.0,0.0,1.4999999999999998,-0.5235987755982988,-0.5235987755982988,0,0.57082075,-1.1468036,-1.3504304,-0.056369945,-0.05444628,1.1661927,0.42793873,-0.32884783,1.2824669,-0.0033806416,-0.09288168,0.0036908772,1.3052218,-0.22145657
