sanky1234/BimanualDexCatch/isaacgymenvs/cem_results/football_pose_0.0_0.0_1.0999999999999999_0.0_0.0_0_2025-05-26.csv
x,y,z,roll,pitch,yaw,robot1/joint1,robot1/joint2,robot1/joint3,robot1/joint4,robot1/joint5,robot1/joint6,robot1/joint7,robot2/joint1,robot2/joint2,robot2/joint3,robot2/joint4,robot2/joint5,robot2/joint6,robot2/joint7
0.0,0.0,1.0999999999999999,0.0,0.0,0,-1.2121274,-1.1095359,2.7675989,-0.073714145,-0.014158947,1.2762071,-1.0799545,1.2163658,1.2862271,-0.019298434,-0.08057135,-0.017076984,1.2623278,-0.1544824
0.0,0.0,1.0999999999999999,0.0,0.0,0,-1.2121543,-1.1095448,2.769405,-0.07940883,0.005868297,1.2837741,-1.3762501,1.0147392,1.2853187,-0.013580067,-0.08473154,0.0001775169,1.2584009,-1.4490293
0.0,0.0,1.0999999999999999,0.0,0.0,0,-1.2122523,-1.1097692,2.7724903,-0.06748349,-0.034039114,1.2781804,-0.35694653,1.1841342,1.2893337,0.00047597542,-0.07849723,-0.004016877,1.2631986,-1.4302447
0.0,0.0,1.0999999999999999,0.0,0.0,0,-1.2122511,-1.1098944,2.768463,-0.06765415,0.016149124,1.2855494,-0.33959427,0.9698948,1.2728006,-0.05958703,-0.08423495,0.0019710655,1.2710128,-0.48229125
0.0,0.0,1.0999999999999999,0.0,0.0,0,-1.2122594,-1.1091208,2.774273,-0.06646868,0.026710998,1.2818673,-0.05844486,1.2261842,1.2903633,-0.0018570885,-0.08223317,-0.003156286,1.2665443,-1.0576295
0.0,0.0,1.0999999999999999,0.0,0.0,0,-1.2122009,-1.1091919,2.771724,-0.066589095,-0.0032312684,1.2724593,0.3920297,1.1879488,1.3038788,-0.0141823515,-0.08383942,0.0072990484,1.2590748,-0.11505499
0.0,0.0,1.0999999999999999,0.0,0.0,0,-1.2123407,-1.1097038,2.7659972,-0.07452986,0.0036480017,1.2834074,0.09242173,1.0092353,1.2865922,0.018663228,-0.07286998,0.013045702,1.265888,0.17091644
0.0,0.0,1.0999999999999999,0.0,0.0,0,-1.2121783,-1.1099076,2.7737174,-0.06263351,-0.017734583,1.2802242,0.17250177,1.309968,1.2847344,-0.0071336445,-0.08343604,0.02503076,1.2624373,0.60727423
0.0,0.0,1.0999999999999999,0.0,0.0,0,-1.2122551,-1.1098121,2.7693777,-0.061613362,0.002610075,1.2865545,-0.61863214,1.1201222,1.2998356,-0.014573438,-0.08887728,0.018057711,1.253773,-2.4840891
0.0,0.0,1.0999999999999999,0.0,0.0,0,-1.2121416,-1.1100947,2.7654586,-0.067685924,0.0118332235,1.2806487,-1.532699,1.1756114,1.2775542,-0.0039815707,-0.08366811,0.014161037,1.2614112,-1.5980861
0.0,0.0,1.0999999999999999,0.0,0.0,0,-1.212185,-1.1095138,2.7674508,-0.061904326,0.001486868,1.2735202,-0.5375723,1.3230339,1.2729179,0.018459179,-0.08126217,-0.017041622,1.2568617,-0.6788701
0.0,0.0,1.0999999999999999,0.0,0.0,0,-1.2121705,-1.1097558,2.771659,-0.069173105,0.02286761,1.2818846,-0.3517115,1.3097814,1.2835836,-0.013162633,-0.07998954,0.0051779835,1.2676954,-1.4085733
0.0,0.0,1.0999999999999999,0.0,0.0,0,-1.2121936,-1.1092834,2.765729,-0.07408699,-0.006886948,1.2857488,-1.2452675,1.2673873,1.2955887,0.0033031108,-0.08042769,-0.0122415535,1.2618128,-1.9938927
0.0,0.0,1.0999999999999999,0.0,0.0,0,-1.2122217,-1.1095655,2.7648966,-0.07056101,0.05346039,1.2800387,-2.1797943,0.8358458,1.2923746,-0.011313569,-0.091545686,0.030785546,1.255991,-1.5215504
0.0,0.0,1.0999999999999999,0.0,0.0,0,-1.2123512,-1.1093334,2.767311,-0.060957525,0.014355343,1.2706861,-0.84200466,1.2928554,1.2878889,-0.012617223,-0.07555234,0.016968032,1.2600458,0.6213097
0.0,0.0,1.0999999999999999,0.0,0.0,0,-1.212231,-1.1099397,2.7743933,-0.058710236,0.009550669,1.2855477,-1.3207451,1.2465656,1.2837621,-0.0019401263,-0.08342319,-0.003065988,1.2661692,0.0763338
0.0,0.0,1.0999999999999999,0.0,0.0,0,-1.212174,-1.1094525,2.7681859,-0.06417365,0.014400467,1.2723204,-1.0456417,1.6747247,1.2805986,0.00986306,-0.0800543,0.004118321,1.2595766,-0.4996564
0.0,0.0,1.0999999999999999,0.0,0.0,0,-1.2121753,-1.1096766,2.7679806,-0.06371149,0.016069341,1.2739779,-0.14046842,1.0760936,1.2853267,-0.018510915,-0.07499755,0.0041058008,1.2512352,-1.5800399
0.0,0.0,1.0999999999999999,0.0,0.0,0,-1.2120732,-1.1093092,2.7751477,-0.06488926,0.011090921,1.2891026,1.2413357,1.3562572,1.289407,-0.026648046,-0.08374012,0.003574311,1.264485,-1.7180935
0.0,0.0,1.0999999999999999,0.0,0.0,0,-1.2121629,-1.1091949,2.7672946,-0.074536845,0.015746418,1.2797085,-0.76971316,1.0193948,1.2810025,-0.004433306,-0.0850718,0.014352334,1.2650174,-2.5530252
0.0,0.0,1.0999999999999999,0.0,0.0,0,-1.2121718,-1.10983,2.7642708,-0.07208568,0.047769353,1.282796,-1.5132579,1.0788867,1.2713886,-0.002832652,-0.07813618,0.019585056,1.2657393,-0.5158195
0.0,0.0,1.0999999999999999,0.0,0.0,0,-1.2122768,-1.10918,2.770751,-0.06745996,0.0010063634,1.2768304,-0.5363676,1.0664124,1.2755808,0.030042887,-0.08863727,0.013555153,1.2702624,-0.3346481
0.0,0.0,1.0999999999999999,0.0,0.0,0,-1.2122808,-1.110158,2.7657733,-0.06932999,0.017173203,1.2834362,-0.9505867,1.4843137,1.2831616,0.01532126,-0.0768082,-0.0101694055,1.2639685,0.38581374
0.0,0.0,1.0999999999999999,0.0,0.0,0,-1.2121942,-1.1098684,2.768722,-0.0644342,0.005685745,1.2776375,-0.7208256,1.5062006,1.2644874,-0.01463353,-0.07945122,0.022724053,1.2552234,0.13635318
0.0,0.0,1.0999999999999999,0.0,0.0,0,-1.2122324,-1.1098044,2.765162,-0.07749536,0.007865347,1.2797707,-1.2747684,1.3777404,1.292545,0.011074535,-0.07308728,0.027567318,1.2663976,-0.24736102
0.0,0.0,1.0999999999999999,0.0,0.0,0,-1.2122085,-1.1100783,2.7711165,-0.06977234,-0.01503647,1.2768672,-0.61235803,1.2431781,1.2773001,0.0077031553,-0.08902482,0.004839678,1.2595705,-0.02976481
0.0,0.0,1.0999999999999999,0.0,0.0,0,-1.2122383,-1.1098207,2.7716618,-0.0690465,0.0036961508,1.2650245,-0.9972672,0.90776294,1.2749194,-0.01700998,-0.0715618,0.0053434605,1.2681115,-1.3447624
0.0,0.0,1.0999999999999999,0.0,0.0,0,-1.2121782,-1.1095587,2.769701,-0.063442685,0.0494727,1.2807215,-0.5859665,0.88582486,1.2743875,0.026556982,-0.08546085,0.023213953,1.2651577,0.65965897
0.0,0.0,1.0999999999999999,0.0,0.0,0,-1.2122198,-1.1094825,2.7657359,-0.07354783,-0.017766567,1.2730978,-0.7727666,1.1092154,1.2736033,-0.006152333,-0.0791473,-0.0021453106,1.2585363,0.6343849
0.0,0.0,1.0999999999999999,0.0,0.0,0,-1.2121159,-1.1094726,2.777082,-0.0740852,0.01669399,1.2863556,0.25504872,1.165376,1.2873036,-0.013421003,-0.08605261,0.042936824,1.2603924,-0.23325132
0.0,0.0,1.0999999999999999,0.0,0.0,0,-1.2121719,-1.1090708,2.768908,-0.06912018,-0.005687861,1.2798319,-0.69638234,1.1618199,1.2916205,0.020689717,-0.08113356,0.029501643,1.2613142,0.3101255
0.0,0.0,1.0999999999999999,0.0,0.0,0,-1.2122451,-1.1095185,2.7625382,-0.07116093,0.054662064,1.2752526,-1.7379546,1.3110236,1.295116,0.0271005,-0.08873312,0.004425787,1.2539525,-0.99824756
0.0,0.0,1.0999999999999999,0.0,0.0,0,-1.2121706,-1.1096063,2.7724385,-0.0654494,0.02450302,1.2760402,1.4774078,1.2679611,1.2805607,0.024646776,-0.08093046,-0.0044165957,1.264878,-1.6688875
0.0,0.0,1.0999999999999999,0.0,0.0,0,-1.2122173,-1.1092587,2.765929,-0.072998375,0.0009392717,1.2828383,-0.19313872,1.1496297,1.2791371,-0.013745974,-0.08349357,0.033436503,1.2535795,0.86485416
0.0,0.0,1.0999999999999999,0.0,0.0,0,-1.2121776,-1.1095665,2.7732155,-0.07248133,0.033496335,1.2787061,-2.7002916,1.271954,1.2924778,0.031695403,-0.08845717,0.023832934,1.2744477,-0.13192166
0.0,0.0,1.0999999999999999,0.0,0.0,0,-1.2121499,-1.1092068,2.7696106,-0.06268895,0.044091072,1.2728202,0.09436239,1.1193626,1.2911112,0.0017600984,-0.083244674,0.003985723,1.2482276,-0.13552435
0.0,0.0,1.0999999999999999,0.0,0.0,0,-1.2123525,-1.1095824,2.7685087,-0.06465337,-0.0060401214,1.277957,-2.9019434,0.90698206,1.2995139,0.014507416,-0.084637776,0.017692342,1.267505,-0.32767496
0.0,0.0,1.0999999999999999,0.0,0.0,0,-1.2122391,-1.1090537,2.7761815,-0.06579312,-0.0030495713,1.2728479,-1.9349928,1.0836097,1.2934066,-0.0015128374,-0.08678515,0.039724704,1.2628787,-0.29940706
0.0,0.0,1.0999999999999999,0.0,0.0,0,-1.2122288,-1.1098222,2.7675927,-0.05302349,0.022476709,1.2824643,-0.8144888,1.1772282,1.2715555,0.024663616,-0.07797663,0.018177949,1.2752149,-1.0948542
0.0,0.0,1.0999999999999999,0.0,0.0,0,-1.2122835,-1.1097403,2.7721617,-0.0659797,0.014637512,1.2773111,-1.62466,0.8966017,1.2957876,-0.048710935,-0.08241226,0.014538863,1.2480068,-0.94285357
0.0,0.0,1.0999999999999999,0.0,0.0,0,-1.2121754,-1.109208,2.7696755,-0.06814429,0.0017344111,1.2816837,0.11489215,1.0181128,1.2981591,-0.0044851294,-0.08346941,0.026342519,1.2648607,-1.501848
0.0,0.0,1.0999999999999999,0.0,0.0,0,-1.2122195,-1.1094308,2.7698364,-0.06908374,0.0012393461,1.2780402,0.11716599,1.0797526,1.285091,-0.010654615,-0.07865147,0.004919675,1.2668114,0.3267087
0.0,0.0,1.0999999999999999,0.0,0.0,0,-1.2122084,-1.1095088,2.7735481,-0.06770736,0.009846229,1.2729381,-1.5355946,1.0622531,1.288026,0.0114584705,-0.08499962,-0.013100667,1.267339,0.23003653
0.0,0.0,1.0999999999999999,0.0,0.0,0,-1.2121181,-1.1091427,2.7710693,-0.06284651,0.014473823,1.275981,-1.1331209,0.81479114,1.2816417,-0.03997543,-0.08830904,0.005238927,1.2643373,0.61048245
0.0,0.0,1.0999999999999999,0.0,0.0,0,-1.2122272,-1.109926,2.7714157,-0.071343005,-0.043719184,1.279166,-1.9873621,1.0226321,1.284736,0.003242667,-0.07922295,0.020032316,1.2563361,-1.2439508
0.0,0.0,1.0999999999999999,0.0,0.0,0,-1.2123667,-1.1090345,2.7603614,-0.067242794,0.041955408,1.2779969,-1.4545549,0.98464334,1.2746964,0.021168377,-0.08135159,0.018909732,1.2722377,-0.35393068
0.0,0.0,1.0999999999999999,0.0,0.0,0,-1.2121898,-1.1097206,2.7777944,-0.065364696,-0.01059519,1.2782278,0.275675,1.1791251,1.2861242,-0.0013517985,-0.0812793,0.030344194,1.2654822,-2.0166447
0.0,0.0,1.0999999999999999,0.0,0.0,0,-1.2122271,-1.1101763,2.7677379,-0.07229586,-0.018867534,1.290431,-0.5685329,1.0282527,1.2737887,-0.018838214,-0.07742837,0.009880606,1.2688198,-1.6043845
0.0,0.0,1.0999999999999999,0.0,0.0,0,-1.212288,-1.1093571,2.77408,-0.06362308,0.055883896,1.2799349,0.28241906,0.9877109,1.2763271,-0.024490912,-0.0807538,-0.010232717,1.2536505,-0.33130372
0.0,0.0,1.0999999999999999,0.0,0.0,0,-1.2122712,-1.1096431,2.7648802,-0.073481135,0.02707149,1.279266,0.22352596,1.08044,1.2820184,-0.0025384596,-0.09552478,0.004613494,1.2603736,-0.71390104
0.0,0.0,1.0999999999999999,0.0,0.0,0,-1.2121315,-1.1096381,2.7753634,-0.06821237,0.014753998,1.272912,-1.3125789,0.99906534,1.2782965,0.014281433,-0.08184103,0.018958047,1.2686673,-0.90420556
0.0,0.0,1.0999999999999999,0.0,0.0,0,-1.2121658,-1.1098717,2.7694685,-0.075393274,0.02831813,1.2866877,-0.7459885,1.1235161,1.2855322,0.014916092,-0.08100955,0.014322869,1.2532772,0.024687184
0.0,0.0,1.0999999999999999,0.0,0.0,0,-1.2122022,-1.109465,2.7685587,-0.07302792,0.018876387,1.2795703,-1.4024339,0.84442306,1.2884876,-0.030016273,-0.08701876,-0.008192069,1.264085,-1.2850668
0.0,0.0,1.0999999999999999,0.0,0.0,0,-1.2121828,-1.1095866,2.763918,-0.06352201,0.025218789,1.2804781,-0.3360579,0.9413244,1.2775246,-0.009782831,-0.07907882,0.011533103,1.2623942,-1.3484188
0.0,0.0,1.0999999999999999,0.0,0.0,0,-1.2121794,-1.1097759,2.766671,-0.07131877,-0.043931264,1.2795705,-1.5158027,1.1971097,1.2900052,0.0047941445,-0.08160728,-0.012042534,1.2613437,0.36189085
0.0,0.0,1.0999999999999999,0.0,0.0,0,-1.2122945,-1.1094462,2.7626152,-0.07312647,0.024822444,1.2845706,0.07471807,1.1956491,1.2782556,-0.017843861,-0.08856216,-0.0074915667,1.2729506,-0.37433568
0.0,0.0,1.0999999999999999,0.0,0.0,0,-1.2121879,-1.1102123,2.7779286,-0.066137105,-0.043430213,1.2822639,-1.6672363,1.0208182,1.2732733,-0.01393456,-0.08779932,0.009572695,1.2559556,-0.59471273
0.0,0.0,1.0999999999999999,0.0,0.0,0,-1.2121859,-1.1096933,2.770794,-0.07131017,0.0026955584,1.281135,-1.2525233,1.0107168,1.2872843,-0.001626486,-0.07877511,0.01674347,1.249905,-0.98852247
0.0,0.0,1.0999999999999999,0.0,0.0,0,-1.2122415,-1.1093472,2.7673008,-0.06371211,0.0041345595,1.276843,-1.1953727,1.0178939,1.2902868,0.003759132,-0.07522946,-0.008283425,1.2501358,-0.8368207
0.0,0.0,1.0999999999999999,0.0,0.0,0,-1.2121614,-1.1093631,2.7681262,-0.060310718,0.010285107,1.2894901,-2.9070816,1.1226366,1.2778798,0.009155074,-0.088059284,0.034135345,1.2753812,1.4437547
0.0,0.0,1.0999999999999999,0.0,0.0,0,-1.2121395,-1.1094425,2.7746851,-0.071122326,-0.009580438,1.2761862,-0.0030934035,1.2629106,1.2847121,-0.008248129,-0.08505517,0.018385308,1.2515777,-0.7995029
0.0,0.0,1.0999999999999999,0.0,0.0,0,-1.2122836,-1.1099504,2.764614,-0.06185108,-0.009890888,1.2857584,-1.631216,1.0501612,1.3011118,-0.041770544,-0.08997874,0.01559836,1.2524016,-0.011142767
0.0,0.0,1.0999999999999999,0.0,0.0,0,-1.2121313,-1.1095774,2.7708454,-0.068258874,-0.020790903,1.28082,-2.4154716,1.1338261,1.2733165,0.013815543,-0.08895321,0.015709959,1.2545656,0.31864065
0.0,0.0,1.0999999999999999,0.0,0.0,0,-1.2121831,-1.1094959,2.7687578,-0.06365777,0.032629028,1.2882646,-1.3011742,1.0800341,1.2829804,-0.005901837,-0.08608201,0.013805028,1.2718315,-0.5805381
0.0,0.0,1.0999999999999999,0.0,0.0,0,-1.2122391,-1.1099474,2.7654731,-0.07328975,-0.01124469,1.268956,0.5114719,1.2626615,1.2845242,-0.023574378,-0.08138891,-0.004351027,1.2619983,0.30157784
0.0,0.0,1.0999999999999999,0.0,0.0,0,-1.2123733,-1.1092154,2.7645326,-0.073733404,-0.016457252,1.2827471,-1.3462886,1.0579255,1.2865094,-0.0033959365,-0.08639024,0.00859571,1.2646323,0.16319333
0.0,0.0,1.0999999999999999,0.0,0.0,0,-1.2120895,-1.1095113,2.7632728,-0.07308766,0.02511488,1.2721434,0.07516149,1.2975346,1.2864431,-0.020432983,-0.077890515,-0.017431231,1.2582237,-1.9554739
0.0,0.0,1.0999999999999999,0.0,0.0,0,-1.2122029,-1.1096218,2.771258,-0.06649561,-0.032905094,1.2867146,-0.1105389,1.244239,1.2874373,0.016586384,-0.08533942,0.029523069,1.2570409,-0.4545857
0.0,0.0,1.0999999999999999,0.0,0.0,0,-1.2121845,-1.1094764,2.7709932,-0.061904576,0.028265744,1.2828288,0.34668893,0.8209235,1.2828922,-0.0067732986,-0.07795532,0.019048942,1.2628273,1.6485084
0.0,0.0,1.0999999999999999,0.0,0.0,0,-1.212322,-1.1098236,2.763729,-0.07291219,-0.0028565642,1.2793208,-0.61488456,0.9659101,1.2887616,0.012347341,-0.095237434,0.025166614,1.257517,-1.1629308
0.0,0.0,1.0999999999999999,0.0,0.0,0,-1.2123076,-1.1093783,2.7672086,-0.06465648,-0.011963892,1.2762082,-0.89121294,1.3319267,1.2693782,-0.006008568,-0.076487236,0.013656895,1.2761422,-1.5825291
0.0,0.0,1.0999999999999999,0.0,0.0,0,-1.2122558,-1.1096512,2.7706614,-0.0777923,0.0004055798,1.2842567,-0.9380029,1.0623579,1.2887104,-0.0001770454,-0.090476215,-0.003955805,1.2506812,-0.6049166
0.0,0.0,1.0999999999999999,0.0,0.0,0,-1.2121217,-1.1094606,2.7722545,-0.07014501,0.030313803,1.2784569,-1.5405707,1.058482,1.2847457,-0.03204611,-0.08925113,0.009902877,1.2582763,-0.8622149
0.0,0.0,1.0999999999999999,0.0,0.0,0,-1.212229,-1.1096601,2.7624042,-0.07643567,0.003081919,1.2863414,-1.1732726,1.0369102,1.2876443,-0.0014781345,-0.08454408,-0.012710761,1.2523642,-0.53702176
0.0,0.0,1.0999999999999999,0.0,0.0,0,-1.2122321,-1.1097288,2.7682822,-0.06939024,-0.0022559164,1.2834035,-0.9332347,1.0643784,1.2890614,0.015143209,-0.094038114,0.025585042,1.2700309,-0.23584372
0.0,0.0,1.0999999999999999,0.0,0.0,0,-1.2122635,-1.1094772,2.7704806,-0.06379566,0.010942474,1.2693172,0.07148689,1.2934871,1.2923877,0.0036343564,-0.07633858,0.0013997742,1.2688684,0.55004716
0.0,0.0,1.0999999999999999,0.0,0.0,0,-1.2122197,-1.1099503,2.772784,-0.06890217,0.047251336,1.2758051,-1.5217267,1.3180516,1.283129,-0.00457853,-0.099775545,0.017532159,1.2562406,-1.0268625
0.0,0.0,1.0999999999999999,0.0,0.0,0,-1.2122097,-1.1097144,2.765217,-0.063823864,-0.025209595,1.277389,-1.8112099,1.1146638,1.2997279,0.004186843,-0.09240788,-0.012864515,1.2496301,0.24877441
0.0,0.0,1.0999999999999999,0.0,0.0,0,-1.2123717,-1.1092918,2.769916,-0.061264247,0.01721919,1.2803347,-2.3744092,0.9604585,1.2731674,-0.0074249883,-0.07418536,0.037260573,1.2621213,-0.61012584
0.0,0.0,1.0999999999999999,0.0,0.0,0,-1.2122316,-1.1096905,2.7712357,-0.06996313,-0.009715552,1.2807857,-0.7415192,1.3269202,1.2702423,-0.02326042,-0.09520359,-0.015075395,1.2620791,0.3659976
0.0,0.0,1.0999999999999999,0.0,0.0,0,-1.2121757,-1.10919,2.7752626,-0.065380424,-0.006115401,1.2777274,-1.7139072,1.03441,1.2854581,0.03918265,-0.08412871,-0.011616188,1.2638369,0.12349291
0.0,0.0,1.0999999999999999,0.0,0.0,0,-1.2122808,-1.1098628,2.7690203,-0.06799693,-0.013820112,1.283557,-0.24524859,1.3272494,1.2779031,-0.0056328494,-0.08266384,-0.0028893645,1.2731096,0.9664575
0.0,0.0,1.0999999999999999,0.0,0.0,0,-1.212209,-1.1099619,2.7718055,-0.069584064,-0.05698242,1.2865071,-1.5231925,1.2445074,1.2798263,-0.007938419,-0.08086109,0.0034472717,1.252842,0.14369608
0.0,0.0,1.0999999999999999,0.0,0.0,0,-1.2121623,-1.1094925,2.7802866,-0.06762435,0.009478138,1.2754048,-0.9788152,0.7098472,1.2856265,-0.010807368,-0.08549801,-0.01893238,1.2615354,-1.1441904
0.0,0.0,1.0999999999999999,0.0,0.0,0,-1.2120547,-1.1095519,2.7671745,-0.06365135,0.00035339722,1.2718589,-1.1738914,1.143741,1.2732533,-0.022295373,-0.08625457,0.0070423814,1.2752438,-0.08183194
0.0,0.0,1.0999999999999999,0.0,0.0,0,-1.2122151,-1.1094526,2.76442,-0.06897014,0.022849094,1.2739426,-1.0791411,1.0368608,1.2890158,0.041710507,-0.07724724,0.009984945,1.2619953,-0.7170839
0.0,0.0,1.0999999999999999,0.0,0.0,0,-1.2121961,-1.1096286,2.775168,-0.06713815,-0.030955305,1.2849827,-0.45705462,1.4241389,1.2651442,-0.00050880876,-0.07533346,0.00950349,1.2575728,-0.20406657
0.0,0.0,1.0999999999999999,0.0,0.0,0,-1.2122165,-1.1098698,2.77045,-0.07044489,0.0033067318,1.2820596,-0.6316256,1.1688609,1.2939154,0.038077675,-0.0837323,-0.004605771,1.2531569,-0.8318024
0.0,0.0,1.0999999999999999,0.0,0.0,0,-1.2121308,-1.1099099,2.7614849,-0.070558526,-0.021608261,1.27665,-0.59819937,0.8577263,1.2883675,0.03717011,-0.06993075,0.016723143,1.2744734,-0.69505376
0.0,0.0,1.0999999999999999,0.0,0.0,0,-1.2123495,-1.109672,2.7715385,-0.07360636,-0.015824938,1.2792903,-1.477161,1.2125404,1.2718815,0.00107185,-0.08541929,0.039310127,1.2659278,0.72233516
0.0,0.0,1.0999999999999999,0.0,0.0,0,-1.2122909,-1.1100155,2.770755,-0.06899851,0.017178234,1.283426,-0.70723784,1.0503721,1.2809713,-0.004473456,-0.08777699,0.017204326,1.2649368,0.1277314
0.0,0.0,1.0999999999999999,0.0,0.0,0,-1.2122436,-1.1094037,2.7667723,-0.06821518,0.013110462,1.2710133,-2.091028,1.1358538,1.2792058,-0.011357923,-0.08948904,0.005201795,1.2694843,-0.18705738
0.0,0.0,1.0999999999999999,0.0,0.0,0,-1.2121705,-1.1097165,2.767232,-0.067700006,0.01986178,1.2827834,-0.6122809,0.7566473,1.2802744,-0.027306477,-0.08636725,0.036815174,1.2495422,-0.34379634
0.0,0.0,1.0999999999999999,0.0,0.0,0,-1.2122861,-1.1092243,2.7769063,-0.061445612,0.024040353,1.2727257,-0.58267456,1.339286,1.288012,-0.019538216,-0.07848622,-0.011748798,1.2661166,0.5942792
0.0,0.0,1.0999999999999999,0.0,0.0,0,-1.2122296,-1.1101562,2.7666059,-0.071607016,0.0013296823,1.2856681,-0.13095547,1.1761533,1.2752022,0.0026912887,-0.07650223,0.010425525,1.2650203,-0.6560859
0.0,0.0,1.0999999999999999,0.0,0.0,0,-1.2122548,-1.1095973,2.7698889,-0.06750936,0.030760348,1.2761701,-0.5278711,1.1505426,1.274957,0.0019515504,-0.08112577,0.0130941365,1.2583575,-0.8848821
0.0,0.0,1.0999999999999999,0.0,0.0,0,-1.2121682,-1.1096885,2.771341,-0.06911137,0.051696394,1.2830619,-1.6519943,1.1905866,1.2852848,-0.0028963499,-0.0809471,0.023828818,1.2773986,-0.6111598
0.0,0.0,1.0999999999999999,0.0,0.0,0,-1.21231,-1.1097649,2.7715847,-0.06916351,0.028126676,1.2760401,-0.3839058,1.0762465,1.2764549,0.04606547,-0.08488435,-0.0031706886,1.2555914,-0.8661777
0.0,0.0,1.0999999999999999,0.0,0.0,0,-1.2122566,-1.1098099,2.7645862,-0.068889126,0.034692984,1.2905644,-1.9801164,0.9985512,1.277699,0.009757817,-0.085584804,0.011213484,1.2638189,-1.410953
0.0,0.0,1.0999999999999999,0.0,0.0,0,-1.2121964,-1.1093831,2.7739797,-0.06128654,0.04445858,1.2869706,-0.0201287,1.2665107,1.2860295,0.032579497,-0.083859645,-0.0036025543,1.2721485,0.9685427
0.0,0.0,1.0999999999999999,0.0,0.0,0,-1.212128,-1.109869,2.7718825,-0.06791454,0.0173393,1.285754,-0.007296724,0.8844711,1.2666259,-0.04427946,-0.076079905,0.01802094,1.2577355,-0.04398239
0.0,0.0,1.0999999999999999,0.0,0.0,0,-1.2122264,-1.1093093,2.774471,-0.05900133,0.020137792,1.2852422,-0.8396257,0.8562502,1.2736142,-0.0011001321,-0.08580202,0.009204437,1.2511083,0.5945829
0.0,0.0,1.0999999999999999,0.0,0.0,0,-1.2121841,-1.1097056,2.7686093,-0.05887071,0.04105004,1.2806736,-1.0542791,1.0281042,1.2891673,0.0009022032,-0.08643979,0.013411431,1.2715353,0.44118473
0.0,0.0,1.0999999999999999,0.0,0.0,0,-1.212198,-1.1095936,2.7760122,-0.0692533,0.031540632,1.2834042,-0.8736485,1.0082768,1.2799255,0.009544791,-0.077666886,0.02040119,1.2574887,0.38126767
0.0,0.0,1.0999999999999999,0.0,0.0,0,-1.2124158,-1.1092691,2.7683249,-0.07338107,0.06863932,1.2862558,-0.62536573,1.0834048,1.2872734,-0.0037883965,-0.08134211,0.035210703,1.2653677,-0.1520949
0.0,0.0,1.0999999999999999,0.0,0.0,0,-1.212281,-1.1096373,2.770348,-0.071464054,0.012456721,1.2811083,-1.4642808,0.94551456,1.2919949,0.0139118675,-0.08323304,0.017573703,1.2646812,0.5011541
0.0,0.0,1.0999999999999999,0.0,0.0,0,-1.2120917,-1.1096109,2.768224,-0.06954922,0.009980712,1.286904,-0.9951304,1.1722542,1.2846569,0.021135531,-0.08912851,0.015828988,1.2547139,-0.29397714
0.0,0.0,1.0999999999999999,0.0,0.0,0,-1.2121453,-1.1095402,2.7660637,-0.06629568,0.023296278,1.2812842,-1.2568092,0.9775861,1.2930408,0.015846798,-0.07343121,-0.009357925,1.2809949,0.48965573
0.0,0.0,1.0999999999999999,0.0,0.0,0,-1.212246,-1.1094825,2.7662501,-0.06550346,0.0028440522,1.2802213,0.04471443,0.910624,1.277957,-0.002617541,-0.08362968,0.024464726,1.2569842,-0.2764627
0.0,0.0,1.0999999999999999,0.0,0.0,0,-1.212258,-1.1092625,2.7694328,-0.067516685,0.007848371,1.2758459,-2.7978735,1.1912668,1.29221,0.034732223,-0.07892605,0.016178012,1.2498549,-1.0999808
0.0,0.0,1.0999999999999999,0.0,0.0,0,-1.2122852,-1.1096048,2.7658594,-0.070024624,0.012366941,1.2747657,-0.13882324,1.1358138,1.2861669,0.0009873312,-0.07882922,0.009480665,1.2647227,-0.84252447
0.0,0.0,1.0999999999999999,0.0,0.0,0,-1.212371,-1.1100867,2.7694387,-0.06647684,0.036477763,1.2850266,-0.16248749,1.0132968,1.2853866,0.011929196,-0.08581349,0.017646303,1.2483478,-1.3205898
0.0,0.0,1.0999999999999999,0.0,0.0,0,-1.2122223,-1.1095122,2.7657454,-0.06599271,0.027282143,1.2869964,-0.3258078,1.0806923,1.2938044,0.030286826,-0.08557476,-0.006045106,1.2607807,0.23855014
0.0,0.0,1.0999999999999999,0.0,0.0,0,-1.2122023,-1.1096606,2.7697103,-0.06399988,-0.003901611,1.2802235,0.13467374,1.1524061,1.2615927,-0.010173235,-0.08485094,0.0020584115,1.2683991,0.09370205
0.0,0.0,1.0999999999999999,0.0,0.0,0,-1.2121974,-1.1099179,2.7705572,-0.073361166,0.013487977,1.2906113,-1.2284065,1.0753944,1.2856333,-0.009847404,-0.07762401,-0.022567382,1.2583263,-0.03911544
0.0,0.0,1.0999999999999999,0.0,0.0,0,-1.2121857,-1.1094033,2.7702305,-0.065645285,-0.012905614,1.2770889,-1.1977712,1.1500626,1.2813869,0.00040241375,-0.08405959,-0.011451122,1.2574472,-0.32471198
0.0,0.0,1.0999999999999999,0.0,0.0,0,-1.2122381,-1.1097761,2.7690527,-0.05789782,-0.02382876,1.2825247,-0.23662192,1.1374203,1.2722604,0.016976051,-0.08479078,0.022725176,1.26352,-1.6903191
0.0,0.0,1.0999999999999999,0.0,0.0,0,-1.212249,-1.1097034,2.7682319,-0.06971168,-0.0031446875,1.2750089,0.040546484,1.3096895,1.263202,-0.019086963,-0.07629076,0.021069491,1.2658528,-0.39029425
0.0,0.0,1.0999999999999999,0.0,0.0,0,-1.2121314,-1.1094388,2.7670624,-0.066696845,0.01861849,1.2832073,-1.2382576,1.1130528,1.2725229,0.022675065,-0.08445475,0.010208043,1.2736079,-0.43203652
0.0,0.0,1.0999999999999999,0.0,0.0,0,-1.2123411,-1.110217,2.775885,-0.06841304,0.011450092,1.2749512,-0.698903,0.94672745,1.2956479,-0.008460004,-0.0744782,0.022281438,1.2476866,-0.6330196
0.0,0.0,1.0999999999999999,0.0,0.0,0,-1.2122564,-1.1098111,2.7667637,-0.06899856,-0.017987574,1.2821939,-2.349654,1.5487827,1.2775995,-0.047571395,-0.08429317,0.024091976,1.2675251,-0.83079123
0.0,0.0,1.0999999999999999,0.0,0.0,0,-1.2122521,-1.1097476,2.7701352,-0.07027117,0.02525315,1.2764312,-0.07217048,1.2229142,1.2857193,-0.012499308,-0.079932824,0.014339529,1.2583722,-0.7030557
0.0,0.0,1.0999999999999999,0.0,0.0,0,-1.2122898,-1.1097777,2.767671,-0.06514945,-0.009374879,1.2867881,-0.30102813,1.1632408,1.2924272,-0.0017634146,-0.08388727,-0.009917017,1.26786,1.1456586
0.0,0.0,1.0999999999999999,0.0,0.0,0,-1.2122391,-1.1098462,2.7706234,-0.058679853,0.008082433,1.2796259,-0.6070829,1.2672362,1.2786791,-0.005721058,-0.091660276,-0.006113723,1.2664584,-1.0450447
0.0,0.0,1.0999999999999999,0.0,0.0,0,-1.212338,-1.1092157,2.7629519,-0.075264305,-0.030185288,1.2844449,-0.6933994,0.9845618,1.2820385,-0.005864355,-0.08439437,-0.0018119708,1.2559924,-1.6145085
0.0,0.0,1.0999999999999999,0.0,0.0,0,-1.2122824,-1.1098498,2.7744155,-0.07226566,-0.006645977,1.2701523,0.0032989648,1.0452181,1.2837137,-0.02791299,-0.07704241,-0.011637134,1.2551522,0.215171
0.0,0.0,1.0999999999999999,0.0,0.0,0,-1.2123439,-1.1097565,2.768337,-0.06371418,-0.023754857,1.2844797,-0.7505617,1.1947383,1.2950015,0.0075680246,-0.08200692,-0.012802638,1.2599425,-0.71055937
0.0,0.0,1.0999999999999999,0.0,0.0,0,-1.2121875,-1.109802,2.7693586,-0.063364334,-0.0048715337,1.2772247,-0.17820683,1.2724301,1.2771784,-0.0060080327,-0.084504336,0.023265228,1.2627711,0.3391798
0.0,0.0,1.0999999999999999,0.0,0.0,0,-1.2121693,-1.1099484,2.7678847,-0.067176625,0.040099464,1.2765819,-1.1220808,0.98528826,1.2926234,0.033700798,-0.08563853,0.033735916,1.2596173,-0.56997097
0.0,0.0,1.0999999999999999,0.0,0.0,0,-1.2121587,-1.1097268,2.7694929,-0.074954145,0.027792703,1.2803111,-0.23107581,1.229464,1.288603,0.03521548,-0.076209806,0.030041466,1.2592696,-1.7791185
0.0,0.0,1.0999999999999999,0.0,0.0,0,-1.2122396,-1.1094396,2.774518,-0.07356511,0.018474588,1.2787244,0.14778407,1.1111336,1.2951032,0.03650828,-0.08624601,-0.012872457,1.2582549,-0.41006097
0.0,0.0,1.0999999999999999,0.0,0.0,0,-1.212355,-1.1099159,2.7658353,-0.059872273,0.044071957,1.2774858,0.06955257,1.3752428,1.2742614,0.04670897,-0.074148,-0.026107581,1.2620306,-0.79208386
0.0,0.0,1.0999999999999999,0.0,0.0,0,-1.2122291,-1.1095785,2.7708988,-0.06930848,0.0039511765,1.2765039,-0.6791928,1.1671321,1.2818532,-0.008067086,-0.090014614,0.021006394,1.2753866,-0.9897516
0.0,0.0,1.0999999999999999,0.0,0.0,0,-1.212381,-1.1089618,2.7671697,-0.068212904,0.032611147,1.2795967,-1.1447661,1.2734557,1.2793547,0.0017536519,-0.0868256,-0.006444051,1.2551347,-0.34588948
0.0,0.0,1.0999999999999999,0.0,0.0,0,-1.2122455,-1.1099372,2.7700787,-0.07026034,-0.021811469,1.2788122,-0.58326787,0.9383514,1.2778273,-0.000797173,-0.09329899,0.0069987047,1.2558901,-0.8731445
0.0,0.0,1.0999999999999999,0.0,0.0,0,-1.2121333,-1.1096431,2.7714052,-0.066775836,0.003156116,1.2867725,0.70913893,0.8963505,1.2819271,-0.010213245,-0.080672726,0.0069068726,1.264734,0.10241623
0.0,0.0,1.0999999999999999,0.0,0.0,0,-1.2123064,-1.1100461,2.7750225,-0.07229574,-0.017937202,1.2866577,-1.3689712,1.3487023,1.2701515,-0.02119122,-0.07834084,0.004775836,1.2524738,-1.4656761
0.0,0.0,1.0999999999999999,0.0,0.0,0,-1.2120473,-1.1094542,2.7633777,-0.068253905,0.0007738597,1.2861813,-2.1761293,0.77224076,1.2878213,-0.0028661878,-0.083932206,0.020179212,1.2538182,-0.76714116
0.0,0.0,1.0999999999999999,0.0,0.0,0,-1.2121569,-1.109667,2.7716026,-0.06839426,-0.036515485,1.2882884,0.73065907,1.1145418,1.2897987,-0.0058430666,-0.07812116,0.022866273,1.2641164,0.94472975
0.0,0.0,1.0999999999999999,0.0,0.0,0,-1.2122582,-1.1096382,2.7649388,-0.069641665,-0.020504784,1.2843777,-0.4180362,1.3096853,1.2830894,0.026466783,-0.08102907,0.00821249,1.2646226,-0.2537645
0.0,0.0,1.0999999999999999,0.0,0.0,0,-1.2122438,-1.10941,2.7692842,-0.062206406,-0.013089077,1.2799675,-0.08853911,1.1451259,1.2874163,0.019109108,-0.0775406,-0.00963707,1.2670242,-1.9804227
0.0,0.0,1.0999999999999999,0.0,0.0,0,-1.2120917,-1.1098009,2.7675934,-0.073164485,0.0078753475,1.283077,-0.9653783,1.0698718,1.2853899,-0.010967164,-0.0817885,0.0038977524,1.2524345,-0.04488489
0.0,0.0,1.0999999999999999,0.0,0.0,0,-1.2122236,-1.1095306,2.7753773,-0.06344608,0.0319713,1.277825,0.3524918,1.1784643,1.2752491,0.0019126491,-0.079918705,0.008463994,1.2640097,-0.6773664
0.0,0.0,1.0999999999999999,0.0,0.0,0,-1.2122028,-1.1096112,2.7624125,-0.0649103,0.008091126,1.282829,-2.0611608,1.1649204,1.2854991,-0.02584532,-0.08976949,0.024672637,1.2559845,-0.65697694
0.0,0.0,1.0999999999999999,0.0,0.0,0,-1.2121793,-1.109748,2.7735074,-0.0653897,0.043428622,1.2816349,1.4812158,1.0089855,1.2731446,-0.035455305,-0.08504345,0.022975992,1.2678012,0.062567085
0.0,0.0,1.0999999999999999,0.0,0.0,0,-1.2122507,-1.1097363,2.7684066,-0.073011495,0.002762373,1.2784879,-2.282363,1.0496719,1.2873423,-0.014333325,-0.07483177,-0.0086154025,1.2711535,-0.03822016
0.0,0.0,1.0999999999999999,0.0,0.0,0,-1.2121712,-1.1096315,2.7748132,-0.06651661,0.014760552,1.2775989,-1.3480092,1.1183472,1.289054,-0.031008018,-0.08137471,0.01695034,1.2756875,0.6036701
0.0,0.0,1.0999999999999999,0.0,0.0,0,-1.2122808,-1.1095994,2.771364,-0.063249715,0.029142618,1.2740662,0.041887622,1.3742456,1.2866508,-0.011974026,-0.08490523,-0.00893195,1.2588768,1.3387179
0.0,0.0,1.0999999999999999,0.0,0.0,0,-1.2122505,-1.1096581,2.767243,-0.06626335,0.028870579,1.276462,-1.0625795,0.8736517,1.2726406,-0.039566845,-0.08355608,0.012663411,1.2578945,-1.2390901
0.0,0.0,1.0999999999999999,0.0,0.0,0,-1.2123426,-1.1100137,2.7731144,-0.06405169,0.01787021,1.270154,0.09567185,1.3744588,1.2804215,0.021540891,-0.08332845,-0.04839386,1.2632098,0.25751892
0.0,0.0,1.0999999999999999,0.0,0.0,0,-1.212212,-1.1094203,2.7716649,-0.0749929,-0.06627425,1.2765623,-1.5386066,1.0076039,1.2814509,0.032179374,-0.080163874,-0.0014999731,1.2654366,-0.72800934
0.0,0.0,1.0999999999999999,0.0,0.0,0,-1.2122468,-1.1094683,2.768547,-0.0733927,0.0077368035,1.2844765,-0.96338403,1.3224217,1.281495,0.005383745,-0.078709304,0.005283917,1.2517349,-0.8267771
0.0,0.0,1.0999999999999999,0.0,0.0,0,-1.2122673,-1.1091272,2.770071,-0.070461035,0.034227576,1.2796323,-2.347612,0.96595395,1.2890819,-0.021960488,-0.085294396,0.015711855,1.2605213,0.5601815
0.0,0.0,1.0999999999999999,0.0,0.0,0,-1.2122805,-1.109805,2.766355,-0.07446859,0.01584159,1.2792335,-0.72662914,1.1896297,1.2974374,-0.0065027336,-0.07725866,0.004735839,1.274225,-1.0938448
0.0,0.0,1.0999999999999999,0.0,0.0,0,-1.2120942,-1.1091095,2.7686307,-0.067358576,0.022945132,1.2769785,-1.0293512,1.2402709,1.2970058,-0.023699103,-0.09198727,-0.018410815,1.2690824,0.25220498
0.0,0.0,1.0999999999999999,0.0,0.0,0,-1.2122686,-1.1098535,2.7773263,-0.06304468,0.010204529,1.2819504,-0.99458104,1.3650228,1.2791044,-0.01772008,-0.08885917,0.002147092,1.2623775,0.00641908
0.0,0.0,1.0999999999999999,0.0,0.0,0,-1.212324,-1.1092651,2.773626,-0.07152376,0.040787585,1.275872,-1.4122008,0.87815374,1.2958798,0.017872391,-0.08995597,0.012935139,1.2650715,-1.2961546
0.0,0.0,1.0999999999999999,0.0,0.0,0,-1.2121706,-1.1092167,2.7691565,-0.06771007,0.009577582,1.2788363,0.85984147,1.1532303,1.2914202,0.0055882866,-0.0790397,-0.015206691,1.2731113,-1.2526456
0.0,0.0,1.0999999999999999,0.0,0.0,0,-1.2121832,-1.1095399,2.769421,-0.0704117,0.05045742,1.2740525,0.53992033,1.2576723,1.2896428,-0.0052913153,-0.08989449,0.03072049,1.2609478,-0.93773437
0.0,0.0,1.0999999999999999,0.0,0.0,0,-1.2122713,-1.1096472,2.771027,-0.070283815,-0.02510445,1.2780721,-0.70856,1.222973,1.2837508,0.027300095,-0.08922774,-0.009745113,1.2627741,-0.670176
0.0,0.0,1.0999999999999999,0.0,0.0,0,-1.212276,-1.1095259,2.7699435,-0.067119464,0.030749608,1.2732992,-0.035999816,0.95020115,1.2865503,-0.022060335,-0.07896239,0.007045206,1.2523717,0.024017233
0.0,0.0,1.0999999999999999,0.0,0.0,0,-1.212298,-1.1097691,2.7723305,-0.06549239,0.065898515,1.2798232,-1.1509336,1.0238053,1.2815605,0.025054313,-0.082189776,0.028111875,1.2598943,-0.15520592
0.0,0.0,1.0999999999999999,0.0,0.0,0,-1.2122155,-1.1098622,2.7736657,-0.07371412,-0.0224787,1.2731836,-0.865569,1.1520683,1.2904513,-0.025507495,-0.08461149,-0.00917294,1.2744515,-0.17902455
0.0,0.0,1.0999999999999999,0.0,0.0,0,-1.2120929,-1.1089239,2.7678242,-0.060125906,-0.0021869014,1.2726991,0.78070366,0.9410258,1.2746881,-0.03828682,-0.079741925,0.0017576368,1.2599388,-0.7580446
0.0,0.0,1.0999999999999999,0.0,0.0,0,-1.2121472,-1.1098316,2.7727494,-0.06865827,0.019331276,1.2880945,0.15979056,0.98123723,1.2850152,0.0038503772,-0.08292078,0.03339383,1.2634362,-1.0130621
0.0,0.0,1.0999999999999999,0.0,0.0,0,-1.2123005,-1.1095947,2.7665417,-0.060982354,-0.022111483,1.2818916,-0.6918342,1.1770242,1.2765418,0.009193104,-0.08354891,0.010321587,1.2656859,0.4802009
0.0,0.0,1.0999999999999999,0.0,0.0,0,-1.2122669,-1.1098422,2.7756407,-0.07100565,0.014585987,1.2868452,-0.13283102,0.92789686,1.2811962,0.0074937944,-0.087058984,0.03092915,1.2691829,-0.41305548
0.0,0.0,1.0999999999999999,0.0,0.0,0,-1.2123061,-1.1097667,2.7698379,-0.066032834,0.027557665,1.2717642,-0.10360138,1.16673,1.2786479,-0.012038911,-0.088179804,0.0155022675,1.2631183,-0.59498096
0.0,0.0,1.0999999999999999,0.0,0.0,0,-1.2122602,-1.1095295,2.7693164,-0.07531316,0.0070671174,1.2872092,0.15961154,1.3323433,1.2929393,0.024334153,-0.08266312,-0.03391538,1.2626286,0.6462429
0.0,0.0,1.0999999999999999,0.0,0.0,0,-1.2123637,-1.1103011,2.7641876,-0.067519456,0.03327742,1.2799034,-0.6840684,1.2265975,1.2884442,-0.011150275,-0.085601926,-0.010908621,1.2648277,-0.96036685
0.0,0.0,1.0999999999999999,0.0,0.0,0,-1.2122045,-1.1090599,2.7675123,-0.06882223,0.018735427,1.2838567,-1.8300909,0.8679459,1.2820274,0.022592466,-0.08142744,0.049031682,1.2550637,-1.2132509
0.0,0.0,1.0999999999999999,0.0,0.0,0,-1.2120966,-1.1097283,2.7755775,-0.067149945,0.033100843,1.2900801,-2.2400537,0.9310114,1.2789423,0.0058670393,-0.08247894,0.009236203,1.2577094,-0.39084166
0.0,0.0,1.0999999999999999,0.0,0.0,0,-1.2122825,-1.1093183,2.768986,-0.065938346,0.026424149,1.2777987,0.04683483,1.2014728,1.2869109,-0.03680171,-0.07773132,0.0022096196,1.265801,-0.86578935
0.0,0.0,1.0999999999999999,0.0,0.0,0,-1.2122581,-1.1091728,2.7684963,-0.069959424,0.010513152,1.2792035,0.054845896,0.94269425,1.291261,-0.02000679,-0.087579414,0.016316362,1.2512461,-0.23641452
0.0,0.0,1.0999999999999999,0.0,0.0,0,-1.2121586,-1.1093527,2.7780273,-0.06802516,-0.018995738,1.2751594,0.31325734,1.1593541,1.2779797,-0.008122178,-0.07019868,0.0022476541,1.2596265,-1.0377463
0.0,0.0,1.0999999999999999,0.0,0.0,0,-1.212205,-1.1093293,2.7658567,-0.06502817,0.0062700678,1.285199,0.33741942,1.0409863,1.2937931,-0.023047974,-0.07675412,0.005206344,1.2612264,-0.2330453
0.0,0.0,1.0999999999999999,0.0,0.0,0,-1.2121832,-1.1094894,2.7795534,-0.06655548,0.029887207,1.2803706,-0.44587564,1.1564351,1.2822125,0.0061297785,-0.07891941,0.0036121954,1.2590252,-1.1494421
0.0,0.0,1.0999999999999999,0.0,0.0,0,-1.2122134,-1.1098737,2.7693036,-0.07447816,-0.04027862,1.2792033,-1.3874704,0.9444369,1.2818654,0.027844165,-0.089156725,-0.003874305,1.2664975,0.30337
0.0,0.0,1.0999999999999999,0.0,0.0,0,-1.2122507,-1.1092793,2.7752159,-0.061661467,0.018993527,1.2804683,-0.7295296,1.1714617,1.2964422,-0.0040238453,-0.0949089,0.00030508218,1.2629753,-0.39260405
0.0,0.0,1.0999999999999999,0.0,0.0,0,-1.2122722,-1.1096472,2.7777839,-0.06342883,0.049799424,1.2769176,-0.6756185,1.265449,1.2839203,0.00762281,-0.09290254,0.016921943,1.269778,0.025250606
0.0,0.0,1.0999999999999999,0.0,0.0,0,-1.2122899,-1.1091007,2.771515,-0.07193888,-0.02462574,1.2816179,-1.4918686,1.2273972,1.2871133,0.016441138,-0.080931544,0.03774754,1.2664968,0.001399739
0.0,0.0,1.0999999999999999,0.0,0.0,0,-1.212187,-1.1096754,2.7677054,-0.06242827,0.015479933,1.2823651,-2.8458824,1.3506243,1.2834784,0.008893335,-0.08620926,0.013653154,1.2622739,-1.3801297
0.0,0.0,1.0999999999999999,0.0,0.0,0,-1.2124486,-1.1090946,2.7716126,-0.0700606,0.014846254,1.2795371,-1.5418475,0.9710531,1.2751217,-0.007966943,-0.087199695,0.023558088,1.2682216,-0.83463323
0.0,0.0,1.0999999999999999,0.0,0.0,0,-1.212333,-1.1097609,2.7709835,-0.06856883,0.042254772,1.2855676,-0.3784027,0.86762536,1.2811155,0.021538792,-0.07693006,0.01090609,1.2657714,0.19893259
0.0,0.0,1.0999999999999999,0.0,0.0,0,-1.2123395,-1.1095129,2.7662513,-0.06913332,0.015336831,1.2790488,-0.61623925,1.0381181,1.2850289,0.047161236,-0.079334825,-0.00032664795,1.2711191,-1.3188674
0.0,0.0,1.0999999999999999,0.0,0.0,0,-1.2122879,-1.1101573,2.7669241,-0.062477995,0.010923978,1.2919893,-1.7570252,1.1338909,1.2763356,0.032457195,-0.08314013,0.009073042,1.252667,-0.3033599
0.0,0.0,1.0999999999999999,0.0,0.0,0,-1.2123095,-1.1096591,2.7680058,-0.07056287,-0.02648972,1.2739646,-0.8571592,1.0966066,1.2654326,-0.02609328,-0.08663314,-0.010557517,1.2613078,0.39747724
0.0,0.0,1.0999999999999999,0.0,0.0,0,-1.2120843,-1.1093006,2.7719793,-0.06768729,-0.015834335,1.2856619,-0.9678791,0.7155689,1.2690201,-0.025924603,-0.08095627,0.0073338454,1.2628608,-0.7028612
0.0,0.0,1.0999999999999999,0.0,0.0,0,-1.2122957,-1.1096343,2.7709837,-0.06813618,-0.040169,1.2809192,-0.01868063,1.1409003,1.2899827,0.005754392,-0.08819662,0.0021588334,1.2675904,-0.60571826
0.0,0.0,1.0999999999999999,0.0,0.0,0,-1.2122614,-1.1094018,2.7718134,-0.07674309,-0.005875491,1.2854666,-0.40031812,1.353003,1.2971753,-0.012336731,-0.090205796,-0.0045937,1.2772404,0.090613455
0.0,0.0,1.0999999999999999,0.0,0.0,0,-1.2122587,-1.1094484,2.7711754,-0.06997916,-0.0005395452,1.2736388,-1.4454973,1.2354714,1.2781328,-0.001566489,-0.086602844,0.0048011467,1.2619145,0.5510002
0.0,0.0,1.0999999999999999,0.0,0.0,0,-1.2123375,-1.109412,2.76596,-0.066163756,0.003960026,1.2705246,0.07748944,1.0082655,1.2940044,0.019176463,-0.08582316,-0.0033901243,1.2626464,-0.22238919
0.0,0.0,1.0999999999999999,0.0,0.0,0,-1.2122556,-1.1091684,2.7715068,-0.06831564,-0.013871193,1.2804625,-1.6835561,1.2142501,1.281026,-0.0042337575,-0.08129999,0.019027129,1.2573694,0.2089743
0.0,0.0,1.0999999999999999,0.0,0.0,0,-1.212301,-1.1097771,2.7734406,-0.062030837,-0.0084472215,1.2915952,-1.076657,1.1193172,1.2930754,0.025386088,-0.07452649,0.004821087,1.2682798,-0.24377728
0.0,0.0,1.0999999999999999,0.0,0.0,0,-1.2122923,-1.1095847,2.7706811,-0.0634317,-0.007197211,1.2786337,-2.0774186,1.1286104,1.2850012,-0.008005779,-0.082848705,0.012098759,1.2678229,0.3770921
0.0,0.0,1.0999999999999999,0.0,0.0,0,-1.2122246,-1.109381,2.7717237,-0.073637106,0.001239409,1.2773213,-2.014662,1.3734323,1.2744846,-0.024322128,-0.085783266,-0.0044203266,1.269964,0.08084677
0.0,0.0,1.0999999999999999,0.0,0.0,0,-1.2122281,-1.1091908,2.7687798,-0.0627817,0.009520165,1.2808903,-1.2064048,1.1799569,1.2762936,-0.0017514803,-0.072734766,0.03447225,1.2632935,-1.6858424
0.0,0.0,1.0999999999999999,0.0,0.0,0,-1.2122803,-1.1097305,2.7692697,-0.06877476,-0.02548358,1.273781,-1.4777098,1.1903088,1.2888098,-0.016414082,-0.08312362,-0.017611424,1.2601,0.09422573
0.0,0.0,1.0999999999999999,0.0,0.0,0,-1.2122371,-1.109486,2.765228,-0.05993915,-0.0017673171,1.2825191,0.29099673,1.2683157,1.2816474,0.013919693,-0.08522098,0.010974697,1.257143,-1.2900597
0.0,0.0,1.0999999999999999,0.0,0.0,0,-1.2122751,-1.1098952,2.7738156,-0.063542694,0.011228995,1.2734367,0.47936508,1.0919482,1.2916194,0.0060704276,-0.07782991,0.04527675,1.2654988,-1.4185474
0.0,0.0,1.0999999999999999,0.0,0.0,0,-1.2122929,-1.1092538,2.7663262,-0.07372171,-0.009036922,1.2782178,-1.5212297,1.2093778,1.2917658,-0.022408806,-0.08051327,0.0074935644,1.2714853,0.033892546
0.0,0.0,1.0999999999999999,0.0,0.0,0,-1.2123592,-1.1100547,2.7760234,-0.06194637,-0.008242682,1.279491,-0.11172023,1.1467962,1.2782673,-0.008438401,-0.07577087,0.006012911,1.2589934,-0.5132493
0.0,0.0,1.0999999999999999,0.0,0.0,0,-1.2121981,-1.1096792,2.778001,-0.062312674,0.0035526925,1.2831098,-0.9098905,1.0045085,1.2769209,-0.017272074,-0.08053618,-0.00018924831,1.25018,-0.41337073
0.0,0.0,1.0999999999999999,0.0,0.0,0,-1.212215,-1.109693,2.774721,-0.07475284,0.030473705,1.2850957,-1.9379144,0.9339786,1.2884446,-0.012691316,-0.08808878,-0.016611455,1.2558503,0.74607354
0.0,0.0,1.0999999999999999,0.0,0.0,0,-1.2122785,-1.1087121,2.7680442,-0.068630114,-0.024597548,1.2784046,0.31977138,1.2700787,1.2822514,-0.0061777304,-0.08702544,-0.01945297,1.2482402,-1.7419319
0.0,0.0,1.0999999999999999,0.0,0.0,0,-1.2121755,-1.1093638,2.769876,-0.061365027,-0.00900901,1.2817138,-0.07722008,0.94077975,1.2863125,-0.0063264407,-0.07613319,0.0072414908,1.2556623,-1.5010161
0.0,0.0,1.0999999999999999,0.0,0.0,0,-1.21234,-1.1091108,2.7664433,-0.07234089,0.0018501483,1.2808127,-1.2038407,1.0943558,1.2843136,-0.03592715,-0.08389559,0.017250879,1.2648435,0.38860172
0.0,0.0,1.0999999999999999,0.0,0.0,0,-1.2122902,-1.1097401,2.7691693,-0.073502176,0.0064121857,1.2806082,-0.7553073,0.9762546,1.2906272,0.020892927,-0.08801633,0.0026598258,1.2700626,0.24855188
0.0,0.0,1.0999999999999999,0.0,0.0,0,-1.2122142,-1.1093452,2.7683544,-0.07396159,0.0002513616,1.2738228,-1.0442345,1.0185918,1.2843204,0.02591326,-0.08351069,0.0009836878,1.2616693,-0.31885242
0.0,0.0,1.0999999999999999,0.0,0.0,0,-1.2121642,-1.1095581,2.7694547,-0.073455155,0.022445494,1.2774831,-2.536364,1.1750194,1.2818768,-0.028970648,-0.08714742,-0.0069715288,1.2709169,-0.5993151
0.0,0.0,1.0999999999999999,0.0,0.0,0,-1.2123016,-1.1095536,2.7672906,-0.06805156,0.01260512,1.2869545,0.239695,1.0618848,1.2967788,0.005813638,-0.0881974,0.0081866225,1.2761483,0.3553425
0.0,0.0,1.0999999999999999,0.0,0.0,0,-1.2123156,-1.1093013,2.7750525,-0.06616727,0.0077251587,1.2840335,0.54269165,1.367086,1.2850702,0.027312716,-0.076813586,-0.02257321,1.2638446,-1.0141742
0.0,0.0,1.0999999999999999,0.0,0.0,0,-1.2122854,-1.1092489,2.7701325,-0.06649764,0.027631598,1.2839545,0.4782339,1.1011616,1.2892189,-0.019275386,-0.079919845,0.0049645677,1.271635,-0.9713234
0.0,0.0,1.0999999999999999,0.0,0.0,0,-1.2121928,-1.109933,2.7686546,-0.07424191,0.011035271,1.2628706,-0.7553239,1.1363243,1.2965851,0.011203457,-0.08816922,0.02385195,1.255964,1.8146603
0.0,0.0,1.0999999999999999,0.0,0.0,0,-1.2122661,-1.1093973,2.769549,-0.07741737,-0.015814986,1.2817212,-1.5470029,1.2564096,1.2854607,-0.019215073,-0.076896936,0.033327393,1.2551754,-1.9999154
0.0,0.0,1.0999999999999999,0.0,0.0,0,-1.2122083,-1.1098311,2.7638655,-0.06885553,0.030392485,1.2824295,-0.15227753,1.2203208,1.2956547,0.017607817,-0.07907558,0.037006922,1.272314,0.140806
0.0,0.0,1.0999999999999999,0.0,0.0,0,-1.2121392,-1.1098934,2.773774,-0.06760193,0.03187465,1.2758969,-1.8860945,1.0158501,1.2855437,0.009002208,-0.08817829,0.0131651955,1.2655978,-0.7496222
0.0,0.0,1.0999999999999999,0.0,0.0,0,-1.212096,-1.1098591,2.7622197,-0.065741435,0.006092098,1.2773676,-0.96861625,1.0478241,1.2708427,-0.056636367,-0.078750305,0.017643552,1.2664855,-0.90955305
0.0,0.0,1.0999999999999999,0.0,0.0,0,-1.2122773,-1.1093642,2.7662158,-0.064161606,0.026718957,1.2816635,-1.2945138,1.1793451,1.2797395,0.017420636,-0.084434584,-0.00372221,1.2618215,-0.6761178
0.0,0.0,1.0999999999999999,0.0,0.0,0,-1.2121083,-1.109333,2.764206,-0.06903946,0.019069063,1.2843543,0.045137707,0.84793484,1.2814059,0.015066485,-0.08163751,0.02118766,1.2707478,1.1560575
0.0,0.0,1.0999999999999999,0.0,0.0,0,-1.2122694,-1.1093202,2.7685058,-0.06852784,0.059238456,1.2850729,-0.37788814,1.0946375,1.2784216,0.0010884048,-0.08715128,-0.017834723,1.2635983,0.54825956
0.0,0.0,1.0999999999999999,0.0,0.0,0,-1.2122449,-1.1095889,2.7707782,-0.065839015,0.013807462,1.2760653,-0.18174155,0.9783063,1.2863015,-0.0035979487,-0.07391998,0.017703317,1.2692946,-1.233784
0.0,0.0,1.0999999999999999,0.0,0.0,0,-1.212371,-1.1098797,2.7697728,-0.056877553,-0.0071083265,1.2802566,0.0654164,1.23006,1.2971756,-0.00038622718,-0.084491566,-0.008900783,1.2561694,-1.868218
0.0,0.0,1.0999999999999999,0.0,0.0,0,-1.2121812,-1.1097869,2.7680995,-0.06672603,-0.013778375,1.271328,-0.02629556,0.8361061,1.2756083,-0.029600643,-0.08171279,-0.008069176,1.2465678,-1.8457227
0.0,0.0,1.0999999999999999,0.0,0.0,0,-1.2122759,-1.1099211,2.76944,-0.06412513,0.02249185,1.281666,-1.5520031,1.1907163,1.2729698,0.032241285,-0.079257675,0.012024477,1.2763554,-0.2459966
0.0,0.0,1.0999999999999999,0.0,0.0,0,-1.2121239,-1.1094383,2.7718515,-0.07042049,-0.011401326,1.2835817,-1.9394264,1.0939386,1.2744576,0.021052534,-0.0809912,0.0038878075,1.2530094,-0.77559197
0.0,0.0,1.0999999999999999,0.0,0.0,0,-1.2122487,-1.1093969,2.7744,-0.06200018,0.02669576,1.2822397,-2.01797,1.1108614,1.2947961,0.0017867258,-0.08861835,0.007055751,1.2651666,-0.52449596
0.0,0.0,1.0999999999999999,0.0,0.0,0,-1.2121834,-1.1097205,2.764451,-0.06902675,0.017873619,1.2781825,-1.2546612,0.9828576,1.2933822,0.015073921,-0.08430293,0.012233032,1.2618225,0.6834818
0.0,0.0,1.0999999999999999,0.0,0.0,0,-1.2122638,-1.1091967,2.7733707,-0.0629103,0.019004503,1.2704496,-1.357691,1.2654902,1.2816303,0.007317417,-0.07561603,0.018630402,1.2706491,-1.3151683
0.0,0.0,1.0999999999999999,0.0,0.0,0,-1.2120982,-1.1097647,2.7690954,-0.06786902,0.0032320267,1.277167,-0.706244,1.3092954,1.2901804,-0.0239257,-0.0787395,0.015720148,1.2549001,0.42437422
0.0,0.0,1.0999999999999999,0.0,0.0,0,-1.2122276,-1.1095245,2.7717018,-0.06843292,-0.017088952,1.2870092,-1.5145494,1.248852,1.2712882,-0.015039695,-0.08117868,-0.004217959,1.2626202,-0.8540036
0.0,0.0,1.0999999999999999,0.0,0.0,0,-1.2121369,-1.109637,2.7667508,-0.066381335,0.012543911,1.2765015,-2.1051922,1.3737905,1.2666148,0.011443595,-0.086623736,0.0181003,1.2550478,-0.91621196
0.0,0.0,1.0999999999999999,0.0,0.0,0,-1.2121913,-1.1098943,2.7690115,-0.07277079,0.017950017,1.27684,-1.1991316,1.4141203,1.2847145,-0.0070122066,-0.0759514,-0.0024197083,1.2653012,-0.08252529
0.0,0.0,1.0999999999999999,0.0,0.0,0,-1.2121192,-1.1094639,2.7729368,-0.07268269,0.010653455,1.2801841,-1.0811914,0.767708,1.2903048,-0.038067516,-0.0988193,0.0029892623,1.2706143,0.039252926
0.0,0.0,1.0999999999999999,0.0,0.0,0,-1.2121913,-1.109616,2.7715967,-0.07029833,0.0058991173,1.2822133,0.54651576,0.91370803,1.2866783,0.028298512,-0.08443384,0.036931727,1.2630025,0.074386224
0.0,0.0,1.0999999999999999,0.0,0.0,0,-1.2121489,-1.109368,2.7677655,-0.063637346,0.0072721276,1.2857053,-1.4025474,1.0581805,1.2858229,-0.033954103,-0.080662034,-0.0044693886,1.2631407,0.24726905
0.0,0.0,1.0999999999999999,0.0,0.0,0,-1.2120016,-1.1098018,2.7703424,-0.07286834,0.0037185112,1.2831906,0.86937857,1.4985408,1.2682011,0.012996027,-0.08486708,-0.019838955,1.27464,-0.48282516
0.0,0.0,1.0999999999999999,0.0,0.0,0,-1.2122256,-1.1097859,2.76849,-0.06785246,0.008515788,1.2863071,-0.3014636,1.0469081,1.2680669,-0.02795176,-0.083926,-0.006274576,1.2663428,-0.48986036
0.0,0.0,1.0999999999999999,0.0,0.0,0,-1.2121753,-1.1094713,2.7693124,-0.069317706,0.0017092022,1.2800109,-0.44831046,1.418168,1.2833841,0.018026326,-0.071082965,0.015878515,1.2562714,-0.6368008
0.0,0.0,1.0999999999999999,0.0,0.0,0,-1.2121247,-1.1094784,2.7677953,-0.06789509,0.025859274,1.2829126,-0.80907255,1.2869749,1.2831804,-0.009669439,-0.08006354,-0.007942574,1.259157,0.43948576
0.0,0.0,1.0999999999999999,0.0,0.0,0,-1.212331,-1.110209,2.7668896,-0.056922555,0.0045679756,1.2831563,0.097249374,1.2147124,1.294921,0.003396576,-0.08965594,0.0040459586,1.2745644,-0.5149834
0.0,0.0,1.0999999999999999,0.0,0.0,0,-1.212247,-1.1098129,2.7600658,-0.062307473,0.037314106,1.2889421,1.0991786,1.0591327,1.2917755,-0.010010841,-0.08107462,-0.013511955,1.2536198,-1.7991517
0.0,0.0,1.0999999999999999,0.0,0.0,0,-1.2122194,-1.1097165,2.7711716,-0.07360116,0.016775452,1.2783034,-0.47020185,1.1961106,1.2743855,0.007003264,-0.08269702,0.01965322,1.2616858,-0.4645136
0.0,0.0,1.0999999999999999,0.0,0.0,0,-1.2123682,-1.110226,2.7726133,-0.07114606,0.012955035,1.2871236,-0.14383875,1.1761005,1.2745463,0.018102566,-0.08170884,-0.011059261,1.2725384,-1.692958
0.0,0.0,1.0999999999999999,0.0,0.0,0,-1.212267,-1.1095538,2.7686703,-0.07020147,-0.0011544462,1.2683862,-1.3171382,1.1759354,1.2945224,-0.023608545,-0.08920504,0.03104758,1.2586954,-0.98759246
0.0,0.0,1.0999999999999999,0.0,0.0,0,-1.2122991,-1.1094552,2.7700236,-0.06940898,0.004202948,1.286759,-0.29126748,1.0165416,1.2691098,0.019708369,-0.089481644,0.003619371,1.2621715,-0.40606725
0.0,0.0,1.0999999999999999,0.0,0.0,0,-1.2121338,-1.1089677,2.7723095,-0.07073005,0.007850866,1.2818094,-0.7543745,1.1895355,1.2768632,-0.0007324933,-0.08027244,0.00031274417,1.267593,-1.5957843
0.0,0.0,1.0999999999999999,0.0,0.0,0,-1.212215,-1.1099932,2.7696085,-0.068109654,-0.0106514795,1.2907064,-1.5992029,1.1924208,1.2833118,-0.0009416672,-0.086421944,0.0060431696,1.2597005,-1.2109339
0.0,0.0,1.0999999999999999,0.0,0.0,0,-1.2122812,-1.1095276,2.7693462,-0.06767815,-0.011146731,1.2728786,-1.6202128,0.992942,1.282199,-0.025263686,-0.07836891,0.015010342,1.2493807,-1.8678844
0.0,0.0,1.0999999999999999,0.0,0.0,0,-1.2122561,-1.1098727,2.7677386,-0.07352248,0.028865835,1.2796952,-2.1793015,1.1891518,1.2723436,-0.028646626,-0.08128448,0.007940053,1.2647953,-1.2684227
0.0,0.0,1.0999999999999999,0.0,0.0,0,-1.2123134,-1.1097963,2.7761476,-0.069284774,0.04018387,1.2828571,-0.7044145,1.0595865,1.2944124,0.026037008,-0.09077704,0.013770216,1.2562385,-0.6046044
0.0,0.0,1.0999999999999999,0.0,0.0,0,-1.2122155,-1.1095866,2.771812,-0.07242564,0.032637257,1.2800077,0.4162917,0.8692014,1.2789176,0.015526605,-0.07365042,0.027948456,1.2640018,0.80445105
0.0,0.0,1.0999999999999999,0.0,0.0,0,-1.2123609,-1.1099334,2.774423,-0.06713017,0.031068075,1.2788244,-0.2501392,1.0724127,1.291215,0.0016765501,-0.08936602,0.03274563,1.2614413,-0.71091336
0.0,0.0,1.0999999999999999,0.0,0.0,0,-1.2119962,-1.1106087,2.7677457,-0.06731656,-0.00045440093,1.2736337,-0.2095243,1.234199,1.2766453,0.010114811,-0.074333265,0.013074131,1.2570418,-1.0018215
0.0,0.0,1.0999999999999999,0.0,0.0,0,-1.2121881,-1.109596,2.7664871,-0.0681209,0.011507581,1.2791405,-2.1794217,1.2429543,1.2818907,0.016466595,-0.083034374,-0.0018157542,1.2487886,-1.2245202
0.0,0.0,1.0999999999999999,0.0,0.0,0,-1.2121798,-1.1101002,2.7745562,-0.07354791,0.0355147,1.274995,-0.6904799,1.3410716,1.282458,-0.041785095,-0.082459465,0.0048650214,1.2638204,0.0690142
