sanky1234/BimanualDexCatch/isaacgymenvs/cem_results/football_pose_0.0_0.1_0.8999999999999999_0.5235987755982988_0.5235987755982988_0_2025-05-26.csv
x,y,z,roll,pitch,yaw,robot1/joint1,robot1/joint2,robot1/joint3,robot1/joint4,robot1/joint5,robot1/joint6,robot1/joint7,robot2/joint1,robot2/joint2,robot2/joint3,robot2/joint4,robot2/joint5,robot2/joint6,robot2/joint7
0.0,0.1,0.8999999999999999,0.5235987755982988,0.5235987755982988,0,-0.23881796,1.2568656,0.012325718,-0.08765693,-0.0067133233,1.262291,-0.031183925,0.84580916,-1.8592786,-0.0063577956,-0.086383276,-0.021238575,1.2587628,-1.2303715
0.0,0.1,0.8999999999999999,0.5235987755982988,0.5235987755982988,0,-0.2388745,1.262709,0.051070347,-0.07500338,0.026351266,1.2742264,0.33596873,0.85605246,-1.8537487,0.025180409,-0.08601224,0.037370384,1.2580304,-0.36794597
0.0,0.1,0.8999999999999999,0.5235987755982988,0.5235987755982988,0,-0.23848276,1.255452,0.010261913,-0.07494754,0.02224219,1.2719145,-1.1633085,0.85150117,-1.8435633,0.0032893133,-0.078092344,0.01000282,1.2639054,-0.45549783
0.0,0.1,0.8999999999999999,0.5235987755982988,0.5235987755982988,0,-0.23841804,1.2618698,0.054205604,-0.08156507,0.014234464,1.2661378,-0.048724584,0.85151565,-1.8581394,0.043568052,-0.07498822,-0.014745721,1.2644681,0.8348198
0.0,0.1,0.8999999999999999,0.5235987755982988,0.5235987755982988,0,-0.2385182,1.2640508,0.00021804066,-0.07941109,0.0039025387,1.2811161,-0.22918576,0.8516498,-1.8502467,0.002699182,-0.08680064,-0.020397957,1.2502874,-0.113932535
0.0,0.1,0.8999999999999999,0.5235987755982988,0.5235987755982988,0,-0.23847401,1.2619852,-0.012703651,-0.07969658,0.0052807354,1.2744123,-1.3034041,0.86709374,-1.8465703,0.04364504,-0.07855922,0.021394517,1.2584707,-0.42497116
0.0,0.1,0.8999999999999999,0.5235987755982988,0.5235987755982988,0,-0.23871313,1.2639602,-0.028010434,-0.08491164,0.033135157,1.2771219,-1.17227,0.8300878,-1.8492371,0.006242444,-0.07705072,-0.0054315627,1.2561563,1.146009
0.0,0.1,0.8999999999999999,0.5235987755982988,0.5235987755982988,0,-0.23855376,1.2602949,0.036603767,-0.08381567,-0.0378746,1.2811877,-0.871737,0.8810488,-1.8561782,0.011241947,-0.07797853,-0.03210099,1.2561853,0.72729546
0.0,0.1,0.8999999999999999,0.5235987755982988,0.5235987755982988,0,-0.23847766,1.2573398,-0.0061357855,-0.0865487,0.013384389,1.2774106,-1.2909111,0.8708519,-1.8455021,0.06561427,-0.074049406,-0.028279403,1.2746769,-0.36454815
0.0,0.1,0.8999999999999999,0.5235987755982988,0.5235987755982988,0,-0.23847501,1.251068,0.048354506,-0.0765967,0.0142815765,1.2769375,-0.13071002,0.8565634,-1.8588485,-0.011385708,-0.07102298,-0.041335672,1.269389,-0.503177
0.0,0.1,0.8999999999999999,0.5235987755982988,0.5235987755982988,0,-0.23815428,1.2580585,-0.017756134,-0.078618765,0.00095186615,1.2677063,-0.28463334,0.84247875,-1.8540224,0.0011432345,-0.08602203,0.0075455727,1.2483418,1.7445841
0.0,0.1,0.8999999999999999,0.5235987755982988,0.5235987755982988,0,-0.23839839,1.2556173,0.011105028,-0.07053446,0.030376257,1.2767937,-0.39954948,0.8575514,-1.8592885,0.04173588,-0.077756986,0.017962096,1.256789,-1.5848665
0.0,0.1,0.8999999999999999,0.5235987755982988,0.5235987755982988,0,-0.23835748,1.2641599,0.0029473724,-0.093695745,-0.015199146,1.2850568,-1.0536178,0.8630887,-1.8531402,0.016973143,-0.09065157,-0.029854394,1.2501658,-0.4768444
0.0,0.1,0.8999999999999999,0.5235987755982988,0.5235987755982988,0,-0.23831426,1.2672988,-0.030732311,-0.084560305,-0.060710587,1.2792424,-0.48704144,0.8664535,-1.8522773,-0.009956054,-0.08249535,-0.010472352,1.2625424,0.6382588
0.0,0.1,0.8999999999999999,0.5235987755982988,0.5235987755982988,0,-0.23864149,1.268656,0.018069865,-0.07918224,-0.008695705,1.2759062,-1.411392,0.8689314,-1.8475268,0.0062624444,-0.076012686,0.0022922338,1.2567017,0.07663885
0.0,0.1,0.8999999999999999,0.5235987755982988,0.5235987755982988,0,-0.23826666,1.2566303,0.03130694,-0.08648281,0.013336657,1.2724675,0.13625892,0.83589166,-1.8466669,0.043888755,-0.085004844,-0.001023584,1.2516155,0.17595187
0.0,0.1,0.8999999999999999,0.5235987755982988,0.5235987755982988,0,-0.23820692,1.2652956,-0.00017003482,-0.06939325,-0.0015839626,1.281818,1.3521856,0.8754482,-1.8774192,0.002237694,-0.08210843,-0.04253838,1.2595084,-0.62708396
0.0,0.1,0.8999999999999999,0.5235987755982988,0.5235987755982988,0,-0.23867007,1.2705823,-0.0007144994,-0.07705967,0.022939863,1.2655084,-0.621425,0.8513547,-1.8646184,-0.032887787,-0.078470826,-0.0037967656,1.2487208,0.29595095
0.0,0.1,0.8999999999999999,0.5235987755982988,0.5235987755982988,0,-0.23842028,1.2572114,0.022846835,-0.059894897,-0.03823539,1.2739332,0.8364991,0.840534,-1.8579609,0.021171555,-0.07356357,0.002190885,1.2575003,-1.4650686
0.0,0.1,0.8999999999999999,0.5235987755982988,0.5235987755982988,0,-0.23821463,1.2633867,0.022235911,-0.08319524,0.0035663561,1.2693797,1.5719752,0.8419532,-1.8577147,0.01754366,-0.078307584,-0.021305412,1.2665842,-1.2490596
0.0,0.1,0.8999999999999999,0.5235987755982988,0.5235987755982988,0,-0.23830847,1.2602329,-0.004902276,-0.091068186,-0.005121638,1.2634584,-0.732897,0.84899294,-1.8558625,-0.0056515373,-0.082534954,-0.028333277,1.249121,-0.76111686
0.0,0.1,0.8999999999999999,0.5235987755982988,0.5235987755982988,0,-0.23852731,1.2648138,-0.0075377906,-0.07141732,-0.0085205715,1.2661301,-0.35321596,0.839438,-1.8700328,0.029396217,-0.08921249,-0.034680665,1.2623953,-0.0021037164
0.0,0.1,0.8999999999999999,0.5235987755982988,0.5235987755982988,0,-0.23837474,1.2506536,-0.020920964,-0.082076855,-0.017071273,1.2857441,-0.8394763,0.8631621,-1.8485069,-1.0681803e-05,-0.07713785,0.024763152,1.2427672,-0.020498902
0.0,0.1,0.8999999999999999,0.5235987755982988,0.5235987755982988,0,-0.23827495,1.2680452,0.020471398,-0.0793252,0.030518625,1.2799594,0.20578171,0.8500567,-1.8424317,0.012508107,-0.07749688,-0.011696906,1.2369754,0.90184325
0.0,0.1,0.8999999999999999,0.5235987755982988,0.5235987755982988,0,-0.23834163,1.2555426,0.003121117,-0.07172986,0.005422653,1.28149,-0.11220423,0.84183264,-1.8719107,-0.01894337,-0.087682165,-0.028117422,1.2670442,0.7025451
0.0,0.1,0.8999999999999999,0.5235987755982988,0.5235987755982988,0,-0.23854887,1.2611709,-0.037558187,-0.07556412,0.0042156833,1.2782303,-1.5179536,0.83549976,-1.843097,0.015418796,-0.07375115,0.0073742294,1.2481883,0.931784
0.0,0.1,0.8999999999999999,0.5235987755982988,0.5235987755982988,0,-0.23812754,1.2650439,0.012284877,-0.07600849,0.008458571,1.2807753,-0.55176973,0.86365134,-1.8471472,0.042457316,-0.08030172,-0.010700861,1.2500061,0.271808
0.0,0.1,0.8999999999999999,0.5235987755982988,0.5235987755982988,0,-0.2384371,1.2591126,0.03564337,-0.094323285,0.017917767,1.289137,0.5677179,0.8467157,-1.8549758,-0.008138985,-0.07059242,-0.01366628,1.2608824,-0.9640967
0.0,0.1,0.8999999999999999,0.5235987755982988,0.5235987755982988,0,-0.23848322,1.2597927,-0.0008138511,-0.07593471,0.025957385,1.2794474,-0.16312115,0.84950703,-1.8624117,-0.00086385466,-0.086125754,0.01700601,1.2470496,-0.5167693
0.0,0.1,0.8999999999999999,0.5235987755982988,0.5235987755982988,0,-0.23847646,1.2621875,0.019724509,-0.09013937,0.0039991722,1.2829466,0.39496115,0.8243948,-1.8640814,0.019685406,-0.08193671,-0.038347,1.2705029,0.2653438
0.0,0.1,0.8999999999999999,0.5235987755982988,0.5235987755982988,0,-0.23847015,1.2552848,-0.017062627,-0.07446476,0.021591919,1.2694699,-0.3975016,0.88191676,-1.8471357,-0.020920685,-0.07216777,-0.0025533612,1.246509,-0.24123357
0.0,0.1,0.8999999999999999,0.5235987755982988,0.5235987755982988,0,-0.23835513,1.2616676,0.006529231,-0.07854503,0.038120244,1.2908758,-0.00044439238,0.8644268,-1.8545519,-0.010708822,-0.08245883,-0.015520708,1.2557366,0.36973545
0.0,0.1,0.8999999999999999,0.5235987755982988,0.5235987755982988,0,-0.2384257,1.2552058,0.021416156,-0.077533685,0.014614873,1.2906322,-0.8770283,0.8382466,-1.8540324,-0.008848796,-0.07311875,-0.039016955,1.2558968,-0.648175
0.0,0.1,0.8999999999999999,0.5235987755982988,0.5235987755982988,0,-0.23846503,1.2643287,-0.018508961,-0.08236271,0.006617044,1.2818868,-0.7556416,0.86339545,-1.8535401,-0.023046121,-0.08806925,-0.076831706,1.2646183,1.7920309
0.0,0.1,0.8999999999999999,0.5235987755982988,0.5235987755982988,0,-0.23832798,1.2587407,-0.01364991,-0.073880255,-0.009329172,1.2636591,0.9654626,0.86893797,-1.8660603,0.00068296096,-0.08199244,0.012467689,1.2613735,-0.20315473
0.0,0.1,0.8999999999999999,0.5235987755982988,0.5235987755982988,0,-0.23865545,1.2638866,0.00016194637,-0.08265263,0.006932162,1.2684726,0.5359542,0.83973277,-1.8510125,-0.0065456056,-0.078096285,-0.003587341,1.2516387,1.4133555
0.0,0.1,0.8999999999999999,0.5235987755982988,0.5235987755982988,0,-0.23849015,1.2682323,0.00310822,-0.08456642,0.022862462,1.2608311,-0.18219925,0.86750734,-1.8719981,-0.013345426,-0.0793707,-0.0019431923,1.2538837,0.15837124
0.0,0.1,0.8999999999999999,0.5235987755982988,0.5235987755982988,0,-0.2387312,1.2605296,0.034391887,-0.09382858,-0.0063579786,1.2700856,-1.0937966,0.8336012,-1.8539766,-0.015120178,-0.08375794,-0.021634445,1.2542503,-1.2560965
0.0,0.1,0.8999999999999999,0.5235987755982988,0.5235987755982988,0,-0.23840751,1.2613912,0.011836674,-0.0812993,-0.046682835,1.2830485,-0.11371221,0.82349914,-1.850137,0.0069316556,-0.079642795,-0.017607728,1.2609214,-0.17156558
0.0,0.1,0.8999999999999999,0.5235987755982988,0.5235987755982988,0,-0.23830359,1.2572459,0.022915073,-0.08325914,-0.015121834,1.2808347,-0.24002692,0.86351204,-1.8473802,-0.0035077354,-0.09050172,0.012795875,1.2561295,-1.0165652
0.0,0.1,0.8999999999999999,0.5235987755982988,0.5235987755982988,0,-0.23839127,1.2569224,0.05006894,-0.08105066,0.009439103,1.2775947,-0.4179589,0.8620756,-1.8473115,-0.015967352,-0.089031935,-0.008108533,1.2537378,0.15778473
0.0,0.1,0.8999999999999999,0.5235987755982988,0.5235987755982988,0,-0.23856907,1.2595905,-0.014218836,-0.07483706,-0.04354885,1.2632341,-0.8165817,0.8608482,-1.8557014,0.018978005,-0.09221344,-0.018549828,1.2596378,-1.4443213
0.0,0.1,0.8999999999999999,0.5235987755982988,0.5235987755982988,0,-0.23838745,1.2653148,-0.008037565,-0.087481156,0.017000012,1.2978338,-0.9434759,0.8580818,-1.8526056,0.019591963,-0.07796289,-0.0016241369,1.2491072,0.65294933
0.0,0.1,0.8999999999999999,0.5235987755982988,0.5235987755982988,0,-0.23822919,1.2731569,0.00073492643,-0.07858939,-0.014455056,1.2740936,-0.1863502,0.8833947,-1.8584145,0.020091757,-0.0793732,0.04966133,1.2623129,0.032927617
0.0,0.1,0.8999999999999999,0.5235987755982988,0.5235987755982988,0,-0.23837376,1.2592231,0.031805553,-0.075724564,0.016166149,1.2685055,1.5659697,0.8498951,-1.8491045,0.0058771335,-0.07683531,0.008525702,1.2498891,1.094527
0.0,0.1,0.8999999999999999,0.5235987755982988,0.5235987755982988,0,-0.23860039,1.2637514,0.003762543,-0.07576518,-0.022900082,1.3025658,-0.48035392,0.85556,-1.8646396,-0.0069346097,-0.08060748,0.009826947,1.237529,1.3632846
0.0,0.1,0.8999999999999999,0.5235987755982988,0.5235987755982988,0,-0.23873009,1.2622305,-0.008979243,-0.06714548,0.013016223,1.281081,-1.1878229,0.8441869,-1.8617195,0.023199873,-0.06668347,-0.013630549,1.2783378,-2.212413
0.0,0.1,0.8999999999999999,0.5235987755982988,0.5235987755982988,0,-0.23840323,1.2672353,0.028861975,-0.06858271,0.015367438,1.2721004,-0.59697413,0.8681521,-1.855994,0.008571022,-0.07082305,0.0076776496,1.2424859,0.55509394
0.0,0.1,0.8999999999999999,0.5235987755982988,0.5235987755982988,0,-0.23862368,1.2579982,0.030768383,-0.07063869,-0.0063121836,1.2955548,-0.7907239,0.857214,-1.8683577,0.011821911,-0.08004793,0.026584765,1.2473677,0.7058362
0.0,0.1,0.8999999999999999,0.5235987755982988,0.5235987755982988,0,-0.23833087,1.2635766,-0.02834976,-0.07714399,-0.037258267,1.272139,-1.0909439,0.85928273,-1.8496772,0.03209156,-0.078455426,-0.013521116,1.2657427,0.19759013
0.0,0.1,0.8999999999999999,0.5235987755982988,0.5235987755982988,0,-0.23838857,1.2669224,-0.01511923,-0.09016966,0.011807486,1.2895648,-0.081204645,0.85119104,-1.8684893,-0.017985465,-0.076673955,0.018348223,1.2623423,-0.4436739
0.0,0.1,0.8999999999999999,0.5235987755982988,0.5235987755982988,0,-0.23857866,1.2576413,0.031116854,-0.08651237,0.052798755,1.2681179,-0.44115525,0.85776466,-1.8417168,0.019072635,-0.085120745,-0.032228697,1.2622684,-0.63130885
0.0,0.1,0.8999999999999999,0.5235987755982988,0.5235987755982988,0,-0.23863497,1.261554,0.0017006506,-0.07102841,-0.010358757,1.2609622,-0.27933627,0.8818861,-1.8635573,-0.020132406,-0.08622842,-0.058279485,1.268918,-0.03457854
0.0,0.1,0.8999999999999999,0.5235987755982988,0.5235987755982988,0,-0.23828508,1.2579983,0.010528793,-0.0726465,0.0056743794,1.2810637,-0.108872466,0.8700354,-1.853303,-0.011284551,-0.079813905,-0.053897556,1.2595916,-1.0102434
0.0,0.1,0.8999999999999999,0.5235987755982988,0.5235987755982988,0,-0.23843029,1.2637638,-0.032949958,-0.08784457,0.036985792,1.2605577,0.19141084,0.844932,-1.8640708,0.018796526,-0.08529362,-0.035722136,1.2572099,0.04605254
0.0,0.1,0.8999999999999999,0.5235987755982988,0.5235987755982988,0,-0.23840837,1.254611,0.016760169,-0.07353468,0.041847542,1.2727718,-1.6413786,0.85401493,-1.8506055,-0.03112913,-0.07492514,-0.031045297,1.2530496,0.71123576
0.0,0.1,0.8999999999999999,0.5235987755982988,0.5235987755982988,0,-0.23833407,1.2578558,-0.045622915,-0.074325465,0.05369529,1.2846911,-0.07624305,0.8583149,-1.8518769,0.03272913,-0.07413657,0.03632693,1.2653651,-0.06020783
0.0,0.1,0.8999999999999999,0.5235987755982988,0.5235987755982988,0,-0.23868729,1.2564832,0.029622769,-0.09070995,0.010581084,1.2771666,0.24628901,0.84894,-1.8638674,-0.03309545,-0.08639778,-0.0010220914,1.2580829,1.2089889
0.0,0.1,0.8999999999999999,0.5235987755982988,0.5235987755982988,0,-0.23841837,1.2589267,0.032957233,-0.09535615,0.019500272,1.2756052,0.7328011,0.84940886,-1.8641896,0.024917236,-0.08343444,-0.06384495,1.251995,-0.815261
0.0,0.1,0.8999999999999999,0.5235987755982988,0.5235987755982988,0,-0.23842582,1.2548457,0.03700831,-0.090798795,-0.034566008,1.2765079,0.6055174,0.85790867,-1.8442568,-0.00548032,-0.08393602,0.006551424,1.2542741,0.1098157
0.0,0.1,0.8999999999999999,0.5235987755982988,0.5235987755982988,0,-0.23825718,1.2672389,0.049052473,-0.073030844,-0.06733313,1.2802122,-0.1803019,0.8409413,-1.8477082,0.035356537,-0.08706236,0.01497843,1.2529409,1.2012957
0.0,0.1,0.8999999999999999,0.5235987755982988,0.5235987755982988,0,-0.2384955,1.2663755,0.039395824,-0.081031635,0.039463427,1.2830218,-0.088116206,0.8764962,-1.857148,0.013741363,-0.08075627,0.010880488,1.2491815,-0.3196493
0.0,0.1,0.8999999999999999,0.5235987755982988,0.5235987755982988,0,-0.23835994,1.260559,0.0037054787,-0.09273164,0.05429537,1.2784057,-0.6914576,0.8630721,-1.855336,0.010691531,-0.076598294,0.016081627,1.2536645,-1.0662335
0.0,0.1,0.8999999999999999,0.5235987755982988,0.5235987755982988,0,-0.23844518,1.2647929,-0.021202756,-0.0767354,-0.018304149,1.2850026,-0.88902956,0.83700293,-1.8548278,-0.023465445,-0.07071609,-0.03376944,1.2666233,0.56146115
0.0,0.1,0.8999999999999999,0.5235987755982988,0.5235987755982988,0,-0.23818727,1.2561628,0.01516727,-0.06689917,-0.03746306,1.2779433,-0.43983594,0.8397611,-1.8631803,0.0019078383,-0.086821385,-0.082988955,1.2511952,-0.54387766
0.0,0.1,0.8999999999999999,0.5235987755982988,0.5235987755982988,0,-0.23867463,1.2599704,0.004004435,-0.08229888,-0.0043648165,1.2748556,-0.78016835,0.87432605,-1.855039,0.033182703,-0.080181845,0.022742119,1.2636671,-0.12989111
0.0,0.1,0.8999999999999999,0.5235987755982988,0.5235987755982988,0,-0.23853253,1.266547,0.019649765,-0.0783673,0.02309311,1.2767596,-0.29061234,0.86211425,-1.8521576,0.047773015,-0.082385115,0.011651394,1.2617399,0.1308757
0.0,0.1,0.8999999999999999,0.5235987755982988,0.5235987755982988,0,-0.23843421,1.2647384,0.053432543,-0.08883047,-0.003731915,1.285275,1.1366549,0.8459573,-1.8448012,0.04638946,-0.07858695,-0.023260843,1.2614225,-1.8313086
0.0,0.1,0.8999999999999999,0.5235987755982988,0.5235987755982988,0,-0.23826909,1.2693629,-0.023310086,-0.08991328,0.00974638,1.2835191,-0.06379494,0.8193253,-1.8671927,0.06144245,-0.08259991,-0.016918125,1.267887,-0.30524087
0.0,0.1,0.8999999999999999,0.5235987755982988,0.5235987755982988,0,-0.23827995,1.2674145,0.021923142,-0.07623864,0.0052935826,1.2765772,0.33260554,0.8404108,-1.8459915,0.026989605,-0.07713398,-0.011074081,1.2357745,-0.88397086
0.0,0.1,0.8999999999999999,0.5235987755982988,0.5235987755982988,0,-0.23838498,1.2585036,-0.033217732,-0.078125946,0.0035306176,1.2783602,-0.8380741,0.87320465,-1.8550094,-0.0016015521,-0.08346841,0.013211336,1.2621913,1.0442599
0.0,0.1,0.8999999999999999,0.5235987755982988,0.5235987755982988,0,-0.23859163,1.2574128,-0.0077869333,-0.07658285,-0.016653163,1.275674,-0.542339,0.8635023,-1.8516487,0.0017162886,-0.086843655,0.008485904,1.2546449,0.098146945
0.0,0.1,0.8999999999999999,0.5235987755982988,0.5235987755982988,0,-0.23838098,1.2597339,0.04128363,-0.077667445,0.009948106,1.2756053,-0.16686903,0.8566012,-1.8646739,0.021609211,-0.08686258,0.0011631609,1.2518734,1.3393967
0.0,0.1,0.8999999999999999,0.5235987755982988,0.5235987755982988,0,-0.23870033,1.2715155,-0.021526618,-0.07777182,-0.01768599,1.2604389,-0.2400196,0.8479654,-1.8473805,0.022485375,-0.081748255,0.0088617485,1.2577683,-1.9285327
0.0,0.1,0.8999999999999999,0.5235987755982988,0.5235987755982988,0,-0.23806463,1.2540861,-0.020382449,-0.0759418,-0.03490727,1.2864093,-0.458207,0.84887993,-1.8362216,-0.033185586,-0.07923375,-0.01898648,1.2539172,-0.7649813
0.0,0.1,0.8999999999999999,0.5235987755982988,0.5235987755982988,0,-0.23845193,1.2675622,0.024019932,-0.08686394,0.0018968233,1.2697872,-0.399202,0.87058115,-1.8495044,-0.0076410966,-0.08476996,0.0089784665,1.2574412,-0.62373585
0.0,0.1,0.8999999999999999,0.5235987755982988,0.5235987755982988,0,-0.23843202,1.2660944,-0.028313538,-0.07821185,0.01655103,1.282766,-0.3617188,0.84802806,-1.8574256,0.02668566,-0.07873745,0.01558173,1.2539501,-0.5203597
0.0,0.1,0.8999999999999999,0.5235987755982988,0.5235987755982988,0,-0.23820178,1.2585266,-0.019467995,-0.06600232,0.02471837,1.2805834,-0.7023949,0.86816597,-1.8524903,0.015814472,-0.08395956,-0.024733372,1.2460659,0.5841063
0.0,0.1,0.8999999999999999,0.5235987755982988,0.5235987755982988,0,-0.23825513,1.2609581,0.047686376,-0.08471993,-0.03086889,1.2668242,-0.76007867,0.8592331,-1.8496205,0.047761526,-0.08654393,-0.020026298,1.262476,0.11688776
0.0,0.1,0.8999999999999999,0.5235987755982988,0.5235987755982988,0,-0.2386395,1.2588274,0.046116438,-0.077384174,0.010364614,1.2655385,0.021765329,0.8377557,-1.8650659,0.012207438,-0.088416934,-0.042556394,1.2560283,-0.45921358
0.0,0.1,0.8999999999999999,0.5235987755982988,0.5235987755982988,0,-0.23854625,1.2645503,0.027766045,-0.07152522,-0.026687078,1.2704242,-0.14664775,0.8567068,-1.8591218,0.05412679,-0.07336947,-0.026331952,1.2731464,-1.3396025
0.0,0.1,0.8999999999999999,0.5235987755982988,0.5235987755982988,0,-0.2381743,1.2550188,0.06839546,-0.073286854,0.05131135,1.271433,-0.22347072,0.87351996,-1.8571625,0.0064833057,-0.094035104,-0.037670586,1.2519202,-0.09439269
0.0,0.1,0.8999999999999999,0.5235987755982988,0.5235987755982988,0,-0.2384116,1.2645805,-0.0650213,-0.07458697,0.0030228957,1.2996892,-0.94802004,0.8347764,-1.8546315,0.002585575,-0.07303589,-0.00037112538,1.2659009,1.1499066
0.0,0.1,0.8999999999999999,0.5235987755982988,0.5235987755982988,0,-0.23847963,1.2653813,-0.026865628,-0.08675576,0.01075036,1.2764561,-0.16510367,0.8737074,-1.84926,0.03627437,-0.08805753,0.004999102,1.2586086,-0.35385844
0.0,0.1,0.8999999999999999,0.5235987755982988,0.5235987755982988,0,-0.23837058,1.2574768,-0.038012628,-0.07379945,0.031811457,1.2730274,0.07850207,0.8348567,-1.8567792,0.017237501,-0.07271603,0.0030769238,1.2602712,-0.020539694
0.0,0.1,0.8999999999999999,0.5235987755982988,0.5235987755982988,0,-0.23860723,1.2651842,-0.00086603727,-0.0813021,0.036334842,1.2745959,-0.49313167,0.84378874,-1.8621659,0.0150529975,-0.09444419,-0.031924225,1.2473391,-1.1385626
0.0,0.1,0.8999999999999999,0.5235987755982988,0.5235987755982988,0,-0.23831797,1.2614212,-0.008825702,-0.07727215,0.03238819,1.2769446,-1.3662626,0.8350011,-1.8648212,-0.00899104,-0.08064034,0.041607983,1.261459,-2.7844644
0.0,0.1,0.8999999999999999,0.5235987755982988,0.5235987755982988,0,-0.23785657,1.2718134,0.009301055,-0.08168923,-0.0004114602,1.2764822,-1.346935,0.8547352,-1.8678342,0.008918634,-0.081944294,-0.021907432,1.2526479,0.057755888
0.0,0.1,0.8999999999999999,0.5235987755982988,0.5235987755982988,0,-0.23838909,1.2633868,0.011741345,-0.084083416,0.005901064,1.26655,-0.5873843,0.87041813,-1.8542773,0.028288614,-0.09410535,-0.050100192,1.2527475,-0.13325004
0.0,0.1,0.8999999999999999,0.5235987755982988,0.5235987755982988,0,-0.2383496,1.2609266,0.03040811,-0.095285654,-0.00222466,1.2842168,-0.646893,0.8453845,-1.8507786,0.0054417406,-0.07381866,0.007939241,1.2632523,1.3566568
0.0,0.1,0.8999999999999999,0.5235987755982988,0.5235987755982988,0,-0.23829071,1.2571528,0.039353117,-0.08009462,-0.02239634,1.280797,-0.7262152,0.84010583,-1.8569603,0.011327097,-0.08902556,-0.0002572358,1.259141,-1.5505338
0.0,0.1,0.8999999999999999,0.5235987755982988,0.5235987755982988,0,-0.23840654,1.2663507,0.0176703,-0.08489247,-0.022163983,1.2787948,0.5892436,0.854448,-1.8731272,0.040845584,-0.07905788,-0.021924421,1.2596195,-0.12700754
0.0,0.1,0.8999999999999999,0.5235987755982988,0.5235987755982988,0,-0.23844552,1.2499433,-0.038644884,-0.08461115,-0.0029584947,1.2764057,-0.9113341,0.8597095,-1.8457606,0.010564026,-0.08232332,-0.009402718,1.2587984,0.10910459
0.0,0.1,0.8999999999999999,0.5235987755982988,0.5235987755982988,0,-0.23837008,1.2594122,0.03232591,-0.08382514,0.009129585,1.2765598,-0.016044846,0.8646052,-1.8583649,0.039980263,-0.08375177,-0.02367241,1.2704031,0.30583364
0.0,0.1,0.8999999999999999,0.5235987755982988,0.5235987755982988,0,-0.23846462,1.2543925,-0.0015056176,-0.0960952,-0.027748637,1.2869867,-0.1310588,0.83294237,-1.8492084,0.013765789,-0.08434904,-0.015580123,1.2709597,-0.13986646
0.0,0.1,0.8999999999999999,0.5235987755982988,0.5235987755982988,0,-0.2380989,1.2676257,0.03314062,-0.09318014,0.0016405169,1.2774247,-1.0306833,0.8594804,-1.8760742,-0.018441612,-0.07509716,-1.0431984e-05,1.2585509,-0.765649
0.0,0.1,0.8999999999999999,0.5235987755982988,0.5235987755982988,0,-0.23818286,1.2673221,0.0042759855,-0.0637595,0.017300116,1.2805915,0.09757049,0.8553958,-1.8428032,0.053999513,-0.08552737,0.008582925,1.2655205,-0.12570612
0.0,0.1,0.8999999999999999,0.5235987755982988,0.5235987755982988,0,-0.23835443,1.2601471,0.013705585,-0.07856779,0.021397335,1.2768422,-0.70658064,0.84419245,-1.8542798,0.043987375,-0.06954376,-0.04307748,1.2588022,-0.11605743
0.0,0.1,0.8999999999999999,0.5235987755982988,0.5235987755982988,0,-0.23859672,1.2697034,-0.0115406,-0.07449269,0.009062717,1.2908235,-0.10444165,0.8702005,-1.8622333,-0.027956001,-0.07156002,-0.026321234,1.2470037,-1.40077
0.0,0.1,0.8999999999999999,0.5235987755982988,0.5235987755982988,0,-0.23828425,1.2624296,-0.007093733,-0.09174305,0.028844008,1.2767781,0.24008895,0.84578395,-1.8579354,0.010433091,-0.07737049,-0.07460879,1.2490128,1.2938296
0.0,0.1,0.8999999999999999,0.5235987755982988,0.5235987755982988,0,-0.23841102,1.2684147,-0.021857223,-0.080852084,-0.015231367,1.2759699,-0.92427003,0.8564088,-1.8536785,0.037644595,-0.0729877,0.012978148,1.2483609,-0.0023717356
0.0,0.1,0.8999999999999999,0.5235987755982988,0.5235987755982988,0,-0.23820196,1.2644869,0.002612865,-0.08157404,-0.015413151,1.2728462,0.6960391,0.8770044,-1.8644216,0.041178893,-0.067815475,-0.028647741,1.2476661,0.52987885
0.0,0.1,0.8999999999999999,0.5235987755982988,0.5235987755982988,0,-0.23818423,1.2623305,0.014696696,-0.08609983,0.0047461395,1.2791921,-0.054036934,0.85506064,-1.8685061,-0.003290931,-0.07864592,-0.057906087,1.2514303,-0.07289703
0.0,0.1,0.8999999999999999,0.5235987755982988,0.5235987755982988,0,-0.23821332,1.2557962,-0.020610677,-0.074598804,0.019666776,1.2809174,-0.9927084,0.85059434,-1.8585559,0.016098969,-0.08470599,-0.008403102,1.2685755,0.14995919
0.0,0.1,0.8999999999999999,0.5235987755982988,0.5235987755982988,0,-0.23814404,1.2645563,-0.021728596,-0.081475966,0.021207558,1.2739826,-0.23541716,0.8679889,-1.8700436,0.033248805,-0.080274634,0.006902369,1.2593207,-0.29800123
0.0,0.1,0.8999999999999999,0.5235987755982988,0.5235987755982988,0,-0.23777816,1.2640395,-0.0064034094,-0.08476861,0.008020185,1.2796731,-0.82246906,0.86009336,-1.8530674,0.008181393,-0.07801664,-0.0074855173,1.2712835,-0.4113785
0.0,0.1,0.8999999999999999,0.5235987755982988,0.5235987755982988,0,-0.23806752,1.259404,0.009338851,-0.08920582,-0.02729023,1.2993313,-0.41935965,0.8665323,-1.8404771,-0.007625372,-0.08803528,0.0008033001,1.256108,-0.35442844
0.0,0.1,0.8999999999999999,0.5235987755982988,0.5235987755982988,0,-0.23822433,1.2626576,-0.008522021,-0.07629895,-0.013829449,1.2765077,0.9776032,0.83940166,-1.8460952,0.00034167463,-0.08171922,-0.051052935,1.2700344,-0.027797116
0.0,0.1,0.8999999999999999,0.5235987755982988,0.5235987755982988,0,-0.23816603,1.2609497,-0.024824286,-0.082291104,0.015505992,1.2771794,-2.2602031,0.86820847,-1.864937,0.037173424,-0.077860825,-0.07560459,1.2609224,-1.1049213
0.0,0.1,0.8999999999999999,0.5235987755982988,0.5235987755982988,0,-0.2382432,1.2652153,0.05594739,-0.07227291,0.011776466,1.2920841,0.36062542,0.8652859,-1.8597695,0.03459774,-0.08176957,-0.026996803,1.2652181,-0.47943097
0.0,0.1,0.8999999999999999,0.5235987755982988,0.5235987755982988,0,-0.23811479,1.2551353,-0.017387152,-0.072524585,0.0040888484,1.2729975,-1.4623604,0.85953724,-1.8526003,0.034068797,-0.082244694,-0.053051166,1.26468,-0.5695466
0.0,0.1,0.8999999999999999,0.5235987755982988,0.5235987755982988,0,-0.23864228,1.2622294,0.004598486,-0.07977224,0.033778705,1.2809967,-0.30200583,0.8590135,-1.860681,0.05918454,-0.08446592,-0.012691998,1.2496651,-0.43185785
0.0,0.1,0.8999999999999999,0.5235987755982988,0.5235987755982988,0,-0.23863876,1.2650715,-0.035350014,-0.07539634,-0.011282838,1.2897362,-0.25746885,0.8379132,-1.8481153,0.0255161,-0.080177605,0.0076096714,1.2584822,-0.66642463
0.0,0.1,0.8999999999999999,0.5235987755982988,0.5235987755982988,0,-0.23822474,1.2542636,0.012577728,-0.07768174,-0.015121463,1.2692149,-0.07607642,0.84272546,-1.8547584,-0.0023491213,-0.07594596,-0.021774292,1.2737496,-0.20721702
0.0,0.1,0.8999999999999999,0.5235987755982988,0.5235987755982988,0,-0.23846635,1.2681793,0.0018461786,-0.070010446,0.027716555,1.2852472,-1.139738,0.8562,-1.8573451,0.005500799,-0.079143465,-0.0186224,1.2735261,-0.31765252
0.0,0.1,0.8999999999999999,0.5235987755982988,0.5235987755982988,0,-0.23846848,1.261964,0.005448222,-0.083320476,0.043880165,1.2811217,-0.63835996,0.85438615,-1.8608118,-0.011856873,-0.07262636,0.00019153545,1.248764,0.5406746
0.0,0.1,0.8999999999999999,0.5235987755982988,0.5235987755982988,0,-0.23879087,1.254465,0.038187347,-0.06780703,-0.018702595,1.2741594,0.5924937,0.8731151,-1.859084,-0.0066212295,-0.084252186,-0.02105333,1.2596613,0.615251
0.0,0.1,0.8999999999999999,0.5235987755982988,0.5235987755982988,0,-0.23847872,1.2564777,0.02491572,-0.07832902,0.018526379,1.2885598,-1.2804539,0.8687984,-1.8567618,0.0042335317,-0.089596614,0.0159343,1.2432171,0.0833353
0.0,0.1,0.8999999999999999,0.5235987755982988,0.5235987755982988,0,-0.23865917,1.2658875,-0.0375721,-0.07638279,-0.06333731,1.2781467,0.6157337,0.8551206,-1.8507395,-0.003004168,-0.08182404,-0.0056372248,1.2431475,0.039337095
0.0,0.1,0.8999999999999999,0.5235987755982988,0.5235987755982988,0,-0.23862974,1.2559168,0.03195496,-0.08381111,0.025051456,1.2731929,-0.9115893,0.8561113,-1.86065,0.002692239,-0.06814543,-0.018000493,1.2825028,0.16485111
0.0,0.1,0.8999999999999999,0.5235987755982988,0.5235987755982988,0,-0.23871452,1.2607192,-0.02157556,-0.082268745,0.0042095473,1.2743992,-1.2401069,0.85211885,-1.8588693,0.011041229,-0.070816435,0.01546409,1.254721,1.1163013
0.0,0.1,0.8999999999999999,0.5235987755982988,0.5235987755982988,0,-0.23883332,1.265213,0.061791703,-0.0783444,-0.021917554,1.2863498,-0.505554,0.8714326,-1.853107,0.026463548,-0.07916563,-0.021517148,1.244792,-1.3883355
0.0,0.1,0.8999999999999999,0.5235987755982988,0.5235987755982988,0,-0.23859793,1.261191,0.021858025,-0.08860957,0.0018560092,1.2687656,-0.40228084,0.8445673,-1.850677,0.003199399,-0.081355244,-0.005956236,1.2626159,0.5884879
0.0,0.1,0.8999999999999999,0.5235987755982988,0.5235987755982988,0,-0.23874071,1.2568432,0.032931816,-0.08088864,-0.04942917,1.2887267,1.0625077,0.87030846,-1.8532953,0.039095383,-0.07217965,-0.046522923,1.265433,-1.5533087
0.0,0.1,0.8999999999999999,0.5235987755982988,0.5235987755982988,0,-0.23855929,1.2524314,0.019288212,-0.09120823,-0.016920803,1.2974005,-0.9934102,0.8791779,-1.84974,0.012946949,-0.07881971,-0.004859436,1.2678299,1.3031943
0.0,0.1,0.8999999999999999,0.5235987755982988,0.5235987755982988,0,-0.23886523,1.2648332,-0.0032151516,-0.08299057,-0.018124385,1.2803047,-0.40265664,0.8781017,-1.8444942,0.036449384,-0.08209684,0.0057315244,1.262996,0.90881354
0.0,0.1,0.8999999999999999,0.5235987755982988,0.5235987755982988,0,-0.23865084,1.2586504,0.0851913,-0.09202558,0.018968618,1.2848592,0.32932445,0.84905076,-1.8534797,0.019108513,-0.07350518,-0.027710536,1.2568866,0.5593104
0.0,0.1,0.8999999999999999,0.5235987755982988,0.5235987755982988,0,-0.23878041,1.2605227,0.061332174,-0.086541116,-0.0016462763,1.2862818,0.07936403,0.83464664,-1.8547825,0.048366446,-0.07099717,0.0041796416,1.2465135,0.26709443
0.0,0.1,0.8999999999999999,0.5235987755982988,0.5235987755982988,0,-0.23871753,1.269116,-0.012819026,-0.08231776,0.019339772,1.279214,-0.301309,0.84711665,-1.8464843,0.016930202,-0.08229178,-0.01066057,1.2424313,0.72718877
0.0,0.1,0.8999999999999999,0.5235987755982988,0.5235987755982988,0,-0.23871516,1.266641,-0.017312657,-0.08291043,0.0071961232,1.2847524,-1.0016595,0.845799,-1.850561,0.012260439,-0.0852136,0.019087298,1.2527522,-0.7067194
0.0,0.1,0.8999999999999999,0.5235987755982988,0.5235987755982988,0,-0.23867056,1.2582227,0.049783856,-0.0689243,-0.0048799072,1.2734147,-0.061182894,0.86184394,-1.8480123,0.06478336,-0.09336198,0.011034507,1.264888,-0.51470566
0.0,0.1,0.8999999999999999,0.5235987755982988,0.5235987755982988,0,-0.23864172,1.2621509,0.021071127,-0.078025445,0.048239615,1.2711352,-1.6101398,0.8517227,-1.8430713,0.009939682,-0.08271406,-0.012617032,1.2521046,0.052794404
0.0,0.1,0.8999999999999999,0.5235987755982988,0.5235987755982988,0,-0.23840064,1.2638361,0.0320011,-0.08601416,0.0463428,1.2772739,0.60217184,0.84969676,-1.8677554,0.043634504,-0.085103035,0.004837042,1.2581158,-0.08553392
0.0,0.1,0.8999999999999999,0.5235987755982988,0.5235987755982988,0,-0.23848838,1.2541726,0.049993433,-0.0794469,0.013774271,1.2804196,0.4525256,0.8363013,-1.8425809,0.01635863,-0.087792054,0.013796964,1.2514871,-0.5467498
0.0,0.1,0.8999999999999999,0.5235987755982988,0.5235987755982988,0,-0.23860867,1.2581246,-0.018632162,-0.08603885,-0.017880702,1.2820156,-0.013879522,0.8624802,-1.8420546,0.02591158,-0.077744775,-0.0066926517,1.253876,-0.4684306
0.0,0.1,0.8999999999999999,0.5235987755982988,0.5235987755982988,0,-0.23844771,1.2606137,0.058702797,-0.091691606,-0.010139759,1.273126,-0.048269328,0.8580638,-1.8587986,-0.005949345,-0.077774845,-0.01547762,1.2644573,-0.58234787
0.0,0.1,0.8999999999999999,0.5235987755982988,0.5235987755982988,0,-0.23844935,1.258461,-0.02251585,-0.08463976,0.03135312,1.2785912,0.83205545,0.8347222,-1.8437153,0.057194393,-0.09144423,-0.043577064,1.2591515,-1.1636066
0.0,0.1,0.8999999999999999,0.5235987755982988,0.5235987755982988,0,-0.23860283,1.2558991,0.07194742,-0.07826747,-0.075107664,1.2893895,-0.22633922,0.8462962,-1.8528911,0.05388803,-0.083990544,-0.019810816,1.2400254,-0.031508554
0.0,0.1,0.8999999999999999,0.5235987755982988,0.5235987755982988,0,-0.2385178,1.2579346,0.020623518,-0.08655193,0.012341149,1.2778594,-0.39468274,0.8457648,-1.8596003,0.016174518,-0.078788385,-0.05922777,1.2616144,-0.6142731
0.0,0.1,0.8999999999999999,0.5235987755982988,0.5235987755982988,0,-0.23863308,1.2521837,0.010504227,-0.07696945,0.043125603,1.2760384,-0.75818133,0.85531753,-1.8493204,0.025590813,-0.07557152,0.012587916,1.2589946,0.16367291
0.0,0.1,0.8999999999999999,0.5235987755982988,0.5235987755982988,0,-0.23839097,1.2632034,-0.00977863,-0.074247494,-0.012137087,1.2746046,0.06574949,0.8750842,-1.8560238,-0.026654763,-0.07763754,-0.05799467,1.2583482,0.0013049348
0.0,0.1,0.8999999999999999,0.5235987755982988,0.5235987755982988,0,-0.23865515,1.2589092,0.013262355,-0.07063658,0.033365685,1.2821958,-0.5485303,0.84055674,-1.853459,0.010183016,-0.07482579,-0.024257427,1.2559253,0.940586
0.0,0.1,0.8999999999999999,0.5235987755982988,0.5235987755982988,0,-0.23857948,1.2605631,0.03318811,-0.071006946,0.013692454,1.2766602,-1.4408255,0.8509267,-1.853001,0.010142593,-0.07345629,-0.026272032,1.2532232,1.808166
0.0,0.1,0.8999999999999999,0.5235987755982988,0.5235987755982988,0,-0.2382436,1.2563661,0.012420836,-0.07893383,0.03463955,1.2756582,0.09114202,0.85973936,-1.8439345,0.013115979,-0.08152502,-0.042620286,1.2492117,-0.29976058
0.0,0.1,0.8999999999999999,0.5235987755982988,0.5235987755982988,0,-0.2387522,1.2620071,0.051742945,-0.07199648,-0.0050586583,1.2769293,0.043622445,0.84573245,-1.8490915,-0.011776803,-0.073631585,-0.002359533,1.2523797,0.119892426
0.0,0.1,0.8999999999999999,0.5235987755982988,0.5235987755982988,0,-0.23841809,1.2583594,0.0018885781,-0.06794639,-0.011667528,1.2901706,-1.0153526,0.8639712,-1.8431673,0.020817358,-0.083933584,0.05215281,1.2583957,1.9160587
0.0,0.1,0.8999999999999999,0.5235987755982988,0.5235987755982988,0,-0.23873651,1.2569389,-0.021616355,-0.077896155,0.0061854054,1.2836553,0.9353585,0.8418348,-1.8663146,0.04448851,-0.08092045,-0.025305538,1.2623646,0.33751854
0.0,0.1,0.8999999999999999,0.5235987755982988,0.5235987755982988,0,-0.2383572,1.2674031,0.05223218,-0.07196733,0.024252104,1.2835935,-1.1562335,0.8569099,-1.8561256,0.007657308,-0.07493631,-0.038108755,1.2579144,0.8581495
0.0,0.1,0.8999999999999999,0.5235987755982988,0.5235987755982988,0,-0.2386505,1.2618542,0.0008593639,-0.084546946,-0.021930655,1.2818867,-0.56322783,0.85255176,-1.8433602,0.00061034487,-0.08490849,-0.041890644,1.2563199,0.07604604
0.0,0.1,0.8999999999999999,0.5235987755982988,0.5235987755982988,0,-0.2382698,1.266837,0.011345561,-0.07873905,0.0031655328,1.2716461,-0.6078151,0.8630145,-1.8462448,-0.0048536304,-0.07766823,0.038647547,1.2481356,1.6102982
0.0,0.1,0.8999999999999999,0.5235987755982988,0.5235987755982988,0,-0.2385928,1.2554313,-0.036949653,-0.08700875,-0.009476069,1.2727593,0.21041422,0.84434694,-1.8514092,0.0034729044,-0.07278281,-0.023517376,1.2546903,0.035296787
0.0,0.1,0.8999999999999999,0.5235987755982988,0.5235987755982988,0,-0.23843372,1.2564988,-0.011558865,-0.078554444,-0.00247672,1.2875185,-0.052520733,0.83551514,-1.8409551,0.028901346,-0.08423224,0.04318228,1.2624532,-0.63103163
0.0,0.1,0.8999999999999999,0.5235987755982988,0.5235987755982988,0,-0.23869175,1.2594498,0.029266758,-0.07318354,-0.008714083,1.2735547,-0.026182758,0.8603007,-1.8522955,0.004746099,-0.080257654,0.016986387,1.2614715,0.7647356
0.0,0.1,0.8999999999999999,0.5235987755982988,0.5235987755982988,0,-0.23831242,1.2655483,-0.043477315,-0.06250419,-0.0021482098,1.2854775,-0.23917879,0.87784976,-1.8568062,0.014575769,-0.07784778,0.011734395,1.2615687,1.7597313
0.0,0.1,0.8999999999999999,0.5235987755982988,0.5235987755982988,0,-0.23867583,1.2659295,-0.00046197057,-0.0837299,0.021536821,1.2663019,1.1226676,0.8563737,-1.8499116,0.011677636,-0.080166,0.0077041616,1.2479361,-0.1003101
0.0,0.1,0.8999999999999999,0.5235987755982988,0.5235987755982988,0,-0.23850247,1.2586288,-0.02195169,-0.08024643,-0.02162639,1.2742078,-0.39971912,0.8459843,-1.8517039,0.040067,-0.06911345,-0.019728603,1.2401972,0.29724526
0.0,0.1,0.8999999999999999,0.5235987755982988,0.5235987755982988,0,-0.23846692,1.256094,0.058746327,-0.08292459,0.0048894025,1.2816958,-1.293115,0.88095343,-1.8493035,0.042989165,-0.08460076,-0.042679224,1.2635192,1.0281233
0.0,0.1,0.8999999999999999,0.5235987755982988,0.5235987755982988,0,-0.23860386,1.2556378,0.016274905,-0.068223685,0.00040458786,1.272192,-0.87710387,0.88347894,-1.8589866,-0.0011129342,-0.06844989,-0.006596875,1.2529645,-1.2290773
0.0,0.1,0.8999999999999999,0.5235987755982988,0.5235987755982988,0,-0.23875572,1.2634324,0.0017756226,-0.07527111,0.022125518,1.2759748,-0.96088845,0.8449775,-1.8582613,-0.0005295066,-0.08459698,-0.09193214,1.2574856,-0.32851866
0.0,0.1,0.8999999999999999,0.5235987755982988,0.5235987755982988,0,-0.23842351,1.2530077,0.026885323,-0.06347072,0.01704139,1.2839847,-0.030198446,0.8588652,-1.8656498,0.025779035,-0.08483491,-0.014344989,1.2643781,-0.8086936
0.0,0.1,0.8999999999999999,0.5235987755982988,0.5235987755982988,0,-0.23845394,1.2523171,0.039824534,-0.07548183,-0.014245012,1.2782803,0.15080844,0.84271073,-1.8595483,-0.014344308,-0.0665658,0.005567294,1.2695054,-0.52411383
0.0,0.1,0.8999999999999999,0.5235987755982988,0.5235987755982988,0,-0.238464,1.2591486,-0.009487208,-0.09601309,-0.0040465365,1.2910966,0.2687012,0.8452388,-1.8706037,0.029759096,-0.08272992,0.00220046,1.262636,0.7080207
0.0,0.1,0.8999999999999999,0.5235987755982988,0.5235987755982988,0,-0.23851344,1.2593408,-0.027012512,-0.071947604,-0.024159642,1.2890496,-0.88764006,0.8438151,-1.8563483,0.008258397,-0.08329167,0.028553948,1.2586416,-0.49987346
0.0,0.1,0.8999999999999999,0.5235987755982988,0.5235987755982988,0,-0.23843797,1.2604681,-0.051542856,-0.07024732,-0.051903643,1.2755722,-0.22187474,0.85564506,-1.8536538,0.012801877,-0.07900854,-0.012450649,1.2597961,0.09516846
0.0,0.1,0.8999999999999999,0.5235987755982988,0.5235987755982988,0,-0.23849684,1.2613927,0.029339233,-0.07304261,0.00010958847,1.2841817,0.22110231,0.84720606,-1.8639532,-0.017980969,-0.07543084,-0.030527199,1.267943,0.4312374
0.0,0.1,0.8999999999999999,0.5235987755982988,0.5235987755982988,0,-0.23832321,1.2632949,-0.002867164,-0.08724404,-0.00097629766,1.2755097,-0.06449607,0.8683476,-1.8650924,0.037859883,-0.08512614,0.025105353,1.2590351,-0.99347866
0.0,0.1,0.8999999999999999,0.5235987755982988,0.5235987755982988,0,-0.2385046,1.2484115,0.0011822428,-0.069276966,0.012889319,1.2659596,-0.3964829,0.8535357,-1.8670703,-0.024022672,-0.07943049,0.038848694,1.2611517,0.60080093
0.0,0.1,0.8999999999999999,0.5235987755982988,0.5235987755982988,0,-0.23853712,1.2527213,-0.007844203,-0.083068974,0.048723113,1.2663277,-0.8082818,0.8599945,-1.8599348,0.00838381,-0.07499888,-0.023575617,1.258126,0.63771844
0.0,0.1,0.8999999999999999,0.5235987755982988,0.5235987755982988,0,-0.23854345,1.2686144,-0.0015430572,-0.09164593,-0.023997342,1.2808679,1.5263938,0.86332935,-1.86377,0.060901146,-0.07492231,0.049597885,1.2594438,0.15486273
0.0,0.1,0.8999999999999999,0.5235987755982988,0.5235987755982988,0,-0.23816632,1.2601578,0.033862595,-0.09323715,0.0004474798,1.2914169,-1.3164176,0.8649759,-1.8527479,0.027722944,-0.08042002,0.014266012,1.269534,-0.4808499
0.0,0.1,0.8999999999999999,0.5235987755982988,0.5235987755982988,0,-0.23862794,1.2658448,0.04768582,-0.08650838,0.035172142,1.2749995,0.09967085,0.8455599,-1.8533659,0.023924565,-0.08119082,-0.011888555,1.263347,0.31143937
0.0,0.1,0.8999999999999999,0.5235987755982988,0.5235987755982988,0,-0.23831302,1.2599194,0.023937732,-0.092913754,-0.008460831,1.2714442,0.049053,0.8530756,-1.8514892,0.06228129,-0.08844737,-0.025787713,1.2595615,-2.2044861
0.0,0.1,0.8999999999999999,0.5235987755982988,0.5235987755982988,0,-0.238491,1.2618375,-0.0011709369,-0.08151223,-0.004310945,1.2766998,-0.3812426,0.87704444,-1.8627204,0.03352479,-0.079064585,0.017020332,1.256734,0.10441613
0.0,0.1,0.8999999999999999,0.5235987755982988,0.5235987755982988,0,-0.23849934,1.2602401,0.0046531865,-0.09071612,-0.018069109,1.2682388,-2.0323086,0.855963,-1.8580725,0.03159671,-0.08832812,-0.007582426,1.2561986,0.7028249
0.0,0.1,0.8999999999999999,0.5235987755982988,0.5235987755982988,0,-0.23860586,1.2525805,0.0031761962,-0.08162459,-0.0022771836,1.2808268,-0.7975387,0.86167186,-1.8567705,0.01888189,-0.07595393,-0.018884884,1.2625072,-0.9229324
0.0,0.1,0.8999999999999999,0.5235987755982988,0.5235987755982988,0,-0.23841499,1.2602683,-0.03656901,-0.08523151,0.012321464,1.2713827,-0.46426776,0.85538435,-1.8706738,0.038317624,-0.09441388,-0.042904343,1.2463694,0.32812625
0.0,0.1,0.8999999999999999,0.5235987755982988,0.5235987755982988,0,-0.23836496,1.2622739,-0.041633867,-0.077240355,0.0053227902,1.2742479,0.547858,0.8473446,-1.8489606,0.061827086,-0.06947768,0.017872395,1.2532563,-0.63474536
0.0,0.1,0.8999999999999999,0.5235987755982988,0.5235987755982988,0,-0.23866853,1.262587,-0.014695224,-0.076908365,0.0014266813,1.2749184,-1.0449502,0.86726964,-1.8528421,0.0006764192,-0.0768178,-0.053698186,1.2515804,-0.52743226
0.0,0.1,0.8999999999999999,0.5235987755982988,0.5235987755982988,0,-0.23844776,1.255145,0.0044380706,-0.08011258,0.014254582,1.2637099,-1.2562835,0.84990746,-1.8634446,0.03285186,-0.08546314,-0.027783016,1.2600275,0.16061711
0.0,0.1,0.8999999999999999,0.5235987755982988,0.5235987755982988,0,-0.23879807,1.2623787,-0.019998556,-0.07820268,0.00974753,1.2684963,-1.3113449,0.85353434,-1.8535348,0.0019316247,-0.08326886,-0.012177297,1.2483687,0.27761266
0.0,0.1,0.8999999999999999,0.5235987755982988,0.5235987755982988,0,-0.23834968,1.2558619,-0.007823222,-0.092981294,0.03818464,1.2718024,0.11955047,0.85225993,-1.8611788,0.009795928,-0.08776623,-0.023012634,1.2626768,-0.30656162
0.0,0.1,0.8999999999999999,0.5235987755982988,0.5235987755982988,0,-0.23866494,1.2631588,-0.03850945,-0.08122861,-0.015307138,1.2813528,-0.8474758,0.84444714,-1.8754866,-0.020255232,-0.08545465,-0.03510632,1.2600104,0.5231526
0.0,0.1,0.8999999999999999,0.5235987755982988,0.5235987755982988,0,-0.23845285,1.2552283,0.050838973,-0.085588455,-0.05846578,1.283949,0.48501968,0.85969126,-1.8502796,-0.008542793,-0.087324165,0.0023274072,1.2620336,-0.23115174
0.0,0.1,0.8999999999999999,0.5235987755982988,0.5235987755982988,0,-0.23844019,1.2495086,-0.009882365,-0.089507475,0.005886449,1.272792,0.7779122,0.8606849,-1.8477901,0.008823799,-0.08255576,-0.018462885,1.2563684,0.6857629
0.0,0.1,0.8999999999999999,0.5235987755982988,0.5235987755982988,0,-0.23853964,1.2616816,-0.0049498193,-0.070723504,0.001070745,1.2780603,0.36993742,0.8513692,-1.844796,-0.021260295,-0.082840934,-0.032902163,1.2578328,-0.42025262
0.0,0.1,0.8999999999999999,0.5235987755982988,0.5235987755982988,0,-0.2382904,1.2756513,0.03762725,-0.06135377,-0.027737526,1.2755204,-0.961535,0.8654446,-1.8650235,-0.012943284,-0.0839669,0.0028227614,1.2553957,0.40414345
0.0,0.1,0.8999999999999999,0.5235987755982988,0.5235987755982988,0,-0.23867495,1.2601771,0.01894104,-0.07396739,-0.026910996,1.2697935,0.47685066,0.8432231,-1.8540536,0.023395387,-0.078215115,0.021591108,1.2700511,-0.816282
0.0,0.1,0.8999999999999999,0.5235987755982988,0.5235987755982988,0,-0.23867162,1.2526395,-0.029104618,-0.07518759,-0.0020332476,1.2820091,-0.8383557,0.84966457,-1.8607976,0.038670354,-0.08767504,0.034074947,1.2599798,-0.9231589
0.0,0.1,0.8999999999999999,0.5235987755982988,0.5235987755982988,0,-0.23863871,1.2607881,0.07481928,-0.09161498,0.0011758538,1.281946,0.27207097,0.85390896,-1.8552413,0.025811445,-0.0799177,-0.03533794,1.2561991,-1.4575896
0.0,0.1,0.8999999999999999,0.5235987755982988,0.5235987755982988,0,-0.23845926,1.2597406,-0.011117732,-0.096864484,0.019263014,1.2704448,-0.30732602,0.8583887,-1.8490195,0.0039637587,-0.07823217,-0.03669893,1.2495159,-1.2087976
0.0,0.1,0.8999999999999999,0.5235987755982988,0.5235987755982988,0,-0.23830128,1.2642938,0.016709762,-0.080514096,-0.018403308,1.2663972,0.4826292,0.8681641,-1.8493514,0.020897992,-0.08457126,0.024780825,1.2621392,-0.23709294
0.0,0.1,0.8999999999999999,0.5235987755982988,0.5235987755982988,0,-0.23836921,1.2634579,0.06153491,-0.070714615,-0.0091514615,1.2786185,-1.2910266,0.8437371,-1.8485641,-0.007311342,-0.0817335,0.0021891291,1.2401315,0.73199207
0.0,0.1,0.8999999999999999,0.5235987755982988,0.5235987755982988,0,-0.23843405,1.2624109,-0.007699528,-0.082826614,0.0064423825,1.2762672,-0.19852039,0.86556464,-1.860207,0.008765823,-0.07798405,-0.025308466,1.2620442,1.0302114
0.0,0.1,0.8999999999999999,0.5235987755982988,0.5235987755982988,0,-0.23854916,1.2703072,0.016417824,-0.09231075,0.019473663,1.2788,-0.43488532,0.87781435,-1.8521006,0.028079532,-0.07101656,-0.027779037,1.2513418,-0.0086910045
0.0,0.1,0.8999999999999999,0.5235987755982988,0.5235987755982988,0,-0.23835294,1.2586491,0.00031997103,-0.07857593,-0.030611802,1.2813902,-0.617884,0.8699515,-1.8596219,-0.010275849,-0.08279006,0.0074022585,1.2587178,0.34648475
0.0,0.1,0.8999999999999999,0.5235987755982988,0.5235987755982988,0,-0.23850146,1.2614025,0.039832998,-0.073408395,-0.006470579,1.2844796,-0.6492163,0.8650209,-1.8497698,-0.0019915137,-0.08222661,-0.014996892,1.2525842,0.5725189
0.0,0.1,0.8999999999999999,0.5235987755982988,0.5235987755982988,0,-0.23836532,1.2682518,0.005858928,-0.08827618,-0.01653304,1.2746209,-1.0680188,0.8588231,-1.8552898,0.011420991,-0.08123439,0.0123406835,1.2698094,0.4619548
0.0,0.1,0.8999999999999999,0.5235987755982988,0.5235987755982988,0,-0.23864332,1.2612553,0.0050265333,-0.07171847,0.00024156143,1.264397,1.55133,0.8505093,-1.8517795,0.006314597,-0.08493352,-0.002513106,1.2546884,0.7192404
0.0,0.1,0.8999999999999999,0.5235987755982988,0.5235987755982988,0,-0.23861998,1.2635456,-0.03978993,-0.07392908,-0.011957862,1.2691684,-0.7035801,0.8477835,-1.844618,-0.0017696392,-0.08550033,-0.01908957,1.2475263,0.83270067
0.0,0.1,0.8999999999999999,0.5235987755982988,0.5235987755982988,0,-0.23841047,1.2674634,0.053389873,-0.071899824,0.029386938,1.2753881,0.025921836,0.8447064,-1.8623681,0.0041536344,-0.08456677,-0.03183346,1.2572452,0.5015426
0.0,0.1,0.8999999999999999,0.5235987755982988,0.5235987755982988,0,-0.2381097,1.255065,0.014404074,-0.077724576,0.02369686,1.2636606,0.827373,0.849357,-1.8688523,0.049232822,-0.08077005,-0.050529625,1.2581352,-0.16245121
0.0,0.1,0.8999999999999999,0.5235987755982988,0.5235987755982988,0,-0.23842467,1.2633847,0.03504882,-0.09865178,0.01489686,1.2676022,-2.040425,0.8383496,-1.867021,0.020267708,-0.084881105,0.006541965,1.2621673,0.626884
0.0,0.1,0.8999999999999999,0.5235987755982988,0.5235987755982988,0,-0.23842856,1.2623054,-0.0065413164,-0.09271065,-0.023091406,1.2829655,-0.43097723,0.8577612,-1.8514842,0.009445634,-0.08432136,-0.051392578,1.254588,-0.3755248
0.0,0.1,0.8999999999999999,0.5235987755982988,0.5235987755982988,0,-0.23839864,1.2605505,0.027703578,-0.07645909,0.0064891023,1.2679797,-0.3646165,0.8676696,-1.8544713,-0.006788201,-0.074158534,-0.014800885,1.2526406,-0.17537399
0.0,0.1,0.8999999999999999,0.5235987755982988,0.5235987755982988,0,-0.23835243,1.2614567,-0.028475484,-0.08062879,0.0039214967,1.2776083,-0.04741833,0.8486024,-1.8512415,0.027739255,-0.07663077,0.030100768,1.2618177,1.5178487
0.0,0.1,0.8999999999999999,0.5235987755982988,0.5235987755982988,0,-0.23849273,1.2680448,0.019407861,-0.08052788,-0.00556251,1.2850224,0.22417127,0.8590228,-1.8487977,0.003916626,-0.081753835,0.04016768,1.2567312,-0.032031063
0.0,0.1,0.8999999999999999,0.5235987755982988,0.5235987755982988,0,-0.23820461,1.2584573,0.0012089694,-0.078981675,0.005489466,1.2695444,-0.26229066,0.86413836,-1.8525738,-0.00079604227,-0.073396534,-0.004843979,1.2665976,-0.09654168
0.0,0.1,0.8999999999999999,0.5235987755982988,0.5235987755982988,0,-0.23817599,1.2646095,-0.016650837,-0.09048094,0.023038829,1.2805512,-0.52202034,0.8704626,-1.8511443,0.013130478,-0.07843047,-0.0068140132,1.2684839,0.3060767
0.0,0.1,0.8999999999999999,0.5235987755982988,0.5235987755982988,0,-0.23800412,1.2535535,0.0011430252,-0.088122144,0.023253685,1.2764891,-0.7207296,0.8585224,-1.8436158,0.037940383,-0.07786896,0.019374147,1.2723358,-0.7045055
0.0,0.1,0.8999999999999999,0.5235987755982988,0.5235987755982988,0,-0.2379585,1.2614232,0.04306389,-0.0642237,0.0016279106,1.2661492,-0.6197163,0.8449233,-1.8584939,-0.0004946105,-0.079234704,0.0014183555,1.2554417,-0.4075055
0.0,0.1,0.8999999999999999,0.5235987755982988,0.5235987755982988,0,-0.23819196,1.2684278,0.008396162,-0.0812979,-0.024617024,1.2714629,-0.8583159,0.8534654,-1.8598067,0.011697547,-0.07861274,0.013066936,1.2545425,-0.22271007
0.0,0.1,0.8999999999999999,0.5235987755982988,0.5235987755982988,0,-0.23807868,1.2601236,0.029428078,-0.103364594,0.012960546,1.2903576,-0.9478769,0.85805106,-1.8577449,0.03664023,-0.07881376,-0.05135444,1.2608553,0.1985677
0.0,0.1,0.8999999999999999,0.5235987755982988,0.5235987755982988,0,-0.23889482,1.2681092,-7.62527e-05,-0.08105733,0.019694066,1.2832375,-0.20026974,0.8521792,-1.8637203,0.0048910864,-0.09190658,-0.0071697575,1.2720472,1.3590181
0.0,0.1,0.8999999999999999,0.5235987755982988,0.5235987755982988,0,-0.23833123,1.2680666,0.095182605,-0.08411262,0.051309347,1.2877407,-0.63989836,0.8510253,-1.8673279,0.005989078,-0.07752451,-0.046212558,1.252654,1.1241894
0.0,0.1,0.8999999999999999,0.5235987755982988,0.5235987755982988,0,-0.23846534,1.2580338,-0.027761946,-0.08662049,-0.03181641,1.2808148,0.67419726,0.85570395,-1.8493476,-0.002232557,-0.07191563,-0.02466825,1.2532758,0.26362
0.0,0.1,0.8999999999999999,0.5235987755982988,0.5235987755982988,0,-0.23874985,1.2543746,0.009696423,-0.07338226,-0.021290088,1.2821456,-0.98764926,0.8460079,-1.8416063,0.02969733,-0.0848357,-0.0045298995,1.2486295,0.58467054
0.0,0.1,0.8999999999999999,0.5235987755982988,0.5235987755982988,0,-0.23862775,1.2593817,0.043377426,-0.076219834,-0.047640055,1.2782921,-0.50431377,0.8433778,-1.8631169,0.0041244677,-0.08159159,-0.0033636503,1.2521005,1.5204983
0.0,0.1,0.8999999999999999,0.5235987755982988,0.5235987755982988,0,-0.23837881,1.2577899,-0.028899716,-0.07562392,-0.005397792,1.2708993,0.8055013,0.85628307,-1.867031,0.017168839,-0.08029444,0.0025001788,1.2610826,-1.8191055
0.0,0.1,0.8999999999999999,0.5235987755982988,0.5235987755982988,0,-0.23845717,1.2701036,-0.024786018,-0.082565136,0.015579991,1.2873577,-0.45270997,0.870048,-1.8492875,0.04063905,-0.07966027,-0.056795392,1.2381067,0.0027898683
0.0,0.1,0.8999999999999999,0.5235987755982988,0.5235987755982988,0,-0.238806,1.2528013,-0.043926645,-0.07935596,0.015398237,1.277041,0.29931688,0.8447099,-1.8511382,0.024993982,-0.08121647,-0.008974581,1.2593102,1.0689456
0.0,0.1,0.8999999999999999,0.5235987755982988,0.5235987755982988,0,-0.23879044,1.2747276,0.0069630374,-0.090332985,0.048148166,1.2793053,-0.07258272,0.85123724,-1.8476778,-0.0344085,-0.08458886,-0.053433426,1.2475922,-0.19834748
0.0,0.1,0.8999999999999999,0.5235987755982988,0.5235987755982988,0,-0.23875675,1.2595637,-0.06069028,-0.07772814,0.044975054,1.2886953,-0.05900842,0.8570436,-1.8511024,0.021935083,-0.080461495,-0.0800264,1.2536403,-0.760531
0.0,0.1,0.8999999999999999,0.5235987755982988,0.5235987755982988,0,-0.23872565,1.2563207,0.017095396,-0.069657676,0.012236743,1.2855307,0.37237617,0.8409244,-1.8453056,0.04528136,-0.08856007,-0.013118522,1.2567005,0.6635215
0.0,0.1,0.8999999999999999,0.5235987755982988,0.5235987755982988,0,-0.2387944,1.2608804,0.027147679,-0.086498685,-0.016735869,1.2798198,0.98234737,0.84720737,-1.8561279,0.030936722,-0.08686126,-0.021504687,1.2527741,0.6873381
0.0,0.1,0.8999999999999999,0.5235987755982988,0.5235987755982988,0,-0.23837735,1.2542214,0.044745624,-0.08214793,-0.042367153,1.2742699,0.09049231,0.8665483,-1.8485973,0.028038975,-0.07166596,-0.031668473,1.2592177,-0.9981749
0.0,0.1,0.8999999999999999,0.5235987755982988,0.5235987755982988,0,-0.23858036,1.2486428,0.017611237,-0.08150505,0.012354262,1.2713598,-1.0960966,0.8532765,-1.8442105,0.04450457,-0.076728284,-0.06511189,1.2521439,-0.8331124
0.0,0.1,0.8999999999999999,0.5235987755982988,0.5235987755982988,0,-0.23836625,1.2596227,0.048947006,-0.07497798,-0.0017848681,1.2822492,0.46845147,0.8364377,-1.8467308,-0.011706733,-0.077044025,-0.022469327,1.2481093,-0.123330735
0.0,0.1,0.8999999999999999,0.5235987755982988,0.5235987755982988,0,-0.23876859,1.2643096,0.012962129,-0.0789674,-0.014145304,1.2684339,0.8138776,0.85843897,-1.8591431,-0.022514736,-0.08709794,-0.04159963,1.2640575,-0.016133813
0.0,0.1,0.8999999999999999,0.5235987755982988,0.5235987755982988,0,-0.23823349,1.2660474,-0.042091783,-0.09387904,-0.03140747,1.2921222,-1.1390973,0.8674733,-1.8413159,0.04191287,-0.08009836,-0.039941743,1.2590613,0.36129254
0.0,0.1,0.8999999999999999,0.5235987755982988,0.5235987755982988,0,-0.23855047,1.260359,0.029233834,-0.0803118,0.02384868,1.2763286,-0.6659669,0.84134555,-1.8752135,0.0125370575,-0.08488805,-0.0038632313,1.2568502,0.09620753
0.0,0.1,0.8999999999999999,0.5235987755982988,0.5235987755982988,0,-0.23853016,1.261405,0.012072212,-0.08048319,-0.06543109,1.2746638,-1.7446185,0.8414824,-1.8466585,0.031984087,-0.07465692,-0.041361853,1.2605326,0.50733817
0.0,0.1,0.8999999999999999,0.5235987755982988,0.5235987755982988,0,-0.23874258,1.2698184,-0.0040752096,-0.09145696,-0.0010932758,1.2792494,-0.31736138,0.8423756,-1.8422749,0.017025908,-0.080969416,-0.053651813,1.2613482,-0.81412196
0.0,0.1,0.8999999999999999,0.5235987755982988,0.5235987755982988,0,-0.23824443,1.2597777,-0.022606691,-0.07346468,0.04018385,1.2775322,0.58047545,0.83898634,-1.8698186,0.023088053,-0.08265693,-0.034613337,1.2541966,0.47251338
0.0,0.1,0.8999999999999999,0.5235987755982988,0.5235987755982988,0,-0.23854078,1.2584053,-0.007158617,-0.06534751,-0.03085,1.2659955,-0.32798934,0.85606956,-1.8510437,0.018930705,-0.09127493,0.016148407,1.264413,-0.13044897
0.0,0.1,0.8999999999999999,0.5235987755982988,0.5235987755982988,0,-0.23839056,1.2621416,0.007695122,-0.08110256,0.021415725,1.2674176,0.24400976,0.84510857,-1.8587438,-0.0030006098,-0.08178188,-0.014966125,1.24811,0.41753358
0.0,0.1,0.8999999999999999,0.5235987755982988,0.5235987755982988,0,-0.23848389,1.2591605,0.010256105,-0.08583116,0.011379149,1.281151,-0.8439864,0.8520778,-1.8502599,0.010138786,-0.08952328,0.015606258,1.2602847,-0.3087049
0.0,0.1,0.8999999999999999,0.5235987755982988,0.5235987755982988,0,-0.23847845,1.265642,-0.0049451278,-0.08911894,0.0032902597,1.27279,0.24140453,0.8571962,-1.8708178,-0.029380813,-0.080904394,-0.043052398,1.2489526,0.33322924
0.0,0.1,0.8999999999999999,0.5235987755982988,0.5235987755982988,0,-0.2384686,1.2637355,-0.016454356,-0.08185495,0.013752398,1.27216,-1.1880845,0.8611989,-1.8471437,0.030159002,-0.070454545,-0.025717402,1.2710234,1.2955844
0.0,0.1,0.8999999999999999,0.5235987755982988,0.5235987755982988,0,-0.23837465,1.2546353,-0.00046370339,-0.07373548,-0.0040934253,1.2828205,0.42815486,0.837619,-1.8534477,0.032838404,-0.079700716,-0.035279505,1.2405427,0.7491607
0.0,0.1,0.8999999999999999,0.5235987755982988,0.5235987755982988,0,-0.23854543,1.2567942,0.05362614,-0.08745403,0.020613214,1.2769127,0.2418627,0.8554108,-1.8705343,-0.014835077,-0.072643116,-0.034220625,1.2520468,-0.83327734
0.0,0.1,0.8999999999999999,0.5235987755982988,0.5235987755982988,0,-0.23847508,1.2575028,0.039024472,-0.08849086,0.018284885,1.2718265,0.26964545,0.85779685,-1.8623556,0.0046412484,-0.08347737,0.036136784,1.257141,1.0161215
0.0,0.1,0.8999999999999999,0.5235987755982988,0.5235987755982988,0,-0.23848487,1.2546341,0.0029206676,-0.078673564,0.03755177,1.2817941,1.0218854,0.85609037,-1.8523198,0.043188885,-0.075516924,-0.01658643,1.2636186,-0.22392067
0.0,0.1,0.8999999999999999,0.5235987755982988,0.5235987755982988,0,-0.23830256,1.2577171,-0.019934935,-0.0976883,-0.0069274306,1.276764,0.07736525,0.85483044,-1.8582451,0.019529242,-0.091571294,0.02409837,1.2572149,1.2461526
0.0,0.1,0.8999999999999999,0.5235987755982988,0.5235987755982988,0,-0.23823582,1.2693101,0.015945101,-0.08259468,0.010759407,1.2875025,-0.70077366,0.84360665,-1.8512739,0.035094913,-0.08569292,0.0076872446,1.2647069,-0.21318701
0.0,0.1,0.8999999999999999,0.5235987755982988,0.5235987755982988,0,-0.23822574,1.2566367,-0.007388274,-0.09047918,-9.059765e-05,1.2720243,-1.1620467,0.86383575,-1.855586,0.034586906,-0.084670626,-0.024108727,1.2737823,-1.3519078
0.0,0.1,0.8999999999999999,0.5235987755982988,0.5235987755982988,0,-0.23841193,1.2705531,0.0060649235,-0.080711745,-0.012694478,1.2711086,0.24124824,0.83057535,-1.8618363,0.07211798,-0.07525309,-0.0066157603,1.2583196,0.70310843
0.0,0.1,0.8999999999999999,0.5235987755982988,0.5235987755982988,0,-0.23816739,1.2539436,0.013158009,-0.07160614,-0.031443864,1.2784967,0.14715528,0.8711036,-1.8507183,0.035086308,-0.07269979,-0.06586857,1.2594645,-0.30717552
0.0,0.1,0.8999999999999999,0.5235987755982988,0.5235987755982988,0,-0.23901652,1.2666117,-0.0083572725,-0.09341846,-0.012428531,1.2782563,-1.4310719,0.83838785,-1.8559506,0.031484306,-0.08063078,0.028441684,1.2500875,-0.2288252
0.0,0.1,0.8999999999999999,0.5235987755982988,0.5235987755982988,0,-0.23870328,1.2670858,-0.0026389398,-0.08378519,-0.0052968785,1.2903689,-0.4169927,0.8524748,-1.851877,0.042351875,-0.082662776,-0.019949837,1.2650398,-0.84915733
0.0,0.1,0.8999999999999999,0.5235987755982988,0.5235987755982988,0,-0.2386464,1.2547723,-0.0025525617,-0.07606202,0.019559229,1.2701733,-0.6914574,0.8435261,-1.8578253,0.024006283,-0.07814498,0.039142,1.248326,-0.17347316
0.0,0.1,0.8999999999999999,0.5235987755982988,0.5235987755982988,0,-0.23858193,1.2672484,-0.014458419,-0.07655397,-0.03707542,1.278023,-0.844336,0.85638434,-1.8379819,0.03339235,-0.0785164,-0.025107473,1.2616245,0.5359463
0.0,0.1,0.8999999999999999,0.5235987755982988,0.5235987755982988,0,-0.23843165,1.2494137,-0.004420205,-0.07168178,0.0046870452,1.2824433,-0.56834185,0.8667384,-1.8518335,0.0065030637,-0.085131325,-0.014057079,1.2619885,0.9044699
0.0,0.1,0.8999999999999999,0.5235987755982988,0.5235987755982988,0,-0.23856199,1.263214,0.01453343,-0.070615105,-0.028824745,1.273778,0.06358663,0.848698,-1.8573711,-0.0023726244,-0.07930332,-0.03674368,1.267643,0.62436557
0.0,0.1,0.8999999999999999,0.5235987755982988,0.5235987755982988,0,-0.23856315,1.2544334,0.0057716793,-0.08825133,-0.0034713484,1.2738558,-0.20647992,0.85452896,-1.8600651,0.014639321,-0.07253332,0.012500744,1.2549089,-0.13942704
0.0,0.1,0.8999999999999999,0.5235987755982988,0.5235987755982988,0,-0.23855782,1.2576234,-0.034885414,-0.082887456,0.02859197,1.2704167,-1.2013557,0.85829467,-1.8460753,-0.0072323293,-0.071829565,0.031173423,1.2780098,0.35488623
0.0,0.1,0.8999999999999999,0.5235987755982988,0.5235987755982988,0,-0.23862183,1.2542477,0.012946122,-0.08313505,0.016378298,1.2845625,0.45514426,0.8521971,-1.8534635,0.017663011,-0.06997788,0.012284515,1.2494613,-0.047782183
