sanky1234/BimanualDexCatch/isaacgymenvs/cem_results/football_pose_0.0_0.1_1.4_0.0_0.5235987755982988_0_2025-05-26.csv
x,y,z,roll,pitch,yaw,robot1/joint1,robot1/joint2,robot1/joint3,robot1/joint4,robot1/joint5,robot1/joint6,robot1/joint7,robot2/joint1,robot2/joint2,robot2/joint3,robot2/joint4,robot2/joint5,robot2/joint6,robot2/joint7
0.0,0.1,1.4,0.0,0.5235987755982988,0,0.15943539,-0.4454044,-0.011749896,0.14722839,-0.76390505,1.4756176,-0.4554074,1.6657246,1.3047302,-0.11829225,-0.0719069,-0.008431425,1.2558372,0.11585512
0.0,0.1,1.4,0.0,0.5235987755982988,0,0.15913676,-0.44535375,-0.011656149,0.11425259,-0.7940535,1.503381,0.65098596,1.6948569,1.3088073,0.04019731,-0.063301325,0.02866444,1.2964028,-0.12411486
0.0,0.1,1.4,0.0,0.5235987755982988,0,0.15906638,-0.44545108,-0.0098097855,0.14368837,-0.8890273,1.4911398,1.0472559,1.5774734,1.2571613,-0.12643375,-0.09944551,0.02345598,1.2464156,-0.7932417
0.0,0.1,1.4,0.0,0.5235987755982988,0,0.15949385,-0.44543964,-0.012554466,0.13299115,-0.753884,1.4694233,-0.51801175,1.6578951,1.2588407,0.027683528,-0.10214436,-0.0039705834,1.2433501,-0.028953178
0.0,0.1,1.4,0.0,0.5235987755982988,0,0.15877885,-0.44537187,-0.011843473,0.12429609,-0.87871546,1.4738363,0.26621822,1.6273748,1.3067774,-0.026480848,-0.086440906,0.10806306,1.2446038,0.39477566
0.0,0.1,1.4,0.0,0.5235987755982988,0,0.15995458,-0.44556496,-0.011223217,0.14649485,-0.8055477,1.472359,0.22272101,1.6401278,1.2863878,0.05067069,-0.051253967,0.099282116,1.2730519,1.1872785
0.0,0.1,1.4,0.0,0.5235987755982988,0,0.15963197,-0.4454878,-0.011211341,0.12133114,-0.81458783,1.5178461,0.1214963,1.5200036,1.284356,0.019760486,-0.08244586,0.07101126,1.2608755,-1.7167306
0.0,0.1,1.4,0.0,0.5235987755982988,0,0.15918767,-0.44542798,-0.011608779,0.117279336,-0.7542699,1.4431369,0.66412735,1.678768,1.2959485,-0.026592579,-0.06509684,-0.0008128631,1.2853223,0.067361325
0.0,0.1,1.4,0.0,0.5235987755982988,0,0.15864688,-0.44550946,-0.010908885,0.1468302,-0.9332323,1.5449607,-0.010220879,1.6080886,1.3003607,0.03771128,-0.07820739,0.021548843,1.2591244,0.22349992
0.0,0.1,1.4,0.0,0.5235987755982988,0,0.15865542,-0.4453352,-0.010883858,0.108498536,-0.66648895,1.4902,0.018216373,1.5863407,1.3385035,0.01904954,-0.083243236,0.011254653,1.2907381,-0.3628356
0.0,0.1,1.4,0.0,0.5235987755982988,0,0.1594575,-0.44545132,-0.010615041,0.1235066,-0.9271648,1.4691815,0.7732161,1.6246644,1.3079382,0.12263522,-0.07000785,-0.011342952,1.2366929,-0.4848129
0.0,0.1,1.4,0.0,0.5235987755982988,0,0.15911494,-0.44553965,-0.0119749885,0.123854876,-0.8221062,1.4906605,0.067725234,1.6790774,1.2344506,0.05386782,-0.08784129,0.08400346,1.2902933,-0.08051363
0.0,0.1,1.4,0.0,0.5235987755982988,0,0.16053301,-0.4455224,-0.0094431,0.13092482,-0.91026926,1.5322766,1.3215854,1.4521012,1.2755895,-0.006878282,-0.10487523,0.050891154,1.2687517,-0.94169325
0.0,0.1,1.4,0.0,0.5235987755982988,0,0.15952408,-0.44544685,-0.009892638,0.12458016,-0.9175992,1.480236,-0.22098236,1.6238986,1.2950137,0.18347882,-0.11897803,-0.018023215,1.2649727,-1.9722372
0.0,0.1,1.4,0.0,0.5235987755982988,0,0.15854429,-0.44529316,-0.011863905,0.13915335,-0.8229001,1.5151739,-1.1545813,1.6444385,1.27355,0.024487766,-0.113560125,-0.015340824,1.2677206,-0.011018835
0.0,0.1,1.4,0.0,0.5235987755982988,0,0.15988146,-0.44558707,-0.009285771,0.12530756,-0.84123224,1.524723,0.06554706,1.5864202,1.324923,0.03046398,-0.053139303,0.103409074,1.2337703,-1.0129735
0.0,0.1,1.4,0.0,0.5235987755982988,0,0.1600171,-0.44543207,-0.011007548,0.12275187,-0.7629226,1.4469386,0.37281626,1.6289947,1.2692833,-0.048663165,-0.091304235,0.009410911,1.2502246,0.5070327
0.0,0.1,1.4,0.0,0.5235987755982988,0,0.15975715,-0.44544256,-0.010887629,0.123816505,-0.7130099,1.4681269,0.12305194,1.6589072,1.2381699,0.10226349,-0.080842346,-0.027173622,1.253687,0.72724646
0.0,0.1,1.4,0.0,0.5235987755982988,0,0.15977484,-0.4454715,-0.013105026,0.10645554,-0.8833161,1.5180427,-0.28795952,1.672415,1.2137351,0.08936739,-0.1100167,0.04071703,1.2486953,0.7883219
0.0,0.1,1.4,0.0,0.5235987755982988,0,0.16043665,-0.4455665,-0.011348491,0.10669381,-0.8135252,1.4776355,-0.31075662,1.664664,1.377143,0.080593996,-0.094635494,0.0039512194,1.2964506,-0.432345
0.0,0.1,1.4,0.0,0.5235987755982988,0,0.1604318,-0.44554934,-0.010443601,0.117290735,-0.74359787,1.4637063,0.8366729,1.64705,1.2979574,0.0013746177,-0.072212376,-0.0044031898,1.259233,-0.113856874
0.0,0.1,1.4,0.0,0.5235987755982988,0,0.15908538,-0.44518533,-0.01178334,0.14025451,-0.8562889,1.4369335,-0.6536284,1.6100055,1.3284886,0.018065827,-0.1259257,0.08448278,1.2584267,-0.035210334
0.0,0.1,1.4,0.0,0.5235987755982988,0,0.15986115,-0.44549286,-0.011034583,0.12902248,-0.8191311,1.468507,0.6510307,1.622247,1.3102682,-0.020260306,-0.110468,0.011992078,1.2328944,0.00620651
0.0,0.1,1.4,0.0,0.5235987755982988,0,0.15894268,-0.44531813,-0.010863654,0.120452,-0.89822656,1.4753361,-0.3640923,1.6257296,1.3008779,0.002639413,-0.09882071,-0.017230522,1.2585429,-1.9368576
0.0,0.1,1.4,0.0,0.5235987755982988,0,0.15946986,-0.44551814,-0.010617906,0.11617404,-0.8526237,1.539365,-0.8397874,1.6680324,1.2663511,0.041023947,-0.05930198,0.027426453,1.2325292,-1.1781038
0.0,0.1,1.4,0.0,0.5235987755982988,0,0.15888259,-0.4453782,-0.013629013,0.11315118,-0.83553433,1.524991,0.29199296,1.6132598,1.2965211,0.049084637,-0.116927505,0.085402586,1.2618078,-1.7494278
0.0,0.1,1.4,0.0,0.5235987755982988,0,0.1595118,-0.44549954,-0.011031203,0.11041712,-0.85245425,1.4723564,0.9510955,1.5556316,1.3222373,0.010993015,-0.119446434,0.035481505,1.2885914,-0.31932783
0.0,0.1,1.4,0.0,0.5235987755982988,0,0.15987255,-0.4454359,-0.01012968,0.12596129,-0.9006203,1.4181486,-0.3337315,1.6165951,1.3572283,0.06464767,-0.0727528,0.0068693846,1.2832798,-0.48488876
0.0,0.1,1.4,0.0,0.5235987755982988,0,0.15966038,-0.4454476,-0.010595071,0.13722417,-0.7745331,1.5319997,1.0551592,1.6123587,1.312591,0.036329374,-0.07862049,-0.057476547,1.2523649,-0.59935224
0.0,0.1,1.4,0.0,0.5235987755982988,0,0.15936933,-0.44552207,-0.011366235,0.13220882,-0.9478055,1.5244792,0.95436835,1.6662192,1.3265144,0.047691483,-0.07871741,-0.12778245,1.2448103,-1.18171
0.0,0.1,1.4,0.0,0.5235987755982988,0,0.15970567,-0.4454231,-0.01056823,0.104014,-0.8228426,1.5132418,0.672428,1.5876801,1.3500609,0.0479335,-0.06945054,0.004948471,1.2712953,-1.6180668
0.0,0.1,1.4,0.0,0.5235987755982988,0,0.15987724,-0.4454545,-0.011178968,0.11104703,-0.68567,1.4909178,0.28272367,1.6092764,1.2902898,0.085740395,-0.09042971,0.008291202,1.2675141,-0.83185244
0.0,0.1,1.4,0.0,0.5235987755982988,0,0.16001806,-0.44556427,-0.012159791,0.14808172,-0.7920755,1.4983283,-0.23684466,1.5652108,1.20994,0.061564766,-0.09035691,-0.101953134,1.2995979,-1.1410999
0.0,0.1,1.4,0.0,0.5235987755982988,0,0.15871081,-0.4453989,-0.012730069,0.117401876,-0.8744618,1.4862254,0.13419643,1.5684336,1.305902,-0.056771785,-0.09618722,0.13181473,1.2579432,-1.7405179
0.0,0.1,1.4,0.0,0.5235987755982988,0,0.16004875,-0.4454636,-0.010821937,0.12672657,-0.7228351,1.4745178,-0.31132346,1.6376326,1.2741506,0.037929885,-0.09396899,0.086480044,1.2505782,-0.734103
0.0,0.1,1.4,0.0,0.5235987755982988,0,0.15954584,-0.4454616,-0.011645721,0.1416743,-0.8863331,1.4969178,0.3922025,1.5501539,1.27744,-0.12812597,-0.06453608,0.09640957,1.263228,0.20104237
0.0,0.1,1.4,0.0,0.5235987755982988,0,0.15978794,-0.44542092,-0.011639101,0.13741486,-0.7807575,1.464453,0.6838384,1.5093718,1.2784235,-0.04284892,-0.0815477,0.19309103,1.2467597,-1.1571748
0.0,0.1,1.4,0.0,0.5235987755982988,0,0.15873756,-0.44529295,-0.012451107,0.11424356,-0.8793914,1.4870466,1.0109634,1.5594062,1.2061818,0.010897708,-0.10866176,0.023454444,1.2682128,-1.2906227
0.0,0.1,1.4,0.0,0.5235987755982988,0,0.16007026,-0.44547737,-0.011868341,0.14696692,-0.8060069,1.4504658,0.46012127,1.5812471,1.277089,0.015036102,-0.115502566,0.07894166,1.2638875,-0.29521164
0.0,0.1,1.4,0.0,0.5235987755982988,0,0.15962291,-0.44545642,-0.011315547,0.12878495,-0.73561054,1.5027555,-0.6510555,1.6196548,1.3073902,-0.020533333,-0.078773074,0.09118672,1.2560453,-0.37173486
0.0,0.1,1.4,0.0,0.5235987755982988,0,0.15946461,-0.4454751,-0.0122843,0.15191148,-0.7388097,1.4827136,0.6403009,1.5487336,1.2817785,0.024106888,-0.07767145,0.026820067,1.2390082,-1.0121622
0.0,0.1,1.4,0.0,0.5235987755982988,0,0.15995963,-0.44542533,-0.012531577,0.1304472,-1.0050936,1.5006555,0.48423907,1.6459589,1.2812123,0.12817882,-0.110342145,0.049270105,1.2964425,-1.8761241
0.0,0.1,1.4,0.0,0.5235987755982988,0,0.15893577,-0.44535324,-0.012636934,0.14324977,-0.7269067,1.4968846,0.44992524,1.6900047,1.3292717,-0.06931862,-0.10470351,0.019803263,1.279728,-0.6010342
0.0,0.1,1.4,0.0,0.5235987755982988,0,0.15869607,-0.4454567,-0.012035287,0.14854231,-0.6919331,1.4255081,-0.2275029,1.6409125,1.2678701,0.18294899,-0.08061973,-0.02343236,1.2746044,-0.094562106
0.0,0.1,1.4,0.0,0.5235987755982988,0,0.15918441,-0.4453906,-0.01223658,0.14309417,-0.844244,1.4703567,0.23305327,1.5860478,1.3098323,0.080858275,-0.08442303,0.045532458,1.2803814,0.26138383
0.0,0.1,1.4,0.0,0.5235987755982988,0,0.1601235,-0.4453755,-0.011059141,0.13103697,-0.70545053,1.500578,0.51182485,1.5905029,1.2634838,-0.031660445,-0.12084809,0.027188668,1.2801535,-0.2772582
0.0,0.1,1.4,0.0,0.5235987755982988,0,0.15861055,-0.44537905,-0.011743172,0.11973807,-0.8421879,1.539329,-0.12610254,1.697799,1.3058217,-0.035391327,-0.08223047,0.0011934402,1.280182,-1.0227435
0.0,0.1,1.4,0.0,0.5235987755982988,0,0.15987259,-0.4453475,-0.012035532,0.11750903,-0.87472856,1.5247463,-0.60465705,1.5549923,1.3468137,0.10892433,-0.10471961,-0.016577335,1.2412448,1.8504305
0.0,0.1,1.4,0.0,0.5235987755982988,0,0.15931588,-0.44540355,-0.012398738,0.10660763,-0.7966631,1.5095496,0.83555126,1.6010942,1.2976502,0.033935793,-0.08157868,-0.112792715,1.2369971,1.6967728
0.0,0.1,1.4,0.0,0.5235987755982988,0,0.15895304,-0.4452776,-0.011034435,0.13853869,-0.706498,1.5070649,-0.20607488,1.5839232,1.2613193,0.09041603,-0.06337473,-0.080044776,1.2521033,-2.0715334
0.0,0.1,1.4,0.0,0.5235987755982988,0,0.1596551,-0.44540074,-0.009907171,0.13596511,-0.9345714,1.4774387,0.13744918,1.6480248,1.3630757,-0.04831458,-0.06836223,-0.046477627,1.2716734,-0.90994096
0.0,0.1,1.4,0.0,0.5235987755982988,0,0.16005233,-0.44543794,-0.010389075,0.124234065,-0.8662196,1.4775826,0.85650146,1.665991,1.2936562,0.07625915,-0.090869956,-0.006480708,1.2536724,-0.6308392
0.0,0.1,1.4,0.0,0.5235987755982988,0,0.15990677,-0.44538108,-0.012427255,0.13846362,-0.8986675,1.4214046,0.6362505,1.5179784,1.2569994,0.0498541,-0.09194358,0.098281875,1.2710669,0.088905334
0.0,0.1,1.4,0.0,0.5235987755982988,0,0.15920907,-0.44527194,-0.011331258,0.13131583,-0.8837572,1.4705156,-0.25666758,1.673263,1.2843175,0.0041997223,-0.09789937,0.019102696,1.2637998,-1.2435046
0.0,0.1,1.4,0.0,0.5235987755982988,0,0.15969884,-0.44542876,-0.009688438,0.15237497,-0.8522777,1.4692844,-0.29431581,1.6314633,1.3065903,0.0828374,-0.093705535,0.0025226136,1.250114,-0.38453004
0.0,0.1,1.4,0.0,0.5235987755982988,0,0.15897836,-0.4452975,-0.012038806,0.14164703,-0.7847346,1.4901366,0.68421227,1.5744064,1.2950449,-0.0678264,-0.0681516,0.21040875,1.2675529,-0.62568754
0.0,0.1,1.4,0.0,0.5235987755982988,0,0.15992227,-0.4455119,-0.011101655,0.1367057,-0.79796034,1.4753155,-0.045278884,1.5537288,1.275569,-0.033075426,-0.09584128,0.08809044,1.2772818,-0.62431335
0.0,0.1,1.4,0.0,0.5235987755982988,0,0.15896483,-0.44510868,-0.013665171,0.13755336,-0.816957,1.5372978,0.88801605,1.5511477,1.2771014,-0.067656256,-0.07161427,0.15085179,1.2219847,-1.6646937
0.0,0.1,1.4,0.0,0.5235987755982988,0,0.16027309,-0.44549492,-0.010113283,0.121060856,-0.9321381,1.4224654,0.8393044,1.5826542,1.2884499,0.05695633,-0.11308339,-0.032739718,1.2821412,0.5313947
0.0,0.1,1.4,0.0,0.5235987755982988,0,0.15955088,-0.44543275,-0.010527463,0.12209144,-0.88883734,1.4745116,0.21291736,1.516225,1.3293046,0.105762705,-0.1072094,-0.031705968,1.2824022,-0.12195756
0.0,0.1,1.4,0.0,0.5235987755982988,0,0.16000974,-0.44558617,-0.0118618645,0.12809363,-0.76349455,1.5035063,0.06664659,1.5651954,1.2820088,0.041426886,-0.12244639,-0.031224469,1.2845447,0.20777647
0.0,0.1,1.4,0.0,0.5235987755982988,0,0.15990596,-0.44541144,-0.011397029,0.13387784,-0.89967763,1.450452,1.1911641,1.6469647,1.3580233,-0.049115483,-0.08600007,-0.03569786,1.2769514,0.27901757
0.0,0.1,1.4,0.0,0.5235987755982988,0,0.15969743,-0.44542265,-0.012332039,0.14056876,-0.8365903,1.5048732,0.8649457,1.5596528,1.3121479,0.011727802,-0.061999515,-0.050687388,1.2516733,-0.081738815
0.0,0.1,1.4,0.0,0.5235987755982988,0,0.160099,-0.4454983,-0.011942962,0.14815624,-1.0016309,1.4458863,0.4988346,1.5911547,1.3274035,0.021204356,-0.10561353,0.053254858,1.2453619,-1.2297922
0.0,0.1,1.4,0.0,0.5235987755982988,0,0.1596064,-0.44533736,-0.010774947,0.13863988,-0.8104711,1.5089132,-0.10580755,1.5788965,1.2584538,0.040526465,-0.06770685,-0.054341745,1.2648784,0.004594125
0.0,0.1,1.4,0.0,0.5235987755982988,0,0.15925634,-0.4453047,-0.010185753,0.12626773,-0.8295829,1.5093118,-0.5884245,1.6454283,1.2426233,-0.005172987,-0.122738324,0.0021166597,1.2681867,-2.0500374
0.0,0.1,1.4,0.0,0.5235987755982988,0,0.15974273,-0.44540498,-0.010529019,0.13368137,-0.8757263,1.4393885,-0.0062081343,1.6242281,1.315046,0.14537907,-0.066357054,0.056002803,1.2652069,-0.9563015
0.0,0.1,1.4,0.0,0.5235987755982988,0,0.1604898,-0.44561958,-0.010530085,0.13846362,-0.8501373,1.4665105,0.16718347,1.6477895,1.2824384,-0.08824941,-0.08845657,0.13712166,1.2635775,-1.4498556
0.0,0.1,1.4,0.0,0.5235987755982988,0,0.1597263,-0.4455502,-0.010872258,0.12111946,-0.99147654,1.4671131,0.7779959,1.5797638,1.2837479,0.025774939,-0.08018316,0.13238741,1.2700744,-0.60002995
0.0,0.1,1.4,0.0,0.5235987755982988,0,0.15969837,-0.44525203,-0.01378023,0.12853272,-0.75428885,1.4531074,-0.0902279,1.6043346,1.3005507,0.08137097,-0.116102494,-0.0578157,1.2544477,0.83115214
0.0,0.1,1.4,0.0,0.5235987755982988,0,0.15987591,-0.44539168,-0.011995073,0.13660462,-0.92113936,1.4231634,-0.4958812,1.6306771,1.2821635,0.0705533,-0.08518153,-0.09454589,1.2965685,-0.6726284
0.0,0.1,1.4,0.0,0.5235987755982988,0,0.15912175,-0.4454349,-0.013216601,0.15198319,-0.74242467,1.4967767,0.8447678,1.6188165,1.3492023,0.09911944,-0.084440485,0.043507393,1.2712553,-0.1249425
0.0,0.1,1.4,0.0,0.5235987755982988,0,0.1599947,-0.44548222,-0.010630136,0.104294546,-0.8831244,1.488983,-0.029649613,1.6176978,1.331097,0.10081205,-0.10242643,-0.08196258,1.2728931,-0.7507286
0.0,0.1,1.4,0.0,0.5235987755982988,0,0.1598475,-0.44541314,-0.010760463,0.116232224,-0.8348773,1.46423,-0.24140842,1.524836,1.2830555,-0.0033658098,-0.0738972,0.09333079,1.2404281,-0.3530398
0.0,0.1,1.4,0.0,0.5235987755982988,0,0.15935296,-0.44564494,-0.0116557935,0.121845014,-0.8166385,1.5037029,0.5558863,1.6359222,1.2811038,-0.042405114,-0.071340494,0.0026002342,1.2602953,0.06792445
0.0,0.1,1.4,0.0,0.5235987755982988,0,0.15890661,-0.44540676,-0.011121284,0.1427402,-0.83798426,1.4999894,-1.1155909,1.6069975,1.2730289,-0.03602135,-0.08723657,0.04725655,1.2522554,-1.9410322
0.0,0.1,1.4,0.0,0.5235987755982988,0,0.15959342,-0.44541135,-0.009288396,0.11989436,-0.7041242,1.443998,0.21791032,1.575282,1.3031899,0.018183205,-0.10811433,0.027285516,1.2477028,-1.7571634
0.0,0.1,1.4,0.0,0.5235987755982988,0,0.15949304,-0.44534674,-0.011194833,0.12351121,-0.74493736,1.4872591,0.5719807,1.5797639,1.3124176,0.015854,-0.051465258,-0.053322278,1.2755936,-0.2659102
0.0,0.1,1.4,0.0,0.5235987755982988,0,0.15856741,-0.44525826,-0.012254174,0.10676797,-0.9333259,1.4732933,0.42250544,1.7147279,1.3024058,0.15433665,-0.0949812,0.015311992,1.2696452,-0.53610104
0.0,0.1,1.4,0.0,0.5235987755982988,0,0.15938157,-0.44536722,-0.011614826,0.12930913,-0.7868536,1.4674022,0.7121331,1.6280063,1.2856197,0.025046568,-0.07502549,-0.055235952,1.2662416,-0.91523093
0.0,0.1,1.4,0.0,0.5235987755982988,0,0.15954347,-0.44538793,-0.011136883,0.12845963,-0.8333983,1.432049,0.42244685,1.6557541,1.3143994,-0.027722811,-0.10192127,-0.027391637,1.2655425,-0.98917574
0.0,0.1,1.4,0.0,0.5235987755982988,0,0.15997308,-0.44543096,-0.011661074,0.12652008,-0.7482031,1.4921737,-0.3361365,1.6107965,1.2488738,-0.033638436,-0.07652541,0.1450785,1.3042802,0.14734143
0.0,0.1,1.4,0.0,0.5235987755982988,0,0.15881072,-0.44524518,-0.012339404,0.108488455,-0.81476355,1.467113,-0.80488765,1.6174785,1.3138876,0.020561416,-0.12757166,0.084697455,1.2371703,0.60852766
0.0,0.1,1.4,0.0,0.5235987755982988,0,0.16021074,-0.4455067,-0.010056468,0.1326472,-0.8663544,1.5159099,0.15931095,1.5968332,1.3128649,0.05446982,-0.09577927,0.048072267,1.2922112,0.11621155
0.0,0.1,1.4,0.0,0.5235987755982988,0,0.15941057,-0.4453382,-0.010445296,0.1412954,-0.7113617,1.47779,0.7903026,1.6223074,1.2755207,0.018431507,-0.09242288,0.008083219,1.2413145,-0.35251406
0.0,0.1,1.4,0.0,0.5235987755982988,0,0.1599031,-0.44544482,-0.009574993,0.13257545,-0.7799209,1.4803346,-0.15711685,1.6423696,1.373765,-0.079675786,-0.06923888,0.15206052,1.2915486,-0.7429299
0.0,0.1,1.4,0.0,0.5235987755982988,0,0.15977043,-0.44542602,-0.010792436,0.123487666,-0.9206,1.5251338,0.37426162,1.6278577,1.3080667,-0.01907422,-0.07637482,0.0594022,1.2630634,-2.0336459
0.0,0.1,1.4,0.0,0.5235987755982988,0,0.16019464,-0.4454815,-0.011793834,0.135307,-0.7217536,1.5060078,0.1700812,1.6275553,1.292521,-0.054487884,-0.07927056,-0.06917831,1.2794852,-1.7031856
0.0,0.1,1.4,0.0,0.5235987755982988,0,0.15931569,-0.4452976,-0.012897624,0.13534828,-0.8159202,1.5232812,0.39469975,1.571853,1.2625971,0.078857146,-0.08489834,-0.14277273,1.2922254,0.43519875
0.0,0.1,1.4,0.0,0.5235987755982988,0,0.15969253,-0.4454815,-0.010470963,0.114038095,-0.696526,1.4989661,0.12641145,1.6528243,1.3089769,-0.017564414,-0.0733442,0.01639814,1.2396574,-2.253157
0.0,0.1,1.4,0.0,0.5235987755982988,0,0.15911594,-0.445315,-0.011340932,0.12585837,-0.83719224,1.4714594,0.55907154,1.6016678,1.307786,-0.081457876,-0.09931853,0.19218788,1.2612649,-1.2660878
0.0,0.1,1.4,0.0,0.5235987755982988,0,0.159989,-0.44549116,-0.012479666,0.14708422,-0.94041544,1.5070047,0.039003864,1.5628772,1.3501364,-0.017544053,-0.09323704,-0.19259983,1.2793739,-0.5390173
0.0,0.1,1.4,0.0,0.5235987755982988,0,0.16013801,-0.44557694,-0.011027979,0.12812383,-0.926463,1.5085499,0.25395092,1.5630724,1.2653921,0.0522412,-0.08554899,-0.11018006,1.2681934,-0.24747556
0.0,0.1,1.4,0.0,0.5235987755982988,0,0.15963219,-0.4453438,-0.012297384,0.13252538,-0.7336384,1.4673741,0.5137751,1.5554557,1.3259082,0.018465871,-0.08323,0.026773453,1.2751515,1.2854701
0.0,0.1,1.4,0.0,0.5235987755982988,0,0.15957758,-0.44542664,-0.0121945115,0.13071047,-0.8788658,1.5242485,0.5254703,1.5748686,1.3223277,-0.08854143,-0.11871077,0.0021574183,1.2405912,-1.5412704
0.0,0.1,1.4,0.0,0.5235987755982988,0,0.15906808,-0.44532722,-0.010549022,0.11133147,-0.87804013,1.5125569,0.7435754,1.6113182,1.2834498,0.12704946,-0.10022869,0.01466101,1.2607529,-1.3723366
0.0,0.1,1.4,0.0,0.5235987755982988,0,0.16029237,-0.4454803,-0.009649748,0.13194685,-0.7243998,1.4968902,-0.12164975,1.61183,1.2426677,0.015289741,-0.09631913,0.08219921,1.2241944,-0.7532176
0.0,0.1,1.4,0.0,0.5235987755982988,0,0.15973862,-0.44540268,-0.010006278,0.13081016,-0.7577787,1.4994695,0.59218824,1.6014533,1.2852126,-0.056000516,-0.10070828,-0.072717555,1.2591846,1.0228227
0.0,0.1,1.4,0.0,0.5235987755982988,0,0.1593749,-0.445442,-0.011177444,0.12686467,-1.0491691,1.5131559,-0.6305515,1.671864,1.2927142,0.089351095,-0.08538023,-0.09146207,1.280415,0.815892
0.0,0.1,1.4,0.0,0.5235987755982988,0,0.16013016,-0.4454189,-0.011520367,0.11615861,-0.9066409,1.5323935,0.14290473,1.6228389,1.3642503,0.012350609,-0.08015336,-0.08037845,1.2726848,-0.13312103
0.0,0.1,1.4,0.0,0.5235987755982988,0,0.15963158,-0.44530004,-0.012248364,0.10374628,-0.73556006,1.4886601,0.21346888,1.5574384,1.3347521,-0.08306645,-0.09486226,-0.033642337,1.2837092,-0.074601695
0.0,0.1,1.4,0.0,0.5235987755982988,0,0.15980917,-0.44537798,-0.010957589,0.121289745,-0.91071665,1.500618,0.6242182,1.6515673,1.2718229,0.009139443,-0.08927302,0.16685717,1.2743853,-0.44037464
0.0,0.1,1.4,0.0,0.5235987755982988,0,0.15971689,-0.4453904,-0.010625269,0.14248331,-0.955599,1.5162715,0.0738153,1.5586799,1.3317275,-0.0018753287,-0.08060044,-0.026550356,1.279626,0.002136502
0.0,0.1,1.4,0.0,0.5235987755982988,0,0.1595761,-0.44548616,-0.010978582,0.12577415,-0.8680792,1.5091604,1.0163211,1.6262233,1.3085451,0.006678576,-0.054784313,-0.044828255,1.219402,-1.4324985
0.0,0.1,1.4,0.0,0.5235987755982988,0,0.16002259,-0.44567496,-0.011030841,0.13604471,-0.89937884,1.467558,0.5268355,1.6513458,1.3236381,0.040563542,-0.10208584,0.03258122,1.252362,-1.4244581
0.0,0.1,1.4,0.0,0.5235987755982988,0,0.1589192,-0.445257,-0.013715841,0.1252609,-0.78942114,1.4869554,0.2578779,1.5519928,1.2373937,0.03457261,-0.084323466,-0.10369535,1.2407598,-1.3351027
0.0,0.1,1.4,0.0,0.5235987755982988,0,0.15972066,-0.44550997,-0.010383233,0.14648819,-0.889394,1.5216784,-0.032093298,1.5414904,1.2853959,0.023313934,-0.08206343,0.093473196,1.2900432,1.105084
0.0,0.1,1.4,0.0,0.5235987755982988,0,0.15947245,-0.44537303,-0.010213165,0.13064846,-0.726062,1.5479372,-0.008975101,1.6198454,1.2482955,0.0039867866,-0.08312223,0.013836215,1.2839636,-1.0002897
0.0,0.1,1.4,0.0,0.5235987755982988,0,0.15969218,-0.44535527,-0.011468892,0.121202104,-0.8395917,1.4957029,0.09528913,1.5369585,1.3351436,0.06876054,-0.08755764,0.0075093284,1.2350202,-1.1836294
0.0,0.1,1.4,0.0,0.5235987755982988,0,0.15982997,-0.4454397,-0.010346991,0.14171511,-0.87805784,1.5059174,0.35373467,1.5078056,1.2996622,-0.0057339678,-0.11292995,0.037007745,1.2702394,-1.6161779
0.0,0.1,1.4,0.0,0.5235987755982988,0,0.16012529,-0.44548827,-0.011295147,0.13303035,-0.84231156,1.4874665,0.36282742,1.6670331,1.3283236,0.07299769,-0.08944384,0.03442519,1.2575797,0.20662722
0.0,0.1,1.4,0.0,0.5235987755982988,0,0.16012104,-0.4453875,-0.011380123,0.12970786,-0.87274057,1.5412403,0.13018605,1.6047076,1.3831322,0.08523555,-0.11986753,-0.05301089,1.2322154,-1.4737046
0.0,0.1,1.4,0.0,0.5235987755982988,0,0.1594883,-0.4454217,-0.011938624,0.13928577,-0.9162235,1.5032248,0.13885401,1.653753,1.3012034,-0.022644982,-0.11969801,0.040983982,1.2872878,-0.675591
0.0,0.1,1.4,0.0,0.5235987755982988,0,0.15926367,-0.4454748,-0.010398642,0.130359,-0.8769384,1.464276,0.11465128,1.6140834,1.2709867,0.0049419343,-0.087020285,0.06089542,1.263566,-0.44492462
0.0,0.1,1.4,0.0,0.5235987755982988,0,0.15999448,-0.44543165,-0.010404323,0.11810975,-0.7448303,1.4892594,0.60223097,1.583984,1.2782806,0.055290006,-0.07643106,0.07162053,1.2760668,0.31461146
0.0,0.1,1.4,0.0,0.5235987755982988,0,0.15963368,-0.44539756,-0.010623488,0.13238086,-0.70858115,1.4768263,0.41239953,1.5709436,1.3212963,-0.0683914,-0.08941508,-0.12540562,1.2708167,-1.3915895
0.0,0.1,1.4,0.0,0.5235987755982988,0,0.15968406,-0.4453364,-0.012479065,0.14859065,-0.82922286,1.4882339,0.10406975,1.6199695,1.3064538,-0.04307838,-0.07123575,-0.02733706,1.2774005,-2.180401
0.0,0.1,1.4,0.0,0.5235987755982988,0,0.15977924,-0.44541332,-0.012092942,0.13930458,-0.87031096,1.4979501,-0.94037986,1.7050816,1.3192624,0.08586757,-0.11048629,-0.06295859,1.261797,-0.46648267
0.0,0.1,1.4,0.0,0.5235987755982988,0,0.15999265,-0.44536954,-0.011783927,0.105319284,-0.83321977,1.4797487,0.45014942,1.5493271,1.3103307,-0.028412368,-0.09147719,-0.09755863,1.2772782,-0.6246902
0.0,0.1,1.4,0.0,0.5235987755982988,0,0.15938821,-0.44535998,-0.010107963,0.1418559,-0.8567181,1.4982982,-0.019408504,1.6292508,1.2716974,-0.058548264,-0.09488065,0.09168827,1.2685156,-0.74704486
0.0,0.1,1.4,0.0,0.5235987755982988,0,0.16001438,-0.4453819,-0.011414981,0.13796906,-0.7337065,1.5192264,-0.10226838,1.5971231,1.2677088,0.055856276,-0.1125119,-0.0054678055,1.2222041,0.27939424
0.0,0.1,1.4,0.0,0.5235987755982988,0,0.1599756,-0.44539732,-0.010982609,0.11869273,-0.9086289,1.481298,0.33387345,1.5969325,1.2931656,0.052013133,-0.02286287,0.004191964,1.2657684,-0.98792493
0.0,0.1,1.4,0.0,0.5235987755982988,0,0.1590711,-0.44551826,-0.012919581,0.12007397,-0.8388033,1.517149,0.008175631,1.630104,1.2594345,-0.045403905,-0.043616638,0.058101714,1.2692341,0.5952819
0.0,0.1,1.4,0.0,0.5235987755982988,0,0.15950693,-0.4453955,-0.010842991,0.122155726,-0.89487046,1.471303,0.23863596,1.5999568,1.2537357,-0.05666883,-0.08465321,0.054981597,1.2645836,-0.19775444
0.0,0.1,1.4,0.0,0.5235987755982988,0,0.15959227,-0.4453433,-0.011659854,0.14430867,-0.98364,1.4903475,-0.44286022,1.6148498,1.227348,0.04977672,-0.08606701,0.11832523,1.2462798,-2.0107694
0.0,0.1,1.4,0.0,0.5235987755982988,0,0.16008809,-0.44561285,-0.011889929,0.13676707,-0.921218,1.4696208,-0.51478887,1.5457362,1.2697229,0.0064826077,-0.09317751,0.08500711,1.2402469,-1.3466166
0.0,0.1,1.4,0.0,0.5235987755982988,0,0.15973048,-0.44547346,-0.010239159,0.13883957,-0.87611294,1.4398748,0.51881886,1.5913113,1.2551392,0.04171521,-0.08107108,-0.035985846,1.233138,-0.41855225
0.0,0.1,1.4,0.0,0.5235987755982988,0,0.1596101,-0.44543666,-0.012497609,0.11017444,-0.84235704,1.5115639,-0.58624035,1.6776433,1.3127275,-0.024514107,-0.07181181,0.08379006,1.2518874,-0.22044642
0.0,0.1,1.4,0.0,0.5235987755982988,0,0.15924655,-0.4453519,-0.012791698,0.117323905,-0.9216017,1.4519335,-0.12937628,1.5546038,1.2805488,-0.07901243,-0.09959276,0.024600439,1.2224064,-1.9806856
0.0,0.1,1.4,0.0,0.5235987755982988,0,0.15986207,-0.44530907,-0.011561861,0.12509917,-0.987805,1.5088218,-0.5355986,1.6173477,1.28257,0.02799219,-0.12479033,0.091952264,1.2547414,0.4195103
0.0,0.1,1.4,0.0,0.5235987755982988,0,0.159381,-0.44540116,-0.0112322755,0.1283506,-0.9128156,1.5144346,0.39204642,1.5594617,1.2565079,-0.033064872,-0.09444216,0.0121906875,1.2326423,-1.1355056
0.0,0.1,1.4,0.0,0.5235987755982988,0,0.15997061,-0.44540045,-0.011632516,0.14247367,-0.8696684,1.4925517,-0.23292574,1.6588932,1.2434521,-0.00056317716,-0.061456487,-0.057328343,1.2835307,-0.25320822
0.0,0.1,1.4,0.0,0.5235987755982988,0,0.16052702,-0.445482,-0.010779385,0.14826196,-0.8587518,1.5261129,0.8340359,1.6356863,1.2940707,0.038587734,-0.05901417,0.05163261,1.2673001,-0.48185676
0.0,0.1,1.4,0.0,0.5235987755982988,0,0.15927295,-0.4452787,-0.012112792,0.12961362,-0.88151836,1.4796928,0.83806634,1.6190872,1.3034233,0.05530889,-0.078015134,0.033223018,1.253892,0.16410808
0.0,0.1,1.4,0.0,0.5235987755982988,0,0.15974835,-0.44555062,-0.013949406,0.15945296,-0.83199686,1.5006356,-0.5469898,1.6575598,1.3212416,-0.016771713,-0.10572407,0.05209924,1.2698205,-0.8479722
0.0,0.1,1.4,0.0,0.5235987755982988,0,0.15954305,-0.44535172,-0.012793084,0.12168548,-0.79743665,1.495345,0.4368034,1.6196266,1.2764099,0.029974665,-0.09790157,0.04901559,1.2320274,-1.7726232
0.0,0.1,1.4,0.0,0.5235987755982988,0,0.15990694,-0.4451895,-0.011318685,0.11480989,-0.8515959,1.467193,0.73895305,1.6231917,1.2208728,0.050381206,-0.10305513,0.016617792,1.2997072,-0.688182
0.0,0.1,1.4,0.0,0.5235987755982988,0,0.15905978,-0.44542372,-0.011791659,0.15386252,-0.7826528,1.5067564,-0.046786226,1.5633669,1.2925961,-0.021515079,-0.08526501,0.076047204,1.2715681,-0.7108065
0.0,0.1,1.4,0.0,0.5235987755982988,0,0.15878345,-0.44515628,-0.010686764,0.12857269,-0.8650923,1.482521,1.0554453,1.6336405,1.2869937,0.018462954,-0.0906932,-0.1152556,1.2663628,-0.17274162
0.0,0.1,1.4,0.0,0.5235987755982988,0,0.15971228,-0.44523454,-0.008229335,0.13038681,-0.9663181,1.5166612,0.75155175,1.6361058,1.2362099,0.04147498,-0.06538727,-0.06040263,1.2627076,0.35559383
0.0,0.1,1.4,0.0,0.5235987755982988,0,0.16057229,-0.44551805,-0.013249453,0.13775305,-0.8963742,1.4684366,0.3373491,1.6456847,1.2614753,0.088458754,-0.07984536,0.114568844,1.26969,1.7065318
0.0,0.1,1.4,0.0,0.5235987755982988,0,0.16018604,-0.44538736,-0.011910169,0.12097113,-0.8099942,1.4719974,-0.46566465,1.5950317,1.3205981,0.01634127,-0.07319624,0.09398957,1.2775856,0.47351298
0.0,0.1,1.4,0.0,0.5235987755982988,0,0.1597536,-0.4454148,-0.0103982575,0.12203592,-0.73142415,1.5012163,0.1700934,1.6474278,1.2622198,0.09053165,-0.07583895,-0.058289204,1.2274815,-1.0263262
0.0,0.1,1.4,0.0,0.5235987755982988,0,0.15992111,-0.44527182,-0.008543316,0.116291106,-0.90494573,1.4501181,-0.26337445,1.5331377,1.2716761,0.031116331,-0.09034933,-0.02303188,1.2689434,-1.4381675
0.0,0.1,1.4,0.0,0.5235987755982988,0,0.16205475,-0.4453481,-0.013021251,0.13453972,-0.6574555,1.4733895,-0.018151335,1.5834308,1.3720758,0.0043195933,-0.11002497,0.022754028,1.2593443,-1.213024
0.0,0.1,1.4,0.0,0.5235987755982988,0,0.16016588,-0.44537553,-0.011070965,0.12472722,-0.8612482,1.4820886,0.3677668,1.6227651,1.3431375,-0.0039175674,-0.0965477,0.15167147,1.285811,-0.94674444
0.0,0.1,1.4,0.0,0.5235987755982988,0,0.15969262,-0.44514826,-0.010748156,0.12369651,-0.73667896,1.4576286,0.502052,1.6338524,1.378604,-0.00039453938,-0.06271149,-0.08554329,1.2639039,-0.07520913
0.0,0.1,1.4,0.0,0.5235987755982988,0,0.15995052,-0.4452212,-0.010564243,0.11331199,-0.8398259,1.4432963,-0.5437452,1.6219422,1.3337429,0.027177205,-0.06875951,0.09512232,1.2568922,-0.40907574
0.0,0.1,1.4,0.0,0.5235987755982988,0,0.15958051,-0.44525903,-0.009717985,0.13049196,-0.816009,1.4604135,-0.29523602,1.6250546,1.288241,0.015732637,-0.09504665,0.016670821,1.2377979,0.61078066
0.0,0.1,1.4,0.0,0.5235987755982988,0,0.15927313,-0.44523183,-0.010300527,0.13315295,-0.75165635,1.4694808,-0.4244895,1.6000621,1.3351303,0.0058962824,-0.104117416,0.17458971,1.2610224,-1.3220285
0.0,0.1,1.4,0.0,0.5235987755982988,0,0.16020535,-0.44532204,-0.011345596,0.10724482,-0.9565311,1.5034285,-0.91070527,1.6082687,1.3304708,-0.091147564,-0.14113912,-0.0015998841,1.2825211,-1.038861
0.0,0.1,1.4,0.0,0.5235987755982988,0,0.16008674,-0.44527626,-0.0122788865,0.13047048,-0.87288994,1.4715391,0.63502496,1.5945686,1.3609685,-0.0025803838,-0.06358272,-0.13278982,1.2505676,-0.37590492
0.0,0.1,1.4,0.0,0.5235987755982988,0,0.15970561,-0.44524175,-0.009149497,0.13430159,-0.8865377,1.4951338,-0.14337593,1.5821877,1.2807213,-0.04961065,-0.10868911,0.11303463,1.2632937,-1.7757914
0.0,0.1,1.4,0.0,0.5235987755982988,0,0.1607549,-0.4453456,-0.0114576565,0.12430496,-0.7599342,1.4739739,1.513776,1.6378685,1.2707062,-0.085329704,-0.08202272,-0.10011369,1.2663773,-0.8547385
0.0,0.1,1.4,0.0,0.5235987755982988,0,0.15964451,-0.4452632,-0.0106311515,0.11746049,-0.7671916,1.5117921,-0.58263934,1.5943687,1.3331009,-0.06322352,-0.069507316,0.09073757,1.2773162,0.19878934
0.0,0.1,1.4,0.0,0.5235987755982988,0,0.15961796,-0.4451657,-0.013097751,0.15065034,-0.8647575,1.5297592,0.19028395,1.582821,1.3538343,0.114571854,-0.11281119,-0.008461958,1.2614625,-1.3480233
0.0,0.1,1.4,0.0,0.5235987755982988,0,0.16086754,-0.44544742,-0.011779285,0.099485695,-0.85014254,1.4840659,0.29551935,1.6150125,1.3932848,0.04968573,-0.06861837,-0.033585668,1.2486718,0.8281028
0.0,0.1,1.4,0.0,0.5235987755982988,0,0.1605643,-0.4455679,-0.01230673,0.12225147,-0.72446686,1.4267417,-1.4622796,1.6344235,1.3017011,0.035043232,-0.088999726,-0.08569054,1.2518308,-1.4512476
0.0,0.1,1.4,0.0,0.5235987755982988,0,0.1602283,-0.44556218,-0.012541033,0.13413751,-0.86563146,1.4559419,-0.93768716,1.5953622,1.3702669,0.108911134,-0.09422313,-0.10459357,1.2552948,-0.40763527
0.0,0.1,1.4,0.0,0.5235987755982988,0,0.15996972,-0.44550952,-0.012451748,0.1148717,-0.8892229,1.4963295,0.020140179,1.6567043,1.3265988,-0.055583708,-0.09200013,0.0078034443,1.2317895,-1.5570993
0.0,0.1,1.4,0.0,0.5235987755982988,0,0.1605341,-0.44540626,-0.012935879,0.111832425,-0.8532476,1.4691564,-0.1638202,1.6374156,1.2886857,0.11423281,-0.08950692,-0.058200456,1.270556,-0.99438834
0.0,0.1,1.4,0.0,0.5235987755982988,0,0.16042992,-0.4454269,-0.012448522,0.13138938,-0.7391202,1.5200338,0.41921,1.5921057,1.333322,0.048049636,-0.11817679,0.085505754,1.2516087,0.7602155
0.0,0.1,1.4,0.0,0.5235987755982988,0,0.16059664,-0.4454898,-0.011717362,0.11304589,-0.64753914,1.5404403,0.837411,1.6718059,1.2786916,-0.038600974,-0.09202421,0.0005069021,1.2757386,0.55289024
0.0,0.1,1.4,0.0,0.5235987755982988,0,0.16034539,-0.44548815,-0.012509668,0.13205406,-0.8447199,1.4930905,-0.58323926,1.6458417,1.3213853,-0.06959064,-0.09339423,0.011379734,1.2400464,-0.29023278
0.0,0.1,1.4,0.0,0.5235987755982988,0,0.1596367,-0.44556138,-0.01227643,0.14013998,-0.9116685,1.4972801,-0.59852946,1.6279634,1.2877543,-0.015454699,-0.05712346,0.15600738,1.3191803,-1.1389394
0.0,0.1,1.4,0.0,0.5235987755982988,0,0.1599163,-0.44543195,-0.014687704,0.13073985,-0.80098224,1.4522786,1.3372749,1.6251932,1.3160703,0.028758822,-0.090693764,0.07575826,1.2982434,-0.5615592
0.0,0.1,1.4,0.0,0.5235987755982988,0,0.15875684,-0.44538394,-0.01341494,0.12906362,-0.89394903,1.4878024,0.009960954,1.6379861,1.2684516,-0.013790878,-0.069848,-0.05936884,1.2625768,-0.4660681
0.0,0.1,1.4,0.0,0.5235987755982988,0,0.16081773,-0.4454638,-0.011756912,0.11469554,-0.9070941,1.457848,0.2818476,1.5841607,1.3263402,-0.0013030585,-0.109364055,-0.023515511,1.2802267,-0.3272462
0.0,0.1,1.4,0.0,0.5235987755982988,0,0.1606494,-0.44559234,-0.012171525,0.15839137,-0.8607896,1.5114783,0.5316015,1.6444752,1.1941044,-0.028349727,-0.05281727,0.11310981,1.3140044,-0.6367661
0.0,0.1,1.4,0.0,0.5235987755982988,0,0.16104034,-0.44555804,-0.013112238,0.13821863,-0.7798089,1.478539,-1.2819003,1.6195976,1.2942756,0.030801198,-0.04867188,0.07894054,1.2288269,0.12555902
0.0,0.1,1.4,0.0,0.5235987755982988,0,0.1590801,-0.44550678,-0.013045328,0.13274178,-0.8856658,1.5334047,-0.4876606,1.5614697,1.3375705,-0.054149117,-0.09869356,-0.088620916,1.2648565,-0.1964989
0.0,0.1,1.4,0.0,0.5235987755982988,0,0.15934986,-0.445522,-0.012878743,0.1350106,-0.8903748,1.4989779,0.19047834,1.5996946,1.283966,-0.041092023,-0.08293836,0.058803875,1.220693,0.04054655
0.0,0.1,1.4,0.0,0.5235987755982988,0,0.15949501,-0.44542164,-0.008253099,0.11252962,-0.6333602,1.462846,-0.4170217,1.5941861,1.2707219,0.049739115,-0.07521827,-0.12624438,1.2586429,0.13381131
0.0,0.1,1.4,0.0,0.5235987755982988,0,0.15993498,-0.44528845,-0.008287066,0.090391956,-0.86996317,1.4830627,0.40534753,1.5842566,1.3083029,0.040455647,-0.04789651,0.04546134,1.2568376,-1.9556825
0.0,0.1,1.4,0.0,0.5235987755982988,0,0.15882638,-0.44560903,-0.012601514,0.13385771,-0.79453623,1.4971732,0.46269593,1.6236506,1.3641741,0.037585422,-0.08852083,0.020561965,1.2423668,-0.50375915
0.0,0.1,1.4,0.0,0.5235987755982988,0,0.15875217,-0.44551998,-0.010588152,0.124318026,-0.9080866,1.5043285,-0.10770686,1.6018202,1.3336856,-0.010349959,-0.06110972,0.07538445,1.2439864,-0.5281495
0.0,0.1,1.4,0.0,0.5235987755982988,0,0.15927447,-0.44540715,-0.011546703,0.14237343,-0.97916627,1.5020462,0.13726017,1.5878483,1.2962543,-0.04508531,-0.09855087,-0.015535016,1.2477235,-0.6616041
0.0,0.1,1.4,0.0,0.5235987755982988,0,0.15973069,-0.44545516,-0.009816062,0.10771054,-0.91327345,1.437816,1.0963503,1.6532388,1.3349208,0.046044514,-0.10221232,-0.04274032,1.2575467,1.0271893
0.0,0.1,1.4,0.0,0.5235987755982988,0,0.1592435,-0.44535807,-0.010506161,0.12065216,-0.7296971,1.5160224,-1.1406898,1.626162,1.2469119,-0.06679878,-0.089561366,-0.046084844,1.2535374,-0.4301902
0.0,0.1,1.4,0.0,0.5235987755982988,0,0.15973206,-0.4456329,-0.010748657,0.13220347,-0.8041533,1.5625339,0.17182009,1.6244459,1.2481416,0.03508897,-0.11019923,0.013802651,1.2600688,-0.02066812
0.0,0.1,1.4,0.0,0.5235987755982988,0,0.15923038,-0.4454801,-0.011229559,0.1480725,-0.87158585,1.4618409,0.08912274,1.5982289,1.3424977,-0.028726194,-0.04053981,0.0042309645,1.2642703,0.008420179
0.0,0.1,1.4,0.0,0.5235987755982988,0,0.16090117,-0.44549915,-0.010625808,0.14811261,-0.7384003,1.4960185,-0.22984283,1.6051834,1.3293175,0.020360272,-0.078386,0.062435172,1.2706836,0.6408837
0.0,0.1,1.4,0.0,0.5235987755982988,0,0.15918839,-0.44538683,-0.010303277,0.11556745,-0.9296978,1.4694555,-0.9013455,1.5843426,1.3378514,0.0058418517,-0.11366791,0.096964374,1.2609615,-1.1103075
0.0,0.1,1.4,0.0,0.5235987755982988,0,0.15961136,-0.44549066,-0.009557261,0.10132031,-0.9451923,1.4736648,-0.12362617,1.6257312,1.2583025,0.028315764,-0.069227986,-0.048971143,1.2708949,-0.53083915
0.0,0.1,1.4,0.0,0.5235987755982988,0,0.15913577,-0.44542193,-0.010706061,0.12071083,-0.9291215,1.4415091,0.10330314,1.6151903,1.2808042,0.08865025,-0.10758228,0.14864686,1.2800437,-1.0292485
0.0,0.1,1.4,0.0,0.5235987755982988,0,0.15993418,-0.44545916,-0.010973374,0.1247343,-0.8714362,1.4455749,1.0503742,1.606922,1.296124,-0.014961301,-0.10013164,-0.008035761,1.278002,0.14528127
0.0,0.1,1.4,0.0,0.5235987755982988,0,0.16004889,-0.445484,-0.011254969,0.12096041,-0.9538972,1.4496477,0.33725137,1.5951201,1.344392,-0.011300929,-0.112532936,0.037532557,1.2577587,-1.0709573
0.0,0.1,1.4,0.0,0.5235987755982988,0,0.1585012,-0.4454946,-0.012064138,0.12696436,-0.78510076,1.5058794,-0.34575266,1.6852734,1.286569,-0.11497363,-0.05009171,0.10182267,1.2314011,-1.1749486
0.0,0.1,1.4,0.0,0.5235987755982988,0,0.15941584,-0.44541875,-0.010606638,0.12372247,-0.79747844,1.488662,-0.017059496,1.6241394,1.2453144,-0.037958276,-0.11235467,-0.028850412,1.2599053,-0.8163732
0.0,0.1,1.4,0.0,0.5235987755982988,0,0.15976207,-0.4454821,-0.011404586,0.14108163,-0.80086625,1.5275129,0.722635,1.6159227,1.3307846,0.054149088,-0.10246719,-0.036125097,1.25093,-1.0240062
0.0,0.1,1.4,0.0,0.5235987755982988,0,0.15979454,-0.44545895,-0.011988999,0.114243336,-0.82391346,1.4909389,0.9548518,1.6155245,1.3765792,0.13056454,-0.102964304,0.19481331,1.2649686,-0.44342092
0.0,0.1,1.4,0.0,0.5235987755982988,0,0.15800059,-0.44541833,-0.010808303,0.14087251,-0.8569023,1.5058132,1.1973796,1.610938,1.3559788,-0.11702126,-0.096937045,0.02374185,1.2461365,-0.39683324
0.0,0.1,1.4,0.0,0.5235987755982988,0,0.15946208,-0.44535503,-0.0110080615,0.13631545,-0.9259388,1.4312451,1.2583617,1.5859213,1.3649313,0.022903915,-0.08457677,0.01110158,1.2425914,-2.5204523
0.0,0.1,1.4,0.0,0.5235987755982988,0,0.15960422,-0.4453912,-0.011198669,0.15548621,-0.81364983,1.4587787,-0.08579935,1.6078818,1.2925009,-0.028630761,-0.10377185,-0.050296567,1.2727313,-0.6057774
0.0,0.1,1.4,0.0,0.5235987755982988,0,0.1594658,-0.44535652,-0.01259555,0.09033828,-0.7182415,1.4737036,0.49696618,1.6462123,1.2630676,0.03624742,-0.1216971,0.018608557,1.2735605,-0.57754034
0.0,0.1,1.4,0.0,0.5235987755982988,0,0.16024107,-0.44541302,-0.011205054,0.12106612,-0.78315836,1.4845845,0.16542861,1.6246297,1.2810309,-0.009408105,-0.102166705,0.09934495,1.2548988,-1.8745185
0.0,0.1,1.4,0.0,0.5235987755982988,0,0.15921016,-0.44547895,-0.011533006,0.11959519,-0.91060084,1.4502907,-0.14015716,1.6280553,1.2408042,-0.0004445012,-0.08975562,-0.036263306,1.2550497,-2.752706
0.0,0.1,1.4,0.0,0.5235987755982988,0,0.15896495,-0.44545442,-0.01161175,0.13568431,-0.9959063,1.4863405,0.12496522,1.6284559,1.2982241,-0.028769113,-0.095464915,-0.0953352,1.2876743,-1.4376183
0.0,0.1,1.4,0.0,0.5235987755982988,0,0.16014183,-0.4454964,-0.011567945,0.14012489,-0.76875824,1.4619931,0.036450326,1.6376302,1.3389744,0.10644249,-0.061311536,-0.105935745,1.2375984,0.7955063
0.0,0.1,1.4,0.0,0.5235987755982988,0,0.15916283,-0.44554308,-0.011826137,0.11332541,-0.8366987,1.4642926,-0.4598754,1.6069336,1.2427204,-0.03205587,-0.08491244,-0.050596166,1.2542477,0.8520345
0.0,0.1,1.4,0.0,0.5235987755982988,0,0.15934105,-0.4454217,-0.012429836,0.13861312,-0.7922363,1.4955544,0.18484953,1.6979033,1.2948651,-0.0017454497,-0.10449361,0.031573,1.3098933,0.871279
0.0,0.1,1.4,0.0,0.5235987755982988,0,0.1597523,-0.44537568,-0.011544133,0.13767532,-1.0259086,1.472061,0.06057447,1.6096437,1.256274,-0.0024826648,-0.06453321,0.008107402,1.2678877,-1.2107171
0.0,0.1,1.4,0.0,0.5235987755982988,0,0.15963352,-0.44534737,-0.010775632,0.13002959,-0.8217183,1.4816104,-0.094097875,1.6496309,1.2644501,0.07850548,-0.070905365,0.1388397,1.273618,-2.1116552
0.0,0.1,1.4,0.0,0.5235987755982988,0,0.16004899,-0.44541556,-0.010683852,0.10259679,-0.7610244,1.4896009,0.103354484,1.6821702,1.3017882,-0.04909487,-0.10992367,0.037144277,1.2982082,0.22437695
0.0,0.1,1.4,0.0,0.5235987755982988,0,0.15954965,-0.44548723,-0.011926615,0.1519851,-0.76448035,1.4947597,0.7143155,1.6427794,1.2432014,-0.08923966,-0.08303696,-0.043351512,1.2790757,-0.39275694
0.0,0.1,1.4,0.0,0.5235987755982988,0,0.15893675,-0.4454184,-0.01190513,0.13301598,-0.9408523,1.4413862,0.14445856,1.6865187,1.3129287,0.027993897,-0.08438876,-0.015854271,1.2256054,0.03788199
0.0,0.1,1.4,0.0,0.5235987755982988,0,0.15952241,-0.4454362,-0.012753308,0.12832183,-0.92527366,1.4695808,-0.33064148,1.6299003,1.2904449,0.19218318,-0.052778896,-0.014069519,1.2842002,-2.3987446
0.0,0.1,1.4,0.0,0.5235987755982988,0,0.15912496,-0.44537753,-0.01167546,0.13236938,-0.9213929,1.4876479,-0.7134864,1.6430838,1.3171673,0.09622003,-0.07759291,0.0043857647,1.3004279,-0.7176481
0.0,0.1,1.4,0.0,0.5235987755982988,0,0.16005297,-0.4455309,-0.012253466,0.13715824,-0.8056884,1.458626,0.20067535,1.562965,1.3322821,0.047530346,-0.09909761,0.060164895,1.2863402,-0.71811116
0.0,0.1,1.4,0.0,0.5235987755982988,0,0.15906264,-0.44544944,-0.011440796,0.13470243,-0.84507173,1.5204034,-0.41611916,1.5436838,1.2780304,0.08878946,-0.09950189,-0.011030165,1.2622943,-0.8089916
0.0,0.1,1.4,0.0,0.5235987755982988,0,0.15990369,-0.44562468,-0.011563687,0.14561306,-0.7762336,1.5084053,-0.023190292,1.6151903,1.2740964,0.18187362,-0.11205269,0.056243055,1.2672459,-2.65223
0.0,0.1,1.4,0.0,0.5235987755982988,0,0.15941165,-0.44537854,-0.01151408,0.12145676,-0.982359,1.5018405,0.13905418,1.622895,1.3273222,-0.017055025,-0.11690606,0.040689148,1.3059611,-0.44515938
0.0,0.1,1.4,0.0,0.5235987755982988,0,0.15976824,-0.44549313,-0.010179927,0.15188557,-0.71666265,1.465321,0.42744088,1.6243671,1.3183408,-0.11810818,-0.08143325,-0.13169596,1.2070949,-0.9405272
0.0,0.1,1.4,0.0,0.5235987755982988,0,0.15838653,-0.44530147,-0.010542365,0.13658047,-0.7968767,1.4552372,0.23808812,1.65132,1.3118533,-0.062387757,-0.07481374,0.029320864,1.2763728,-2.1684468
0.0,0.1,1.4,0.0,0.5235987755982988,0,0.16028573,-0.445379,-0.011439067,0.13770518,-0.7635332,1.4917905,0.21650855,1.5673909,1.3365252,0.08203095,-0.068331055,-0.040586554,1.2869989,-0.46743545
0.0,0.1,1.4,0.0,0.5235987755982988,0,0.15966652,-0.44537133,-0.01172176,0.13650602,-0.8267082,1.4709651,-0.6085371,1.6627764,1.341883,0.027306635,-0.10996197,0.048098285,1.2693537,-1.8648137
0.0,0.1,1.4,0.0,0.5235987755982988,0,0.15978113,-0.44543675,-0.010001608,0.11538944,-0.87539345,1.4987631,0.26136944,1.5824075,1.3170826,0.038070515,-0.09293096,0.06697389,1.2492527,-0.17503716
0.0,0.1,1.4,0.0,0.5235987755982988,0,0.15983103,-0.44544894,-0.01075186,0.11024466,-0.93192774,1.4758706,0.18676859,1.6165711,1.3236196,0.026293453,-0.11496561,0.14712039,1.2549556,-1.0645641
0.0,0.1,1.4,0.0,0.5235987755982988,0,0.15889443,-0.4453958,-0.011921307,0.13062024,-0.8766537,1.5205711,0.8416255,1.5478894,1.3460222,-0.006651849,-0.0660087,-0.02126546,1.2388918,-1.3261458
0.0,0.1,1.4,0.0,0.5235987755982988,0,0.15935212,-0.4454247,-0.012215439,0.12803547,-0.7028039,1.4790763,-0.25216627,1.6766764,1.3255814,-0.018940227,-0.10384338,0.063457265,1.2784219,0.993918
0.0,0.1,1.4,0.0,0.5235987755982988,0,0.15908718,-0.4454188,-0.010621271,0.15167019,-0.81461996,1.4656178,0.33053723,1.6386256,1.2983105,-0.039691433,-0.073966734,-0.037725408,1.2642702,-1.1966106
0.0,0.1,1.4,0.0,0.5235987755982988,0,0.15949047,-0.44533485,-0.011400643,0.1259964,-0.7023538,1.5517167,0.1866423,1.6122977,1.3354597,0.049720444,-0.08354391,0.030225998,1.2486336,-0.9557916
0.0,0.1,1.4,0.0,0.5235987755982988,0,0.16056839,-0.44544032,-0.0111609595,0.10906157,-0.6990655,1.5071213,0.17627917,1.645577,1.2839507,-0.028509326,-0.07248151,-0.009940178,1.2769206,-1.7861489
0.0,0.1,1.4,0.0,0.5235987755982988,0,0.15991522,-0.4455273,-0.010845559,0.11071378,-0.7403837,1.5002497,0.24801233,1.5228162,1.2863601,-0.022032423,-0.07558788,0.0976631,1.2774662,-0.52868825
0.0,0.1,1.4,0.0,0.5235987755982988,0,0.15913284,-0.44545543,-0.011344971,0.1205764,-0.8870056,1.4580046,-0.051689763,1.558662,1.2588085,0.07755938,-0.060420103,0.12999333,1.2876563,-0.8935101
0.0,0.1,1.4,0.0,0.5235987755982988,0,0.15964493,-0.44548115,-0.0122608235,0.12977144,-0.79310983,1.4579791,0.6949481,1.6764678,1.2676194,0.07590786,-0.10136324,0.07750716,1.2344264,-0.32829013
0.0,0.1,1.4,0.0,0.5235987755982988,0,0.15926392,-0.4453672,-0.012240997,0.13229088,-0.82847923,1.4738863,0.38832685,1.6301374,1.272774,-5.208146e-05,-0.06145762,0.029203134,1.2821376,0.3917293
0.0,0.1,1.4,0.0,0.5235987755982988,0,0.16004437,-0.44546267,-0.012260167,0.13800964,-0.7856703,1.4884408,0.28002426,1.6549351,1.3282391,0.07801151,-0.060255375,-0.060737558,1.2506974,-0.7451058
0.0,0.1,1.4,0.0,0.5235987755982988,0,0.15993054,-0.44557783,-0.012287053,0.1382494,-0.9110252,1.4364059,0.46057528,1.6328976,1.2611976,-0.10541021,-0.10034609,0.03535196,1.2690167,-0.32619494
0.0,0.1,1.4,0.0,0.5235987755982988,0,0.15908916,-0.44544673,-0.01168539,0.12197057,-0.71414214,1.4626482,-0.050374884,1.7227976,1.2917827,0.00558714,-0.07481139,0.122856095,1.2589552,-0.41654763
0.0,0.1,1.4,0.0,0.5235987755982988,0,0.1595858,-0.4455239,-0.011387516,0.12532751,-1.0096414,1.5044876,0.15058243,1.609475,1.3099053,-0.015647592,-0.09286875,0.06095176,1.2313288,0.07168104
0.0,0.1,1.4,0.0,0.5235987755982988,0,0.15998892,-0.44540432,-0.011572626,0.11045327,-0.8997129,1.5158436,1.5237694,1.6122869,1.3092642,-0.023191595,-0.071389355,-0.061026737,1.2638811,-2.2135906
0.0,0.1,1.4,0.0,0.5235987755982988,0,0.15919209,-0.44543198,-0.012391388,0.11101511,-0.7890776,1.4714618,0.7467514,1.6594832,1.2761258,-0.012884455,-0.09178032,-0.0456198,1.2692838,-2.3275828
0.0,0.1,1.4,0.0,0.5235987755982988,0,0.160887,-0.44541463,-0.008881885,0.14154254,-0.8473423,1.4524039,0.36742005,1.6738523,1.3474983,0.051624104,-0.107775785,-0.054530382,1.2786539,-1.0351433
0.0,0.1,1.4,0.0,0.5235987755982988,0,0.16012254,-0.44537443,-0.011581736,0.12745675,-0.9476062,1.493413,0.58978426,1.6580448,1.3955938,0.016260449,-0.044325832,0.043050844,1.2916095,0.5792692
0.0,0.1,1.4,0.0,0.5235987755982988,0,0.15910958,-0.4453434,-0.011968201,0.13284501,-0.7964159,1.5088328,1.4064777,1.611813,1.3287404,0.0739404,-0.049456064,0.009233676,1.2431438,-1.232042
0.0,0.1,1.4,0.0,0.5235987755982988,0,0.1585383,-0.44563225,-0.00998661,0.12979251,-0.8013064,1.5137426,1.3213296,1.5885555,1.3288913,0.045998666,-0.06951592,0.21944752,1.2554276,-1.147116
0.0,0.1,1.4,0.0,0.5235987755982988,0,0.16033119,-0.44537675,-0.010780259,0.1278295,-0.77127695,1.4902724,0.40706992,1.6049441,1.3407048,-0.11543427,-0.08407126,-0.052020926,1.2933143,-1.2232608
0.0,0.1,1.4,0.0,0.5235987755982988,0,0.15881157,-0.4455169,-0.013088462,0.10875788,-0.86589986,1.4786408,0.032407876,1.6316866,1.3397005,0.009399698,-0.056489572,0.027447583,1.2452933,-1.0137675
0.0,0.1,1.4,0.0,0.5235987755982988,0,0.1596154,-0.44521618,-0.008604934,0.12794021,-0.7171956,1.5011967,0.58552,1.6355084,1.3506393,0.046588797,-0.0686339,-0.04992643,1.291754,0.84062195
0.0,0.1,1.4,0.0,0.5235987755982988,0,0.15913557,-0.4455898,-0.011008103,0.13680328,-0.78914,1.4788612,0.6208441,1.6383463,1.2759503,0.0018432215,-0.09472734,0.0066339388,1.2407855,-0.47566772
0.0,0.1,1.4,0.0,0.5235987755982988,0,0.15946603,-0.44557133,-0.012107203,0.1403618,-0.7710444,1.4601939,0.77187914,1.6424208,1.2771566,-0.044478755,-0.08583815,-0.040511124,1.2550144,-0.24303588
0.0,0.1,1.4,0.0,0.5235987755982988,0,0.15921609,-0.44552803,-0.011156647,0.1322577,-0.9413801,1.5139029,-0.052231412,1.6230714,1.2651273,0.061424676,-0.09758235,0.011377648,1.2636749,-0.25468168
0.0,0.1,1.4,0.0,0.5235987755982988,0,0.15878761,-0.44531718,-0.009414027,0.14278384,-0.93138075,1.5047182,0.76964587,1.6308999,1.2811716,-0.015035309,-0.10701738,0.0833743,1.2354409,0.80556864
0.0,0.1,1.4,0.0,0.5235987755982988,0,0.15910251,-0.4453829,-0.010244662,0.1497203,-0.7997328,1.4637927,0.0993095,1.6077607,1.3305423,-0.0084069455,-0.10260608,-0.034890544,1.2796685,-2.12957
0.0,0.1,1.4,0.0,0.5235987755982988,0,0.16021414,-0.4454419,-0.011490415,0.12090174,-0.924894,1.4528427,-0.1311867,1.5961046,1.3432866,0.02875863,-0.0972424,0.0012959435,1.2974535,-1.258319
0.0,0.1,1.4,0.0,0.5235987755982988,0,0.1595651,-0.44531348,-0.013393074,0.12332439,-0.89864683,1.4516747,-0.117202885,1.5720093,1.2802922,-0.035419192,-0.049424555,0.09586456,1.2869694,-0.17470434
0.0,0.1,1.4,0.0,0.5235987755982988,0,0.1610051,-0.44544786,-0.011904126,0.11424444,-0.9319112,1.5035908,0.5315298,1.5993856,1.3272482,0.15873474,-0.09855308,0.0063480753,1.2859454,-1.4117737
0.0,0.1,1.4,0.0,0.5235987755982988,0,0.15999728,-0.4456517,-0.011743825,0.13059247,-0.98865193,1.4236805,0.31575364,1.6269279,1.3335197,0.026468387,-0.09367162,-0.008586766,1.2848465,-1.7787412
0.0,0.1,1.4,0.0,0.5235987755982988,0,0.15894131,-0.44560587,-0.012271366,0.13696188,-0.66026765,1.5303458,-0.7128697,1.5876201,1.2869412,0.031544216,-0.076575495,0.084284514,1.251376,0.46947774
0.0,0.1,1.4,0.0,0.5235987755982988,0,0.15992355,-0.44532374,-0.011195915,0.14296292,-0.87796956,1.478966,0.94657546,1.6036228,1.3105985,0.0036542166,-0.08612452,0.06800651,1.2736839,-0.272457
0.0,0.1,1.4,0.0,0.5235987755982988,0,0.15921706,-0.44537497,-0.012266704,0.14322887,-0.8558904,1.4499284,-0.47663274,1.6896204,1.306797,-0.009760554,-0.102048345,0.09496084,1.2545455,-1.7871155
0.0,0.1,1.4,0.0,0.5235987755982988,0,0.15993398,-0.4454433,-0.012937824,0.10449558,-0.80476034,1.5027813,0.06500031,1.7269523,1.2446367,0.025203146,-0.07807433,-0.013263803,1.2662083,-1.629173
0.0,0.1,1.4,0.0,0.5235987755982988,0,0.15932044,-0.44533592,-0.011590751,0.15128173,-0.7411236,1.4681985,-0.80863434,1.5811795,1.3547182,-0.031875584,-0.08201193,-0.022610947,1.2494309,-1.0348234
0.0,0.1,1.4,0.0,0.5235987755982988,0,0.15967835,-0.44540358,-0.010348508,0.12183616,-0.7031002,1.4486529,0.30391306,1.649747,1.3054746,0.013059984,-0.10455995,0.0072035473,1.3127472,-1.2577515
0.0,0.1,1.4,0.0,0.5235987755982988,0,0.15929529,-0.44538656,-0.009867625,0.12457089,-0.76749516,1.4365135,0.13733238,1.626465,1.2358756,0.10751436,-0.043193176,-0.0022962177,1.2836851,-1.4326167
