sanky1234/BimanualDexCatch/isaacgymenvs/cem_results/football_pose_0.1_0.0_1.4999999999999998_0.5235987755982988_-0.5235987755982988_0_2025-05-27.csv
x,y,z,roll,pitch,yaw,robot1/joint1,robot1/joint2,robot1/joint3,robot1/joint4,robot1/joint5,robot1/joint6,robot1/joint7,robot2/joint1,robot2/joint2,robot2/joint3,robot2/joint4,robot2/joint5,robot2/joint6,robot2/joint7
0.1,0.0,1.4999999999999998,0.5235987755982988,-0.5235987755982988,0,-0.74784654,0.7391899,-0.7414059,0.5510604,-0.24218431,0.83738166,-0.19862501,0.14592507,1.268375,0.31070733,-0.17729858,0.02493643,1.1450102,0.46617678
0.1,0.0,1.4999999999999998,0.5235987755982988,-0.5235987755982988,0,-0.74738306,0.7405802,-0.7421102,0.5499739,-0.24341254,0.84004974,-0.15022843,0.12574208,1.1847436,0.06825108,-0.072564915,-0.027997982,1.2033789,0.3759668
0.1,0.0,1.4999999999999998,0.5235987755982988,-0.5235987755982988,0,-0.747835,0.74183315,-0.7424283,0.5486135,-0.24422607,0.841091,-0.16191599,0.7337099,1.1837506,0.14487238,-0.06640823,-0.11921258,1.1184492,0.47058252
0.1,0.0,1.4999999999999998,0.5235987755982988,-0.5235987755982988,0,-0.7469218,0.74157566,-0.742117,0.54988194,-0.23487179,0.8425693,-0.07546206,-0.9621814,1.3625371,-0.13577811,-0.082448326,0.025319282,1.021463,-0.9954252
0.1,0.0,1.4999999999999998,0.5235987755982988,-0.5235987755982988,0,-0.74645174,0.7408113,-0.7414312,0.5493817,-0.23941292,0.84147197,-0.1824811,0.49238822,1.3910527,0.08766352,0.0016785242,0.1076577,1.0181092,0.7254012
0.1,0.0,1.4999999999999998,0.5235987755982988,-0.5235987755982988,0,-0.7472015,0.73939383,-0.7419118,0.54990405,-0.23165984,0.8410909,-0.19113027,-0.26691705,1.3209025,0.14119622,-0.01890395,-0.053590257,1.3462343,0.13555935
0.1,0.0,1.4999999999999998,0.5235987755982988,-0.5235987755982988,0,-0.7482751,0.74122065,-0.7418864,0.5506581,-0.24228421,0.8392403,-0.11389409,-0.44451898,1.3124098,-0.042220563,0.035624377,-0.20568283,1.2648486,0.56473476
0.1,0.0,1.4999999999999998,0.5235987755982988,-0.5235987755982988,0,-0.7481021,0.741921,-0.7425352,0.55102247,-0.24472062,0.83944106,-0.19349535,-0.3179722,1.3535529,-0.04459373,0.02813675,-0.1501245,0.98773074,0.43632284
0.1,0.0,1.4999999999999998,0.5235987755982988,-0.5235987755982988,0,-0.7469587,0.7415549,-0.74215555,0.5488608,-0.24313346,0.84015596,-0.20354082,-0.5935507,1.2000717,0.004596359,0.008285459,0.29235357,1.1259751,0.55034477
0.1,0.0,1.4999999999999998,0.5235987755982988,-0.5235987755982988,0,-0.7475832,0.73941344,-0.74119794,0.55163395,-0.23275799,0.8397245,-0.2853647,0.4043741,1.1703445,0.049079847,-0.059381902,-0.021318853,1.1224362,0.508889
0.1,0.0,1.4999999999999998,0.5235987755982988,-0.5235987755982988,0,-0.7481549,0.74259406,-0.74176604,0.54929644,-0.2457471,0.83831054,-0.30256042,0.61365765,1.2251952,-0.08771958,-0.098385714,-0.20434384,1.222268,-0.0132043855
0.1,0.0,1.4999999999999998,0.5235987755982988,-0.5235987755982988,0,-0.7470798,0.7387297,-0.7424665,0.5499153,-0.24483125,0.83828306,-0.090466455,-0.3557445,1.2652392,-0.09852693,-0.04272306,-0.08313162,1.0913237,0.20217563
0.1,0.0,1.4999999999999998,0.5235987755982988,-0.5235987755982988,0,-0.7482386,0.7397877,-0.740901,0.551394,-0.23787045,0.8382803,-0.10691562,0.27644882,1.3129267,0.16993275,-0.04041707,0.2690257,1.2347625,-0.4428366
0.1,0.0,1.4999999999999998,0.5235987755982988,-0.5235987755982988,0,-0.74782324,0.7401302,-0.74192625,0.5499491,-0.243701,0.8374707,-0.07384029,0.65646577,1.2160919,0.1728942,-0.0700357,0.091275655,1.11996,1.1383104
0.1,0.0,1.4999999999999998,0.5235987755982988,-0.5235987755982988,0,-0.7481651,0.74011743,-0.74178404,0.5495343,-0.24484722,0.8408799,-0.21252443,0.32426134,1.2289039,0.15975398,-0.07291699,-0.0026076701,0.9342462,0.28027984
0.1,0.0,1.4999999999999998,0.5235987755982988,-0.5235987755982988,0,-0.7487574,0.74152166,-0.7430533,0.54950064,-0.24680543,0.83623964,-0.19945693,-0.09074376,1.1617346,0.10202288,-0.043207757,-0.42241257,1.0671142,0.654036
0.1,0.0,1.4999999999999998,0.5235987755982988,-0.5235987755982988,0,-0.7472472,0.7416695,-0.7432537,0.5502365,-0.2312415,0.84059644,-0.16730058,-0.7074409,1.0828757,0.20251563,-0.08334091,-0.13735403,1.1409737,0.16718417
0.1,0.0,1.4999999999999998,0.5235987755982988,-0.5235987755982988,0,-0.74692667,0.7418996,-0.7410444,0.5513406,-0.24121712,0.8390433,-0.23798364,-0.13572426,1.3099324,-0.08446359,-0.030817572,0.074955046,1.177288,0.23825938
0.1,0.0,1.4999999999999998,0.5235987755982988,-0.5235987755982988,0,-0.7477288,0.74144274,-0.742583,0.55130863,-0.23463973,0.83483744,-0.11360999,0.16706312,1.2769148,-0.14725944,-0.0010990577,0.021378925,1.2024236,0.113050185
0.1,0.0,1.4999999999999998,0.5235987755982988,-0.5235987755982988,0,-0.74858075,0.7422529,-0.7424304,0.55045086,-0.2413072,0.83697456,-0.10478739,0.93528837,1.2483615,0.10001934,-0.028783994,0.008917384,1.3155588,-0.49710727
0.1,0.0,1.4999999999999998,0.5235987755982988,-0.5235987755982988,0,-0.74763507,0.740785,-0.74200696,0.55023164,-0.24089275,0.8398304,-0.19163685,-0.49455804,1.0491145,0.0159611,-0.060764156,-0.01993169,1.1382318,0.54906255
0.1,0.0,1.4999999999999998,0.5235987755982988,-0.5235987755982988,0,-0.74769276,0.74094534,-0.7421702,0.5495964,-0.23882504,0.842359,-0.21688297,-0.357506,1.3658671,0.055762738,0.01536874,0.40789968,1.3003367,0.2523562
0.1,0.0,1.4999999999999998,0.5235987755982988,-0.5235987755982988,0,-0.7468548,0.7398825,-0.7418312,0.5509043,-0.2444514,0.83976185,-0.10969363,0.26604325,1.157197,0.006422294,-0.15694465,-0.0014626482,1.0658597,0.7091047
0.1,0.0,1.4999999999999998,0.5235987755982988,-0.5235987755982988,0,-0.7495306,0.7399735,-0.7410918,0.5495278,-0.24167499,0.840105,-0.08791654,0.5287085,1.0964906,-0.032438137,-0.07509081,0.20410052,1.1402863,0.10043229
0.1,0.0,1.4999999999999998,0.5235987755982988,-0.5235987755982988,0,-0.74793345,0.73955554,-0.74141854,0.5498862,-0.23768242,0.83882403,-0.071011946,1.3126565,1.2821945,-0.19914387,0.005027565,0.04541671,1.1337913,-0.65044796
0.1,0.0,1.4999999999999998,0.5235987755982988,-0.5235987755982988,0,-0.7465998,0.74089175,-0.7422182,0.54963464,-0.24382971,0.839075,-0.22272252,0.60249555,1.2704399,-0.024480615,0.04151464,-0.17312586,1.1055628,-0.28040692
0.1,0.0,1.4999999999999998,0.5235987755982988,-0.5235987755982988,0,-0.7490216,0.7403712,-0.74110717,0.54911065,-0.24543136,0.83789456,-0.17845526,0.28154415,1.3623203,0.15048046,-0.10876494,-0.07549328,1.1461618,0.593905
0.1,0.0,1.4999999999999998,0.5235987755982988,-0.5235987755982988,0,-0.7473769,0.7397051,-0.7419846,0.5513988,-0.2438293,0.83719915,-0.20154203,0.40013164,1.1834725,-0.052459467,-0.024092237,0.26205677,1.0340894,0.17573147
0.1,0.0,1.4999999999999998,0.5235987755982988,-0.5235987755982988,0,-0.7481991,0.74208874,-0.7418709,0.54998225,-0.2387965,0.8393451,-0.21252772,-0.4144172,1.164877,-0.11005745,-0.043096077,-0.027760027,1.0459292,0.28963563
0.1,0.0,1.4999999999999998,0.5235987755982988,-0.5235987755982988,0,-0.74623495,0.73989475,-0.7421772,0.550774,-0.23416638,0.84343326,-0.23189712,-0.06587436,1.2474523,-0.1636572,0.07603621,0.035430405,1.1147425,-0.8035274
0.1,0.0,1.4999999999999998,0.5235987755982988,-0.5235987755982988,0,-0.74775195,0.74119574,-0.74193394,0.5512925,-0.24060406,0.8379972,-0.13937245,0.10314789,1.4943365,-0.059569325,-0.10872976,-0.46061346,1.3165611,0.4503697
0.1,0.0,1.4999999999999998,0.5235987755982988,-0.5235987755982988,0,-0.747032,0.74087083,-0.74179596,0.55027884,-0.24849717,0.84065044,-0.14696716,-1.1218618,1.4292384,0.056251515,0.025764162,0.22896881,1.0901453,-0.15347062
0.1,0.0,1.4999999999999998,0.5235987755982988,-0.5235987755982988,0,-0.74812794,0.74126,-0.74082667,0.54893196,-0.23738568,0.84344894,-0.24101326,0.6503124,1.2662078,-0.04319887,0.037531465,-0.03866042,1.2278093,0.04039595
0.1,0.0,1.4999999999999998,0.5235987755982988,-0.5235987755982988,0,-0.7479729,0.74237347,-0.74067146,0.55132,-0.24077256,0.83853996,-0.28666157,0.42849103,1.2927431,-0.11712288,0.0657888,-0.20111972,1.1352338,-0.77919257
0.1,0.0,1.4999999999999998,0.5235987755982988,-0.5235987755982988,0,-0.7489395,0.7423074,-0.74216884,0.5500266,-0.2358404,0.8441715,-0.07901923,-0.3782308,0.9929304,-0.3474303,-0.048588265,-0.14313225,1.2743347,0.16056049
0.1,0.0,1.4999999999999998,0.5235987755982988,-0.5235987755982988,0,-0.7480439,0.7422498,-0.74145716,0.550382,-0.23671246,0.8412829,-0.06370449,0.58449054,1.5144597,-0.1102976,-0.088412724,0.25586563,0.9831136,0.15284891
0.1,0.0,1.4999999999999998,0.5235987755982988,-0.5235987755982988,0,-0.7493146,0.73966086,-0.74159354,0.5492691,-0.23901749,0.8392837,-0.2202881,-0.75939906,1.2438385,0.21593484,-0.09980974,0.24054183,1.3228548,-0.4936994
0.1,0.0,1.4999999999999998,0.5235987755982988,-0.5235987755982988,0,-0.74727577,0.73929757,-0.74185985,0.5494341,-0.23818347,0.843381,-0.1642367,-0.42480212,1.2941059,-0.00896489,0.04707925,-0.1438806,1.2925098,1.033371
0.1,0.0,1.4999999999999998,0.5235987755982988,-0.5235987755982988,0,-0.7476001,0.74080586,-0.74134344,0.5513949,-0.24195065,0.83775187,-0.26992008,0.024140257,1.3249016,0.33275974,0.06410207,0.05463075,1.2808186,-0.102494344
0.1,0.0,1.4999999999999998,0.5235987755982988,-0.5235987755982988,0,-0.7475347,0.7428672,-0.74287,0.55007464,-0.24336424,0.8377269,-0.21697283,-0.6633618,1.419942,-0.23114316,-0.003818104,-0.102550045,1.2045716,0.23054028
0.1,0.0,1.4999999999999998,0.5235987755982988,-0.5235987755982988,0,-0.74744684,0.7415036,-0.7414592,0.54983425,-0.2399669,0.84171367,-0.21818095,0.64991206,1.417597,-0.16400106,-0.096931554,-0.123546585,1.2084957,0.04199935
0.1,0.0,1.4999999999999998,0.5235987755982988,-0.5235987755982988,0,-0.74765515,0.74153256,-0.7411036,0.5520612,-0.23856854,0.8383019,-0.1565918,0.12150235,1.4005352,0.14265856,-0.07687457,0.17331854,1.23471,0.6934724
0.1,0.0,1.4999999999999998,0.5235987755982988,-0.5235987755982988,0,-0.7480732,0.74100643,-0.7413921,0.5498443,-0.24052958,0.84018284,-0.20754196,1.078643,1.3002943,-0.010277862,-0.025778476,-0.12203749,1.3787285,1.0933883
0.1,0.0,1.4999999999999998,0.5235987755982988,-0.5235987755982988,0,-0.74800843,0.7373743,-0.7417656,0.54962504,-0.24711615,0.84046245,-0.16329403,-0.49902716,1.3045132,-0.008350648,0.07606791,-0.33752123,1.175457,1.4058043
0.1,0.0,1.4999999999999998,0.5235987755982988,-0.5235987755982988,0,-0.74697095,0.7410706,-0.7399553,0.5513538,-0.2374121,0.841506,-0.20736487,-0.9365245,1.3424681,0.21920569,-0.010179082,-0.13115965,1.0245314,-0.5891165
0.1,0.0,1.4999999999999998,0.5235987755982988,-0.5235987755982988,0,-0.7473944,0.7413647,-0.74284565,0.5500214,-0.23771429,0.8398994,-0.29337838,-0.5638776,1.2910056,-0.3845094,-0.06277358,0.24079786,1.1176627,0.10884706
0.1,0.0,1.4999999999999998,0.5235987755982988,-0.5235987755982988,0,-0.74729514,0.74089503,-0.7412887,0.55174625,-0.23516555,0.8387737,-0.18831201,0.032877505,1.2871443,0.063100144,-0.017067363,-0.042513575,1.1231616,0.9241158
0.1,0.0,1.4999999999999998,0.5235987755982988,-0.5235987755982988,0,-0.74803275,0.7409968,-0.7427803,0.54938626,-0.24454802,0.8383754,-0.22511369,-0.41283074,1.2595092,0.11599036,-0.037707917,0.0656372,1.3108563,0.60459137
0.1,0.0,1.4999999999999998,0.5235987755982988,-0.5235987755982988,0,-0.74715614,0.74077916,-0.74156386,0.5518776,-0.24537966,0.8377908,-0.22780897,-0.63576865,1.2143428,-0.15036638,0.081183486,0.20613356,1.047933,-0.0053105736
0.1,0.0,1.4999999999999998,0.5235987755982988,-0.5235987755982988,0,-0.7466414,0.7418526,-0.7422152,0.5518687,-0.24306396,0.8392119,-0.20013139,-0.22923714,1.4244134,-0.0406941,-0.10996042,0.06728994,1.1184397,-0.025531266
0.1,0.0,1.4999999999999998,0.5235987755982988,-0.5235987755982988,0,-0.7481785,0.74009037,-0.74175525,0.5504357,-0.24392028,0.8374142,-0.22827011,0.089618325,1.1967124,-0.21316501,-0.010920635,-0.27911678,1.2245346,0.2272563
0.1,0.0,1.4999999999999998,0.5235987755982988,-0.5235987755982988,0,-0.74815613,0.7417706,-0.7424313,0.54996634,-0.23703419,0.8388988,-0.19741665,0.98305047,1.3174722,-0.17956223,-0.06129667,-0.2875971,1.1009417,0.5084056
0.1,0.0,1.4999999999999998,0.5235987755982988,-0.5235987755982988,0,-0.74791044,0.7410744,-0.7417491,0.5509293,-0.23392677,0.8390823,-0.20673159,-0.5300245,1.2949102,0.022866603,-0.095196515,-0.19440523,1.0451913,0.94854224
0.1,0.0,1.4999999999999998,0.5235987755982988,-0.5235987755982988,0,-0.74774796,0.7421668,-0.7412755,0.55036616,-0.23850825,0.8395245,-0.23125352,-0.65008205,1.1496514,-0.2026234,0.061240826,-0.29553536,1.2538538,-0.034525525
0.1,0.0,1.4999999999999998,0.5235987755982988,-0.5235987755982988,0,-0.7475752,0.7393284,-0.7418461,0.5518316,-0.24263753,0.83793366,-0.23132531,0.16607516,1.1328465,-0.036738276,-0.13184467,0.14437075,1.1755435,-0.334916
0.1,0.0,1.4999999999999998,0.5235987755982988,-0.5235987755982988,0,-0.74781096,0.7400755,-0.7424554,0.5490154,-0.2412637,0.8427403,-0.19773364,-1.1180379,1.2459992,-0.12126801,-0.05039096,-0.45412603,1.138304,0.43074164
0.1,0.0,1.4999999999999998,0.5235987755982988,-0.5235987755982988,0,-0.74694026,0.74131846,-0.7417061,0.5489927,-0.23414458,0.84164524,-0.09676629,0.68829685,1.3581326,0.050353635,-0.02998423,0.16122358,1.078135,-0.3653063
0.1,0.0,1.4999999999999998,0.5235987755982988,-0.5235987755982988,0,-0.7491694,0.74441975,-0.7423244,0.5498953,-0.24346668,0.83692807,-0.43099412,0.05522967,1.2598233,-0.2502633,-0.014935836,-0.06484059,0.9407819,0.22087142
0.1,0.0,1.4999999999999998,0.5235987755982988,-0.5235987755982988,0,-0.74728376,0.7381441,-0.74301237,0.5491865,-0.23920347,0.8406412,-0.26145488,-0.22955108,1.2279335,0.10070685,-0.10958108,-0.31970143,1.2126096,-0.20500422
0.1,0.0,1.4999999999999998,0.5235987755982988,-0.5235987755982988,0,-0.7471506,0.7389872,-0.742362,0.5502444,-0.2395222,0.8407979,-0.23440146,-0.27980292,1.3088714,0.045153547,-0.020268206,0.07124323,1.1475519,0.3203236
0.1,0.0,1.4999999999999998,0.5235987755982988,-0.5235987755982988,0,-0.747047,0.7409613,-0.7407864,0.5509947,-0.2371501,0.8406193,-0.33586708,0.10849201,1.3236272,0.21755809,-0.009122679,0.35921398,1.2182469,0.13475028
0.1,0.0,1.4999999999999998,0.5235987755982988,-0.5235987755982988,0,-0.7486584,0.73985946,-0.7406652,0.55034524,-0.23550178,0.8393977,-0.11957493,-0.44922116,1.5173359,0.086140454,-0.05206251,0.016729515,1.094757,0.18103886
0.1,0.0,1.4999999999999998,0.5235987755982988,-0.5235987755982988,0,-0.7487048,0.73870224,-0.7404604,0.550475,-0.2392464,0.84143925,-0.19579431,-0.14658971,1.4609984,0.077247724,0.090653226,-0.020224614,1.2637275,-0.2098212
0.1,0.0,1.4999999999999998,0.5235987755982988,-0.5235987755982988,0,-0.74862784,0.7411731,-0.74127316,0.5499251,-0.24235219,0.83959275,-0.31410977,0.31601828,1.3059608,-0.06145023,0.084695324,-0.17560388,1.1172866,0.5956362
0.1,0.0,1.4999999999999998,0.5235987755982988,-0.5235987755982988,0,-0.7477863,0.74139005,-0.7417337,0.5506393,-0.24080808,0.8388483,-0.14503485,0.8758948,1.2902383,0.3054029,-0.08416878,-0.1331959,1.0974959,-1.292298
0.1,0.0,1.4999999999999998,0.5235987755982988,-0.5235987755982988,0,-0.74768156,0.7393465,-0.7417286,0.5487711,-0.23869343,0.8426177,-0.09448073,-0.1726554,1.269658,-0.028615588,-0.02497189,-0.087074794,1.2551191,-0.51282334
0.1,0.0,1.4999999999999998,0.5235987755982988,-0.5235987755982988,0,-0.7475785,0.7420311,-0.7434052,0.55050254,-0.24235019,0.8381265,-0.14055732,0.3615904,1.2151734,0.0427682,0.0026048783,0.34490493,1.1108075,-0.33929792
0.1,0.0,1.4999999999999998,0.5235987755982988,-0.5235987755982988,0,-0.7478745,0.7403774,-0.74176097,0.54986566,-0.24400651,0.84037095,-0.2783301,0.23723286,1.4251229,0.18505602,-0.15657704,0.019317452,1.0723312,0.5271701
0.1,0.0,1.4999999999999998,0.5235987755982988,-0.5235987755982988,0,-0.74673414,0.7410345,-0.7419767,0.55072945,-0.24039248,0.84194684,-0.124413,0.21523687,1.4557769,-0.09813219,0.0379578,0.06341881,1.1888725,0.01674687
0.1,0.0,1.4999999999999998,0.5235987755982988,-0.5235987755982988,0,-0.74740845,0.74174213,-0.7431801,0.5503788,-0.243236,0.8391454,-0.21207906,-0.317415,1.4394325,-0.17523241,0.049208928,0.13721047,1.356613,-0.11874305
0.1,0.0,1.4999999999999998,0.5235987755982988,-0.5235987755982988,0,-0.74784565,0.7423962,-0.7416755,0.5516254,-0.24098097,0.8384043,-0.10153483,0.10541399,1.3250009,0.09363385,0.06581211,-0.47340572,1.0349498,0.29326418
0.1,0.0,1.4999999999999998,0.5235987755982988,-0.5235987755982988,0,-0.7492516,0.7410632,-0.7409965,0.54935706,-0.24122283,0.8409481,-0.052772604,-0.78672075,1.31852,-0.02813225,-0.0015764582,0.13419889,1.3889073,0.71090317
0.1,0.0,1.4999999999999998,0.5235987755982988,-0.5235987755982988,0,-0.74817055,0.74190426,-0.7403322,0.54970556,-0.24869928,0.8401157,-0.18718345,-0.22074144,1.3090755,0.10492468,-0.030136393,-0.22234748,1.111139,-0.51866066
0.1,0.0,1.4999999999999998,0.5235987755982988,-0.5235987755982988,0,-0.7456252,0.74178845,-0.741593,0.552603,-0.2398448,0.8386983,-0.2443075,-0.3679471,1.3612807,0.047124315,-0.024873838,-0.30769524,0.9793198,-0.071452126
0.1,0.0,1.4999999999999998,0.5235987755982988,-0.5235987755982988,0,-0.74881774,0.7413842,-0.74189234,0.54944843,-0.24947497,0.8380506,-0.2297264,-0.105773725,1.3704026,-0.09652311,-0.08518078,-0.017420612,1.0504131,0.074155316
0.1,0.0,1.4999999999999998,0.5235987755982988,-0.5235987755982988,0,-0.7469866,0.7396796,-0.74197304,0.5511505,-0.23904648,0.8411421,-0.1459537,-0.8490779,1.0984383,0.13402697,0.10938943,-0.12908404,1.2720717,-0.05229553
0.1,0.0,1.4999999999999998,0.5235987755982988,-0.5235987755982988,0,-0.7487848,0.74298096,-0.7407848,0.5511603,-0.24355006,0.8372099,-0.21079318,0.117417,1.2723384,0.057206355,-0.0107216155,-0.17068517,1.35898,-0.031326823
0.1,0.0,1.4999999999999998,0.5235987755982988,-0.5235987755982988,0,-0.74661636,0.73881656,-0.7418681,0.55083054,-0.24281359,0.8418486,-0.21382253,-0.08084048,1.3061252,0.0811598,0.046739638,-0.12848893,1.0246656,0.55152524
0.1,0.0,1.4999999999999998,0.5235987755982988,-0.5235987755982988,0,-0.7484582,0.74024093,-0.7418831,0.5498044,-0.24204133,0.84129053,-0.30030105,0.3905698,1.2629236,0.13156146,-0.035316132,0.07468678,1.1219404,0.11389475
0.1,0.0,1.4999999999999998,0.5235987755982988,-0.5235987755982988,0,-0.7469465,0.74152994,-0.7426495,0.5497479,-0.23580198,0.84089446,-0.11721482,-0.37234908,1.2236726,-0.012348582,-0.118062794,0.36559844,1.1090103,0.017608458
0.1,0.0,1.4999999999999998,0.5235987755982988,-0.5235987755982988,0,-0.7458644,0.74148804,-0.7411682,0.54853463,-0.24180837,0.8387166,-0.14275543,0.8545966,1.3811216,-0.052891698,0.00038452432,-0.035043355,1.2684921,0.25351328
0.1,0.0,1.4999999999999998,0.5235987755982988,-0.5235987755982988,0,-0.74759555,0.7400418,-0.7420552,0.55024385,-0.24237043,0.84114367,-0.13220532,0.44813776,1.3839759,0.028018085,-0.039179426,0.0918363,1.1932449,0.16482887
0.1,0.0,1.4999999999999998,0.5235987755982988,-0.5235987755982988,0,-0.7480369,0.74177754,-0.74125755,0.5517324,-0.24745648,0.83781946,-0.17754823,0.5249072,1.329866,-0.15462627,0.047817636,0.0031173874,1.0762951,1.1306711
0.1,0.0,1.4999999999999998,0.5235987755982988,-0.5235987755982988,0,-0.7479218,0.7418595,-0.7417032,0.5510559,-0.23677303,0.8401043,-0.13079666,0.11666066,1.3390563,0.11416133,-0.10949424,-0.38037366,1.3304459,0.35028335
0.1,0.0,1.4999999999999998,0.5235987755982988,-0.5235987755982988,0,-0.74898237,0.74058986,-0.7413488,0.5507527,-0.24463773,0.8363441,-0.19458933,-0.72216624,1.2050017,-0.012267845,-0.06548956,0.0055094445,1.1859586,0.35343948
0.1,0.0,1.4999999999999998,0.5235987755982988,-0.5235987755982988,0,-0.74880207,0.7399759,-0.7417946,0.54908824,-0.24141215,0.84045553,-0.44335768,-0.20099439,1.3147855,0.14404091,-0.005765832,-0.06111771,1.2575377,0.13580446
0.1,0.0,1.4999999999999998,0.5235987755982988,-0.5235987755982988,0,-0.7482694,0.74194217,-0.74138844,0.55073196,-0.24088489,0.8417576,-0.26500228,-0.32239643,1.1428535,-0.04948728,0.020455891,0.21527183,1.158166,-0.19829644
0.1,0.0,1.4999999999999998,0.5235987755982988,-0.5235987755982988,0,-0.74779594,0.7420698,-0.7416326,0.55045867,-0.24076806,0.8420196,-0.11688903,0.14966011,1.4969325,0.25023168,0.07138784,0.18881369,1.1994462,-0.17146404
0.1,0.0,1.4999999999999998,0.5235987755982988,-0.5235987755982988,0,-0.7472139,0.742741,-0.7432904,0.54989725,-0.24297263,0.83952004,-0.22640984,0.7127042,1.2737013,0.095230825,-0.03806269,-0.054641426,1.2279333,0.24517389
0.1,0.0,1.4999999999999998,0.5235987755982988,-0.5235987755982988,0,-0.7456062,0.7414925,-0.74167246,0.5510482,-0.23564202,0.84367985,-0.26922882,0.84603024,1.3513384,0.16154745,-0.021798719,-0.15324269,1.1829253,1.0711935
0.1,0.0,1.4999999999999998,0.5235987755982988,-0.5235987755982988,0,-0.74836326,0.73930335,-0.74166507,0.54990286,-0.23408729,0.83991086,-0.28714374,0.516779,1.3652809,-0.08011403,-0.042059846,0.023929354,1.1412551,-0.2940661
0.1,0.0,1.4999999999999998,0.5235987755982988,-0.5235987755982988,0,-0.74789613,0.7414257,-0.7425926,0.54925746,-0.24832457,0.84084904,-0.17263569,0.6631914,1.2257358,0.16689873,-0.1351382,-0.019068304,1.1086818,0.4542652
0.1,0.0,1.4999999999999998,0.5235987755982988,-0.5235987755982988,0,-0.7480596,0.74022484,-0.7421945,0.5505438,-0.2441639,0.83941114,-0.15406837,0.5373955,1.1410452,-0.039979894,-0.009790873,-0.26870605,1.2118102,0.4166956
0.1,0.0,1.4999999999999998,0.5235987755982988,-0.5235987755982988,0,-0.7468933,0.7429769,-0.74191684,0.5512925,-0.24749362,0.8380441,-0.3241326,0.25709352,1.1183385,0.12754062,-0.114544585,0.10762716,1.2435352,0.4331068
0.1,0.0,1.4999999999999998,0.5235987755982988,-0.5235987755982988,0,-0.74757856,0.7435082,-0.74157983,0.5495354,-0.23755935,0.84309083,-0.22937231,-0.2484383,1.2746799,0.00307136,-0.0985946,-0.046948377,1.0858232,0.17960966
0.1,0.0,1.4999999999999998,0.5235987755982988,-0.5235987755982988,0,-0.74878854,0.7415272,-0.74138355,0.5503525,-0.24318585,0.83850205,-0.31999245,-0.16871808,1.2533075,0.004489061,0.066938914,0.10826172,1.3392876,0.30109745
0.1,0.0,1.4999999999999998,0.5235987755982988,-0.5235987755982988,0,-0.74817055,0.74175274,-0.7410616,0.5490586,-0.2460432,0.8419521,-0.26761767,-0.005393381,1.2167474,-0.15157036,-0.08099209,-0.088688016,1.1782106,0.32478687
0.1,0.0,1.4999999999999998,0.5235987755982988,-0.5235987755982988,0,-0.74760056,0.7399154,-0.7419372,0.5511206,-0.2410597,0.8400138,-0.13633831,-0.4102931,1.3106418,0.12692809,-0.13818768,-0.15032703,1.2877855,0.08200094
0.1,0.0,1.4999999999999998,0.5235987755982988,-0.5235987755982988,0,-0.7481115,0.74364865,-0.7415782,0.5502248,-0.23812442,0.84131587,-0.26491114,0.00040183423,1.2345546,-0.23827094,-0.03054782,0.42258957,1.2501351,0.24562131
0.1,0.0,1.4999999999999998,0.5235987755982988,-0.5235987755982988,0,-0.7480508,0.7397197,-0.74085236,0.550222,-0.2488031,0.838954,-0.21141337,-0.13257605,1.3070812,0.026973337,-0.055532835,-0.0022897797,1.2175916,-0.03045052
0.1,0.0,1.4999999999999998,0.5235987755982988,-0.5235987755982988,0,-0.7467804,0.74156797,-0.74163586,0.55160147,-0.24529321,0.8387038,-0.28195605,-0.78995216,1.3001994,0.07944129,-0.10148818,-0.16613398,1.1997647,-0.6470049
0.1,0.0,1.4999999999999998,0.5235987755982988,-0.5235987755982988,0,-0.7487299,0.7391081,-0.74069417,0.5505796,-0.24116126,0.8423158,-0.11051486,0.7867199,1.2796507,0.09087546,-0.029737445,0.049901523,1.288042,0.72592115
0.1,0.0,1.4999999999999998,0.5235987755982988,-0.5235987755982988,0,-0.7477875,0.7426582,-0.74304897,0.5484131,-0.2364828,0.84270877,-0.22498702,-0.011182037,1.3053001,0.04124008,0.02993994,-0.31447423,1.3206851,0.70597845
0.1,0.0,1.4999999999999998,0.5235987755982988,-0.5235987755982988,0,-0.7469924,0.7419641,-0.7431352,0.54864407,-0.24753922,0.8403992,-0.15295008,0.046691388,1.182649,-0.20961818,-0.060412355,0.07387916,1.238365,0.032769803
0.1,0.0,1.4999999999999998,0.5235987755982988,-0.5235987755982988,0,-0.7473247,0.7391888,-0.7427714,0.55018246,-0.24299783,0.84008396,-0.18206257,0.5415784,1.1372633,-0.14722103,0.01946009,-0.13907772,1.0897541,-0.35362095
0.1,0.0,1.4999999999999998,0.5235987755982988,-0.5235987755982988,0,-0.7479657,0.740269,-0.74134123,0.5503848,-0.25091738,0.8397453,-0.19379592,-0.2517352,1.1728415,0.086287245,-0.045217738,-0.30399048,1.2328471,0.48331997
0.1,0.0,1.4999999999999998,0.5235987755982988,-0.5235987755982988,0,-0.7477061,0.7392274,-0.7410738,0.55073464,-0.24939424,0.83992034,-0.18870983,0.8161943,1.3687073,-0.18499772,-0.045786362,-0.31931645,0.97543085,0.14470324
0.1,0.0,1.4999999999999998,0.5235987755982988,-0.5235987755982988,0,-0.7485288,0.7409147,-0.74290013,0.5507096,-0.24228674,0.8386143,-0.27063933,-0.15677369,1.2745982,0.18556666,-0.16821565,0.20360714,1.374471,0.17341146
0.1,0.0,1.4999999999999998,0.5235987755982988,-0.5235987755982988,0,-0.74816597,0.7396913,-0.7399455,0.5497584,-0.23418882,0.8458629,-0.20043367,-0.17720753,1.2058289,0.06799752,-0.12619631,-0.09930459,1.1296016,-0.11961947
0.1,0.0,1.4999999999999998,0.5235987755982988,-0.5235987755982988,0,-0.7483281,0.73945045,-0.7400982,0.55110073,-0.23491807,0.84358424,-0.18218307,0.115789175,1.327154,0.13282283,0.03597585,-0.26385242,1.1531838,0.22217672
0.1,0.0,1.4999999999999998,0.5235987755982988,-0.5235987755982988,0,-0.7463663,0.7429139,-0.74241453,0.5523572,-0.24143784,0.8378333,-0.2982989,0.4606326,1.4370998,0.061762825,-0.04916413,-0.017990889,1.1674255,-0.46887505
0.1,0.0,1.4999999999999998,0.5235987755982988,-0.5235987755982988,0,-0.74697244,0.7393468,-0.74108446,0.5525871,-0.25479957,0.83859867,-0.20533364,-0.05787299,1.2107143,-0.15452822,-0.12769733,0.1565672,1.0569344,0.740787
0.1,0.0,1.4999999999999998,0.5235987755982988,-0.5235987755982988,0,-0.7483933,0.7399557,-0.74208677,0.5506196,-0.2445772,0.83970404,-0.31253323,-0.3309728,1.2815976,0.16047826,-0.13156642,0.051973905,1.2115564,0.32768238
0.1,0.0,1.4999999999999998,0.5235987755982988,-0.5235987755982988,0,-0.74885845,0.7439126,-0.74084175,0.55126625,-0.24033149,0.83800936,-0.1819406,-0.56391585,1.3371966,-0.22511305,-0.0050706323,0.19572274,1.0548067,-0.07587791
0.1,0.0,1.4999999999999998,0.5235987755982988,-0.5235987755982988,0,-0.7481819,0.7415799,-0.7400308,0.5512074,-0.246272,0.84161025,-0.17279388,0.14979976,1.2060511,0.05872486,0.0008665155,0.076044485,1.2272158,-0.06127508
0.1,0.0,1.4999999999999998,0.5235987755982988,-0.5235987755982988,0,-0.7493076,0.7433699,-0.74061966,0.5499828,-0.23851629,0.8413893,-0.1944791,-1.0107491,1.1227233,-0.11670943,-0.1328369,0.24736291,1.1449085,-0.45640966
0.1,0.0,1.4999999999999998,0.5235987755982988,-0.5235987755982988,0,-0.74891984,0.74035025,-0.7416123,0.5500753,-0.24266046,0.8390957,-0.06739044,0.18717293,1.3089268,-0.18021683,-0.024379684,0.13252357,1.2364229,0.48704234
0.1,0.0,1.4999999999999998,0.5235987755982988,-0.5235987755982988,0,-0.7488479,0.74383825,-0.7421028,0.55083174,-0.24343507,0.837848,-0.17832337,-0.56435907,1.3909212,-0.14336076,-0.041438658,0.15063812,1.2803383,0.36304545
0.1,0.0,1.4999999999999998,0.5235987755982988,-0.5235987755982988,0,-0.7471741,0.7410977,-0.7409894,0.55017793,-0.2502185,0.8414467,-0.3360132,-0.10359741,1.3523964,-0.1328156,0.027278777,0.086175695,1.157496,0.55463153
0.1,0.0,1.4999999999999998,0.5235987755982988,-0.5235987755982988,0,-0.747562,0.74372935,-0.74162316,0.5493875,-0.2375919,0.8376999,0.052057642,0.33384964,1.2371765,-0.054411232,0.09577772,-0.2135845,0.94017935,-0.061757013
0.1,0.0,1.4999999999999998,0.5235987755982988,-0.5235987755982988,0,-0.7465692,0.74169606,-0.74312246,0.5502006,-0.2401376,0.8416741,-0.28881374,-0.67685556,1.3210477,-0.23069364,-0.0039345264,0.24704921,1.0839934,0.0049841567
0.1,0.0,1.4999999999999998,0.5235987755982988,-0.5235987755982988,0,-0.74664766,0.742257,-0.7420344,0.5507791,-0.24648815,0.838489,-0.14848904,0.16237076,1.1411251,-0.13869293,-0.004045573,0.04641587,1.2420187,-0.08082601
0.1,0.0,1.4999999999999998,0.5235987755982988,-0.5235987755982988,0,-0.74768484,0.74062824,-0.7410873,0.55203795,-0.24020866,0.8382886,-0.25529838,0.07218398,1.2760085,0.16769668,-0.07043328,-0.16531335,1.2188321,-0.36849684
0.1,0.0,1.4999999999999998,0.5235987755982988,-0.5235987755982988,0,-0.7482926,0.7400223,-0.7424497,0.55059475,-0.24112846,0.8399847,-0.2554706,0.75936985,1.0749633,-0.095649734,-0.037882168,0.14295277,1.2883964,-0.19825731
0.1,0.0,1.4999999999999998,0.5235987755982988,-0.5235987755982988,0,-0.74668735,0.7411857,-0.7416382,0.55018055,-0.24092786,0.8398754,-0.16742113,0.20404825,1.362073,-0.09769067,-0.007317498,0.10835763,1.2143414,0.19525969
0.1,0.0,1.4999999999999998,0.5235987755982988,-0.5235987755982988,0,-0.747244,0.73618346,-0.74125093,0.5505295,-0.24884626,0.844461,-0.12643571,0.24801931,1.2136352,-0.15411179,-0.08421998,-0.06821607,1.2029171,0.24111465
0.1,0.0,1.4999999999999998,0.5235987755982988,-0.5235987755982988,0,-0.7475028,0.74118227,-0.74261194,0.55077904,-0.24568693,0.8371821,-0.2385018,0.3591949,1.1597115,-0.17680131,-0.08893995,-0.16976495,1.2318197,-0.026637467
0.1,0.0,1.4999999999999998,0.5235987755982988,-0.5235987755982988,0,-0.7478831,0.74323595,-0.7421487,0.55157566,-0.24118446,0.83649457,-0.15063876,0.9950148,1.3307025,0.19141719,-0.011141593,0.18862844,1.2113475,-0.16599491
0.1,0.0,1.4999999999999998,0.5235987755982988,-0.5235987755982988,0,-0.7467085,0.73852426,-0.74334145,0.54940677,-0.24631886,0.83799636,-0.027178647,-0.80367994,1.2876812,-0.077876695,-0.0006420685,-0.07128032,1.2581801,0.35763618
0.1,0.0,1.4999999999999998,0.5235987755982988,-0.5235987755982988,0,-0.7462637,0.7416933,-0.7424136,0.55100113,-0.2386167,0.8401251,-0.23607735,0.65330726,1.1709008,-0.19271278,-0.07390066,-0.24382894,1.2696317,-0.31282333
0.1,0.0,1.4999999999999998,0.5235987755982988,-0.5235987755982988,0,-0.74821675,0.74084425,-0.7411964,0.55070883,-0.2451397,0.8416217,-0.23154244,0.2265994,1.4355539,0.12814067,-0.00923768,0.04750757,1.1319447,-0.06316418
0.1,0.0,1.4999999999999998,0.5235987755982988,-0.5235987755982988,0,-0.74628526,0.742278,-0.7420033,0.5528234,-0.23357396,0.84265393,-0.15636541,0.49339658,1.2890433,0.004812254,-0.07146906,-0.16217697,1.0927873,1.5254503
0.1,0.0,1.4999999999999998,0.5235987755982988,-0.5235987755982988,0,-0.748086,0.7421003,-0.74142146,0.5495111,-0.24346149,0.8442582,-0.109252304,0.35856926,1.1685276,0.10039445,-0.035691798,-0.06563815,1.1681877,-0.70097584
0.1,0.0,1.4999999999999998,0.5235987755982988,-0.5235987755982988,0,-0.74702704,0.7420295,-0.74259686,0.5505646,-0.24205455,0.84219134,-0.16388139,-0.402529,1.2102562,0.25406042,-0.05468509,-0.12887922,1.1777827,0.22051084
0.1,0.0,1.4999999999999998,0.5235987755982988,-0.5235987755982988,0,-0.7491038,0.7414544,-0.74180585,0.55058753,-0.24047253,0.83959085,-0.13633893,0.31981623,1.3464369,-0.11491724,-0.031180166,0.20925665,1.1945208,0.05882405
0.1,0.0,1.4999999999999998,0.5235987755982988,-0.5235987755982988,0,-0.7481208,0.7425481,-0.7429916,0.5503301,-0.24406974,0.83839947,-0.06940477,0.44635987,1.4065033,-0.05934333,0.0026738623,-0.21945727,1.0758551,0.9389586
0.1,0.0,1.4999999999999998,0.5235987755982988,-0.5235987755982988,0,-0.7475661,0.74214095,-0.74258643,0.5492049,-0.24194103,0.84348565,-0.30183184,0.15771359,1.1480987,0.0040686075,-0.09164393,-0.09057542,1.2450498,0.6831781
0.1,0.0,1.4999999999999998,0.5235987755982988,-0.5235987755982988,0,-0.748195,0.7437575,-0.743435,0.55047506,-0.24289082,0.83991355,-0.044552855,0.42501134,1.4227958,0.15600756,0.015586338,-0.21410728,1.1050977,-0.080451116
0.1,0.0,1.4999999999999998,0.5235987755982988,-0.5235987755982988,0,-0.74744743,0.7409207,-0.7432425,0.54881907,-0.24440233,0.8421164,-0.29005864,-0.42574456,1.392334,-0.09620856,-0.015604722,0.106338896,1.1033089,0.2539542
0.1,0.0,1.4999999999999998,0.5235987755982988,-0.5235987755982988,0,-0.747588,0.74135035,-0.7412671,0.55109066,-0.2410947,0.84136057,-0.048162527,-0.33386746,1.3401731,0.15577443,-0.0077652037,0.04192744,1.0991386,-0.2384192
0.1,0.0,1.4999999999999998,0.5235987755982988,-0.5235987755982988,0,-0.7478874,0.7410986,-0.7418726,0.5495488,-0.23854695,0.8423353,-0.21689749,-0.667763,1.2398875,0.038127504,-0.12094098,-0.11187659,1.3622433,-0.16905817
0.1,0.0,1.4999999999999998,0.5235987755982988,-0.5235987755982988,0,-0.7469426,0.7411953,-0.7432052,0.55024964,-0.24401976,0.842528,-0.17466725,0.18576519,1.264155,0.15368631,-0.054774962,0.05001841,1.0895232,0.3289583
0.1,0.0,1.4999999999999998,0.5235987755982988,-0.5235987755982988,0,-0.7479486,0.7410008,-0.74186796,0.5507561,-0.2424349,0.841681,-0.09738897,0.29691547,1.4712579,0.2965911,0.074660525,-0.18696189,1.1516196,-0.9344202
0.1,0.0,1.4999999999999998,0.5235987755982988,-0.5235987755982988,0,-0.7470252,0.7398307,-0.7426825,0.55071217,-0.24709108,0.84112746,-0.24807696,0.8292256,1.4156435,-0.20897408,-0.022052305,0.029139416,0.9544235,-0.011942306
0.1,0.0,1.4999999999999998,0.5235987755982988,-0.5235987755982988,0,-0.7459969,0.7416895,-0.74150896,0.5478301,-0.24193878,0.84060943,-0.26049572,0.2139283,1.266321,0.1321849,0.013712455,-0.084567636,1.1770208,0.07786449
0.1,0.0,1.4999999999999998,0.5235987755982988,-0.5235987755982988,0,-0.7473008,0.74106234,-0.74150693,0.55062413,-0.25026992,0.8426633,-0.2906247,0.45265928,1.0767158,-0.067571625,-0.061797153,-0.26417083,1.001233,-0.14661166
0.1,0.0,1.4999999999999998,0.5235987755982988,-0.5235987755982988,0,-0.7478525,0.7398952,-0.7400244,0.55000585,-0.24660578,0.8443388,-0.26390758,0.20323801,1.3667208,0.15086488,-0.06420176,-0.13339134,1.2008189,-0.23056719
0.1,0.0,1.4999999999999998,0.5235987755982988,-0.5235987755982988,0,-0.7476668,0.7418265,-0.7412724,0.5520588,-0.2474154,0.8412744,-0.20926316,0.08730174,1.0568448,0.28772712,0.028603034,-0.19020423,1.1881112,0.41295835
0.1,0.0,1.4999999999999998,0.5235987755982988,-0.5235987755982988,0,-0.7472862,0.74361724,-0.74294007,0.5494829,-0.25093433,0.84075326,-0.10336212,0.65106624,1.2257724,-0.035593264,-0.046761774,-0.17656541,1.168048,0.15539035
0.1,0.0,1.4999999999999998,0.5235987755982988,-0.5235987755982988,0,-0.74753416,0.7407136,-0.7427879,0.5491566,-0.24717095,0.8408049,-0.123756506,-0.33791935,1.2536075,0.10428183,-0.117431715,0.053631637,1.1151382,0.5339203
0.1,0.0,1.4999999999999998,0.5235987755982988,-0.5235987755982988,0,-0.74667746,0.74125063,-0.74349695,0.54972285,-0.24402377,0.8436924,-0.31097028,0.03456994,1.3243093,0.14240056,-0.04373724,-0.41861644,1.3414652,0.71158886
0.1,0.0,1.4999999999999998,0.5235987755982988,-0.5235987755982988,0,-0.7475457,0.7436559,-0.74235386,0.5502033,-0.23861986,0.842532,-0.25679836,0.6546139,1.3024671,-0.07485779,-0.115767114,-0.09484109,1.195866,0.22783116
0.1,0.0,1.4999999999999998,0.5235987755982988,-0.5235987755982988,0,-0.7491945,0.73974246,-0.74087733,0.5515309,-0.24424078,0.8378374,-0.1930555,0.35334128,1.3051606,-0.012787119,-0.06806978,-0.054029472,1.1954099,0.52636904
0.1,0.0,1.4999999999999998,0.5235987755982988,-0.5235987755982988,0,-0.74862033,0.7439014,-0.7405514,0.55267626,-0.24601696,0.83945346,-0.21790636,-0.38140455,1.2681149,-0.013854313,-0.007577861,-0.50498956,1.1593418,-0.15086281
0.1,0.0,1.4999999999999998,0.5235987755982988,-0.5235987755982988,0,-0.7487154,0.7418366,-0.74096096,0.55027467,-0.2338234,0.8422036,-0.06826367,0.4078727,1.3811724,0.16131806,-0.078810744,0.028516598,1.2090093,1.0096481
0.1,0.0,1.4999999999999998,0.5235987755982988,-0.5235987755982988,0,-0.7470658,0.73863,-0.7423651,0.55156046,-0.25276574,0.8400302,-0.18788773,-0.07175252,1.4216378,0.22653145,-0.04160729,-0.013150026,1.2216988,-0.24893627
0.1,0.0,1.4999999999999998,0.5235987755982988,-0.5235987755982988,0,-0.74924654,0.7429539,-0.7419916,0.55187124,-0.25133118,0.837369,-0.33680025,-0.75550824,1.1830502,-0.19116846,0.011142181,0.11074101,1.1552994,-0.47516355
0.1,0.0,1.4999999999999998,0.5235987755982988,-0.5235987755982988,0,-0.74664456,0.73989534,-0.7399674,0.54976285,-0.24557593,0.83870876,-0.1384414,-0.8497853,1.3139906,0.16734068,0.042265017,0.38474214,1.0889524,-0.01689952
0.1,0.0,1.4999999999999998,0.5235987755982988,-0.5235987755982988,0,-0.74778754,0.7400941,-0.7429761,0.5501332,-0.24543634,0.8408049,-0.095568106,-0.34191227,1.2558832,0.04723115,-0.058670383,-0.09212318,1.1214463,0.02388592
0.1,0.0,1.4999999999999998,0.5235987755982988,-0.5235987755982988,0,-0.7475207,0.7423459,-0.73994625,0.5490568,-0.24017094,0.8392139,-0.11185172,0.2200334,1.3105091,0.06397198,-0.12801728,0.13740799,1.3290236,0.22152664
0.1,0.0,1.4999999999999998,0.5235987755982988,-0.5235987755982988,0,-0.7473719,0.7429075,-0.74188185,0.5506305,-0.2374275,0.8415298,-0.27159587,-0.17621854,1.3139098,-0.016647376,-0.083284914,-0.057999007,1.189174,1.0966302
0.1,0.0,1.4999999999999998,0.5235987755982988,-0.5235987755982988,0,-0.74754155,0.7407915,-0.74153453,0.5520266,-0.24373838,0.8407786,-0.0629654,0.29458952,1.297199,0.33295855,-0.05984457,-0.018386932,1.1270057,0.7106002
0.1,0.0,1.4999999999999998,0.5235987755982988,-0.5235987755982988,0,-0.7484278,0.74237776,-0.7421811,0.55079997,-0.24204034,0.8420967,-0.17580964,-0.22801417,1.1819916,-0.25064188,0.047075544,0.021891044,1.1698395,0.15139657
0.1,0.0,1.4999999999999998,0.5235987755982988,-0.5235987755982988,0,-0.74835116,0.74123335,-0.74169475,0.5513347,-0.24809647,0.83724767,-0.20561989,0.1852834,1.3280118,-0.18567218,0.00034412782,0.11672697,1.1572068,0.62109673
0.1,0.0,1.4999999999999998,0.5235987755982988,-0.5235987755982988,0,-0.7478641,0.7403423,-0.74101365,0.551637,-0.24371064,0.84148675,-0.19629791,-0.75090593,1.4511703,-0.17099252,0.028282046,-0.16037178,1.1743932,0.31534538
0.1,0.0,1.4999999999999998,0.5235987755982988,-0.5235987755982988,0,-0.7455246,0.7394582,-0.7407658,0.55138934,-0.24518716,0.8400453,-0.2733364,0.56777865,1.1292425,-0.027654415,-0.02595891,0.1497144,1.2866206,-0.053165227
0.1,0.0,1.4999999999999998,0.5235987755982988,-0.5235987755982988,0,-0.74711597,0.7416443,-0.7407502,0.54994154,-0.2413996,0.8417347,-0.12314052,-0.1811106,1.4477069,-0.16280088,-0.021338055,0.03964833,1.1042264,-0.67632097
0.1,0.0,1.4999999999999998,0.5235987755982988,-0.5235987755982988,0,-0.7471778,0.73932594,-0.74196076,0.5514578,-0.24522984,0.8424155,-0.15388876,-0.5462973,1.1447247,-0.16709034,-0.010192697,-0.0675517,1.4135714,0.5276854
0.1,0.0,1.4999999999999998,0.5235987755982988,-0.5235987755982988,0,-0.7486451,0.7403271,-0.74152356,0.55072916,-0.24208139,0.8405699,-0.26526716,0.09337973,1.427099,-0.0015842299,-0.03836489,-0.07344292,1.2403892,-0.064674065
0.1,0.0,1.4999999999999998,0.5235987755982988,-0.5235987755982988,0,-0.7463906,0.74015665,-0.74070185,0.550261,-0.24961884,0.84348935,-0.13526514,0.15549904,1.4255432,-0.075432174,-0.10212475,-0.028239207,1.2096884,-0.26141214
0.1,0.0,1.4999999999999998,0.5235987755982988,-0.5235987755982988,0,-0.74663556,0.7427726,-0.7416756,0.55030876,-0.25238267,0.8409612,-0.13444112,0.39570946,1.2663151,-0.14243166,-0.0074987626,0.54001224,1.3134584,-0.28577664
0.1,0.0,1.4999999999999998,0.5235987755982988,-0.5235987755982988,0,-0.748135,0.73933005,-0.74187684,0.55026674,-0.25290218,0.8395216,-0.18386869,0.45930812,1.3327372,0.19718376,-0.020557847,0.24870019,1.1226751,0.5372224
0.1,0.0,1.4999999999999998,0.5235987755982988,-0.5235987755982988,0,-0.7482139,0.74226093,-0.7409263,0.5503157,-0.25053453,0.8418271,-0.23724876,-0.19450301,1.17471,-0.10546795,-0.0077717993,0.01823454,1.1946828,-0.3418992
0.1,0.0,1.4999999999999998,0.5235987755982988,-0.5235987755982988,0,-0.74700826,0.7429093,-0.7415208,0.5519961,-0.24697283,0.84192157,-0.29636183,-0.25253454,1.2594279,-0.019243503,-0.075549,-0.07643655,1.151069,0.11921655
0.1,0.0,1.4999999999999998,0.5235987755982988,-0.5235987755982988,0,-0.7473748,0.74035877,-0.7408941,0.55163664,-0.24900608,0.84177196,-0.29952207,-0.25712246,1.292663,0.10813625,0.033989016,-0.027756162,1.2442559,0.6224154
0.1,0.0,1.4999999999999998,0.5235987755982988,-0.5235987755982988,0,-0.74883753,0.7410871,-0.7422497,0.5498354,-0.23953672,0.8411159,-0.19327828,0.80833924,1.2373881,0.06568765,-0.031404268,0.28653294,1.1475967,0.5360127
0.1,0.0,1.4999999999999998,0.5235987755982988,-0.5235987755982988,0,-0.7475913,0.7434757,-0.7434615,0.5500056,-0.24508466,0.8421585,-0.15084864,-0.17768043,1.1162407,-0.23891121,0.033348586,-0.19925009,1.2838033,-0.47939938
0.1,0.0,1.4999999999999998,0.5235987755982988,-0.5235987755982988,0,-0.74762565,0.74049926,-0.7406456,0.5508917,-0.24353504,0.8411158,-0.23259042,-0.2255885,1.3919815,0.060546853,-0.07240168,-0.030668303,1.288204,0.4125147
0.1,0.0,1.4999999999999998,0.5235987755982988,-0.5235987755982988,0,-0.7464855,0.74150777,-0.7410024,0.54870236,-0.24605528,0.8402993,-0.15931906,-0.77757657,1.3460027,0.12564759,-0.08061169,0.17202781,1.0031582,0.28742537
0.1,0.0,1.4999999999999998,0.5235987755982988,-0.5235987755982988,0,-0.74765563,0.7425003,-0.7417429,0.55186737,-0.24077876,0.84426713,-0.19911595,0.5373279,1.5204601,-0.055874046,0.025469601,-0.010447442,1.2175695,0.36338446
0.1,0.0,1.4999999999999998,0.5235987755982988,-0.5235987755982988,0,-0.7481532,0.73858255,-0.7411073,0.54951733,-0.246347,0.8445476,-0.3726737,0.076626934,1.2961388,0.096711375,0.021450752,0.0945555,1.1521469,0.11635797
0.1,0.0,1.4999999999999998,0.5235987755982988,-0.5235987755982988,0,-0.7486318,0.74262357,-0.7426194,0.5500474,-0.24340968,0.8438632,-0.32891867,-0.6392963,1.2965064,0.052550536,-0.020108147,-0.06637366,1.2874383,0.46874574
0.1,0.0,1.4999999999999998,0.5235987755982988,-0.5235987755982988,0,-0.74801767,0.7431903,-0.74265647,0.5505192,-0.2431033,0.84144235,-0.22904384,0.21008976,1.2566429,0.16107716,-0.1119832,-0.096564084,1.3254259,0.35273784
0.1,0.0,1.4999999999999998,0.5235987755982988,-0.5235987755982988,0,-0.74651104,0.74179363,-0.7411731,0.5497952,-0.24557275,0.8422146,-0.15330303,-0.12414161,1.0194465,0.15722094,-0.014736802,-0.18932112,1.1627337,0.27194306
0.1,0.0,1.4999999999999998,0.5235987755982988,-0.5235987755982988,0,-0.745982,0.7422175,-0.74391544,0.5512009,-0.24297608,0.8427742,-0.17056176,-0.08684226,1.3261343,-0.17356697,-0.0009841616,0.1286431,1.2520792,-0.41079482
0.1,0.0,1.4999999999999998,0.5235987755982988,-0.5235987755982988,0,-0.74739546,0.7421048,-0.7405899,0.5505913,-0.24633263,0.8392621,-0.16024268,0.5688273,1.4965072,-0.1485931,-0.04543879,-0.34073207,1.2078127,0.11878204
0.1,0.0,1.4999999999999998,0.5235987755982988,-0.5235987755982988,0,-0.74660176,0.7424592,-0.7412226,0.55302644,-0.24099465,0.8420198,-0.14207228,0.6748631,1.5030434,0.13051946,0.03747278,-0.16599943,1.2089922,-0.10748927
0.1,0.0,1.4999999999999998,0.5235987755982988,-0.5235987755982988,0,-0.7468941,0.7382681,-0.742355,0.55266774,-0.24639983,0.84322286,-0.2724825,0.27726832,1.3616406,-0.13505068,-0.10355483,-0.0052203974,1.1216985,0.4171896
0.1,0.0,1.4999999999999998,0.5235987755982988,-0.5235987755982988,0,-0.747542,0.7399003,-0.74116814,0.5527527,-0.2526636,0.8389739,-0.24673331,1.6277663,1.4489603,0.13690506,-0.058338005,-0.03827688,1.1593168,-0.19438456
0.1,0.0,1.4999999999999998,0.5235987755982988,-0.5235987755982988,0,-0.7461242,0.7404782,-0.7416702,0.5504157,-0.24562766,0.834855,-0.18328673,0.13849461,1.2547691,-0.15512249,-0.1359401,-0.03189413,1.0903914,-0.08002234
0.1,0.0,1.4999999999999998,0.5235987755982988,-0.5235987755982988,0,-0.74746007,0.7397312,-0.74259764,0.5510167,-0.24683599,0.8375466,-0.032797314,0.31073028,1.3436958,-0.1565544,-0.07332956,-0.18517981,0.8913439,0.45373914
0.1,0.0,1.4999999999999998,0.5235987755982988,-0.5235987755982988,0,-0.74757636,0.7404489,-0.7403249,0.5506259,-0.23967922,0.8380996,-0.29718322,0.35262698,1.1614041,0.18335097,-0.045486495,-0.39385375,1.2161885,0.17071247
0.1,0.0,1.4999999999999998,0.5235987755982988,-0.5235987755982988,0,-0.7481874,0.74377656,-0.74226683,0.549189,-0.24071324,0.83603495,-0.12591192,-0.31359598,1.3536172,-0.19907586,-0.11994124,-0.19433494,1.1839609,-0.069876224
0.1,0.0,1.4999999999999998,0.5235987755982988,-0.5235987755982988,0,-0.74640226,0.73982626,-0.74064976,0.5486831,-0.2394984,0.8405235,-0.22147156,0.15514158,1.3588026,0.111962795,0.024283608,-0.00042677933,1.1556927,0.39747626
0.1,0.0,1.4999999999999998,0.5235987755982988,-0.5235987755982988,0,-0.74647486,0.7394116,-0.74095654,0.5495946,-0.23710194,0.8379365,-0.31622097,0.5405034,1.2237384,0.27331787,0.010390829,-0.007892631,1.0872071,-0.2810981
0.1,0.0,1.4999999999999998,0.5235987755982988,-0.5235987755982988,0,-0.74816126,0.7408687,-0.74069417,0.54920155,-0.24281754,0.83860934,-0.22153322,-0.71614546,1.2906033,-0.0006501604,-0.038128566,0.17976014,1.186888,0.1376823
0.1,0.0,1.4999999999999998,0.5235987755982988,-0.5235987755982988,0,-0.7472986,0.7407706,-0.7405884,0.54732734,-0.2488995,0.8383595,-0.060749907,-0.35963252,1.2973145,-0.0146226995,-0.027218364,-0.04987767,1.2165821,0.30197015
0.1,0.0,1.4999999999999998,0.5235987755982988,-0.5235987755982988,0,-0.7478785,0.7406947,-0.74225557,0.54857177,-0.24403302,0.8381018,-0.2444756,0.8327685,1.0882561,0.044559743,0.01481945,-0.10947881,1.1287173,-0.2023058
0.1,0.0,1.4999999999999998,0.5235987755982988,-0.5235987755982988,0,-0.7469856,0.7402849,-0.7414825,0.5489517,-0.23642778,0.83810186,-0.17961387,-0.050021768,1.3570312,0.01037517,-0.0045009307,0.104388505,1.1649916,0.560596
0.1,0.0,1.4999999999999998,0.5235987755982988,-0.5235987755982988,0,-0.7469917,0.7389246,-0.74098355,0.54813987,-0.22623657,0.83885676,-0.17813112,0.30134267,1.2697287,-0.019370524,-0.04089225,0.21897706,1.2663767,0.041778173
0.1,0.0,1.4999999999999998,0.5235987755982988,-0.5235987755982988,0,-0.7482002,0.74192214,-0.74030864,0.5487123,-0.24151374,0.839876,-0.05561867,0.32825968,1.3071204,-0.16209653,-0.103338085,-0.17158084,1.2850852,0.34540752
0.1,0.0,1.4999999999999998,0.5235987755982988,-0.5235987755982988,0,-0.74820983,0.7417962,-0.74218744,0.549256,-0.23859881,0.83563584,-0.27671075,0.33934987,1.2625986,0.12796901,-0.14590494,-0.06729258,1.2092562,-0.3776601
0.1,0.0,1.4999999999999998,0.5235987755982988,-0.5235987755982988,0,-0.74699956,0.7419798,-0.74268734,0.54909974,-0.24963732,0.83411586,-0.053972904,-0.93732077,1.2314042,0.018483762,-0.07620535,-0.41879505,1.2689351,0.2377448
0.1,0.0,1.4999999999999998,0.5235987755982988,-0.5235987755982988,0,-0.7475739,0.74279505,-0.7412318,0.54949707,-0.2453848,0.8381595,-0.20212308,-0.119066715,1.2732468,0.17645015,0.011397345,-0.05209463,1.0331495,-0.50744903
0.1,0.0,1.4999999999999998,0.5235987755982988,-0.5235987755982988,0,-0.7473153,0.7405034,-0.741583,0.5487082,-0.23765515,0.83933353,-0.18394881,-0.03500787,1.301425,0.13104182,-0.08867108,0.086001314,1.279958,-0.398756
0.1,0.0,1.4999999999999998,0.5235987755982988,-0.5235987755982988,0,-0.7472804,0.74135506,-0.7425379,0.5482407,-0.23903504,0.8404398,-0.13760822,1.0908301,1.0980479,0.081508,-0.07642885,-0.1902368,1.2040756,-0.56373173
0.1,0.0,1.4999999999999998,0.5235987755982988,-0.5235987755982988,0,-0.7484184,0.73785526,-0.7403204,0.5500678,-0.23670547,0.8374279,-0.2816253,-0.008353708,1.2381368,0.0063980133,-0.012884375,0.1538784,1.1656735,-0.3083509
0.1,0.0,1.4999999999999998,0.5235987755982988,-0.5235987755982988,0,-0.7476263,0.738984,-0.74244684,0.55059963,-0.23407933,0.83774406,-0.21757723,-0.020623686,1.2425253,0.058594014,-0.08322721,-0.14822234,1.0368725,0.48674318
0.1,0.0,1.4999999999999998,0.5235987755982988,-0.5235987755982988,0,-0.7486517,0.738189,-0.7424751,0.5484136,-0.24538481,0.8363123,-0.32285556,-0.7477286,1.2225024,0.1603638,-0.07822565,0.0499322,1.1700088,-0.02214499
0.1,0.0,1.4999999999999998,0.5235987755982988,-0.5235987755982988,0,-0.7482246,0.7404718,-0.7412321,0.5492704,-0.24360289,0.8418191,-0.15841506,-0.03570238,1.3889251,-0.16233656,-0.024139458,0.051946193,1.0048243,-0.10888996
0.1,0.0,1.4999999999999998,0.5235987755982988,-0.5235987755982988,0,-0.74736655,0.74127805,-0.74279153,0.5496259,-0.23476662,0.8388459,-0.20987184,0.46725696,1.3765529,-0.041373085,-0.07289642,-0.10734315,1.2191734,0.3883347
0.1,0.0,1.4999999999999998,0.5235987755982988,-0.5235987755982988,0,-0.74862236,0.74361837,-0.7421129,0.5501748,-0.24058646,0.8361797,-0.13747878,-0.5252981,1.1966145,-0.12649098,0.049010485,0.013135936,1.0857735,0.24134743
0.1,0.0,1.4999999999999998,0.5235987755982988,-0.5235987755982988,0,-0.74740785,0.74110436,-0.7422205,0.5498839,-0.2369831,0.84435356,-0.26550066,-0.23424236,1.4458143,-0.035114504,0.0012227225,-0.14489114,1.3690759,0.13210902
0.1,0.0,1.4999999999999998,0.5235987755982988,-0.5235987755982988,0,-0.74765706,0.73988205,-0.7420751,0.549481,-0.23982506,0.8417581,-0.0969703,0.42263368,1.4152913,-0.048004083,0.04462339,0.043721244,1.1585808,-0.5085319
0.1,0.0,1.4999999999999998,0.5235987755982988,-0.5235987755982988,0,-0.7465401,0.73879695,-0.7423336,0.55226386,-0.2424918,0.8373726,-0.15309179,0.4748169,1.4184393,0.17087394,-0.07447828,0.0030129089,1.0759798,0.6535296
0.1,0.0,1.4999999999999998,0.5235987755982988,-0.5235987755982988,0,-0.7477593,0.73985684,-0.74160594,0.55013627,-0.23619221,0.8419717,-0.1607729,0.41217738,1.2429671,0.17669933,-0.026896523,-0.1206577,1.1984553,0.28923887
0.1,0.0,1.4999999999999998,0.5235987755982988,-0.5235987755982988,0,-0.7472125,0.7418549,-0.74076295,0.5519397,-0.23617797,0.83949757,-0.11062201,-0.6685881,1.3250843,0.0031260105,0.010324159,-0.024157599,1.3740575,0.25529423
0.1,0.0,1.4999999999999998,0.5235987755982988,-0.5235987755982988,0,-0.74740195,0.74305624,-0.74031377,0.5493795,-0.23947543,0.84256315,-0.29337788,-0.046990808,1.2504278,0.019528192,-0.11213551,-0.059898116,1.0399789,-0.34367487
0.1,0.0,1.4999999999999998,0.5235987755982988,-0.5235987755982988,0,-0.74851567,0.73925704,-0.7412075,0.55080783,-0.24287872,0.83852965,-0.23738942,0.022860171,1.2883327,-0.0703832,0.003565263,-0.13934533,1.0894759,1.0114613
0.1,0.0,1.4999999999999998,0.5235987755982988,-0.5235987755982988,0,-0.74757993,0.74053836,-0.740183,0.5495622,-0.24393542,0.83964074,-0.228448,-0.0022915627,1.2927469,-0.017433606,-0.15865761,-0.23918197,1.0948045,-0.31536368
0.1,0.0,1.4999999999999998,0.5235987755982988,-0.5235987755982988,0,-0.74806714,0.7424934,-0.7425166,0.54918814,-0.24311766,0.83922035,-0.20464924,0.13317434,1.2918826,0.09340814,-0.15495339,-0.39516303,1.0561082,-0.30987546
0.1,0.0,1.4999999999999998,0.5235987755982988,-0.5235987755982988,0,-0.7484766,0.74034125,-0.74279547,0.54966456,-0.24759889,0.8383155,-0.2100954,-0.2109497,1.233702,0.06859775,0.0012853704,0.22689077,0.9542971,0.20326245
0.1,0.0,1.4999999999999998,0.5235987755982988,-0.5235987755982988,0,-0.7479856,0.7397754,-0.74139017,0.5516117,-0.24325272,0.8383572,-0.09047754,0.66069126,1.3148721,0.05235212,-0.04732415,0.011032331,1.1183493,-0.10923579
0.1,0.0,1.4999999999999998,0.5235987755982988,-0.5235987755982988,0,-0.747144,0.74027395,-0.7422729,0.5495259,-0.24229057,0.84295446,-0.13906388,-0.48901394,1.1964599,-0.019479442,-0.07884295,-0.05824885,1.3997316,0.1144246
0.1,0.0,1.4999999999999998,0.5235987755982988,-0.5235987755982988,0,-0.74730235,0.73889303,-0.7421502,0.5499349,-0.24386589,0.84099567,-0.13590582,0.29268664,1.265885,0.15686563,0.0028729641,0.030465934,1.3027955,0.66922635
0.1,0.0,1.4999999999999998,0.5235987755982988,-0.5235987755982988,0,-0.7476527,0.74248344,-0.742535,0.55187315,-0.2400463,0.8375221,-0.15907978,-0.43086547,1.1573266,-0.20066613,0.023755392,-0.16567461,1.2454687,0.61660695
0.1,0.0,1.4999999999999998,0.5235987755982988,-0.5235987755982988,0,-0.74793583,0.7402135,-0.73993796,0.5494325,-0.2489711,0.8425425,-0.18530153,-0.013772525,1.2643086,-0.029186476,-0.10932891,-0.20196483,1.2624826,0.33877608
0.1,0.0,1.4999999999999998,0.5235987755982988,-0.5235987755982988,0,-0.74795264,0.74176997,-0.7411166,0.5505426,-0.2414749,0.84130245,-0.18240504,-0.23469506,1.4122822,-0.31827968,-0.14392103,-0.20081863,1.1950089,-0.333884
0.1,0.0,1.4999999999999998,0.5235987755982988,-0.5235987755982988,0,-0.7485496,0.74466956,-0.7423168,0.5493299,-0.23801948,0.84014356,-0.28424132,-0.037781276,1.1928577,0.08538697,-0.056382913,-0.26746592,1.1739553,0.10719532
0.1,0.0,1.4999999999999998,0.5235987755982988,-0.5235987755982988,0,-0.74722975,0.74249464,-0.7427704,0.54915124,-0.24755898,0.84094083,-0.28599152,-0.19549015,1.2164246,-0.14409168,-0.07607686,-0.09713354,0.9835185,-0.122544214
0.1,0.0,1.4999999999999998,0.5235987755982988,-0.5235987755982988,0,-0.7480253,0.74057424,-0.7426973,0.55032176,-0.23919211,0.8375012,-0.16395721,0.23496482,1.2217574,-0.10572145,0.07951449,-0.21408653,1.2242011,0.44163465
0.1,0.0,1.4999999999999998,0.5235987755982988,-0.5235987755982988,0,-0.74663144,0.7422691,-0.7407416,0.5512627,-0.24344306,0.8411621,-0.25143644,-0.36839607,1.3874366,0.17151915,-0.04052478,0.25686467,1.1088473,0.302005
0.1,0.0,1.4999999999999998,0.5235987755982988,-0.5235987755982988,0,-0.747388,0.74323654,-0.74188346,0.5514238,-0.23918252,0.83815384,-0.26401266,-0.16586788,1.4323735,0.0042168736,-0.13355201,0.008089942,1.2067357,-0.3859467
0.1,0.0,1.4999999999999998,0.5235987755982988,-0.5235987755982988,0,-0.7487667,0.74189585,-0.74198,0.5488177,-0.24647224,0.840192,-0.25785926,-0.40767455,1.3321619,0.15977362,0.012482566,-0.2625414,1.166165,0.08779681
0.1,0.0,1.4999999999999998,0.5235987755982988,-0.5235987755982988,0,-0.74914694,0.74145705,-0.74132925,0.5496827,-0.2420538,0.84015054,-0.1650643,0.29350138,1.2526088,0.12181317,-0.056810457,0.149644,1.3178095,0.13904215
0.1,0.0,1.4999999999999998,0.5235987755982988,-0.5235987755982988,0,-0.74843746,0.7379949,-0.74236333,0.549004,-0.24099337,0.84063935,-0.1028702,0.48265937,1.3223213,0.18111934,-0.021585917,0.019114457,1.3087842,0.15275605
0.1,0.0,1.4999999999999998,0.5235987755982988,-0.5235987755982988,0,-0.747797,0.74255466,-0.7400741,0.55112034,-0.24340887,0.8417623,-0.22123013,0.57231313,1.1250511,-0.048175536,-0.020920632,0.0053798608,1.1083654,0.3399388
0.1,0.0,1.4999999999999998,0.5235987755982988,-0.5235987755982988,0,-0.7478294,0.7404918,-0.7420149,0.54972154,-0.24830073,0.84013754,-0.06840067,-0.1598969,1.2250729,0.27556366,-0.12660149,-0.09440067,1.3739913,0.36018732
0.1,0.0,1.4999999999999998,0.5235987755982988,-0.5235987755982988,0,-0.74869215,0.74337125,-0.7408472,0.5509269,-0.23877385,0.8411679,-0.13560034,0.52480084,1.2574319,0.017773302,-0.036245577,-0.014889843,1.0318685,0.06504484
0.1,0.0,1.4999999999999998,0.5235987755982988,-0.5235987755982988,0,-0.74706715,0.7414423,-0.7415095,0.55174756,-0.24151452,0.8404751,-0.116854936,-0.19203079,1.2571839,-0.020039804,-0.014861995,0.34835967,1.0662384,-0.09040758
0.1,0.0,1.4999999999999998,0.5235987755982988,-0.5235987755982988,0,-0.74851614,0.73967206,-0.74175054,0.54979575,-0.23936431,0.84032595,-0.22802958,0.49098024,1.2103997,-0.049463842,-0.09879273,0.0043330244,1.2727814,-0.13710822
0.1,0.0,1.4999999999999998,0.5235987755982988,-0.5235987755982988,0,-0.74768966,0.7413064,-0.74172693,0.551603,-0.24917933,0.842064,-0.18102972,0.08596378,1.245425,-0.10656775,-0.04639856,-0.24480268,1.4416796,0.9198444
0.1,0.0,1.4999999999999998,0.5235987755982988,-0.5235987755982988,0,-0.7472532,0.74256235,-0.7419011,0.55092454,-0.2529132,0.84065795,-0.1985829,0.90957767,1.2910178,-0.16479364,-0.07931233,-0.02412141,1.2011411,-0.41499758
0.1,0.0,1.4999999999999998,0.5235987755982988,-0.5235987755982988,0,-0.7473155,0.7411683,-0.7407565,0.54902023,-0.24412103,0.84000146,-0.16723149,-0.23891102,1.3592359,0.13878709,-0.14877553,-0.07623154,1.1144215,0.061000407
0.1,0.0,1.4999999999999998,0.5235987755982988,-0.5235987755982988,0,-0.747632,0.7407589,-0.74118143,0.5508727,-0.25372133,0.84198934,-0.14416476,-0.36949545,1.2755218,0.0065401825,-0.08314694,-0.039040778,1.209497,0.78504896
0.1,0.0,1.4999999999999998,0.5235987755982988,-0.5235987755982988,0,-0.7482195,0.74264437,-0.7409783,0.54913473,-0.2436137,0.83518076,-0.17850158,0.08162418,1.1680988,-0.075934224,-0.08440518,-0.038773913,1.1881363,0.046507068
0.1,0.0,1.4999999999999998,0.5235987755982988,-0.5235987755982988,0,-0.7475648,0.7406313,-0.7416685,0.54847723,-0.240523,0.8377424,-0.18002951,0.014971188,1.269718,0.12841158,0.005984339,0.053786423,1.21306,-0.6476528
0.1,0.0,1.4999999999999998,0.5235987755982988,-0.5235987755982988,0,-0.7480052,0.74185854,-0.7410804,0.5499474,-0.24439605,0.8368125,-0.23828848,-0.04335907,1.4274076,-0.076361515,0.0020923899,0.15692458,1.1494062,-0.37250355
0.1,0.0,1.4999999999999998,0.5235987755982988,-0.5235987755982988,0,-0.7478437,0.73934364,-0.74015355,0.5494129,-0.24276306,0.8411728,-0.14442296,0.57781065,1.3848612,-0.113069944,0.08555409,0.08407868,0.96935046,0.25613135
0.1,0.0,1.4999999999999998,0.5235987755982988,-0.5235987755982988,0,-0.745692,0.74016666,-0.74150836,0.5513643,-0.24035263,0.8397324,-0.06325937,-0.012792322,1.2394277,0.12435211,-0.035508584,-0.16356026,1.1994089,-0.046599653
0.1,0.0,1.4999999999999998,0.5235987755982988,-0.5235987755982988,0,-0.7460136,0.7431008,-0.74171287,0.5507241,-0.24593717,0.840211,-0.21391979,0.65009654,1.3406597,0.07095212,-0.010986633,-0.06809379,1.2208432,-0.42220706
0.1,0.0,1.4999999999999998,0.5235987755982988,-0.5235987755982988,0,-0.7479501,0.7399725,-0.74154025,0.5499983,-0.24404752,0.8410382,-0.3098184,-0.2722569,1.2687855,-0.04432254,-0.06312565,-0.038289465,1.425842,0.8516367
0.1,0.0,1.4999999999999998,0.5235987755982988,-0.5235987755982988,0,-0.7480133,0.74011177,-0.74183017,0.5502083,-0.24191055,0.8431635,-0.117547974,-0.9345777,1.3642409,-0.19117084,0.005004893,-0.15608376,1.1159319,-0.0928608
0.1,0.0,1.4999999999999998,0.5235987755982988,-0.5235987755982988,0,-0.74734926,0.74134725,-0.74245274,0.54922277,-0.24461587,0.84287226,-0.21506508,-0.233533,1.3962458,-0.04403039,-0.042406958,-0.2438657,1.1279192,-0.22601151
0.1,0.0,1.4999999999999998,0.5235987755982988,-0.5235987755982988,0,-0.7494844,0.7413047,-0.74044955,0.5502379,-0.23635839,0.83809984,-0.26133952,-0.14447966,1.2599404,-0.17688476,-0.16080217,0.1298931,1.2380011,1.635616
0.1,0.0,1.4999999999999998,0.5235987755982988,-0.5235987755982988,0,-0.74755275,0.7399509,-0.7421073,0.5504011,-0.23617023,0.83857006,-0.25980172,0.3193352,1.285776,0.2751491,-0.12596495,-0.32936397,1.1473696,0.43007526
