sanky1234/BimanualDexCatch/isaacgymenvs/cem_results/football_pose_-0.1_0.0_0.6_0.5235987755982988_0.5235987755982988_0_2025-05-25.csv
x,y,z,roll,pitch,yaw,robot1/joint1,robot1/joint2,robot1/joint3,robot1/joint4,robot1/joint5,robot1/joint6,robot1/joint7,robot2/joint1,robot2/joint2,robot2/joint3,robot2/joint4,robot2/joint5,robot2/joint6,robot2/joint7
-0.1,0.0,0.6,0.5235987755982988,0.5235987755982988,0,0.64512014,1.9847436,0.007901852,-0.7735136,0.12848805,1.465897,-0.8035868,-0.76070374,1.3849032,0.18291739,-0.1870866,0.13891004,1.121487,0.5267365
-0.1,0.0,0.6,0.5235987755982988,0.5235987755982988,0,0.64229506,1.9908099,0.013742752,-0.77280647,0.09648788,1.4644997,-0.7822593,-0.7642525,1.3894736,0.18980032,-0.1869009,0.1478753,1.1234869,0.45754558
-0.1,0.0,0.6,0.5235987755982988,0.5235987755982988,0,0.64538455,1.9863387,0.00909561,-0.7670667,0.12835728,1.4629018,-0.7632357,-0.75264066,1.3869019,0.19377515,-0.18718496,0.14122401,1.1186969,0.50236773
-0.1,0.0,0.6,0.5235987755982988,0.5235987755982988,0,0.63888633,1.9897978,0.009115427,-0.77270806,0.07514197,1.4697006,-0.8008393,-0.75875133,1.3857548,0.18809001,-0.18959117,0.14331096,1.1253351,0.44128525
-0.1,0.0,0.6,0.5235987755982988,0.5235987755982988,0,0.6245018,1.9864336,0.007156483,-0.7653125,0.13738811,1.4655769,-0.7870003,-0.7474663,1.386919,0.20278707,-0.18679151,0.134389,1.1230673,0.561057
-0.1,0.0,0.6,0.5235987755982988,0.5235987755982988,0,0.62080026,1.9875908,0.0036039082,-0.77082485,0.11428684,1.4668503,-0.84278256,-0.7571498,1.3881401,0.18856429,-0.18696895,0.12786223,1.1239319,0.5361281
-0.1,0.0,0.6,0.5235987755982988,0.5235987755982988,0,0.63476795,1.9882085,0.014153912,-0.769872,0.12409667,1.4617561,-0.7438751,-0.7770647,1.386557,0.18798369,-0.19121891,0.14500095,1.1196029,0.4932096
-0.1,0.0,0.6,0.5235987755982988,0.5235987755982988,0,0.6393603,1.9879795,0.013360164,-0.7735626,0.11802777,1.4629833,-0.8288163,-0.7414094,1.3884422,0.18978631,-0.1866271,0.14303419,1.1254742,0.62189716
-0.1,0.0,0.6,0.5235987755982988,0.5235987755982988,0,0.634642,1.9856656,0.003185089,-0.76898074,0.12000069,1.4651662,-0.78505456,-0.7669135,1.3878045,0.19439477,-0.19041158,0.1548656,1.1233721,0.5366861
-0.1,0.0,0.6,0.5235987755982988,0.5235987755982988,0,0.6398743,1.9872359,-0.0037509878,-0.77822715,0.120772734,1.4667639,-0.8079273,-0.7494878,1.3897285,0.18919912,-0.18744788,0.13865288,1.1247487,0.48358923
-0.1,0.0,0.6,0.5235987755982988,0.5235987755982988,0,0.63623273,1.9851745,0.02381122,-0.7645244,0.105769776,1.4585289,-0.74835765,-0.74252623,1.3889594,0.1851865,-0.18724199,0.14228143,1.1225356,0.40929237
-0.1,0.0,0.6,0.5235987755982988,0.5235987755982988,0,0.6350351,1.9873255,0.012992599,-0.7672481,0.1173283,1.464694,-0.8099599,-0.7531567,1.3869729,0.1982219,-0.18564823,0.15413289,1.1258217,0.5258111
-0.1,0.0,0.6,0.5235987755982988,0.5235987755982988,0,0.6271186,1.9854836,0.011627362,-0.77491325,0.08911636,1.4636048,-0.7703815,-0.75795144,1.3884674,0.19521965,-0.18793966,0.12209815,1.131583,0.4603664
-0.1,0.0,0.6,0.5235987755982988,0.5235987755982988,0,0.640956,1.9863341,0.014053519,-0.77337575,0.12096652,1.4686238,-0.81701523,-0.7393873,1.3839554,0.18625368,-0.18875943,0.13566826,1.1280959,0.48863605
-0.1,0.0,0.6,0.5235987755982988,0.5235987755982988,0,0.63125765,1.9871542,0.008767159,-0.76903313,0.127316,1.4704119,-0.8693412,-0.7523812,1.3869644,0.18939508,-0.18885966,0.14101134,1.1264255,0.42155793
-0.1,0.0,0.6,0.5235987755982988,0.5235987755982988,0,0.63835937,1.9887835,-0.005449717,-0.7883147,0.09558237,1.467586,-0.8475475,-0.75919855,1.3886677,0.19597459,-0.1881288,0.13560407,1.1302524,0.5213297
-0.1,0.0,0.6,0.5235987755982988,0.5235987755982988,0,0.63069004,1.9854314,0.006195725,-0.7765211,0.092557065,1.4642978,-0.8145646,-0.74642634,1.3886032,0.18236536,-0.18890263,0.1266932,1.1230803,0.4697388
-0.1,0.0,0.6,0.5235987755982988,0.5235987755982988,0,0.6276759,1.9857816,-0.0021207556,-0.7683943,0.11746298,1.4716188,-0.797548,-0.76265764,1.3896428,0.17955485,-0.19203588,0.14500344,1.1269945,0.58979774
-0.1,0.0,0.6,0.5235987755982988,0.5235987755982988,0,0.6276116,1.986563,0.0032749104,-0.76969373,0.12447812,1.4638927,-0.8162594,-0.762858,1.3849704,0.18534903,-0.1880581,0.14183392,1.1257467,0.557468
-0.1,0.0,0.6,0.5235987755982988,0.5235987755982988,0,0.6349083,1.9898465,0.0010077793,-0.76795554,0.13045146,1.4660692,-0.8786127,-0.7552066,1.3857672,0.20012787,-0.18911204,0.1274811,1.1247035,0.5543081
-0.1,0.0,0.6,0.5235987755982988,0.5235987755982988,0,0.6325825,1.9857519,-0.0016104322,-0.77172357,0.14282891,1.4688616,-0.7953709,-0.74522233,1.3887602,0.18996449,-0.19102481,0.13688515,1.1239353,0.47142524
-0.1,0.0,0.6,0.5235987755982988,0.5235987755982988,0,0.6269477,1.986879,0.00566129,-0.77364963,0.120833986,1.4712665,-0.85116285,-0.75599456,1.3863994,0.18277892,-0.18748873,0.13942818,1.1247838,0.5164466
-0.1,0.0,0.6,0.5235987755982988,0.5235987755982988,0,0.63046527,1.9890989,0.011267507,-0.76547825,0.12252566,1.4649528,-0.76600486,-0.7614095,1.38852,0.18885276,-0.18702774,0.15062894,1.11947,0.3926388
-0.1,0.0,0.6,0.5235987755982988,0.5235987755982988,0,0.62376785,1.9881978,0.009293139,-0.77088445,0.115371324,1.472478,-0.75997615,-0.74561787,1.3874123,0.19423534,-0.18815456,0.14041321,1.1327044,0.5576457
-0.1,0.0,0.6,0.5235987755982988,0.5235987755982988,0,0.6381715,1.9836506,0.015881466,-0.7724185,0.12445209,1.4689109,-0.8003822,-0.7421124,1.3884913,0.18076774,-0.18915835,0.14866473,1.13081,0.5310611
-0.1,0.0,0.6,0.5235987755982988,0.5235987755982988,0,0.62886816,1.9841795,0.021518113,-0.7670965,0.11192744,1.4659243,-0.8444286,-0.76617134,1.3870109,0.19497003,-0.18709046,0.1494376,1.1241646,0.48254523
-0.1,0.0,0.6,0.5235987755982988,0.5235987755982988,0,0.6337203,1.9859715,0.0049685417,-0.76496094,0.11865217,1.4697404,-0.84623015,-0.7489342,1.3856866,0.19847697,-0.18392776,0.1382087,1.1245296,0.5664911
-0.1,0.0,0.6,0.5235987755982988,0.5235987755982988,0,0.62955546,1.989033,0.004427631,-0.77131164,0.11082365,1.4652793,-0.7757216,-0.7629789,1.3914729,0.19508368,-0.18869257,0.13681221,1.1278515,0.50582814
-0.1,0.0,0.6,0.5235987755982988,0.5235987755982988,0,0.6240024,1.986705,-0.00657399,-0.765424,0.13151716,1.4666413,-0.8260882,-0.7583873,1.3859162,0.18777557,-0.18854803,0.14534332,1.1250274,0.591356
-0.1,0.0,0.6,0.5235987755982988,0.5235987755982988,0,0.6422259,1.9869313,0.0075980187,-0.7727138,0.1422594,1.4579899,-0.809984,-0.7561043,1.3866713,0.19619764,-0.18678756,0.123475626,1.1315032,0.4818014
-0.1,0.0,0.6,0.5235987755982988,0.5235987755982988,0,0.6319449,1.985054,0.009317622,-0.7685907,0.09406389,1.4655423,-0.81586313,-0.7493575,1.3898052,0.19324699,-0.19101647,0.14511493,1.1235151,0.4330624
-0.1,0.0,0.6,0.5235987755982988,0.5235987755982988,0,0.6426494,1.9869481,-0.0056255134,-0.76982903,0.10084899,1.4700912,-0.7930909,-0.7666413,1.3873622,0.19134147,-0.18907428,0.13129236,1.1284013,0.4686641
-0.1,0.0,0.6,0.5235987755982988,0.5235987755982988,0,0.6257684,1.9877485,0.010931372,-0.7699034,0.15044035,1.4671216,-0.80687934,-0.76664346,1.3895372,0.18976532,-0.1904039,0.12057989,1.1272376,0.41062537
-0.1,0.0,0.6,0.5235987755982988,0.5235987755982988,0,0.63663393,1.9891754,0.0035737492,-0.7647855,0.09937284,1.4590594,-0.8101218,-0.7629621,1.3865838,0.1921251,-0.18795136,0.13139836,1.1267002,0.4582234
-0.1,0.0,0.6,0.5235987755982988,0.5235987755982988,0,0.6321587,1.9897641,0.012155824,-0.77678293,0.111183815,1.4628538,-0.72746265,-0.7881337,1.3855311,0.20183174,-0.18805848,0.14383687,1.1354555,0.40728572
-0.1,0.0,0.6,0.5235987755982988,0.5235987755982988,0,0.63708836,1.9895669,0.021002091,-0.77140653,0.14115699,1.466561,-0.83703005,-0.76875144,1.3866073,0.1868209,-0.18696065,0.13268912,1.1272902,0.5214559
-0.1,0.0,0.6,0.5235987755982988,0.5235987755982988,0,0.6204863,1.9859239,0.0053702346,-0.7723098,0.11211961,1.468784,-0.81846344,-0.76214814,1.3906312,0.18842624,-0.19191249,0.13166578,1.1254056,0.4715242
-0.1,0.0,0.6,0.5235987755982988,0.5235987755982988,0,0.6426716,1.9868972,0.0058455737,-0.7730905,0.13490362,1.4678574,-0.8382512,-0.7471908,1.3861405,0.18367474,-0.18858825,0.14765541,1.1208736,0.3491872
-0.1,0.0,0.6,0.5235987755982988,0.5235987755982988,0,0.6419213,1.9864132,0.0053396826,-0.77294105,0.11955211,1.4698701,-0.7438228,-0.7524533,1.390043,0.20367782,-0.18954547,0.14323744,1.135366,0.52362114
-0.1,0.0,0.6,0.5235987755982988,0.5235987755982988,0,0.6316866,1.9849392,-0.0007763305,-0.76632375,0.117834516,1.4671321,-0.8103948,-0.7743382,1.3876226,0.19213401,-0.1873307,0.12598185,1.1304055,0.5470641
-0.1,0.0,0.6,0.5235987755982988,0.5235987755982988,0,0.62167424,1.9845057,0.003846534,-0.7686541,0.097183466,1.4655056,-0.830223,-0.7742858,1.3865253,0.19170664,-0.18990174,0.14002714,1.1186708,0.6126075
-0.1,0.0,0.6,0.5235987755982988,0.5235987755982988,0,0.6366291,1.9850413,0.016054917,-0.7699998,0.09814314,1.4677466,-0.8387247,-0.7733061,1.3868903,0.19316015,-0.18739878,0.14160989,1.1256065,0.5174739
-0.1,0.0,0.6,0.5235987755982988,0.5235987755982988,0,0.634672,1.9883,0.012720244,-0.7677218,0.10501163,1.4708575,-0.7574107,-0.7739994,1.3834208,0.19126248,-0.18785718,0.14753897,1.1191771,0.45176494
-0.1,0.0,0.6,0.5235987755982988,0.5235987755982988,0,0.63085747,1.9872131,0.01883563,-0.7724432,0.12585765,1.4673556,-0.8195871,-0.76268035,1.3897538,0.19610596,-0.1864261,0.13693377,1.1327614,0.47294968
-0.1,0.0,0.6,0.5235987755982988,0.5235987755982988,0,0.6349052,1.9877626,0.0013597269,-0.7658365,0.1634521,1.4632131,-0.796742,-0.7677143,1.3871018,0.18580723,-0.18862768,0.13691406,1.1271367,0.5804421
-0.1,0.0,0.6,0.5235987755982988,0.5235987755982988,0,0.6426457,1.9853876,-2.5868992e-05,-0.7729533,0.09410926,1.4661045,-0.8503299,-0.77498615,1.386192,0.19509089,-0.18878555,0.14636502,1.1278812,0.44264978
-0.1,0.0,0.6,0.5235987755982988,0.5235987755982988,0,0.62689835,1.9862828,0.0084715,-0.7731889,0.11424684,1.4708802,-0.8392281,-0.7603365,1.3918608,0.20397243,-0.18849152,0.13247286,1.1256486,0.5548568
-0.1,0.0,0.6,0.5235987755982988,0.5235987755982988,0,0.63106287,1.9880465,-0.007165419,-0.76802516,0.14049993,1.4631304,-0.8282258,-0.74566716,1.3896214,0.19202736,-0.18865006,0.14860865,1.1277826,0.5756765
-0.1,0.0,0.6,0.5235987755982988,0.5235987755982988,0,0.61884063,1.985593,0.013594293,-0.77187395,0.08452825,1.4642324,-0.8215889,-0.74033654,1.3901556,0.18665157,-0.18957344,0.13869329,1.1282603,0.565966
-0.1,0.0,0.6,0.5235987755982988,0.5235987755982988,0,0.634218,1.9851825,0.02179802,-0.7701408,0.1135904,1.4656826,-0.81106573,-0.7488636,1.3881502,0.19496922,-0.18433285,0.13699715,1.1225145,0.54270107
-0.1,0.0,0.6,0.5235987755982988,0.5235987755982988,0,0.62606543,1.9882945,-0.00030792286,-0.77267325,0.13127185,1.4607164,-0.8299564,-0.7527631,1.387084,0.19084969,-0.194308,0.14661397,1.1320615,0.45976496
-0.1,0.0,0.6,0.5235987755982988,0.5235987755982988,0,0.6195986,1.9858549,-0.0059582666,-0.7680703,0.10917825,1.4647268,-0.8354087,-0.74774057,1.3900954,0.19922207,-0.18808843,0.1434465,1.1264359,0.51108325
-0.1,0.0,0.6,0.5235987755982988,0.5235987755982988,0,0.6477754,1.9876136,0.00013507578,-0.7719364,0.105710536,1.468987,-0.8032382,-0.74819636,1.388918,0.18741743,-0.18979077,0.121935524,1.1300104,0.5164586
-0.1,0.0,0.6,0.5235987755982988,0.5235987755982988,0,0.6354972,1.9855825,0.022991514,-0.77148926,0.13264297,1.4672713,-0.8317876,-0.7605484,1.3896804,0.19129927,-0.18871696,0.14936322,1.1362152,0.5125969
-0.1,0.0,0.6,0.5235987755982988,0.5235987755982988,0,0.6399095,1.9888117,0.0032025657,-0.77586305,0.115068264,1.461464,-0.8132504,-0.7571055,1.3861917,0.19076017,-0.18937935,0.142048,1.1239429,0.49817768
-0.1,0.0,0.6,0.5235987755982988,0.5235987755982988,0,0.6285636,1.9840577,0.0117778415,-0.7690971,0.12350799,1.4610181,-0.8748535,-0.7673448,1.3864821,0.19589108,-0.1871765,0.13174425,1.1262555,0.5123802
-0.1,0.0,0.6,0.5235987755982988,0.5235987755982988,0,0.63105917,1.9864528,0.00024746085,-0.77185607,0.10555546,1.4678934,-0.7650959,-0.7483341,1.3876106,0.18368745,-0.18760668,0.1296301,1.1226981,0.62753797
-0.1,0.0,0.6,0.5235987755982988,0.5235987755982988,0,0.63806164,1.9859794,-0.0005393028,-0.77215046,0.14127456,1.4658054,-0.7937496,-0.7450248,1.385369,0.19684376,-0.18512307,0.1370172,1.1287701,0.51664144
-0.1,0.0,0.6,0.5235987755982988,0.5235987755982988,0,0.64638215,1.9856105,0.0037871501,-0.76729876,0.101791404,1.4683212,-0.77657735,-0.76778764,1.3883941,0.1898185,-0.18401076,0.14219823,1.124809,0.37519565
-0.1,0.0,0.6,0.5235987755982988,0.5235987755982988,0,0.6437498,1.9860822,0.01427825,-0.7693058,0.15431455,1.4694432,-0.80234396,-0.7631628,1.3905094,0.18494672,-0.18737592,0.1441849,1.1285241,0.56307083
-0.1,0.0,0.6,0.5235987755982988,0.5235987755982988,0,0.63402057,1.9856995,0.0137317125,-0.7712699,0.14021078,1.4697345,-0.823731,-0.75895435,1.3882265,0.18547906,-0.1867607,0.13773286,1.1249464,0.6066265
-0.1,0.0,0.6,0.5235987755982988,0.5235987755982988,0,0.6271608,1.9840876,0.0013294069,-0.76677805,0.11712351,1.4656304,-0.7990655,-0.7634635,1.3901223,0.1936979,-0.1912727,0.12641214,1.1312044,0.4761276
-0.1,0.0,0.6,0.5235987755982988,0.5235987755982988,0,0.6287439,1.987496,0.016032457,-0.7744941,0.100399226,1.470852,-0.809254,-0.76420575,1.3880435,0.19158374,-0.18627873,0.1407479,1.129247,0.4633823
-0.1,0.0,0.6,0.5235987755982988,0.5235987755982988,0,0.6483641,1.9833834,0.0078061577,-0.77035666,0.1201206,1.4686865,-0.8663787,-0.7608342,1.3863631,0.19093038,-0.18478763,0.14716418,1.1297435,0.538882
-0.1,0.0,0.6,0.5235987755982988,0.5235987755982988,0,0.6292389,1.9865514,0.009804309,-0.7722743,0.111789554,1.4663091,-0.78483707,-0.7604452,1.3870656,0.18849218,-0.18736629,0.14819667,1.127423,0.54578227
-0.1,0.0,0.6,0.5235987755982988,0.5235987755982988,0,0.63567996,1.9873036,0.008851778,-0.76885355,0.15038474,1.4638766,-0.77329296,-0.75574833,1.3874305,0.19419144,-0.19035834,0.12987742,1.1286708,0.5510326
-0.1,0.0,0.6,0.5235987755982988,0.5235987755982988,0,0.632514,1.9890668,0.006281654,-0.7711188,0.15832299,1.4649227,-0.80518764,-0.7605374,1.3874078,0.18702736,-0.18736419,0.14023538,1.1277484,0.50619787
-0.1,0.0,0.6,0.5235987755982988,0.5235987755982988,0,0.6376276,1.9869885,-0.01106059,-0.7692793,0.11479381,1.4684228,-0.80621034,-0.7520819,1.388412,0.1876952,-0.1855998,0.14571004,1.1277786,0.4730018
-0.1,0.0,0.6,0.5235987755982988,0.5235987755982988,0,0.63435453,1.9858148,0.0093586985,-0.7693178,0.13650459,1.4714345,-0.8197886,-0.7585613,1.3890108,0.19259565,-0.1875477,0.13846081,1.1206824,0.48644084
-0.1,0.0,0.6,0.5235987755982988,0.5235987755982988,0,0.6430839,1.9857098,0.0013013851,-0.7715906,0.11771753,1.4686545,-0.8338253,-0.7423167,1.3856095,0.18516539,-0.18716922,0.13397546,1.1286926,0.50064856
-0.1,0.0,0.6,0.5235987755982988,0.5235987755982988,0,0.62987494,1.9876101,0.012246305,-0.77057296,0.1192718,1.4640887,-0.83435756,-0.75204706,1.388585,0.19787298,-0.18810922,0.14242949,1.1253431,0.49596104
-0.1,0.0,0.6,0.5235987755982988,0.5235987755982988,0,0.63222814,1.9857156,0.011603765,-0.7699274,0.14242008,1.4623526,-0.81557137,-0.7613344,1.3891631,0.18111295,-0.18991476,0.14647776,1.1260736,0.538232
-0.1,0.0,0.6,0.5235987755982988,0.5235987755982988,0,0.6440023,1.9878632,0.008460485,-0.76720357,0.12712993,1.4680656,-0.7953525,-0.75688845,1.3902068,0.19007443,-0.18774669,0.13564818,1.1231894,0.43407205
-0.1,0.0,0.6,0.5235987755982988,0.5235987755982988,0,0.6349211,1.9871359,0.0096842935,-0.77050614,0.08360569,1.4706042,-0.82257915,-0.76380193,1.3880403,0.19244052,-0.1851772,0.12989078,1.1231164,0.5656679
-0.1,0.0,0.6,0.5235987755982988,0.5235987755982988,0,0.64749074,1.9865266,0.013271119,-0.7718066,0.13493481,1.4626184,-0.815721,-0.75490355,1.3888988,0.19260696,-0.1874631,0.1554278,1.1262897,0.49467513
-0.1,0.0,0.6,0.5235987755982988,0.5235987755982988,0,0.6273614,1.9874988,0.00992754,-0.76794624,0.11126406,1.4645674,-0.7936788,-0.7583969,1.3889251,0.19388951,-0.19131814,0.15253113,1.1262466,0.56475407
-0.1,0.0,0.6,0.5235987755982988,0.5235987755982988,0,0.6335176,1.9875544,0.007822914,-0.7763969,0.107982524,1.465267,-0.7958495,-0.76905674,1.390611,0.20066166,-0.18864973,0.14726956,1.1318461,0.47932115
-0.1,0.0,0.6,0.5235987755982988,0.5235987755982988,0,0.63337076,1.9875224,0.002226551,-0.7702193,0.15008841,1.4673989,-0.80177844,-0.76657605,1.3868142,0.20166229,-0.18716982,0.12898016,1.1291858,0.5607696
-0.1,0.0,0.6,0.5235987755982988,0.5235987755982988,0,0.63727707,1.9864879,0.0012218538,-0.7721547,0.10132649,1.4689739,-0.77780396,-0.75230306,1.385419,0.20001489,-0.18724874,0.119058415,1.1265657,0.41004652
-0.1,0.0,0.6,0.5235987755982988,0.5235987755982988,0,0.63830507,1.9873276,-0.0027292017,-0.7660179,0.12548816,1.4669052,-0.83708036,-0.74323255,1.3896861,0.19080673,-0.18981516,0.13525656,1.1246712,0.47578895
-0.1,0.0,0.6,0.5235987755982988,0.5235987755982988,0,0.6342972,1.9885056,0.003313015,-0.7715257,0.11789041,1.4676157,-0.79722166,-0.7541377,1.3871608,0.19927505,-0.18914795,0.13198288,1.1231226,0.5633389
-0.1,0.0,0.6,0.5235987755982988,0.5235987755982988,0,0.6307808,1.9845972,0.018881455,-0.76851535,0.13152927,1.4685007,-0.8162933,-0.7411991,1.3883086,0.19772013,-0.19033803,0.1314537,1.1189514,0.4793545
-0.1,0.0,0.6,0.5235987755982988,0.5235987755982988,0,0.62510735,1.9860882,0.006385011,-0.76972383,0.08817142,1.4712576,-0.83074504,-0.75945175,1.3892144,0.1823475,-0.18981345,0.15294164,1.1276433,0.44074687
-0.1,0.0,0.6,0.5235987755982988,0.5235987755982988,0,0.6320288,1.9872036,0.038103748,-0.7657298,0.09921223,1.4627166,-0.81533414,-0.7717658,1.3886247,0.20147021,-0.18554392,0.14921883,1.1252979,0.48447266
-0.1,0.0,0.6,0.5235987755982988,0.5235987755982988,0,0.6397228,1.985683,-0.007797142,-0.7720649,0.10133218,1.4631343,-0.84102696,-0.7396547,1.3844209,0.19334628,-0.18692666,0.124020755,1.1266347,0.49422717
-0.1,0.0,0.6,0.5235987755982988,0.5235987755982988,0,0.63193864,1.9848641,-0.020944646,-0.7738909,0.11258957,1.469634,-0.7945246,-0.7468112,1.3873575,0.19016352,-0.18543558,0.13981709,1.127107,0.48281854
-0.1,0.0,0.6,0.5235987755982988,0.5235987755982988,0,0.6300611,1.9884291,0.016415529,-0.7722768,0.13342193,1.4668968,-0.8198163,-0.7545375,1.3902932,0.19355386,-0.18660022,0.1470156,1.1291794,0.49705437
-0.1,0.0,0.6,0.5235987755982988,0.5235987755982988,0,0.6301528,1.986709,0.015850475,-0.7698615,0.10721214,1.4673954,-0.86176795,-0.76337683,1.3847855,0.18943228,-0.18942577,0.12626433,1.1329738,0.40643927
-0.1,0.0,0.6,0.5235987755982988,0.5235987755982988,0,0.6209435,1.9871225,0.004534555,-0.76880336,0.10991068,1.4699583,-0.8060528,-0.75430775,1.3883331,0.1972272,-0.18509273,0.12716542,1.1181386,0.47355843
-0.1,0.0,0.6,0.5235987755982988,0.5235987755982988,0,0.6389308,1.9848582,0.011400148,-0.7704981,0.1487329,1.4637679,-0.81336343,-0.77092016,1.3879598,0.18202446,-0.18830907,0.1456296,1.1178943,0.50303745
-0.1,0.0,0.6,0.5235987755982988,0.5235987755982988,0,0.6320759,1.9876177,0.010149114,-0.7700231,0.13536537,1.4634475,-0.8291828,-0.74997383,1.3862551,0.19650736,-0.18927193,0.12739083,1.1320602,0.5349721
-0.1,0.0,0.6,0.5235987755982988,0.5235987755982988,0,0.62862504,1.9854639,0.009806971,-0.77011484,0.12022922,1.4639767,-0.8317327,-0.75702506,1.3879712,0.19189876,-0.18772332,0.14085011,1.1269008,0.585331
-0.1,0.0,0.6,0.5235987755982988,0.5235987755982988,0,0.64602584,1.9860476,0.007892868,-0.76722485,0.08959442,1.4644022,-0.7898942,-0.7574499,1.3855039,0.1983257,-0.18835759,0.12736654,1.1308063,0.46652532
-0.1,0.0,0.6,0.5235987755982988,0.5235987755982988,0,0.6319334,1.9867944,0.014089282,-0.76833653,0.121778,1.4672441,-0.8368692,-0.775948,1.3860326,0.19941634,-0.18946111,0.13316353,1.1275115,0.51889765
-0.1,0.0,0.6,0.5235987755982988,0.5235987755982988,0,0.63793314,1.9847581,0.0141521385,-0.7670875,0.09708979,1.4670488,-0.8210065,-0.76512235,1.3866024,0.20566504,-0.18831961,0.12598285,1.1262342,0.6007814
-0.1,0.0,0.6,0.5235987755982988,0.5235987755982988,0,0.6221106,1.9844786,0.005178297,-0.7687346,0.13618518,1.4659158,-0.8318755,-0.75360835,1.3843937,0.19440243,-0.18948546,0.12093243,1.1269561,0.47538283
-0.1,0.0,0.6,0.5235987755982988,0.5235987755982988,0,0.6392846,1.9888997,0.0037672303,-0.771308,0.11544399,1.4681348,-0.8146873,-0.73360443,1.3879735,0.1950916,-0.18657124,0.14410505,1.1276242,0.56403244
-0.1,0.0,0.6,0.5235987755982988,0.5235987755982988,0,0.63406706,1.9869738,0.012433727,-0.7630514,0.13710363,1.4720008,-0.86638325,-0.7668715,1.3909985,0.20052682,-0.18761978,0.13044886,1.1257817,0.59669757
-0.1,0.0,0.6,0.5235987755982988,0.5235987755982988,0,0.6487237,1.9863583,0.013441651,-0.7677996,0.0994671,1.4648819,-0.8258521,-0.7666578,1.3880547,0.20566732,-0.1879047,0.14050892,1.1271613,0.47236308
-0.1,0.0,0.6,0.5235987755982988,0.5235987755982988,0,0.6452688,1.9873017,0.014003583,-0.7684505,0.10162306,1.4714174,-0.8566573,-0.7429742,1.3864083,0.1757783,-0.19032367,0.15783419,1.129685,0.43326372
-0.1,0.0,0.6,0.5235987755982988,0.5235987755982988,0,0.63560057,1.988037,0.007365113,-0.7706991,0.11256472,1.4701507,-0.7972715,-0.7419467,1.387527,0.18943442,-0.18727292,0.1379193,1.1260675,0.49941432
-0.1,0.0,0.6,0.5235987755982988,0.5235987755982988,0,0.6487768,1.9864889,0.015298332,-0.7687756,0.08509158,1.4641213,-0.7722007,-0.7666166,1.3878897,0.20107606,-0.18743862,0.1211521,1.1218121,0.47442794
-0.1,0.0,0.6,0.5235987755982988,0.5235987755982988,0,0.63845557,1.9860909,0.012251815,-0.7683397,0.13716893,1.4669795,-0.80386436,-0.7623144,1.3849546,0.18841141,-0.18695176,0.13077071,1.122575,0.5519952
-0.1,0.0,0.6,0.5235987755982988,0.5235987755982988,0,0.6280447,1.9854497,0.0024307424,-0.7681065,0.1083333,1.4674164,-0.717158,-0.7577533,1.3873479,0.18573827,-0.18965678,0.15071008,1.1298884,0.54425186
-0.1,0.0,0.6,0.5235987755982988,0.5235987755982988,0,0.6298527,1.988548,-0.00034637784,-0.7715923,0.13190834,1.4674941,-0.8006506,-0.7635421,1.3837398,0.1889423,-0.18454024,0.14537212,1.1367351,0.56678665
-0.1,0.0,0.6,0.5235987755982988,0.5235987755982988,0,0.6460884,1.9866664,0.010708738,-0.76966023,0.114257716,1.4664481,-0.8262937,-0.7541659,1.3835183,0.18349877,-0.19084474,0.13500012,1.1306124,0.5271717
-0.1,0.0,0.6,0.5235987755982988,0.5235987755982988,0,0.63613826,1.9872558,0.0053676115,-0.770018,0.12383371,1.4652693,-0.8156945,-0.7672067,1.3876984,0.19429792,-0.18638825,0.13398807,1.1265565,0.47761014
-0.1,0.0,0.6,0.5235987755982988,0.5235987755982988,0,0.6387966,1.9865845,-0.0043970286,-0.7699185,0.116325706,1.4655944,-0.7941123,-0.7416563,1.3894466,0.20087133,-0.18697795,0.1461064,1.1243966,0.5236367
-0.1,0.0,0.6,0.5235987755982988,0.5235987755982988,0,0.64263195,1.9887333,0.01083568,-0.77556294,0.08497743,1.4689604,-0.82483965,-0.74241525,1.3872051,0.1853145,-0.1892227,0.14283596,1.1334575,0.5123249
-0.1,0.0,0.6,0.5235987755982988,0.5235987755982988,0,0.6351287,1.9871005,-0.0035255114,-0.77153206,0.102679804,1.4716192,-0.8620762,-0.7560181,1.3884183,0.18272549,-0.19082005,0.13366924,1.1274928,0.4438886
-0.1,0.0,0.6,0.5235987755982988,0.5235987755982988,0,0.6343976,1.9885014,0.0059997346,-0.76988393,0.114141814,1.4640431,-0.7804445,-0.74496925,1.3878758,0.18889697,-0.18964708,0.15090297,1.121086,0.52182597
-0.1,0.0,0.6,0.5235987755982988,0.5235987755982988,0,0.6344621,1.9875538,0.01804152,-0.7651524,0.10916407,1.4662557,-0.87680167,-0.75854576,1.3899522,0.1878693,-0.18828437,0.1406311,1.1242193,0.56114197
-0.1,0.0,0.6,0.5235987755982988,0.5235987755982988,0,0.63577485,1.9848559,0.016332926,-0.7683503,0.07916783,1.4688274,-0.80774343,-0.7503484,1.3886924,0.19288763,-0.18691282,0.1543056,1.1258937,0.47365275
-0.1,0.0,0.6,0.5235987755982988,0.5235987755982988,0,0.63697773,1.9833771,0.009636198,-0.76709855,0.12072121,1.4678946,-0.8316958,-0.76265067,1.3871235,0.19262637,-0.1904648,0.15254389,1.1215824,0.50708055
-0.1,0.0,0.6,0.5235987755982988,0.5235987755982988,0,0.63427013,1.9851617,0.009470355,-0.7707128,0.09361385,1.4660391,-0.8418309,-0.7613068,1.3872807,0.19092315,-0.1903828,0.13674003,1.1293716,0.48342672
-0.1,0.0,0.6,0.5235987755982988,0.5235987755982988,0,0.62587875,1.9851308,8.101949e-05,-0.769016,0.114492655,1.4643914,-0.8535206,-0.7475807,1.3898762,0.19763571,-0.18880512,0.14339072,1.1265398,0.5193622
-0.1,0.0,0.6,0.5235987755982988,0.5235987755982988,0,0.6374427,1.9856113,0.012352297,-0.7705018,0.1593842,1.466958,-0.83848995,-0.7669531,1.3857588,0.18281832,-0.18654388,0.1473025,1.1288158,0.43850204
-0.1,0.0,0.6,0.5235987755982988,0.5235987755982988,0,0.63162816,1.9855098,-0.00086282246,-0.7675983,0.14160684,1.4662954,-0.8528866,-0.75650686,1.3874171,0.18776555,-0.18719949,0.14700955,1.1274424,0.46161592
-0.1,0.0,0.6,0.5235987755982988,0.5235987755982988,0,0.62789655,1.9866328,0.006404917,-0.76749384,0.13591205,1.4664302,-0.80377996,-0.76312023,1.3881798,0.1920599,-0.18701239,0.13575159,1.1263556,0.53319114
-0.1,0.0,0.6,0.5235987755982988,0.5235987755982988,0,0.62861323,1.9866971,0.010655313,-0.7696754,0.100026995,1.4660408,-0.7999346,-0.75257623,1.3876203,0.20190626,-0.18616079,0.13693675,1.1274065,0.51805955
-0.1,0.0,0.6,0.5235987755982988,0.5235987755982988,0,0.6327083,1.9875355,-0.0041517857,-0.7675688,0.1401448,1.4650052,-0.86504257,-0.73587644,1.3863485,0.19110312,-0.19189143,0.12835081,1.1271788,0.5554618
-0.1,0.0,0.6,0.5235987755982988,0.5235987755982988,0,0.6343736,1.9869775,0.00337448,-0.7732273,0.1509486,1.4690528,-0.8060885,-0.74142116,1.3902547,0.19776587,-0.18732378,0.13763742,1.1231447,0.537231
-0.1,0.0,0.6,0.5235987755982988,0.5235987755982988,0,0.6331825,1.986189,0.0056851166,-0.76919544,0.10354253,1.4700131,-0.8380687,-0.75629413,1.3878193,0.1895431,-0.18806191,0.13763791,1.1249213,0.5033673
-0.1,0.0,0.6,0.5235987755982988,0.5235987755982988,0,0.6276148,1.9906145,7.590489e-05,-0.7819383,0.12400899,1.4656066,-0.79789287,-0.7487094,1.3862542,0.17951654,-0.19107305,0.15176839,1.1349943,0.52896124
-0.1,0.0,0.6,0.5235987755982988,0.5235987755982988,0,0.6396205,1.9880555,0.0045926855,-0.77255344,0.11088158,1.4679995,-0.8322262,-0.7487072,1.3860905,0.19777873,-0.19132334,0.13475266,1.1251498,0.45163018
-0.1,0.0,0.6,0.5235987755982988,0.5235987755982988,0,0.6389579,1.9878621,0.0049670185,-0.78123486,0.11258399,1.4646429,-0.83257693,-0.76271206,1.3887235,0.18924649,-0.18736292,0.14221628,1.1248504,0.5596521
-0.1,0.0,0.6,0.5235987755982988,0.5235987755982988,0,0.62223995,1.9886655,0.009065612,-0.7705375,0.11859228,1.4673747,-0.81021327,-0.73744136,1.3878865,0.18833213,-0.18970674,0.13891195,1.1332207,0.42664197
-0.1,0.0,0.6,0.5235987755982988,0.5235987755982988,0,0.6375404,1.9862761,0.0026858328,-0.77196175,0.108699806,1.4734217,-0.79753727,-0.7548506,1.3887929,0.19844978,-0.1892764,0.14482443,1.125863,0.50072205
-0.1,0.0,0.6,0.5235987755982988,0.5235987755982988,0,0.6293444,1.9863243,-0.0016672848,-0.7698648,0.13729809,1.4605572,-0.7876284,-0.7672094,1.3866876,0.20018838,-0.18997592,0.13646612,1.1314223,0.5636819
-0.1,0.0,0.6,0.5235987755982988,0.5235987755982988,0,0.6361372,1.9857872,0.005317688,-0.7694937,0.09630334,1.4659669,-0.8064432,-0.75160015,1.3895978,0.18847074,-0.18776341,0.13649829,1.1288358,0.4292186
-0.1,0.0,0.6,0.5235987755982988,0.5235987755982988,0,0.631586,1.9861127,0.011871076,-0.77103466,0.09689892,1.4640969,-0.7931002,-0.7705514,1.3904253,0.18935153,-0.19049482,0.1571033,1.1276106,0.508157
-0.1,0.0,0.6,0.5235987755982988,0.5235987755982988,0,0.64005154,1.9877822,0.013821583,-0.76864433,0.12643766,1.4624956,-0.79907167,-0.7584643,1.385237,0.18841603,-0.18842666,0.14225492,1.1310054,0.47139543
-0.1,0.0,0.6,0.5235987755982988,0.5235987755982988,0,0.63821024,1.9862187,0.006126408,-0.77190876,0.13777176,1.4721289,-0.8202785,-0.7550903,1.386595,0.20013106,-0.18685472,0.14430101,1.1260978,0.5690327
-0.1,0.0,0.6,0.5235987755982988,0.5235987755982988,0,0.63227844,1.983794,0.015192779,-0.7700771,0.1208941,1.469255,-0.8300722,-0.75719535,1.385905,0.18897043,-0.19084655,0.14396901,1.1234814,0.4603588
-0.1,0.0,0.6,0.5235987755982988,0.5235987755982988,0,0.6324925,1.9856818,0.023729218,-0.7682683,0.11477074,1.4640676,-0.84838104,-0.76641715,1.388245,0.20416267,-0.18683505,0.13557501,1.1294955,0.5856553
-0.1,0.0,0.6,0.5235987755982988,0.5235987755982988,0,0.6442306,1.9871242,0.005544407,-0.7707409,0.124442756,1.4662312,-0.8831922,-0.76614565,1.3859148,0.19053577,-0.19120015,0.14049143,1.1234922,0.6158095
-0.1,0.0,0.6,0.5235987755982988,0.5235987755982988,0,0.6403752,1.9844787,0.00880507,-0.7706335,0.12122491,1.4639598,-0.83643484,-0.7562862,1.3883497,0.19314402,-0.18749379,0.1257163,1.1279614,0.45666412
-0.1,0.0,0.6,0.5235987755982988,0.5235987755982988,0,0.63792056,1.9845486,-0.00093871594,-0.7683134,0.10582035,1.4598132,-0.8660935,-0.7551597,1.3889569,0.1963659,-0.18580313,0.13950722,1.132522,0.5670028
-0.1,0.0,0.6,0.5235987755982988,0.5235987755982988,0,0.6397779,1.9864889,0.025398452,-0.7725156,0.11129727,1.4683402,-0.76006716,-0.75091356,1.3861269,0.19971527,-0.18485837,0.12827903,1.123557,0.60133797
-0.1,0.0,0.6,0.5235987755982988,0.5235987755982988,0,0.6333836,1.9851577,-0.006154156,-0.7792455,0.08230846,1.4665955,-0.844678,-0.7629166,1.3849373,0.17958327,-0.18663815,0.14345483,1.1223116,0.52775484
-0.1,0.0,0.6,0.5235987755982988,0.5235987755982988,0,0.6456696,1.987148,0.021257991,-0.76899934,0.12016204,1.4679891,-0.8451559,-0.7514339,1.3877556,0.1977442,-0.18924437,0.13590047,1.122447,0.4860166
-0.1,0.0,0.6,0.5235987755982988,0.5235987755982988,0,0.6393795,1.987129,0.0043913433,-0.76969296,0.12271435,1.4652687,-0.80037516,-0.7504466,1.386358,0.19516121,-0.1841255,0.15280607,1.127544,0.51811767
-0.1,0.0,0.6,0.5235987755982988,0.5235987755982988,0,0.62783635,1.9860218,-0.0009370068,-0.7698932,0.12851596,1.4689796,-0.8036633,-0.74871343,1.3888662,0.19662997,-0.18740319,0.1391635,1.1248235,0.49537665
-0.1,0.0,0.6,0.5235987755982988,0.5235987755982988,0,0.6337771,1.9887546,0.0068226014,-0.77071095,0.115472324,1.4663231,-0.8464924,-0.74943864,1.3864185,0.1920264,-0.18716167,0.13495916,1.1224947,0.49014658
-0.1,0.0,0.6,0.5235987755982988,0.5235987755982988,0,0.6368846,1.9853814,0.0069328146,-0.76762676,0.12349287,1.4687425,-0.8244425,-0.7665034,1.3852031,0.18597138,-0.18632366,0.14568172,1.1240957,0.5961323
-0.1,0.0,0.6,0.5235987755982988,0.5235987755982988,0,0.64242226,1.9878738,0.0018412013,-0.77417296,0.1113811,1.4667792,-0.8035201,-0.74709433,1.3862069,0.1886079,-0.18783103,0.12768893,1.1206875,0.54527444
-0.1,0.0,0.6,0.5235987755982988,0.5235987755982988,0,0.64156806,1.9866161,0.0012943884,-0.7726663,0.0970755,1.4673153,-0.8034434,-0.7712211,1.3868252,0.19154198,-0.19109741,0.13108341,1.1285762,0.48521116
-0.1,0.0,0.6,0.5235987755982988,0.5235987755982988,0,0.6321956,1.9849566,0.003114242,-0.7675739,0.13691162,1.4703151,-0.8120357,-0.7569205,1.3893404,0.17591174,-0.18940558,0.14625964,1.1246305,0.41534567
-0.1,0.0,0.6,0.5235987755982988,0.5235987755982988,0,0.63839823,1.9875853,0.020029165,-0.76854855,0.122379094,1.46792,-0.85194415,-0.7577105,1.3877795,0.20538305,-0.18278794,0.13084735,1.1280439,0.51824486
-0.1,0.0,0.6,0.5235987755982988,0.5235987755982988,0,0.6477922,1.986534,0.01403111,-0.7700208,0.12025511,1.4660133,-0.8045917,-0.74482554,1.3886371,0.1996073,-0.18818441,0.14739855,1.1304469,0.52715653
-0.1,0.0,0.6,0.5235987755982988,0.5235987755982988,0,0.6383593,1.9866387,0.00762414,-0.77248186,0.11486528,1.4651273,-0.8155394,-0.7447245,1.3881636,0.19746302,-0.18832724,0.12791486,1.1255847,0.57833064
-0.1,0.0,0.6,0.5235987755982988,0.5235987755982988,0,0.63991416,1.9835542,0.006895557,-0.76620346,0.10668699,1.4667722,-0.7945901,-0.75817513,1.3887738,0.19787903,-0.18681301,0.1439261,1.1301455,0.570713
-0.1,0.0,0.6,0.5235987755982988,0.5235987755982988,0,0.63611066,1.9860727,0.014076781,-0.7738361,0.13428198,1.4741645,-0.87927246,-0.7648556,1.3880875,0.20275412,-0.1874778,0.11914972,1.1272784,0.39886025
-0.1,0.0,0.6,0.5235987755982988,0.5235987755982988,0,0.6270527,1.9882659,0.011762784,-0.7777393,0.12260692,1.4682204,-0.8358754,-0.7454801,1.3846616,0.18755926,-0.18729906,0.13307554,1.1300068,0.5480181
-0.1,0.0,0.6,0.5235987755982988,0.5235987755982988,0,0.6364243,1.9874741,0.009856603,-0.7679178,0.11559395,1.4635186,-0.8155029,-0.76945674,1.3900727,0.19295444,-0.1865347,0.15139835,1.1297174,0.5609073
-0.1,0.0,0.6,0.5235987755982988,0.5235987755982988,0,0.6310075,1.9878967,-0.0066069686,-0.7677971,0.12099708,1.4678609,-0.7840724,-0.7576676,1.387054,0.19672363,-0.18687697,0.12350097,1.1300579,0.42178175
-0.1,0.0,0.6,0.5235987755982988,0.5235987755982988,0,0.62002766,1.98749,0.017321415,-0.76965827,0.12233428,1.4712784,-0.81130064,-0.78247166,1.389324,0.19310063,-0.18720499,0.15729946,1.1267978,0.42025876
-0.1,0.0,0.6,0.5235987755982988,0.5235987755982988,0,0.6378328,1.9882214,-0.0009480545,-0.76975197,0.12261425,1.4660474,-0.78448933,-0.7576735,1.384528,0.1954466,-0.18861307,0.1474454,1.1196657,0.44171542
-0.1,0.0,0.6,0.5235987755982988,0.5235987755982988,0,0.634493,1.9863856,0.00034572944,-0.76780736,0.10567928,1.4690865,-0.77113503,-0.7662557,1.3884596,0.19037437,-0.18888186,0.13442285,1.1220862,0.54024976
-0.1,0.0,0.6,0.5235987755982988,0.5235987755982988,0,0.61986536,1.9868813,0.013805136,-0.77285916,0.11749512,1.4706155,-0.811601,-0.7617091,1.3863572,0.19058017,-0.18638793,0.13443121,1.1218034,0.5539153
-0.1,0.0,0.6,0.5235987755982988,0.5235987755982988,0,0.64311564,1.9846199,0.012007249,-0.7687683,0.108724035,1.465249,-0.79341,-0.7583573,1.3858467,0.19566652,-0.18638846,0.14388865,1.1237526,0.53797364
-0.1,0.0,0.6,0.5235987755982988,0.5235987755982988,0,0.638259,1.9889376,0.009229366,-0.7710088,0.11834289,1.467068,-0.86658686,-0.7689862,1.3854558,0.19240977,-0.18794736,0.15023504,1.1252279,0.5540847
-0.1,0.0,0.6,0.5235987755982988,0.5235987755982988,0,0.62016654,1.9855626,0.009766592,-0.766662,0.115702674,1.4661256,-0.8851624,-0.7488386,1.3923261,0.19503699,-0.19004163,0.14940487,1.1273036,0.49738443
-0.1,0.0,0.6,0.5235987755982988,0.5235987755982988,0,0.63216406,1.9883032,0.002206166,-0.7719907,0.12926936,1.4652604,-0.84229684,-0.7551052,1.3875393,0.19312145,-0.18801469,0.14349404,1.1242697,0.51732826
-0.1,0.0,0.6,0.5235987755982988,0.5235987755982988,0,0.62990016,1.9861729,-0.00029269978,-0.76852417,0.13907298,1.4668534,-0.82193226,-0.7629314,1.3873672,0.1951297,-0.18890598,0.13700348,1.1281008,0.5239575
-0.1,0.0,0.6,0.5235987755982988,0.5235987755982988,0,0.6288697,1.9862319,0.01139637,-0.77096516,0.11503358,1.4678621,-0.80627143,-0.7696443,1.3891855,0.19871446,-0.18688431,0.14922528,1.1275246,0.49335733
-0.1,0.0,0.6,0.5235987755982988,0.5235987755982988,0,0.6300381,1.9897795,0.0017470465,-0.7732343,0.10375707,1.4668052,-0.8763757,-0.7542269,1.3861339,0.18916957,-0.18848729,0.15048629,1.1346396,0.5656665
-0.1,0.0,0.6,0.5235987755982988,0.5235987755982988,0,0.6297406,1.9861041,0.0132437665,-0.7646521,0.13590844,1.4640828,-0.80101025,-0.7470593,1.3880284,0.19127434,-0.18801917,0.13577373,1.1249986,0.42957094
-0.1,0.0,0.6,0.5235987755982988,0.5235987755982988,0,0.6378263,1.9859061,0.004675489,-0.7671389,0.12918815,1.4694847,-0.8138442,-0.75661784,1.3894137,0.19247097,-0.18686827,0.15167978,1.1316282,0.47514337
-0.1,0.0,0.6,0.5235987755982988,0.5235987755982988,0,0.62935275,1.9860293,0.012455445,-0.7719021,0.096431926,1.4629825,-0.77407014,-0.74544144,1.3882475,0.19128889,-0.18495578,0.14710557,1.1299057,0.44744572
-0.1,0.0,0.6,0.5235987755982988,0.5235987755982988,0,0.6394052,1.9868802,0.0046099415,-0.7698427,0.106261514,1.4652982,-0.8396717,-0.7542338,1.3886895,0.19364887,-0.18560423,0.14059278,1.1249567,0.5764177
-0.1,0.0,0.6,0.5235987755982988,0.5235987755982988,0,0.63041353,1.9834247,0.01023526,-0.7680064,0.108280055,1.4649485,-0.78369385,-0.77067906,1.3836904,0.19430062,-0.18567212,0.14416789,1.1337109,0.47509196
-0.1,0.0,0.6,0.5235987755982988,0.5235987755982988,0,0.64247566,1.9849536,0.02703176,-0.76699126,0.12503488,1.4710013,-0.799077,-0.76290524,1.3877268,0.18663308,-0.18907495,0.13982591,1.1266484,0.44390061
-0.1,0.0,0.6,0.5235987755982988,0.5235987755982988,0,0.64379513,1.9869771,0.0053114267,-0.76792103,0.09335919,1.4656752,-0.8102875,-0.74241894,1.3867024,0.19793941,-0.18814465,0.14736636,1.1285276,0.4532107
-0.1,0.0,0.6,0.5235987755982988,0.5235987755982988,0,0.6258956,1.9885547,0.01129309,-0.769212,0.1034892,1.4693636,-0.79367113,-0.77271587,1.3879038,0.19078155,-0.18944031,0.13809462,1.1311219,0.48756704
-0.1,0.0,0.6,0.5235987755982988,0.5235987755982988,0,0.63733363,1.9858104,-0.00063782505,-0.76738185,0.12266022,1.4665843,-0.79560035,-0.75510436,1.3876512,0.19550942,-0.18827716,0.1286147,1.1210246,0.5794753
-0.1,0.0,0.6,0.5235987755982988,0.5235987755982988,0,0.64769727,1.9860141,0.015073673,-0.77105117,0.12386495,1.4671644,-0.8527575,-0.7508684,1.3874584,0.19619411,-0.1884981,0.14781757,1.1314585,0.5610505
-0.1,0.0,0.6,0.5235987755982988,0.5235987755982988,0,0.63759166,1.9872098,0.015680851,-0.7699072,0.11318703,1.4641539,-0.81199646,-0.7376839,1.3897661,0.18618901,-0.18878673,0.14088719,1.1314008,0.45810965
-0.1,0.0,0.6,0.5235987755982988,0.5235987755982988,0,0.638257,1.9865093,-0.0029816984,-0.7692815,0.13905367,1.4659151,-0.8408224,-0.76270777,1.3883353,0.19036679,-0.19080037,0.1448931,1.1311165,0.50089955
-0.1,0.0,0.6,0.5235987755982988,0.5235987755982988,0,0.6351119,1.9838189,0.0041743484,-0.76560456,0.07362678,1.4654932,-0.82160753,-0.744352,1.3862745,0.19517154,-0.18923017,0.13718288,1.1361115,0.49291542
-0.1,0.0,0.6,0.5235987755982988,0.5235987755982988,0,0.6366381,1.9855893,0.021468889,-0.7707233,0.1317779,1.4649277,-0.8179063,-0.77798206,1.3858074,0.18129137,-0.1894374,0.14775176,1.1264534,0.51711494
-0.1,0.0,0.6,0.5235987755982988,0.5235987755982988,0,0.6415952,1.9881101,0.00017581329,-0.7674871,0.1264548,1.4647199,-0.7812613,-0.7453028,1.3877183,0.1940755,-0.18850227,0.13690054,1.1189164,0.60991454
-0.1,0.0,0.6,0.5235987755982988,0.5235987755982988,0,0.6320503,1.9852349,-0.00086365157,-0.77377486,0.12247562,1.4664186,-0.82607037,-0.768014,1.3881238,0.19514568,-0.18529971,0.14309222,1.1231983,0.50639576
-0.1,0.0,0.6,0.5235987755982988,0.5235987755982988,0,0.6382734,1.9859796,0.006769251,-0.76780957,0.1098219,1.4669694,-0.79522693,-0.7608607,1.3885722,0.19761203,-0.18659261,0.1292506,1.1224998,0.46641243
-0.1,0.0,0.6,0.5235987755982988,0.5235987755982988,0,0.63950247,1.9872794,0.012959905,-0.7762431,0.102286816,1.4697363,-0.7998628,-0.7641654,1.3864676,0.1918117,-0.18998677,0.12995894,1.1274055,0.5023999
-0.1,0.0,0.6,0.5235987755982988,0.5235987755982988,0,0.62650114,1.987433,0.012607288,-0.77017117,0.11368844,1.4620559,-0.84050286,-0.76134944,1.3887997,0.19709581,-0.18740845,0.14163628,1.1218185,0.52400714
-0.1,0.0,0.6,0.5235987755982988,0.5235987755982988,0,0.64265263,1.98805,0.006355186,-0.76953113,0.09901272,1.4695406,-0.76343465,-0.7372801,1.3873346,0.19512746,-0.18902037,0.1281532,1.1326079,0.4942832
-0.1,0.0,0.6,0.5235987755982988,0.5235987755982988,0,0.6374019,1.9871315,0.010331036,-0.7684499,0.11764191,1.4646262,-0.88084275,-0.7430663,1.3877983,0.19314712,-0.18826233,0.12828028,1.1281397,0.45126423
-0.1,0.0,0.6,0.5235987755982988,0.5235987755982988,0,0.63037515,1.9858445,-0.008857911,-0.7732121,0.1321841,1.471415,-0.8281062,-0.7584498,1.388122,0.19654468,-0.18480384,0.14780657,1.1205555,0.51406455
-0.1,0.0,0.6,0.5235987755982988,0.5235987755982988,0,0.6350077,1.9860799,0.023728287,-0.7700882,0.1313083,1.4650755,-0.80220383,-0.7693639,1.3876513,0.19385499,-0.18796933,0.1515419,1.1328392,0.46511552
-0.1,0.0,0.6,0.5235987755982988,0.5235987755982988,0,0.6313699,1.9878939,0.015617416,-0.77047473,0.09760131,1.4687734,-0.8446456,-0.7678937,1.3898537,0.19148152,-0.19098729,0.13891073,1.1254761,0.4540797
-0.1,0.0,0.6,0.5235987755982988,0.5235987755982988,0,0.6247553,1.9874473,0.00043414198,-0.7719401,0.11375198,1.4641628,-0.87506527,-0.7568922,1.3866513,0.19569927,-0.18829885,0.13225938,1.129112,0.5131517
-0.1,0.0,0.6,0.5235987755982988,0.5235987755982988,0,0.6363865,1.9873068,0.00851286,-0.76922494,0.10835403,1.4675076,-0.73644835,-0.77376884,1.3877786,0.19689223,-0.1886904,0.14900859,1.1300915,0.47809103
-0.1,0.0,0.6,0.5235987755982988,0.5235987755982988,0,0.6369744,1.987697,0.025426758,-0.7680726,0.10363141,1.464965,-0.8312814,-0.7625359,1.3883636,0.2003024,-0.18934155,0.14401287,1.1345277,0.55902743
-0.1,0.0,0.6,0.5235987755982988,0.5235987755982988,0,0.64288366,1.9861293,0.015770586,-0.7694655,0.13428302,1.4629967,-0.8715534,-0.74708605,1.3883864,0.1967748,-0.1866811,0.13727169,1.1267716,0.54344034
-0.1,0.0,0.6,0.5235987755982988,0.5235987755982988,0,0.61966664,1.985964,0.015036411,-0.76628095,0.1126837,1.4679884,-0.8293796,-0.7584616,1.3879439,0.18682957,-0.18844232,0.15148512,1.1263602,0.47076032
-0.1,0.0,0.6,0.5235987755982988,0.5235987755982988,0,0.636748,1.9867204,0.010464474,-0.770298,0.1141992,1.468512,-0.8462033,-0.75878364,1.3893939,0.19293939,-0.18906543,0.14731531,1.1274502,0.46458605
-0.1,0.0,0.6,0.5235987755982988,0.5235987755982988,0,0.6466947,1.9886897,0.0016422891,-0.767499,0.1475022,1.4703219,-0.8150956,-0.7687528,1.3851476,0.18588018,-0.18955153,0.1278064,1.1267003,0.45578477
-0.1,0.0,0.6,0.5235987755982988,0.5235987755982988,0,0.62763786,1.9885564,0.00359642,-0.7712379,0.10760123,1.4698501,-0.7520024,-0.76212996,1.3896934,0.19648084,-0.18639024,0.15446018,1.1247895,0.52945113
-0.1,0.0,0.6,0.5235987755982988,0.5235987755982988,0,0.6148778,1.9866546,0.013831975,-0.77605045,0.124573044,1.4698061,-0.83322275,-0.75945556,1.388014,0.19446246,-0.18550831,0.13487877,1.1292374,0.533764
-0.1,0.0,0.6,0.5235987755982988,0.5235987755982988,0,0.63507247,1.9881554,0.0121015385,-0.77037656,0.09062147,1.4724662,-0.80777705,-0.7692967,1.3874084,0.18046018,-0.18626139,0.16282912,1.1234268,0.4901202
-0.1,0.0,0.6,0.5235987755982988,0.5235987755982988,0,0.6451349,1.987972,-0.00013462506,-0.77332526,0.121578775,1.4679868,-0.83653367,-0.7444299,1.3905115,0.19138846,-0.18848659,0.13842711,1.1260736,0.50976014
-0.1,0.0,0.6,0.5235987755982988,0.5235987755982988,0,0.6413031,1.9873266,0.005645422,-0.76962614,0.09830386,1.4668511,-0.8214147,-0.73977286,1.3868842,0.18687923,-0.18938144,0.13998859,1.1245512,0.5585177
-0.1,0.0,0.6,0.5235987755982988,0.5235987755982988,0,0.63392645,1.9877093,0.027745632,-0.76836604,0.14800964,1.4646674,-0.84848636,-0.7618151,1.3899971,0.20380096,-0.18725458,0.12642409,1.1211964,0.5877773
-0.1,0.0,0.6,0.5235987755982988,0.5235987755982988,0,0.6375559,1.9884331,0.024741946,-0.7711198,0.14492305,1.4673512,-0.8223768,-0.7554194,1.3860251,0.18289652,-0.18588066,0.15558389,1.1216718,0.4744165
-0.1,0.0,0.6,0.5235987755982988,0.5235987755982988,0,0.63166964,1.9880122,0.01536418,-0.7708609,0.13054264,1.4685246,-0.8013076,-0.75253844,1.3869796,0.18964073,-0.18593365,0.13931884,1.1282496,0.4147265
-0.1,0.0,0.6,0.5235987755982988,0.5235987755982988,0,0.631396,1.9885424,0.020537565,-0.7691887,0.12706037,1.4668666,-0.8012679,-0.75634825,1.3870755,0.19743007,-0.19180813,0.11706113,1.1255294,0.5900426
-0.1,0.0,0.6,0.5235987755982988,0.5235987755982988,0,0.648614,1.9868349,0.023492355,-0.77083236,0.07326457,1.466128,-0.80572003,-0.7648887,1.3884132,0.18918528,-0.18662843,0.14173856,1.1226051,0.4862792
-0.1,0.0,0.6,0.5235987755982988,0.5235987755982988,0,0.6315988,1.9859459,0.0073250593,-0.76567984,0.13303939,1.4694883,-0.7995772,-0.7380394,1.3870976,0.18203317,-0.19068699,0.13045315,1.1236584,0.4520656
-0.1,0.0,0.6,0.5235987755982988,0.5235987755982988,0,0.6388231,1.985233,0.014878397,-0.7701232,0.11767633,1.4707875,-0.8320604,-0.7507028,1.3859369,0.19880967,-0.18676744,0.1413543,1.1316684,0.5104667
-0.1,0.0,0.6,0.5235987755982988,0.5235987755982988,0,0.63794035,1.9858476,0.010979565,-0.77611333,0.10274228,1.4657431,-0.83083284,-0.76330066,1.39092,0.1915189,-0.18666074,0.14498764,1.1232802,0.5441183
-0.1,0.0,0.6,0.5235987755982988,0.5235987755982988,0,0.6322333,1.9860041,0.00747901,-0.7637564,0.12122388,1.4634577,-0.80369675,-0.7544995,1.3864045,0.19207157,-0.18846345,0.14105418,1.1327679,0.5398291
-0.1,0.0,0.6,0.5235987755982988,0.5235987755982988,0,0.62821144,1.9861697,0.020446438,-0.7686356,0.09973979,1.4695262,-0.8320468,-0.7367726,1.3887339,0.19064191,-0.19079818,0.12298387,1.1289452,0.47916046
-0.1,0.0,0.6,0.5235987755982988,0.5235987755982988,0,0.62627304,1.9885154,0.013160033,-0.7639452,0.11871717,1.468281,-0.8062522,-0.77045995,1.3880175,0.18153036,-0.19113088,0.14415242,1.1276542,0.5546578
-0.1,0.0,0.6,0.5235987755982988,0.5235987755982988,0,0.643776,1.9847504,-0.004485752,-0.7700562,0.14113124,1.4694996,-0.7805557,-0.75633,1.3871176,0.19980645,-0.18488193,0.1450566,1.1301916,0.49726775
-0.1,0.0,0.6,0.5235987755982988,0.5235987755982988,0,0.62040013,1.985082,0.0007248478,-0.7644228,0.13823053,1.4702106,-0.81342334,-0.7519654,1.3869932,0.19198857,-0.1890903,0.14490563,1.1279131,0.51413614
-0.1,0.0,0.6,0.5235987755982988,0.5235987755982988,0,0.63107777,1.9874401,0.015077497,-0.76679885,0.1452384,1.4709057,-0.8376947,-0.75797004,1.3860475,0.18389349,-0.18901019,0.15201032,1.131715,0.46890733
-0.1,0.0,0.6,0.5235987755982988,0.5235987755982988,0,0.63187575,1.9912856,-0.00647803,-0.77197313,0.13210855,1.4687059,-0.82003266,-0.75108904,1.3844581,0.19460398,-0.18697992,0.12913507,1.1272774,0.47262537
-0.1,0.0,0.6,0.5235987755982988,0.5235987755982988,0,0.6249649,1.9853643,0.0016779138,-0.768052,0.14302947,1.4718235,-0.84195364,-0.74853307,1.3894938,0.19035637,-0.18683738,0.1559154,1.1275773,0.5594049
-0.1,0.0,0.6,0.5235987755982988,0.5235987755982988,0,0.642689,1.987945,0.0080974335,-0.7653243,0.11086057,1.4686235,-0.7565465,-0.7481102,1.3876743,0.18525028,-0.18607527,0.13281995,1.1166906,0.48058417
-0.1,0.0,0.6,0.5235987755982988,0.5235987755982988,0,0.64039856,1.9873933,-0.004406227,-0.767993,0.12063798,1.4641316,-0.8555521,-0.75284106,1.3848943,0.18265723,-0.18645479,0.15378827,1.1256106,0.48810428
-0.1,0.0,0.6,0.5235987755982988,0.5235987755982988,0,0.6505008,1.9842944,0.010243965,-0.7735682,0.11939154,1.465086,-0.8267208,-0.76434314,1.3889085,0.20348318,-0.18703979,0.13219507,1.1298816,0.4968786
-0.1,0.0,0.6,0.5235987755982988,0.5235987755982988,0,0.6406964,1.9889848,0.01319636,-0.77058566,0.11771426,1.4693024,-0.7948402,-0.75638306,1.3874084,0.196798,-0.19037229,0.14721268,1.1242121,0.56314945
-0.1,0.0,0.6,0.5235987755982988,0.5235987755982988,0,0.63484484,1.986075,0.010252265,-0.7704776,0.1267799,1.4730191,-0.82430845,-0.7511371,1.3878558,0.19329345,-0.19255467,0.1404608,1.1268009,0.51688886
-0.1,0.0,0.6,0.5235987755982988,0.5235987755982988,0,0.6373838,1.9881517,0.014483479,-0.7679448,0.114130005,1.4644115,-0.7918352,-0.7578322,1.3885741,0.19331469,-0.18836488,0.1369814,1.1294639,0.4768268
-0.1,0.0,0.6,0.5235987755982988,0.5235987755982988,0,0.63902086,1.9869311,0.02098486,-0.77285296,0.122695334,1.4697763,-0.8000173,-0.74422276,1.384681,0.19526555,-0.18946329,0.12901075,1.1285646,0.5609269
-0.1,0.0,0.6,0.5235987755982988,0.5235987755982988,0,0.6381971,1.9872144,0.012821209,-0.768999,0.13405721,1.4665862,-0.75559336,-0.76297456,1.3882513,0.19480638,-0.1896402,0.14512676,1.1297023,0.44439808
-0.1,0.0,0.6,0.5235987755982988,0.5235987755982988,0,0.63370866,1.9876865,0.011508609,-0.76786774,0.14211898,1.4750646,-0.81815594,-0.7392088,1.3862634,0.19398339,-0.19116491,0.13894677,1.1232795,0.65387034
-0.1,0.0,0.6,0.5235987755982988,0.5235987755982988,0,0.6274284,1.9893397,0.021204669,-0.76867014,0.12309899,1.4701148,-0.776494,-0.75336856,1.3880998,0.19038823,-0.18843415,0.13952294,1.1307651,0.46255785
-0.1,0.0,0.6,0.5235987755982988,0.5235987755982988,0,0.6253138,1.9856511,0.0146177765,-0.76200086,0.1321955,1.4616365,-0.81377876,-0.743193,1.392546,0.1867159,-0.18972738,0.14595237,1.1251954,0.41359714
-0.1,0.0,0.6,0.5235987755982988,0.5235987755982988,0,0.63338375,1.9863278,0.02282796,-0.7699146,0.09805538,1.4701611,-0.7942512,-0.7459684,1.3857797,0.1912282,-0.185968,0.13967341,1.1260343,0.5623364
-0.1,0.0,0.6,0.5235987755982988,0.5235987755982988,0,0.6401577,1.9878027,-0.0020941405,-0.76530653,0.13293517,1.472121,-0.79294455,-0.75906295,1.3876866,0.19642976,-0.18579774,0.15251532,1.1319715,0.41977087
-0.1,0.0,0.6,0.5235987755982988,0.5235987755982988,0,0.63507974,1.9893028,0.00914295,-0.7680814,0.09332189,1.4689336,-0.79925656,-0.7582103,1.3862541,0.18695338,-0.18616499,0.14002274,1.1226058,0.45720226
-0.1,0.0,0.6,0.5235987755982988,0.5235987755982988,0,0.64330065,1.987933,0.023185859,-0.7681628,0.09399227,1.4679574,-0.8127408,-0.75757426,1.3867662,0.18453957,-0.18974483,0.14797063,1.1232904,0.54980654
-0.1,0.0,0.6,0.5235987755982988,0.5235987755982988,0,0.6385621,1.9884142,0.015873684,-0.767227,0.1441337,1.4660047,-0.8373918,-0.7530813,1.3852386,0.18769287,-0.189799,0.14413978,1.1255418,0.5224771
-0.1,0.0,0.6,0.5235987755982988,0.5235987755982988,0,0.6357884,1.9886804,0.013631751,-0.77377856,0.13208608,1.466443,-0.8404073,-0.7570085,1.3872662,0.1855176,-0.18591078,0.12941073,1.1236807,0.4870853
-0.1,0.0,0.6,0.5235987755982988,0.5235987755982988,0,0.6279933,1.9848714,0.013219153,-0.777246,0.10197813,1.4682195,-0.8106468,-0.76609176,1.3863405,0.19080217,-0.18917601,0.12812874,1.1223305,0.3257532
-0.1,0.0,0.6,0.5235987755982988,0.5235987755982988,0,0.6390336,1.9885782,0.0013142233,-0.76853245,0.11459632,1.4642473,-0.7919294,-0.785266,1.3874558,0.19469094,-0.19061899,0.1299141,1.1265985,0.4963869
-0.1,0.0,0.6,0.5235987755982988,0.5235987755982988,0,0.6318872,1.986883,0.0009102792,-0.768769,0.10172939,1.4680847,-0.77244526,-0.7751987,1.387265,0.19641149,-0.1866892,0.14108232,1.1266061,0.45545158
-0.1,0.0,0.6,0.5235987755982988,0.5235987755982988,0,0.64010465,1.985116,-0.0056701037,-0.7689141,0.116306685,1.4680392,-0.8428381,-0.7644604,1.3872843,0.1890265,-0.18628477,0.13257532,1.1322442,0.516707
-0.1,0.0,0.6,0.5235987755982988,0.5235987755982988,0,0.6326783,1.9882518,0.0050727506,-0.7727489,0.12954524,1.4658259,-0.7860815,-0.7490848,1.3877083,0.18993299,-0.18522547,0.1513796,1.1257502,0.47709474
-0.1,0.0,0.6,0.5235987755982988,0.5235987755982988,0,0.6350027,1.9868706,0.0020738912,-0.76719064,0.12516588,1.4679956,-0.82670605,-0.750529,1.387315,0.19444627,-0.18482739,0.12698533,1.1212337,0.5224507
-0.1,0.0,0.6,0.5235987755982988,0.5235987755982988,0,0.64711994,1.9880131,0.006097062,-0.783416,0.11506771,1.4668301,-0.8166208,-0.7473301,1.3882104,0.18530428,-0.18905532,0.14077699,1.1305217,0.47785866
-0.1,0.0,0.6,0.5235987755982988,0.5235987755982988,0,0.63541454,1.9873147,0.007603644,-0.7732143,0.1274169,1.4674525,-0.85161835,-0.72708595,1.3853174,0.18901467,-0.18622345,0.13691655,1.1267635,0.5064007
-0.1,0.0,0.6,0.5235987755982988,0.5235987755982988,0,0.6442408,1.9846689,-0.003073139,-0.7705614,0.125449,1.4670658,-0.841522,-0.7642637,1.3871123,0.18149677,-0.1867665,0.15122709,1.1208324,0.46488267
-0.1,0.0,0.6,0.5235987755982988,0.5235987755982988,0,0.627564,1.9866171,0.0104542915,-0.767923,0.1343694,1.4666129,-0.8319103,-0.7585918,1.3880668,0.18712102,-0.18689413,0.15567611,1.1372298,0.5750259
-0.1,0.0,0.6,0.5235987755982988,0.5235987755982988,0,0.63869345,1.9858997,-0.005137818,-0.7690642,0.13967966,1.4671483,-0.7791195,-0.7533133,1.3895639,0.18478104,-0.1877506,0.13749012,1.128422,0.4977257
-0.1,0.0,0.6,0.5235987755982988,0.5235987755982988,0,0.6265857,1.9874638,0.00880138,-0.76884395,0.112730324,1.4686197,-0.835925,-0.7514895,1.3878288,0.18667744,-0.1877017,0.13493782,1.131427,0.538117
-0.1,0.0,0.6,0.5235987755982988,0.5235987755982988,0,0.6349896,1.9887718,0.0003210816,-0.77024865,0.09820538,1.4672807,-0.844489,-0.76456046,1.3896258,0.18819357,-0.18651868,0.13435414,1.1273186,0.5371906
-0.1,0.0,0.6,0.5235987755982988,0.5235987755982988,0,0.6345788,1.9874399,0.00030528827,-0.76832986,0.11933556,1.4723241,-0.80840594,-0.7621555,1.3872821,0.19187963,-0.18904766,0.14598973,1.1332297,0.52317697
-0.1,0.0,0.6,0.5235987755982988,0.5235987755982988,0,0.6258279,1.9859476,0.014567104,-0.7735353,0.12500103,1.4730543,-0.81419414,-0.76773083,1.3894074,0.1917371,-0.18761717,0.14927855,1.1325457,0.43674558
-0.1,0.0,0.6,0.5235987755982988,0.5235987755982988,0,0.6334963,1.986323,0.015769556,-0.76966065,0.13918996,1.4640754,-0.8479592,-0.7603221,1.39023,0.20156714,-0.19160108,0.13429032,1.1283605,0.43267587
-0.1,0.0,0.6,0.5235987755982988,0.5235987755982988,0,0.63057786,1.9868051,0.005268536,-0.76925236,0.10877995,1.4656378,-0.7734022,-0.7536435,1.3880863,0.19259311,-0.18466781,0.13014165,1.12596,0.44963813
-0.1,0.0,0.6,0.5235987755982988,0.5235987755982988,0,0.64333344,1.9847643,0.0043599866,-0.766387,0.10255936,1.4708118,-0.75705045,-0.7633704,1.3852178,0.18970448,-0.18501444,0.14621904,1.1263441,0.5039136
-0.1,0.0,0.6,0.5235987755982988,0.5235987755982988,0,0.63711166,1.9844679,0.003006758,-0.766903,0.13311182,1.469316,-0.79766136,-0.7566949,1.3877419,0.19826418,-0.18519193,0.12974209,1.1229527,0.46031472
-0.1,0.0,0.6,0.5235987755982988,0.5235987755982988,0,0.64040184,1.9855908,0.013144458,-0.7692517,0.10345721,1.4617683,-0.8167527,-0.76598483,1.3889109,0.19671324,-0.18720257,0.16160725,1.125032,0.57545507
