sanky1234/BimanualDexCatch/isaacgymenvs/cem_results/football_pose_-0.2_0.0_1.1999999999999997_-0.5235987755982988_0.5235987755982988_0_2025-05-24.csv
x,y,z,roll,pitch,yaw,robot1/joint1,robot1/joint2,robot1/joint3,robot1/joint4,robot1/joint5,robot1/joint6,robot1/joint7,robot2/joint1,robot2/joint2,robot2/joint3,robot2/joint4,robot2/joint5,robot2/joint6,robot2/joint7
-0.2,0.0,1.1999999999999997,-0.5235987755982988,0.5235987755982988,0,0.20265651,0.5605895,0.42031425,0.4052884,0.8942936,0.48318824,0.06483174,1.164523,1.1773155,0.17967835,-0.07472792,-0.3126251,1.3344973,0.18267113
-0.2,0.0,1.1999999999999997,-0.5235987755982988,0.5235987755982988,0,0.20279364,0.56074345,0.41965166,0.40628728,0.8897506,0.48405007,0.06305645,0.59774804,1.4798928,-0.70481384,-0.108597845,-0.2465872,1.1788166,0.082627654
-0.2,0.0,1.1999999999999997,-0.5235987755982988,0.5235987755982988,0,0.20240518,0.56146145,0.4193128,0.40586078,0.89384353,0.4836917,0.067819715,0.6036743,1.236504,0.21571928,-0.13484734,-0.16881546,1.2942703,0.3554634
-0.2,0.0,1.1999999999999997,-0.5235987755982988,0.5235987755982988,0,0.20156652,0.5611398,0.41996014,0.40612197,0.89654356,0.4844334,0.06595066,0.44715756,1.310735,0.40677053,-0.10555058,0.08596176,1.1074966,0.0043055485
-0.2,0.0,1.1999999999999997,-0.5235987755982988,0.5235987755982988,0,0.20226774,0.5621836,0.41985422,0.404675,0.8908833,0.4849635,0.065393165,1.3435578,1.380004,-0.15675189,-0.116586834,-0.20283094,1.210977,-1.3370818
-0.2,0.0,1.1999999999999997,-0.5235987755982988,0.5235987755982988,0,0.20222394,0.5616482,0.42047134,0.40615085,0.8910309,0.48313582,0.063972466,0.37465242,1.3226017,-0.32467318,-0.074671485,0.05144523,1.2145838,-0.17846295
-0.2,0.0,1.1999999999999997,-0.5235987755982988,0.5235987755982988,0,0.20298441,0.56220967,0.41930938,0.4052277,0.88990366,0.48539653,0.060551386,0.6951519,1.3769697,0.16647883,-0.09254315,-0.16575283,1.1775925,-0.006394501
-0.2,0.0,1.1999999999999997,-0.5235987755982988,0.5235987755982988,0,0.20326187,0.5620248,0.4197129,0.4062467,0.8908737,0.48394662,0.061325617,0.047213838,1.4516549,-0.09274298,-0.048803613,-0.2354507,1.3492184,0.42520577
-0.2,0.0,1.1999999999999997,-0.5235987755982988,0.5235987755982988,0,0.20245638,0.561729,0.41976866,0.4056287,0.8956506,0.48361745,0.0643791,1.490528,1.3508555,-0.29099545,-0.13924316,0.11055665,1.2620635,-0.4342517
-0.2,0.0,1.1999999999999997,-0.5235987755982988,0.5235987755982988,0,0.20340541,0.5618725,0.4196102,0.4058158,0.89272094,0.4845934,0.05549153,0.065557994,1.2494438,0.23736742,-0.13617487,0.103057735,1.2499983,-0.7690405
-0.2,0.0,1.1999999999999997,-0.5235987755982988,0.5235987755982988,0,0.20382965,0.56193113,0.42025548,0.40565902,0.88858736,0.48246205,0.060968827,-0.38654923,1.2953097,-0.20611764,-0.10652212,-0.1520032,1.2817447,-0.31338832
-0.2,0.0,1.1999999999999997,-0.5235987755982988,0.5235987755982988,0,0.2021929,0.5609641,0.41948396,0.40560597,0.88988435,0.48573148,0.06384854,0.58893234,1.3773566,0.1037646,-0.14211242,-0.17630088,1.3123435,-0.08149935
-0.2,0.0,1.1999999999999997,-0.5235987755982988,0.5235987755982988,0,0.20263365,0.560988,0.4198451,0.40601552,0.89712346,0.48366758,0.06080849,0.2211742,1.348963,0.25698897,-0.14621148,0.03516736,1.2165704,-0.26622698
-0.2,0.0,1.1999999999999997,-0.5235987755982988,0.5235987755982988,0,0.20217827,0.56067705,0.4200243,0.40597153,0.8923509,0.48510852,0.06025661,0.076037966,1.3110034,-0.5987916,-0.060576424,0.06539271,1.3198766,-0.9973646
-0.2,0.0,1.1999999999999997,-0.5235987755982988,0.5235987755982988,0,0.20490928,0.5623373,0.41968742,0.4054101,0.8857915,0.48440775,0.057108555,-0.1286777,1.1165785,-0.044309124,-0.04055041,0.029312043,1.2296877,-0.022949949
-0.2,0.0,1.1999999999999997,-0.5235987755982988,0.5235987755982988,0,0.2015383,0.5605722,0.4210142,0.40550336,0.8950488,0.48440734,0.06225448,0.30111033,1.314221,-0.16523647,-0.124029726,-0.040612098,1.2233543,0.38946673
-0.2,0.0,1.1999999999999997,-0.5235987755982988,0.5235987755982988,0,0.20337947,0.56065667,0.4197319,0.4068202,0.89057106,0.4838891,0.057739075,0.26885244,1.26186,0.2788905,-0.1018279,-0.29486206,1.2772924,0.030045869
-0.2,0.0,1.1999999999999997,-0.5235987755982988,0.5235987755982988,0,0.20290773,0.5608594,0.4204033,0.40457672,0.89323837,0.4850424,0.0630074,0.8025233,1.3860451,0.35473397,-0.11109748,-0.11301959,1.3961858,0.049673494
-0.2,0.0,1.1999999999999997,-0.5235987755982988,0.5235987755982988,0,0.20245355,0.5621242,0.42014602,0.4052494,0.8976074,0.48400804,0.063635625,0.54951143,1.1880329,-0.17082717,-0.10028154,0.123534374,1.16363,-0.6357789
-0.2,0.0,1.1999999999999997,-0.5235987755982988,0.5235987755982988,0,0.20459484,0.5615562,0.41969123,0.40562892,0.88925797,0.48237765,0.063874766,0.90428025,1.2826165,0.08566645,-0.1608288,0.23859458,1.1839705,0.31503987
-0.2,0.0,1.1999999999999997,-0.5235987755982988,0.5235987755982988,0,0.20258278,0.5607976,0.42064396,0.40550423,0.8912265,0.4842074,0.06281659,-0.18668614,1.3210211,-0.3292639,-0.06463408,-0.01963378,1.3098236,0.44942346
-0.2,0.0,1.1999999999999997,-0.5235987755982988,0.5235987755982988,0,0.202163,0.56219774,0.42080346,0.40606308,0.8944255,0.4846642,0.056247,0.9173025,1.267505,0.27774027,-0.061263993,-0.05995759,1.1337318,-0.24591556
-0.2,0.0,1.1999999999999997,-0.5235987755982988,0.5235987755982988,0,0.20356782,0.56093943,0.41943756,0.40591455,0.8886361,0.48536107,0.058870316,0.60196054,1.2525079,-0.08791445,-0.011574772,0.1363124,1.2618986,-0.5857996
-0.2,0.0,1.1999999999999997,-0.5235987755982988,0.5235987755982988,0,0.20294759,0.56123924,0.41990468,0.40528914,0.8912225,0.48424587,0.06596425,0.27257797,1.2646526,-0.2553617,-0.024889778,0.08157388,1.3173189,0.042816326
-0.2,0.0,1.1999999999999997,-0.5235987755982988,0.5235987755982988,0,0.20376545,0.56073326,0.4200289,0.40564844,0.8938116,0.48411137,0.057622094,-0.7097603,1.248231,-0.13586468,-0.11802057,-0.1361865,1.135429,-0.3725938
-0.2,0.0,1.1999999999999997,-0.5235987755982988,0.5235987755982988,0,0.20354646,0.5598698,0.42015377,0.40453133,0.8943472,0.4848961,0.06280814,0.64933026,1.429103,0.09799472,-0.06057427,-0.07429804,1.266847,-0.4453306
-0.2,0.0,1.1999999999999997,-0.5235987755982988,0.5235987755982988,0,0.20274691,0.561669,0.4198248,0.40649304,0.8956851,0.48386246,0.059477158,0.35773954,1.3534561,0.15383051,-0.11357995,-0.02774989,1.1922996,-0.34979582
-0.2,0.0,1.1999999999999997,-0.5235987755982988,0.5235987755982988,0,0.20329134,0.5610393,0.42028764,0.4056682,0.8897179,0.48273984,0.0666372,0.2899097,1.3500183,0.3050394,-0.06753654,-0.16598171,1.1839291,-0.22154914
-0.2,0.0,1.1999999999999997,-0.5235987755982988,0.5235987755982988,0,0.20297632,0.5605207,0.41942418,0.40568897,0.88788503,0.48537695,0.062896796,0.55708665,1.2555093,-0.13110468,-0.101638004,0.032053422,1.2263768,0.3910821
-0.2,0.0,1.1999999999999997,-0.5235987755982988,0.5235987755982988,0,0.20199892,0.5609175,0.4199819,0.40725484,0.89232653,0.48460278,0.057628244,0.5040698,1.30179,-0.32540995,-0.046283387,0.09530411,1.2744286,0.39174443
-0.2,0.0,1.1999999999999997,-0.5235987755982988,0.5235987755982988,0,0.20369594,0.5615187,0.4204752,0.40527618,0.8945544,0.48281276,0.06289106,0.6845836,1.2324314,0.3930913,-0.049890585,0.2621701,1.1654168,-0.028181762
-0.2,0.0,1.1999999999999997,-0.5235987755982988,0.5235987755982988,0,0.20430319,0.56092274,0.41934103,0.40500334,0.8975315,0.48407593,0.060773324,0.23272485,1.2921743,0.5807284,-0.07597755,-0.15430096,1.2826483,0.67318684
-0.2,0.0,1.1999999999999997,-0.5235987755982988,0.5235987755982988,0,0.20308723,0.5609232,0.41989484,0.4062794,0.89082134,0.4831645,0.06545216,0.1546558,1.3763233,0.15328373,-0.10743653,-0.1071172,1.2313519,-0.86059695
-0.2,0.0,1.1999999999999997,-0.5235987755982988,0.5235987755982988,0,0.20294736,0.5622521,0.42024583,0.40404463,0.8919988,0.48436534,0.06718417,-0.65916294,1.3240966,-0.27410984,-0.10689911,-0.011054952,1.246967,-0.31973022
-0.2,0.0,1.1999999999999997,-0.5235987755982988,0.5235987755982988,0,0.2023533,0.559776,0.41931328,0.4058377,0.8920561,0.48600042,0.06575001,0.7545393,1.3309356,0.34664348,-0.06252153,-0.19167165,1.2683207,-0.51634973
-0.2,0.0,1.1999999999999997,-0.5235987755982988,0.5235987755982988,0,0.20278002,0.56079954,0.42020875,0.40624672,0.89080375,0.48426569,0.06172712,-0.043300904,1.467997,-0.11946164,-0.08751267,-0.086026005,1.252276,-0.17178543
-0.2,0.0,1.1999999999999997,-0.5235987755982988,0.5235987755982988,0,0.20221253,0.5600183,0.42019454,0.40527526,0.89114726,0.48512462,0.07107018,0.76137507,1.3323905,0.65322137,-0.09577785,-0.27584058,1.2152935,0.020173086
-0.2,0.0,1.1999999999999997,-0.5235987755982988,0.5235987755982988,0,0.20231189,0.5600057,0.42023674,0.40672195,0.8913386,0.48402128,0.06603367,0.71378773,1.2189053,0.4181084,-0.0075887125,0.011236636,1.2444178,-0.3188928
-0.2,0.0,1.1999999999999997,-0.5235987755982988,0.5235987755982988,0,0.20310837,0.5627182,0.41928613,0.40513235,0.8935522,0.48459467,0.064842924,0.78003573,1.259429,0.036995623,-0.108606175,0.079625614,1.2870319,-0.54499584
-0.2,0.0,1.1999999999999997,-0.5235987755982988,0.5235987755982988,0,0.20274992,0.56091654,0.4196079,0.40565214,0.89523876,0.48423448,0.06571905,0.59813446,1.3894997,0.15103228,-0.0754878,0.11090908,1.2992773,-0.38050497
-0.2,0.0,1.1999999999999997,-0.5235987755982988,0.5235987755982988,0,0.20326237,0.56257766,0.4205702,0.40458247,0.8916743,0.4830662,0.065405495,0.725272,1.2618897,0.22048578,-0.09610953,0.25638336,1.2806481,-0.11168471
-0.2,0.0,1.1999999999999997,-0.5235987755982988,0.5235987755982988,0,0.20292747,0.56140774,0.42022353,0.405392,0.8882829,0.48463807,0.06605426,0.75202566,1.4662297,-0.3025422,-0.031209823,0.046945393,1.2385151,-0.49411008
-0.2,0.0,1.1999999999999997,-0.5235987755982988,0.5235987755982988,0,0.20365813,0.5593769,0.4200139,0.40602174,0.89235365,0.48385128,0.06086945,0.28062263,1.1620289,-0.15917581,-0.059077725,0.10307124,1.2434921,-0.31098002
-0.2,0.0,1.1999999999999997,-0.5235987755982988,0.5235987755982988,0,0.20327194,0.56166357,0.4190464,0.40580335,0.89131844,0.48336828,0.070481405,0.22177808,1.315561,-0.3667677,-0.10259335,0.09564936,1.2662281,0.12173944
-0.2,0.0,1.1999999999999997,-0.5235987755982988,0.5235987755982988,0,0.20354052,0.5625709,0.4202775,0.4052881,0.8834619,0.48470137,0.06404693,1.1761371,1.3172716,-0.2324834,-0.11994719,0.11575607,1.3708453,-0.21206397
-0.2,0.0,1.1999999999999997,-0.5235987755982988,0.5235987755982988,0,0.20343259,0.5604776,0.42073828,0.40507254,0.89330685,0.48302233,0.06476226,-0.02198661,1.3887239,0.28622532,-0.15438612,0.21921344,1.2681024,-0.006712347
-0.2,0.0,1.1999999999999997,-0.5235987755982988,0.5235987755982988,0,0.20406769,0.56107914,0.4195395,0.40522048,0.89314216,0.48349312,0.06380197,-0.04688072,1.3366297,0.089579746,-0.09057916,0.090976864,1.3108011,-0.63017106
-0.2,0.0,1.1999999999999997,-0.5235987755982988,0.5235987755982988,0,0.20238459,0.56240624,0.42026615,0.40542838,0.89138824,0.4847078,0.0626993,-0.9227306,1.3264239,-0.17273767,-0.06626395,0.010947121,1.1936126,0.011026173
-0.2,0.0,1.1999999999999997,-0.5235987755982988,0.5235987755982988,0,0.2026948,0.5607496,0.41972432,0.4057644,0.8898148,0.4854485,0.0655886,-0.3655877,1.2810057,0.16527568,-0.011486136,-0.15938921,1.2326596,-0.63542855
-0.2,0.0,1.1999999999999997,-0.5235987755982988,0.5235987755982988,0,0.20199987,0.56202084,0.42094555,0.40556332,0.889713,0.4844975,0.06718034,1.0285041,1.1925632,-0.07186807,-0.16067204,-0.08793215,1.0894514,-1.0891951
-0.2,0.0,1.1999999999999997,-0.5235987755982988,0.5235987755982988,0,0.20345402,0.5608263,0.42041236,0.40534595,0.893832,0.48360068,0.062057056,0.10334347,1.3695607,-0.12566687,-0.117708616,-0.10826266,1.2838194,0.26296747
-0.2,0.0,1.1999999999999997,-0.5235987755982988,0.5235987755982988,0,0.20303224,0.56136423,0.41995203,0.40530893,0.8946672,0.48394862,0.064973906,-0.30110565,1.2916929,-0.005827573,-0.13300453,0.02517158,1.212507,0.08585655
-0.2,0.0,1.1999999999999997,-0.5235987755982988,0.5235987755982988,0,0.20206307,0.5614724,0.42024836,0.4066738,0.8939993,0.48442414,0.062342152,0.50468314,1.2315768,-0.10085175,-0.029685773,-0.15124719,1.1256025,0.004130888
-0.2,0.0,1.1999999999999997,-0.5235987755982988,0.5235987755982988,0,0.2037524,0.56155086,0.42013156,0.40533093,0.8914799,0.4845781,0.061987117,0.479843,1.4042594,-0.14719935,0.03984389,-0.15181887,1.2195345,0.34988272
-0.2,0.0,1.1999999999999997,-0.5235987755982988,0.5235987755982988,0,0.20375934,0.5602868,0.41998205,0.40576997,0.88573,0.4840895,0.06934766,-0.0077245035,1.1863251,-0.19773768,-0.16452707,-0.1558197,1.2784159,-0.4289034
-0.2,0.0,1.1999999999999997,-0.5235987755982988,0.5235987755982988,0,0.20378907,0.56049454,0.4196545,0.40551266,0.89037806,0.48621893,0.058802705,0.84048927,1.3796612,0.075498514,-0.09734997,-0.113666736,1.1126585,-0.2458714
-0.2,0.0,1.1999999999999997,-0.5235987755982988,0.5235987755982988,0,0.20305684,0.56150204,0.41986236,0.40640578,0.8941503,0.48369142,0.063601956,-0.689351,1.308804,-0.10595364,-0.1711195,0.12124957,1.2068046,-0.007445923
-0.2,0.0,1.1999999999999997,-0.5235987755982988,0.5235987755982988,0,0.20452903,0.5604247,0.41973504,0.40611497,0.8875935,0.48420244,0.06194353,0.48549885,1.2642715,0.3563594,-0.14505215,-0.17056592,1.1986207,-0.5272055
-0.2,0.0,1.1999999999999997,-0.5235987755982988,0.5235987755982988,0,0.20283093,0.56275624,0.42024875,0.40462998,0.8905106,0.48509714,0.06596743,0.30263633,1.2596443,0.2111884,-0.104998134,0.17738727,1.2413384,-0.6499672
-0.2,0.0,1.1999999999999997,-0.5235987755982988,0.5235987755982988,0,0.20361935,0.56122774,0.41976523,0.40543136,0.8907001,0.48393273,0.06581062,-0.49504519,1.2047861,0.07204728,-0.03574085,-0.15336113,1.2632394,-0.79341537
-0.2,0.0,1.1999999999999997,-0.5235987755982988,0.5235987755982988,0,0.20367491,0.56235784,0.4200125,0.4047385,0.8924019,0.48396853,0.06606955,0.7962403,1.2701551,-0.26802054,-0.12217881,-0.1481349,1.167655,-0.120585255
-0.2,0.0,1.1999999999999997,-0.5235987755982988,0.5235987755982988,0,0.20357646,0.5614032,0.42013794,0.4057319,0.8877439,0.4845971,0.063184395,0.23706612,1.313147,0.5023237,-0.10401829,0.07640757,1.2753637,-0.1923149
-0.2,0.0,1.1999999999999997,-0.5235987755982988,0.5235987755982988,0,0.20250356,0.5616943,0.42037925,0.40559697,0.8922352,0.4841961,0.0675422,0.628028,1.3038354,-0.34445545,-0.052575137,-0.32434872,1.2822776,-0.32503694
-0.2,0.0,1.1999999999999997,-0.5235987755982988,0.5235987755982988,0,0.2030225,0.56161076,0.4196019,0.40663403,0.8861686,0.48540202,0.063431144,0.021684878,1.3473527,-0.19925083,-0.0044970294,-0.055444784,1.2287548,-0.2572998
-0.2,0.0,1.1999999999999997,-0.5235987755982988,0.5235987755982988,0,0.20360976,0.5617362,0.42055282,0.40545857,0.895348,0.4829029,0.065169476,-0.018428573,1.4017376,-0.28812736,-0.12783444,0.15864617,1.3304478,-0.92418313
-0.2,0.0,1.1999999999999997,-0.5235987755982988,0.5235987755982988,0,0.20489699,0.5613675,0.41984418,0.4053906,0.8932684,0.48275533,0.061063986,0.10216206,1.3862132,0.31824708,-0.08178151,0.036447097,1.2433208,-0.33448133
-0.2,0.0,1.1999999999999997,-0.5235987755982988,0.5235987755982988,0,0.20331882,0.5615617,0.42079616,0.4056384,0.8853129,0.48496568,0.062037624,1.4082603,1.3214585,-0.17025235,-0.08061072,-0.17355308,1.3101948,-0.59755015
-0.2,0.0,1.1999999999999997,-0.5235987755982988,0.5235987755982988,0,0.20298544,0.5617383,0.42005214,0.4049052,0.89217246,0.48579416,0.0655843,-0.22600152,1.1849258,-0.037282653,-0.07465386,-0.003648359,1.1682943,-0.46437475
-0.2,0.0,1.1999999999999997,-0.5235987755982988,0.5235987755982988,0,0.2039094,0.5616342,0.4197467,0.40593097,0.891898,0.48355567,0.061929923,-0.041717287,1.3039321,-0.10098022,-0.10144967,0.20294058,1.2663301,-1.4895931
-0.2,0.0,1.1999999999999997,-0.5235987755982988,0.5235987755982988,0,0.20430881,0.5602558,0.4204347,0.40350974,0.892471,0.48483655,0.067187205,0.39325032,1.3108664,0.26404998,-0.0628659,-0.15475594,1.1420089,0.29483566
-0.2,0.0,1.1999999999999997,-0.5235987755982988,0.5235987755982988,0,0.20198618,0.56043154,0.42076427,0.40638176,0.8949598,0.48472685,0.06291377,0.4744201,1.2985148,-0.038798768,-0.12064784,-0.054834705,1.1952913,-0.07971519
-0.2,0.0,1.1999999999999997,-0.5235987755982988,0.5235987755982988,0,0.20323391,0.56266344,0.41994265,0.4056427,0.891305,0.48434398,0.06307875,0.21027035,1.3493472,-0.015209156,-0.05950986,0.07711632,1.3079237,-0.31494913
-0.2,0.0,1.1999999999999997,-0.5235987755982988,0.5235987755982988,0,0.20267831,0.5622236,0.4205701,0.4061088,0.8903818,0.4846688,0.06533763,-0.49668446,1.2747838,-0.31078848,-0.18140747,-0.049599275,1.1367874,-0.09061319
-0.2,0.0,1.1999999999999997,-0.5235987755982988,0.5235987755982988,0,0.20265055,0.5610809,0.4201991,0.4071506,0.89114344,0.484337,0.06551571,0.5823133,1.1590973,0.11668804,-0.03905276,-0.0549422,1.1035357,-0.346485
-0.2,0.0,1.1999999999999997,-0.5235987755982988,0.5235987755982988,0,0.20328918,0.56045425,0.42006573,0.40588427,0.89192814,0.48449233,0.06532958,1.3980215,1.3518789,-0.30150852,-0.04749435,-0.21662895,1.1398463,0.06798474
-0.2,0.0,1.1999999999999997,-0.5235987755982988,0.5235987755982988,0,0.2029589,0.5610993,0.42029732,0.40687147,0.892077,0.485478,0.057809487,-0.4055439,1.451466,-0.29774737,-0.05767535,0.06870271,1.1708784,-1.0788358
-0.2,0.0,1.1999999999999997,-0.5235987755982988,0.5235987755982988,0,0.20229849,0.56163955,0.42075422,0.40605557,0.8944168,0.48440787,0.06279115,0.22908254,1.2118276,-0.019644942,-0.052733496,-0.04296113,1.2526681,-0.26100832
-0.2,0.0,1.1999999999999997,-0.5235987755982988,0.5235987755982988,0,0.2033385,0.56152195,0.4208112,0.4060075,0.89160067,0.48508355,0.061708063,-0.63965976,1.5328889,-0.21433626,-0.19241202,0.08382092,1.1804452,-0.639638
-0.2,0.0,1.1999999999999997,-0.5235987755982988,0.5235987755982988,0,0.20310277,0.5613164,0.42020503,0.4073494,0.89181316,0.48376277,0.0622895,0.55619824,1.3325957,-0.22777517,0.047631614,-0.086609446,1.1625488,-0.0027775797
-0.2,0.0,1.1999999999999997,-0.5235987755982988,0.5235987755982988,0,0.20322455,0.5612875,0.4204911,0.4064207,0.8896236,0.48459432,0.062723055,-0.5260972,1.203772,-0.09198159,-0.13842085,-0.17728165,1.1951511,-0.48965383
-0.2,0.0,1.1999999999999997,-0.5235987755982988,0.5235987755982988,0,0.20398147,0.5615359,0.41982773,0.40616283,0.8944559,0.4841443,0.059378225,0.12688734,1.3836718,-0.088611394,-0.021362137,0.14810766,1.2939014,-0.12557288
-0.2,0.0,1.1999999999999997,-0.5235987755982988,0.5235987755982988,0,0.2021856,0.5610701,0.4206311,0.40523362,0.89397603,0.48525104,0.06645383,0.7045849,1.3765641,-0.080025986,-0.046690416,0.044829637,1.1385453,-0.55864465
-0.2,0.0,1.1999999999999997,-0.5235987755982988,0.5235987755982988,0,0.20300588,0.56181955,0.42003077,0.40478033,0.8908468,0.48564366,0.06738747,0.6342021,1.2591242,-0.07823883,-0.07975969,-0.07244496,1.3691663,0.08143773
-0.2,0.0,1.1999999999999997,-0.5235987755982988,0.5235987755982988,0,0.20420201,0.5608034,0.41968447,0.40616423,0.8930963,0.4843092,0.06469803,0.5335991,1.0618572,0.0075779376,-0.15306677,-0.18477623,1.2374461,0.02386586
-0.2,0.0,1.1999999999999997,-0.5235987755982988,0.5235987755982988,0,0.20315938,0.5607828,0.42055935,0.40503833,0.88933915,0.4846778,0.06812886,-0.36812615,1.3854536,-0.0928422,-0.039643373,-0.1285146,1.2118967,-0.999881
-0.2,0.0,1.1999999999999997,-0.5235987755982988,0.5235987755982988,0,0.2051502,0.56054324,0.41915035,0.40524188,0.8962819,0.48412582,0.06294322,-0.3854663,1.2299235,-0.100395404,-0.032160923,-0.25280678,1.2789518,0.19869904
-0.2,0.0,1.1999999999999997,-0.5235987755982988,0.5235987755982988,0,0.20316058,0.5604336,0.4203475,0.40637144,0.8900452,0.48523653,0.061459634,0.95734346,1.2931088,-0.020009948,-0.08720546,0.012681244,1.3286486,-0.29041854
-0.2,0.0,1.1999999999999997,-0.5235987755982988,0.5235987755982988,0,0.20305488,0.5611049,0.42000893,0.40605155,0.8936054,0.4849648,0.06407943,-0.7057589,1.358427,-0.017447477,-0.08663423,0.2157034,1.1056643,0.5487803
-0.2,0.0,1.1999999999999997,-0.5235987755982988,0.5235987755982988,0,0.20318206,0.5627427,0.41945112,0.4063189,0.89387196,0.48455638,0.067709975,0.91331106,1.2997512,0.050785683,-0.07027169,-0.069062136,1.0458349,-0.7933509
-0.2,0.0,1.1999999999999997,-0.5235987755982988,0.5235987755982988,0,0.20283082,0.56114566,0.4199956,0.40564337,0.89614487,0.4860159,0.06150862,0.8187605,1.2057164,0.17182887,-0.10232593,-0.13665794,1.1456096,0.20160246
-0.2,0.0,1.1999999999999997,-0.5235987755982988,0.5235987755982988,0,0.2043064,0.56220496,0.41943812,0.40578172,0.8886602,0.48417524,0.06770821,-0.1703976,1.2375549,0.15744233,-0.08473516,0.05219701,1.2944974,-0.1691236
-0.2,0.0,1.1999999999999997,-0.5235987755982988,0.5235987755982988,0,0.20232278,0.56201875,0.42056274,0.4047657,0.89342046,0.48679292,0.06697309,0.11467433,1.3223013,0.41195726,-0.08613422,-0.05605729,1.1355157,-1.1672404
-0.2,0.0,1.1999999999999997,-0.5235987755982988,0.5235987755982988,0,0.2031409,0.56129044,0.4201795,0.4058543,0.89041656,0.48493683,0.06766724,0.11754598,1.4355211,-0.10975512,-0.06851649,-0.08245178,1.1257184,-0.35309353
-0.2,0.0,1.1999999999999997,-0.5235987755982988,0.5235987755982988,0,0.20364699,0.5611887,0.42016312,0.4072318,0.8834162,0.48492777,0.06439623,0.9749932,1.3623136,0.05843298,-0.08978134,0.35472253,1.3045524,-0.14275348
-0.2,0.0,1.1999999999999997,-0.5235987755982988,0.5235987755982988,0,0.20323037,0.5622686,0.4199389,0.406667,0.8931986,0.48518294,0.059412427,0.25316542,1.3931329,0.05806815,-0.054042824,-0.04631081,1.2444506,-0.7067004
-0.2,0.0,1.1999999999999997,-0.5235987755982988,0.5235987755982988,0,0.20274808,0.5604081,0.420616,0.40656206,0.89396065,0.4845855,0.061861895,-0.40104723,1.2937447,0.22447385,-0.12269746,-0.18159723,1.265114,-0.6459921
-0.2,0.0,1.1999999999999997,-0.5235987755982988,0.5235987755982988,0,0.20285901,0.5616427,0.41997823,0.4058925,0.8956257,0.48574334,0.06234937,0.8847682,1.2664081,-0.04428915,-0.030277211,-0.11675332,1.2098671,-0.6377645
-0.2,0.0,1.1999999999999997,-0.5235987755982988,0.5235987755982988,0,0.20149544,0.561152,0.4207185,0.40652153,0.89292514,0.48663703,0.06521419,0.33472124,1.27391,-0.0028537712,-0.02628048,-0.08192131,1.1806467,-0.37826076
-0.2,0.0,1.1999999999999997,-0.5235987755982988,0.5235987755982988,0,0.20338418,0.56040365,0.4197211,0.4062905,0.8841862,0.48531076,0.07339623,0.77049184,1.3638916,0.21620579,-0.03325943,-0.21684663,1.2458346,-0.053972267
-0.2,0.0,1.1999999999999997,-0.5235987755982988,0.5235987755982988,0,0.20337802,0.5613227,0.4203956,0.4060777,0.8949331,0.48491126,0.063106984,-0.39541575,1.3988423,-0.1718811,-0.14384122,0.024794742,1.2025281,0.113806926
-0.2,0.0,1.1999999999999997,-0.5235987755982988,0.5235987755982988,0,0.20463884,0.56162584,0.4201962,0.40618613,0.8899521,0.48388365,0.063971885,-0.5271055,1.2965525,-0.08259631,-0.10232877,-0.08413496,1.2581617,0.36797735
-0.2,0.0,1.1999999999999997,-0.5235987755982988,0.5235987755982988,0,0.20400064,0.5628422,0.41942075,0.40645716,0.8894318,0.4856637,0.06281533,0.0022509038,1.2810818,-0.063224785,-0.019428976,0.16039138,1.2619213,-0.3706054
-0.2,0.0,1.1999999999999997,-0.5235987755982988,0.5235987755982988,0,0.2041873,0.5618072,0.41986144,0.40699285,0.8896918,0.48344174,0.06717628,0.59755486,1.3953635,0.11042658,-0.0991724,0.016458541,1.2691252,-1.2192023
-0.2,0.0,1.1999999999999997,-0.5235987755982988,0.5235987755982988,0,0.20372649,0.5610777,0.4215631,0.40621275,0.88957775,0.48465937,0.060858663,0.41297364,1.176894,0.20358211,-0.07767588,0.24225532,1.1627437,1.1947784
-0.2,0.0,1.1999999999999997,-0.5235987755982988,0.5235987755982988,0,0.20443459,0.5608276,0.41991082,0.40626058,0.89150983,0.48578718,0.06298682,0.8795172,1.2358961,0.17325388,-0.19452652,-0.0965405,1.3255455,-1.0045164
-0.2,0.0,1.1999999999999997,-0.5235987755982988,0.5235987755982988,0,0.20529382,0.56165177,0.41908532,0.4070924,0.8915016,0.484138,0.064811476,0.5735693,1.2939537,-0.65435296,-0.1191418,-0.2236237,1.2971239,-0.18132706
-0.2,0.0,1.1999999999999997,-0.5235987755982988,0.5235987755982988,0,0.20378387,0.56115216,0.420013,0.40511775,0.89312434,0.48716977,0.06388476,0.5969642,1.2545242,-0.23468713,-0.12556708,-0.052226774,1.2422144,0.24305928
-0.2,0.0,1.1999999999999997,-0.5235987755982988,0.5235987755982988,0,0.20318502,0.5614503,0.41993716,0.40592247,0.8962852,0.4858113,0.067103416,-0.20281208,1.2965376,-0.1177329,-0.061967347,-0.17888416,1.2837571,-0.18911697
-0.2,0.0,1.1999999999999997,-0.5235987755982988,0.5235987755982988,0,0.20434561,0.5616734,0.4199877,0.40645567,0.8940379,0.48485595,0.06158227,0.9871894,1.351268,-0.066877395,-0.044330426,-0.2441181,1.1552181,-0.08030077
-0.2,0.0,1.1999999999999997,-0.5235987755982988,0.5235987755982988,0,0.20485304,0.5612335,0.4197881,0.40641662,0.89115256,0.4841136,0.06440645,-0.26452437,1.3227513,-0.13465098,-0.03204996,0.054520775,1.2005525,0.26878533
-0.2,0.0,1.1999999999999997,-0.5235987755982988,0.5235987755982988,0,0.20437522,0.5601859,0.42065832,0.4060886,0.89043987,0.4866824,0.06565251,0.33088934,1.3143345,0.6079788,-0.01921796,-0.13315204,1.2939993,-0.72544855
-0.2,0.0,1.1999999999999997,-0.5235987755982988,0.5235987755982988,0,0.20252606,0.5609013,0.42050597,0.40488648,0.88795614,0.48354125,0.06543668,-0.28984287,1.474273,-0.12529233,-0.08853621,0.021118062,1.2199628,-0.61269253
-0.2,0.0,1.1999999999999997,-0.5235987755982988,0.5235987755982988,0,0.20279069,0.5602425,0.42011568,0.40517154,0.8888211,0.48380002,0.06649367,0.18065564,1.462601,-0.10598284,-0.111300275,0.073044255,1.1188375,-0.1313172
-0.2,0.0,1.1999999999999997,-0.5235987755982988,0.5235987755982988,0,0.2035615,0.5623377,0.41900304,0.40472463,0.89425576,0.48358414,0.06207466,0.7283607,1.2031683,0.010033942,-0.04481864,-0.00664705,1.1291847,-0.5445498
-0.2,0.0,1.1999999999999997,-0.5235987755982988,0.5235987755982988,0,0.20292865,0.56071705,0.41982692,0.403047,0.8864862,0.48438317,0.061838564,1.0275583,1.300113,0.027589533,-0.11543216,0.28382084,1.2883322,0.07628158
-0.2,0.0,1.1999999999999997,-0.5235987755982988,0.5235987755982988,0,0.20295103,0.56083333,0.4189043,0.40500978,0.8899217,0.4834449,0.068848975,0.45284677,1.286573,0.020662863,-0.023837287,-0.0036116848,1.1710104,-0.59742814
-0.2,0.0,1.1999999999999997,-0.5235987755982988,0.5235987755982988,0,0.20191056,0.5604434,0.41958007,0.40663514,0.88545954,0.4833321,0.0617798,0.45925716,1.3622502,-0.15670848,-0.0967948,-0.28232375,1.2111644,-0.104539186
-0.2,0.0,1.1999999999999997,-0.5235987755982988,0.5235987755982988,0,0.20233876,0.5611981,0.41938692,0.40490842,0.89162606,0.48395282,0.065749004,1.5728449,1.3903828,-0.5496828,0.06954271,-0.19159389,1.2689576,0.17026863
-0.2,0.0,1.1999999999999997,-0.5235987755982988,0.5235987755982988,0,0.20117792,0.56053436,0.42066017,0.40474883,0.8935425,0.48410842,0.060847368,-0.05261401,1.2409878,-0.21294649,-0.09486152,-0.028853104,1.2037762,0.38581362
-0.2,0.0,1.1999999999999997,-0.5235987755982988,0.5235987755982988,0,0.20276383,0.56128854,0.4194523,0.4048256,0.8866635,0.48466778,0.06615373,0.5227394,1.5216967,-0.46025506,-0.15494333,-0.23958711,1.3630704,-0.033239253
-0.2,0.0,1.1999999999999997,-0.5235987755982988,0.5235987755982988,0,0.20275328,0.561829,0.42039374,0.40303144,0.8903648,0.48381147,0.06775432,-0.25301382,1.3688768,-0.3001194,-0.08669467,0.05153477,1.1695887,-0.24742383
-0.2,0.0,1.1999999999999997,-0.5235987755982988,0.5235987755982988,0,0.20273347,0.5615819,0.42018947,0.40489906,0.89157504,0.48369023,0.059081357,0.5711353,1.3129948,0.15955222,-0.09953713,-0.21365818,1.2256004,-0.3441897
-0.2,0.0,1.1999999999999997,-0.5235987755982988,0.5235987755982988,0,0.20305482,0.5608988,0.4201887,0.40639725,0.8889936,0.483634,0.057664998,-0.4478407,1.11497,0.27805784,-0.12514952,-0.042108204,1.1278248,-0.7015661
-0.2,0.0,1.1999999999999997,-0.5235987755982988,0.5235987755982988,0,0.20428191,0.56176364,0.4203644,0.40413162,0.8900522,0.4830732,0.058763374,0.1735659,1.426625,-0.49743024,-0.10088596,-0.22824179,1.191311,-1.2093947
-0.2,0.0,1.1999999999999997,-0.5235987755982988,0.5235987755982988,0,0.20211703,0.5608045,0.419438,0.40512052,0.8920561,0.48440194,0.06904044,0.01199096,1.3654362,-0.16718608,0.020031208,-0.08946486,1.2675036,0.040138636
-0.2,0.0,1.1999999999999997,-0.5235987755982988,0.5235987755982988,0,0.20228814,0.56160194,0.41957363,0.40473562,0.89929354,0.48350003,0.06647781,-0.77504575,1.3426464,0.13639793,-0.07962467,-0.07217771,1.2656066,-0.26569283
-0.2,0.0,1.1999999999999997,-0.5235987755982988,0.5235987755982988,0,0.2028355,0.5613896,0.42015737,0.4056983,0.8945335,0.4831855,0.057620905,-0.08029346,1.3284067,0.095632635,-0.09333983,0.044123154,1.1627104,0.21853058
-0.2,0.0,1.1999999999999997,-0.5235987755982988,0.5235987755982988,0,0.2033903,0.5615858,0.42003947,0.4050413,0.8890436,0.48415306,0.059038594,0.7040543,1.3771919,0.13538657,-0.10506792,0.10665182,1.2578593,0.17740561
-0.2,0.0,1.1999999999999997,-0.5235987755982988,0.5235987755982988,0,0.20227328,0.56021714,0.41946223,0.40499184,0.89339185,0.48440847,0.06784875,0.067459725,1.2237561,0.02408289,-0.03145331,-0.30210534,1.2422782,-0.25939023
-0.2,0.0,1.1999999999999997,-0.5235987755982988,0.5235987755982988,0,0.20279096,0.56195337,0.41983846,0.4055027,0.88817334,0.48452115,0.06284484,-0.5678367,1.401055,-0.3034164,-0.14554466,-0.30842417,1.2306589,0.03900558
-0.2,0.0,1.1999999999999997,-0.5235987755982988,0.5235987755982988,0,0.20274216,0.56214726,0.42099613,0.40463024,0.89148927,0.48415875,0.05804436,0.47737557,1.4054912,0.27169323,-0.10031782,-0.2631498,1.243793,-0.27786198
-0.2,0.0,1.1999999999999997,-0.5235987755982988,0.5235987755982988,0,0.20302296,0.56186885,0.42018446,0.40443847,0.890408,0.48376808,0.064993314,1.0287306,1.3902667,-0.4080129,-0.11010896,0.046260756,1.1242763,-0.6516232
-0.2,0.0,1.1999999999999997,-0.5235987755982988,0.5235987755982988,0,0.20203479,0.5608502,0.42005387,0.40545774,0.89818776,0.484388,0.062106658,0.12645286,1.2364923,-0.05584303,-0.06959278,-0.35785654,1.1057988,-0.2349687
-0.2,0.0,1.1999999999999997,-0.5235987755982988,0.5235987755982988,0,0.20336427,0.56170857,0.41980144,0.40471318,0.8872692,0.48433372,0.06412461,1.0105201,1.225405,-0.2628889,-0.074641146,0.038418178,1.2749953,-0.15863952
-0.2,0.0,1.1999999999999997,-0.5235987755982988,0.5235987755982988,0,0.20335071,0.5622192,0.42002097,0.4052768,0.8963003,0.48389342,0.055867102,0.13783485,1.4932817,0.044098917,-0.11435755,-0.04154043,1.2970845,0.78949845
-0.2,0.0,1.1999999999999997,-0.5235987755982988,0.5235987755982988,0,0.20262752,0.56085724,0.41984797,0.4058439,0.8913772,0.48391455,0.062102094,-0.40804052,1.2946695,0.31425735,-0.08199625,-0.17821066,1.3377093,-0.32481232
-0.2,0.0,1.1999999999999997,-0.5235987755982988,0.5235987755982988,0,0.2019978,0.56214005,0.42066613,0.4053087,0.8925894,0.48390728,0.062096916,-0.41679153,1.3343512,0.09666395,-0.009738067,0.0989541,1.3168176,0.2690637
-0.2,0.0,1.1999999999999997,-0.5235987755982988,0.5235987755982988,0,0.2024029,0.56232864,0.4203316,0.4059635,0.88683134,0.4848253,0.059864637,0.47247228,1.2148697,-0.41127923,-0.066675186,-0.21260004,1.227448,0.11002281
-0.2,0.0,1.1999999999999997,-0.5235987755982988,0.5235987755982988,0,0.20257704,0.56068355,0.42036447,0.4058453,0.8900469,0.48359182,0.06551259,0.78335935,1.3758073,-0.48221213,-0.19205828,-0.22896972,1.3268687,-0.13489795
-0.2,0.0,1.1999999999999997,-0.5235987755982988,0.5235987755982988,0,0.20323142,0.56135213,0.41990367,0.40502086,0.8893373,0.4842621,0.06265372,-0.086211495,1.3097184,0.046924412,-0.114363424,-0.09066415,1.2011822,0.015760778
-0.2,0.0,1.1999999999999997,-0.5235987755982988,0.5235987755982988,0,0.20247693,0.5607948,0.420505,0.4054082,0.8943848,0.4831956,0.06435752,0.7007988,1.2303611,-0.15851049,-0.11170342,0.018982114,1.1168453,-0.18040127
-0.2,0.0,1.1999999999999997,-0.5235987755982988,0.5235987755982988,0,0.20240796,0.5606103,0.41975725,0.40552533,0.89230263,0.4849386,0.060782198,1.1556911,1.3171445,0.17160772,-0.10979937,0.032426674,1.2404865,-0.5255183
-0.2,0.0,1.1999999999999997,-0.5235987755982988,0.5235987755982988,0,0.20289044,0.56176126,0.42064518,0.4053882,0.890285,0.483715,0.06084953,0.6151189,1.3990575,-0.16063532,-0.040618293,0.18337315,1.2168137,0.43497077
-0.2,0.0,1.1999999999999997,-0.5235987755982988,0.5235987755982988,0,0.20254642,0.56175727,0.42069462,0.40538576,0.8907722,0.48460695,0.062291615,-0.0040641427,1.3244473,0.06977411,-0.18785948,-0.2990656,1.1429014,-0.15071405
-0.2,0.0,1.1999999999999997,-0.5235987755982988,0.5235987755982988,0,0.20326729,0.5597321,0.41977018,0.4060148,0.88873035,0.48497453,0.057851486,0.1545745,1.2435362,0.17312753,-0.12464249,-0.44055268,1.328534,0.10374845
-0.2,0.0,1.1999999999999997,-0.5235987755982988,0.5235987755982988,0,0.20240414,0.5594882,0.41961905,0.40611413,0.8882105,0.48446217,0.06539938,0.35704193,1.2686164,0.13775405,-0.13435502,0.012489881,1.1604152,-0.45645925
-0.2,0.0,1.1999999999999997,-0.5235987755982988,0.5235987755982988,0,0.20342578,0.5608859,0.42031544,0.40442106,0.89336145,0.48336318,0.06553737,1.3169377,1.2512835,0.08808514,-0.083445296,0.07733574,1.0939637,-0.6432857
-0.2,0.0,1.1999999999999997,-0.5235987755982988,0.5235987755982988,0,0.20240973,0.56099427,0.42018086,0.4048016,0.8891432,0.48413882,0.070986405,-0.2536526,1.427975,-0.12163636,-0.14849734,-0.29329795,1.2580028,-0.6082945
-0.2,0.0,1.1999999999999997,-0.5235987755982988,0.5235987755982988,0,0.20266701,0.5626456,0.42026225,0.4043846,0.8904926,0.48428985,0.06779536,0.34710565,1.3688753,-0.20797195,-0.10835004,0.30301252,1.1263378,-0.68362385
-0.2,0.0,1.1999999999999997,-0.5235987755982988,0.5235987755982988,0,0.2028156,0.56108445,0.42079157,0.40599802,0.885982,0.4843474,0.059384566,0.16028538,1.3410616,-0.08653745,-0.15149792,-0.009368281,1.1442229,-0.016010214
-0.2,0.0,1.1999999999999997,-0.5235987755982988,0.5235987755982988,0,0.20368358,0.56157273,0.42029482,0.40548927,0.8919962,0.4836016,0.05805529,1.2294284,1.3593556,0.33411893,-0.044767287,-0.20739919,1.2899306,0.2509992
-0.2,0.0,1.1999999999999997,-0.5235987755982988,0.5235987755982988,0,0.20273536,0.56116647,0.41980073,0.40468267,0.89223635,0.48484018,0.066092476,0.39047012,1.2911807,-0.16417149,0.009503008,-0.055023313,1.245179,0.072154485
-0.2,0.0,1.1999999999999997,-0.5235987755982988,0.5235987755982988,0,0.2027273,0.5613155,0.42060032,0.4047851,0.8908701,0.4843373,0.06428263,0.7144436,1.3535599,-0.17428505,-0.046993606,-0.068174645,1.1004924,-0.6525497
-0.2,0.0,1.1999999999999997,-0.5235987755982988,0.5235987755982988,0,0.2031816,0.56225544,0.42040673,0.40457842,0.8918137,0.48431963,0.06173399,0.12627442,1.2177126,0.22343504,-0.1128518,-0.03046979,1.2304307,-0.043785926
-0.2,0.0,1.1999999999999997,-0.5235987755982988,0.5235987755982988,0,0.20286974,0.5607475,0.42042735,0.40614578,0.8886439,0.48396116,0.062009174,-0.16569896,1.3075542,-0.29045486,-0.07499539,0.09496138,1.0998694,-0.2302519
-0.2,0.0,1.1999999999999997,-0.5235987755982988,0.5235987755982988,0,0.20379084,0.5613548,0.42007706,0.4069634,0.8920549,0.48312935,0.060294326,0.38705763,1.2214775,0.106978096,-0.071075186,-0.095472515,1.2567272,-0.19943565
-0.2,0.0,1.1999999999999997,-0.5235987755982988,0.5235987755982988,0,0.20326109,0.56208235,0.4203588,0.4054501,0.8890974,0.48520935,0.05685395,0.22343335,1.252141,0.108247414,-0.03152444,0.07592681,1.2471179,0.32160074
-0.2,0.0,1.1999999999999997,-0.5235987755982988,0.5235987755982988,0,0.20318396,0.56058776,0.4198765,0.40575656,0.88992864,0.48431417,0.06478257,0.2150146,1.429878,0.019106187,-0.11975336,-0.05797382,1.3366132,-0.07758079
-0.2,0.0,1.1999999999999997,-0.5235987755982988,0.5235987755982988,0,0.20279564,0.56152326,0.41930556,0.40468255,0.8896069,0.4854525,0.06782766,0.46247694,1.3834352,-0.28297174,-0.046340343,-0.0143793905,1.2804894,-0.45608443
-0.2,0.0,1.1999999999999997,-0.5235987755982988,0.5235987755982988,0,0.20256923,0.5624017,0.42046285,0.40634483,0.88668627,0.48458433,0.060840804,0.82777786,1.2226508,-0.1575792,-0.12174402,-0.17459843,1.248976,-0.018225193
-0.2,0.0,1.1999999999999997,-0.5235987755982988,0.5235987755982988,0,0.2025229,0.56126136,0.42016625,0.40520456,0.89041674,0.4852756,0.062294792,0.8149109,1.3375802,-0.29065615,-0.065419994,0.15619902,1.2809949,-0.44111505
-0.2,0.0,1.1999999999999997,-0.5235987755982988,0.5235987755982988,0,0.20289102,0.5612358,0.4200579,0.4055037,0.8954094,0.484729,0.05913223,0.0826559,1.2724903,0.26622555,-0.07064553,0.13550602,1.3076097,-0.56048596
-0.2,0.0,1.1999999999999997,-0.5235987755982988,0.5235987755982988,0,0.20279276,0.5612495,0.4199821,0.40611684,0.8915792,0.48436943,0.060407996,0.09843202,1.3432149,0.19757296,-0.11011545,0.10241221,1.1880149,-0.6763295
-0.2,0.0,1.1999999999999997,-0.5235987755982988,0.5235987755982988,0,0.20210013,0.56055063,0.41981906,0.4067178,0.891,0.4843143,0.064650334,0.29644027,1.263875,0.043809853,-0.10603726,-0.12160017,1.2867545,-0.48119175
-0.2,0.0,1.1999999999999997,-0.5235987755982988,0.5235987755982988,0,0.20244539,0.56077236,0.42021298,0.40555203,0.89381766,0.48551106,0.05962765,-0.15690537,1.3516141,0.08516467,-0.12259552,0.11600013,1.1263775,0.29692796
-0.2,0.0,1.1999999999999997,-0.5235987755982988,0.5235987755982988,0,0.20215805,0.56165487,0.41998762,0.40577692,0.89352685,0.48466852,0.062489334,-0.122258216,1.4364067,-0.09009943,-0.105950706,0.13705179,1.2455149,-0.26130623
-0.2,0.0,1.1999999999999997,-0.5235987755982988,0.5235987755982988,0,0.20334226,0.5611613,0.42085245,0.40457326,0.8915046,0.48451415,0.061798964,1.3066512,1.3167944,-0.06071473,-0.0696688,-0.12109223,1.202113,0.1863042
-0.2,0.0,1.1999999999999997,-0.5235987755982988,0.5235987755982988,0,0.2029523,0.561215,0.4205644,0.40457234,0.8879062,0.48508075,0.06916111,0.24303006,1.3860106,0.59396076,-0.043169588,-0.11287239,1.2428032,-0.13140735
-0.2,0.0,1.1999999999999997,-0.5235987755982988,0.5235987755982988,0,0.20297581,0.5626581,0.4206996,0.40439358,0.89765185,0.48498693,0.062516786,0.89816695,1.2056674,0.64207953,-0.06891013,-0.10485744,1.2763876,0.08355604
-0.2,0.0,1.1999999999999997,-0.5235987755982988,0.5235987755982988,0,0.20265396,0.56152,0.42071995,0.40556386,0.89262354,0.48432422,0.0655142,1.2051295,1.2061621,0.4791366,-0.1367924,0.026155107,1.2321405,-0.86609125
-0.2,0.0,1.1999999999999997,-0.5235987755982988,0.5235987755982988,0,0.20226298,0.56042767,0.42071062,0.40443555,0.8962238,0.4858634,0.0656535,0.41492236,1.3390288,-0.10550422,-0.01279669,-0.23649071,1.1827874,0.26550597
-0.2,0.0,1.1999999999999997,-0.5235987755982988,0.5235987755982988,0,0.20339541,0.56051177,0.42023253,0.4050066,0.889739,0.48542574,0.06380427,-0.24924299,1.3686658,-0.28585672,-0.100460194,0.14072293,1.2757968,-0.02836112
-0.2,0.0,1.1999999999999997,-0.5235987755982988,0.5235987755982988,0,0.20362717,0.56179726,0.419415,0.40529868,0.88922167,0.48424354,0.06721751,0.23824656,1.2613729,0.01926158,-0.11566629,0.0016567997,1.2494632,-0.5705313
-0.2,0.0,1.1999999999999997,-0.5235987755982988,0.5235987755982988,0,0.20207599,0.5601922,0.4193975,0.40804648,0.8878476,0.48610505,0.06527238,0.4592096,1.3108573,0.37081966,-0.14878382,-0.23681194,1.088535,0.42400998
-0.2,0.0,1.1999999999999997,-0.5235987755982988,0.5235987755982988,0,0.20202301,0.56053126,0.4196754,0.40646663,0.8940288,0.48538157,0.06794249,0.32307377,1.3445034,0.108216226,-0.001615517,-0.22916946,1.1926353,0.14287756
-0.2,0.0,1.1999999999999997,-0.5235987755982988,0.5235987755982988,0,0.20277411,0.56164974,0.4197248,0.40636104,0.89556634,0.48396814,0.06567488,-0.017539203,1.3212568,-0.3351232,-0.11551888,0.14138277,1.2553949,-0.29771003
-0.2,0.0,1.1999999999999997,-0.5235987755982988,0.5235987755982988,0,0.20315996,0.5615096,0.4203576,0.40566444,0.8910419,0.4833317,0.06781454,-0.07387462,1.3404049,-0.28547716,-0.09467271,-0.15721321,1.264393,-0.53681684
-0.2,0.0,1.1999999999999997,-0.5235987755982988,0.5235987755982988,0,0.2032286,0.5613423,0.42032656,0.40393525,0.89215493,0.48550963,0.06919148,0.4047807,1.4464201,-0.059252847,-0.16080958,-0.12674743,1.3200245,0.35070446
-0.2,0.0,1.1999999999999997,-0.5235987755982988,0.5235987755982988,0,0.20382465,0.5609889,0.41981828,0.40606627,0.8875144,0.48359656,0.066711806,-0.8194181,1.4037478,-0.026149487,-0.12149561,-0.026570218,1.3338721,0.1235156
-0.2,0.0,1.1999999999999997,-0.5235987755982988,0.5235987755982988,0,0.203967,0.5613321,0.41952044,0.40482092,0.8931181,0.4865124,0.061710853,-0.23303281,1.3180623,-0.3916591,-0.04528688,-0.059909325,1.346953,-0.28114927
-0.2,0.0,1.1999999999999997,-0.5235987755982988,0.5235987755982988,0,0.20378141,0.5623978,0.4197133,0.40498024,0.8931327,0.48545167,0.06243368,0.04865683,1.3089392,-0.047730103,-0.093790494,-0.119917445,1.1456909,-0.46340618
-0.2,0.0,1.1999999999999997,-0.5235987755982988,0.5235987755982988,0,0.20262687,0.56153154,0.42039397,0.40643847,0.8947301,0.4835039,0.06409646,-0.13867204,1.3458663,-0.0876249,-0.054822348,0.013148799,1.1628512,-0.6336581
-0.2,0.0,1.1999999999999997,-0.5235987755982988,0.5235987755982988,0,0.2017116,0.5624074,0.42075256,0.40707913,0.8947916,0.4838634,0.06122999,-0.12629464,1.3188736,0.19964842,-0.044416774,-0.03658332,1.2509525,-0.27728787
-0.2,0.0,1.1999999999999997,-0.5235987755982988,0.5235987755982988,0,0.20362227,0.5632514,0.41993672,0.40523547,0.8930645,0.4846555,0.06379329,-0.23173268,1.3825217,0.25863752,-0.120851964,0.15153606,1.3610759,-0.630447
-0.2,0.0,1.1999999999999997,-0.5235987755982988,0.5235987755982988,0,0.20464756,0.5607847,0.4195882,0.40572262,0.888067,0.48516425,0.060861565,-0.045440134,1.3279202,0.38764855,-0.13392578,0.064523764,1.2722523,-0.746298
-0.2,0.0,1.1999999999999997,-0.5235987755982988,0.5235987755982988,0,0.20235287,0.56115377,0.4201973,0.40608597,0.8941699,0.48505118,0.06644809,0.6031,1.4706788,0.09319721,0.00085556874,0.16734815,1.2734476,-0.47077638
-0.2,0.0,1.1999999999999997,-0.5235987755982988,0.5235987755982988,0,0.20317347,0.56111276,0.4195736,0.40620732,0.89243907,0.48506346,0.06529989,-0.0933741,1.2294451,0.32434088,-0.05297451,-0.08695267,1.2843331,-0.77324855
-0.2,0.0,1.1999999999999997,-0.5235987755982988,0.5235987755982988,0,0.20312281,0.5616904,0.4207643,0.40597177,0.88619196,0.4844326,0.064569965,-0.30061588,1.322517,0.063380994,-0.09463215,-0.19545147,1.2839631,0.10279741
-0.2,0.0,1.1999999999999997,-0.5235987755982988,0.5235987755982988,0,0.20291165,0.562448,0.42065465,0.40611324,0.8930975,0.48496103,0.058132194,-0.13827206,1.2661828,-0.32722434,-0.14962997,-0.17680922,1.3057606,-0.38597664
-0.2,0.0,1.1999999999999997,-0.5235987755982988,0.5235987755982988,0,0.20262071,0.5618234,0.4203598,0.40598133,0.8923612,0.48457217,0.06672751,1.2069391,1.2242628,0.1164315,-0.040844344,0.16815859,1.2837809,-0.17088965
-0.2,0.0,1.1999999999999997,-0.5235987755982988,0.5235987755982988,0,0.2038687,0.5605896,0.42011932,0.40521216,0.8894028,0.48652473,0.062483132,0.72994375,1.2955145,0.3262396,-0.17977516,-0.18217732,1.163084,0.18663064
-0.2,0.0,1.1999999999999997,-0.5235987755982988,0.5235987755982988,0,0.20407103,0.56056005,0.41986975,0.4076765,0.88844115,0.48255813,0.063714586,0.8622959,1.2606727,-0.09819708,-0.076009005,-0.2045026,1.2070748,0.5161608
-0.2,0.0,1.1999999999999997,-0.5235987755982988,0.5235987755982988,0,0.20355439,0.56080884,0.4200045,0.40757743,0.89174694,0.48384818,0.06089873,-0.6880441,1.3437544,-0.18824053,-0.14985767,0.0058138887,1.1029292,-0.01042134
-0.2,0.0,1.1999999999999997,-0.5235987755982988,0.5235987755982988,0,0.20402859,0.56126153,0.41928506,0.4060145,0.8905005,0.48511776,0.06486093,0.23502305,1.3749281,0.032191586,-0.06117263,-0.016622959,1.2881103,-0.018534236
-0.2,0.0,1.1999999999999997,-0.5235987755982988,0.5235987755982988,0,0.20273648,0.56209534,0.42081907,0.4051672,0.8902282,0.4852712,0.068487816,0.13740489,1.383307,-0.19602375,-0.11184157,0.150093,1.2065136,0.11865215
-0.2,0.0,1.1999999999999997,-0.5235987755982988,0.5235987755982988,0,0.2033264,0.5601939,0.41950747,0.40719384,0.8880699,0.4856724,0.063735485,0.011785818,1.2848723,0.17173032,-0.08383331,0.13028398,1.2699306,-0.40671855
-0.2,0.0,1.1999999999999997,-0.5235987755982988,0.5235987755982988,0,0.2040732,0.56174266,0.41994986,0.40523168,0.8956319,0.4853318,0.061766375,-0.6276354,1.2544672,0.21100006,-0.07712737,-0.0058325795,1.1052389,-0.04931642
-0.2,0.0,1.1999999999999997,-0.5235987755982988,0.5235987755982988,0,0.204236,0.56221145,0.4206398,0.40529844,0.8970672,0.48397747,0.061912224,-0.04296307,1.3930246,-0.111837626,0.05814447,0.016866095,1.1787452,-0.7589724
-0.2,0.0,1.1999999999999997,-0.5235987755982988,0.5235987755982988,0,0.20293508,0.56036943,0.42076594,0.40657684,0.8935064,0.48447308,0.06391851,0.005997496,1.3728364,0.40001616,-0.062999964,-0.035625827,1.0880259,-0.14687271
-0.2,0.0,1.1999999999999997,-0.5235987755982988,0.5235987755982988,0,0.20356889,0.56178665,0.42023748,0.4065363,0.887209,0.48602527,0.059912,-0.36694232,1.2755396,-0.42228886,-0.04108749,0.018547388,1.2398527,-0.4427912
-0.2,0.0,1.1999999999999997,-0.5235987755982988,0.5235987755982988,0,0.20329736,0.561544,0.4197431,0.4064742,0.89136636,0.48582318,0.067881234,0.31468645,1.4919076,0.03287104,-0.040905125,-0.030154334,1.0556707,0.89592814
-0.2,0.0,1.1999999999999997,-0.5235987755982988,0.5235987755982988,0,0.20334807,0.5613325,0.4199809,0.40675685,0.8969277,0.48504025,0.061468024,0.591872,1.3429719,0.67028743,-0.09319072,-0.06239636,1.2672653,-0.30930784
-0.2,0.0,1.1999999999999997,-0.5235987755982988,0.5235987755982988,0,0.2030127,0.56306875,0.42019948,0.40590042,0.89186263,0.48580787,0.06456455,0.33433488,1.3093663,0.0007297949,-0.025609,-0.054014705,1.2913913,-0.7889686
-0.2,0.0,1.1999999999999997,-0.5235987755982988,0.5235987755982988,0,0.2032973,0.5615814,0.4205882,0.40703872,0.8961435,0.4839145,0.06543825,0.6404921,1.2385466,0.5034643,0.036043588,-0.09889008,1.2088382,0.28562048
-0.2,0.0,1.1999999999999997,-0.5235987755982988,0.5235987755982988,0,0.20318481,0.56084615,0.41968328,0.40682772,0.8968712,0.48521456,0.06467572,0.39679334,1.3446404,-0.007152979,-0.10662914,-0.24131256,1.26333,-0.93635225
-0.2,0.0,1.1999999999999997,-0.5235987755982988,0.5235987755982988,0,0.20473965,0.560366,0.41951522,0.40638933,0.8913023,0.48465946,0.06580369,-0.10480789,1.1931454,-0.19546522,-0.0586309,-0.21542865,1.1459403,-1.3804518
-0.2,0.0,1.1999999999999997,-0.5235987755982988,0.5235987755982988,0,0.20345442,0.5617712,0.4208723,0.40647504,0.88857996,0.48425665,0.06709553,0.5726301,1.25833,-0.2288861,-0.08024603,-0.24682881,1.3082091,-0.28050858
-0.2,0.0,1.1999999999999997,-0.5235987755982988,0.5235987755982988,0,0.20157583,0.56118447,0.4199387,0.40487033,0.8899966,0.48491877,0.06371544,0.75604767,1.2755989,0.18462878,0.03496153,-0.03425672,1.1482099,-0.28062356
-0.2,0.0,1.1999999999999997,-0.5235987755982988,0.5235987755982988,0,0.20228562,0.5615482,0.41961753,0.40522903,0.89310527,0.4837887,0.06257795,1.3603631,1.4394724,0.2088684,-0.05277042,0.05811785,1.2011552,-0.75898206
-0.2,0.0,1.1999999999999997,-0.5235987755982988,0.5235987755982988,0,0.20278122,0.56041485,0.42080447,0.40564427,0.88684946,0.4839553,0.057406522,0.18741593,1.3689824,-0.016539885,-0.08483741,-0.030280452,1.2093035,0.30325085
-0.2,0.0,1.1999999999999997,-0.5235987755982988,0.5235987755982988,0,0.20318043,0.5607987,0.4193588,0.40444452,0.89295053,0.48488352,0.062275946,0.83184487,1.4747639,-0.12786342,-0.05371882,0.3279039,1.284827,-0.48249942
-0.2,0.0,1.1999999999999997,-0.5235987755982988,0.5235987755982988,0,0.20091368,0.56089646,0.41990983,0.40704465,0.89639837,0.48356605,0.062293433,0.04198299,1.1158742,0.17627527,-0.06784501,0.26559797,1.2499158,-0.1953472
-0.2,0.0,1.1999999999999997,-0.5235987755982988,0.5235987755982988,0,0.2022819,0.5615846,0.4203193,0.40367526,0.8941533,0.48490575,0.06505384,-0.21954246,1.3939488,-0.35076708,-0.0663531,-0.027156714,1.3419598,0.6704309
-0.2,0.0,1.1999999999999997,-0.5235987755982988,0.5235987755982988,0,0.20296949,0.5607881,0.41973907,0.40530932,0.8910828,0.48478264,0.05895008,-0.4112289,1.3518746,0.13221468,-0.06497851,-0.18338786,1.1725894,-0.31436315
-0.2,0.0,1.1999999999999997,-0.5235987755982988,0.5235987755982988,0,0.20267658,0.5612847,0.42018527,0.40453276,0.893337,0.48393098,0.0649408,0.7641572,1.4340086,0.21384794,-0.1361229,-0.10446085,1.2401129,-0.49200127
-0.2,0.0,1.1999999999999997,-0.5235987755982988,0.5235987755982988,0,0.2025319,0.5610956,0.42029995,0.4043758,0.8902509,0.48495096,0.06420542,1.2134727,1.3104675,-0.09692186,-0.089061506,-0.13701174,1.3223861,-0.4071896
-0.2,0.0,1.1999999999999997,-0.5235987755982988,0.5235987755982988,0,0.20310088,0.56047803,0.42019403,0.40479532,0.8903919,0.4840146,0.06472674,0.5228137,1.3414508,0.19505925,-0.12377979,-0.12485051,1.1684746,0.33098885
-0.2,0.0,1.1999999999999997,-0.5235987755982988,0.5235987755982988,0,0.20339572,0.5613622,0.41979745,0.40425676,0.88815504,0.48554844,0.06544213,-0.3948996,1.4339523,0.13510524,-0.031918157,-0.1358293,1.3509063,-0.5549227
-0.2,0.0,1.1999999999999997,-0.5235987755982988,0.5235987755982988,0,0.20206986,0.56204844,0.42019135,0.40565482,0.8919187,0.48516652,0.06231988,-0.3596512,1.3268859,-0.16930443,-0.15094662,-0.0027016916,1.1374608,-0.18815064
-0.2,0.0,1.1999999999999997,-0.5235987755982988,0.5235987755982988,0,0.20308632,0.56094944,0.42060286,0.40577033,0.89360625,0.48461866,0.05459146,0.6945246,1.3859255,0.1946475,-0.036392596,0.1710731,1.157152,0.13445182
-0.2,0.0,1.1999999999999997,-0.5235987755982988,0.5235987755982988,0,0.20308821,0.56128746,0.41976455,0.40530008,0.8901642,0.4850356,0.061161555,0.23792863,1.2125384,-0.07138899,-0.08080551,0.027325312,1.2782965,0.004468012
-0.2,0.0,1.1999999999999997,-0.5235987755982988,0.5235987755982988,0,0.20357908,0.56020445,0.42012978,0.40607008,0.88684356,0.4836498,0.06428364,-0.35511503,1.2356094,-0.093812965,-0.050193537,0.079032645,1.293564,0.14960189
-0.2,0.0,1.1999999999999997,-0.5235987755982988,0.5235987755982988,0,0.20326114,0.5600188,0.42019534,0.40609476,0.8929812,0.48532495,0.05695448,1.1935799,1.3776354,0.017380888,-0.02821739,0.09225628,1.1455241,0.21541674
-0.2,0.0,1.1999999999999997,-0.5235987755982988,0.5235987755982988,0,0.2038455,0.56098694,0.42017093,0.40407318,0.88788307,0.48564616,0.064005494,0.57989097,1.2817724,-0.010054331,-0.051475655,0.019240266,1.2390336,-0.41965556
-0.2,0.0,1.1999999999999997,-0.5235987755982988,0.5235987755982988,0,0.20317689,0.56127745,0.42088017,0.40460268,0.8953688,0.48487848,0.0620111,0.9125987,1.3841519,0.5981891,-0.09426849,-0.060345177,1.25437,-0.8455917
-0.2,0.0,1.1999999999999997,-0.5235987755982988,0.5235987755982988,0,0.2036358,0.5614364,0.42005232,0.40571633,0.8886533,0.4836341,0.06598754,0.40575182,1.2876793,-0.35577047,-0.11070601,-0.2876649,1.2100031,-0.07420137
-0.2,0.0,1.1999999999999997,-0.5235987755982988,0.5235987755982988,0,0.20411937,0.5614134,0.4199537,0.40561855,0.8900743,0.4837365,0.061819144,0.18189484,1.2465105,-0.31711215,-0.11165184,0.072444424,1.3193603,-0.69050723
-0.2,0.0,1.1999999999999997,-0.5235987755982988,0.5235987755982988,0,0.20306972,0.56079435,0.42001307,0.4043983,0.89091516,0.48520103,0.06770971,0.38249597,1.2542757,0.053623565,-0.14528735,-0.17214504,1.2727011,-0.31330773
-0.2,0.0,1.1999999999999997,-0.5235987755982988,0.5235987755982988,0,0.20228517,0.5606428,0.421211,0.40596375,0.8938378,0.48375496,0.06391764,1.013772,1.355219,-0.17318085,-0.06162092,0.21104999,1.2529038,0.3852184
-0.2,0.0,1.1999999999999997,-0.5235987755982988,0.5235987755982988,0,0.20219024,0.5609851,0.42077592,0.4060157,0.8986408,0.48387375,0.06446543,-0.33251804,1.2754152,0.19514333,-0.10201825,-0.081867635,1.2513651,-0.3048877
-0.2,0.0,1.1999999999999997,-0.5235987755982988,0.5235987755982988,0,0.20336111,0.56142205,0.42068246,0.40644652,0.88773435,0.48326942,0.064191535,0.37210816,1.2759156,-0.30321297,-0.079493806,-0.023607323,1.213669,-0.14482942
-0.2,0.0,1.1999999999999997,-0.5235987755982988,0.5235987755982988,0,0.20244949,0.56179017,0.42012915,0.40601876,0.893695,0.48459026,0.06672507,0.11731014,1.2796414,0.46206495,-0.0933501,0.1360444,1.2214969,-0.28587377
-0.2,0.0,1.1999999999999997,-0.5235987755982988,0.5235987755982988,0,0.20370579,0.56196487,0.41948035,0.40454534,0.892475,0.48601156,0.0647586,0.2696453,1.2217541,-0.22174236,-0.10056337,-0.061105285,1.2919605,0.34011894
-0.2,0.0,1.1999999999999997,-0.5235987755982988,0.5235987755982988,0,0.20242056,0.5630923,0.42041254,0.40691853,0.90121824,0.48413897,0.059075195,0.7063301,1.1524938,-0.14878775,-0.124812454,-0.05326069,1.2903229,-0.4291972
-0.2,0.0,1.1999999999999997,-0.5235987755982988,0.5235987755982988,0,0.20365791,0.56140244,0.4200932,0.4060391,0.895182,0.48337725,0.06520698,0.20639403,1.2678477,0.059038147,-0.082959585,0.17073649,1.2077268,-0.14946409
-0.2,0.0,1.1999999999999997,-0.5235987755982988,0.5235987755982988,0,0.20303613,0.5610114,0.42053476,0.40609348,0.8918065,0.484,0.065046996,0.4069644,1.2903049,-0.182868,-0.033721484,-0.16225924,1.2784562,-0.7511846
-0.2,0.0,1.1999999999999997,-0.5235987755982988,0.5235987755982988,0,0.20307171,0.56206405,0.42042023,0.40475008,0.8932941,0.48515964,0.06560597,0.12827891,1.3170347,-0.06788574,-0.12599756,-0.040583443,1.2050523,0.10828495
-0.2,0.0,1.1999999999999997,-0.5235987755982988,0.5235987755982988,0,0.20354606,0.56199557,0.42053,0.40512002,0.89312047,0.48546204,0.06376951,0.094184905,1.3495353,-0.16298564,-0.11913342,0.029872354,1.164635,-0.36423302
-0.2,0.0,1.1999999999999997,-0.5235987755982988,0.5235987755982988,0,0.20423037,0.5616589,0.42031592,0.40529954,0.8926697,0.484487,0.0641973,1.4120607,1.3334743,-0.026906604,-0.10892048,-0.14780931,1.2489378,-0.3944561
-0.2,0.0,1.1999999999999997,-0.5235987755982988,0.5235987755982988,0,0.20381652,0.56030726,0.4195822,0.40676436,0.8933398,0.48493168,0.06643004,0.5487184,1.4078913,-0.29703316,-0.019394625,-0.00965094,1.3513371,-0.12647021
-0.2,0.0,1.1999999999999997,-0.5235987755982988,0.5235987755982988,0,0.2039845,0.5604012,0.41997972,0.4062062,0.89523214,0.4854464,0.06246333,0.66579616,1.3966017,-0.17099291,-0.042646233,0.19880667,1.1735525,-0.6775888
-0.2,0.0,1.1999999999999997,-0.5235987755982988,0.5235987755982988,0,0.2024248,0.5602132,0.41970596,0.40588832,0.8904286,0.48332745,0.061346762,-0.030572148,1.3950921,-0.012605847,-0.07422426,-0.2336256,1.2222165,-0.6973442
-0.2,0.0,1.1999999999999997,-0.5235987755982988,0.5235987755982988,0,0.20345,0.56125766,0.41969714,0.40544656,0.8881792,0.48401347,0.062405482,0.48083115,1.179552,0.10340559,-0.11641179,0.14594746,1.1423707,-0.70243853
-0.2,0.0,1.1999999999999997,-0.5235987755982988,0.5235987755982988,0,0.20296632,0.5607203,0.41994074,0.40599105,0.88791823,0.48508033,0.058583446,0.13391069,1.3192604,-0.4929199,-0.12600605,-0.14073801,1.3426976,-0.29532376
-0.2,0.0,1.1999999999999997,-0.5235987755982988,0.5235987755982988,0,0.2026411,0.5613892,0.42029214,0.40512314,0.88693535,0.4847495,0.0625637,0.5870567,1.1785004,-0.22316968,-0.09700474,-0.06055932,1.2902169,0.0506814
-0.2,0.0,1.1999999999999997,-0.5235987755982988,0.5235987755982988,0,0.20275436,0.5599559,0.42027238,0.4062848,0.8926175,0.4832162,0.06277718,0.65531653,1.2652949,0.32111484,0.0006649632,-0.011409507,1.1068273,-0.6751151
-0.2,0.0,1.1999999999999997,-0.5235987755982988,0.5235987755982988,0,0.202656,0.56267184,0.42037755,0.4047928,0.8937089,0.48305285,0.06492715,-0.25558692,1.2334993,-0.08771046,-0.13638368,-0.29193327,1.2676696,0.44098946
-0.2,0.0,1.1999999999999997,-0.5235987755982988,0.5235987755982988,0,0.20384474,0.5611893,0.42016163,0.40445095,0.89331245,0.48347768,0.062351476,-0.1131785,1.2760639,0.19408713,-0.1688078,-0.14844738,1.2232317,0.3319754
-0.2,0.0,1.1999999999999997,-0.5235987755982988,0.5235987755982988,0,0.2017666,0.56151307,0.42042136,0.40580985,0.88856316,0.4844801,0.0679277,0.017847333,1.2110617,0.18620577,-0.01475362,0.06504939,1.1138701,-1.0111061
-0.2,0.0,1.1999999999999997,-0.5235987755982988,0.5235987755982988,0,0.20308003,0.56120783,0.42065617,0.4053858,0.8904808,0.4853351,0.06359079,0.2100235,1.3419911,0.40628973,-0.15533218,0.030542897,1.2244853,-0.8694237
-0.2,0.0,1.1999999999999997,-0.5235987755982988,0.5235987755982988,0,0.20226665,0.5617117,0.42075446,0.40728897,0.89225864,0.48474386,0.05894148,-1.1265182,1.247722,-0.14775227,-0.066814154,0.024437666,1.1758406,0.047900863
-0.2,0.0,1.1999999999999997,-0.5235987755982988,0.5235987755982988,0,0.20209181,0.5615863,0.42071337,0.40643948,0.8909489,0.48473096,0.06776477,0.4067056,1.3561862,0.06909348,-0.02412138,-0.09419502,1.2970914,-0.43557045
-0.2,0.0,1.1999999999999997,-0.5235987755982988,0.5235987755982988,0,0.20278189,0.5612796,0.41969922,0.4056387,0.8915462,0.4861888,0.06793843,-0.12965117,1.3354155,-0.36045784,-0.1272199,-0.2633172,1.3529564,0.020463683
-0.2,0.0,1.1999999999999997,-0.5235987755982988,0.5235987755982988,0,0.2030486,0.56140316,0.42003703,0.4066137,0.89538497,0.48398244,0.0651533,0.3318567,1.3803004,0.4167473,-0.15177375,0.06975428,1.1919134,0.52427346
-0.2,0.0,1.1999999999999997,-0.5235987755982988,0.5235987755982988,0,0.20285293,0.5624048,0.4197941,0.40490165,0.8951751,0.4841126,0.06271091,-0.8789494,1.3752989,0.22254851,-0.036933627,-0.18718362,1.256097,-0.2884867
-0.2,0.0,1.1999999999999997,-0.5235987755982988,0.5235987755982988,0,0.20314543,0.562009,0.42042923,0.40625006,0.89243424,0.4849804,0.06264703,1.0431914,1.2796935,-0.3707931,-0.123626806,-0.07851503,1.3681028,-0.33442834
