sanky1234/BimanualDexCatch/isaacgymenvs/cem_results/football_pose_-0.2_0.0_1.4999999999999998_0.5235987755982988_0.5235987755982988_0_2025-05-25.csv
x,y,z,roll,pitch,yaw,robot1/joint1,robot1/joint2,robot1/joint3,robot1/joint4,robot1/joint5,robot1/joint6,robot1/joint7,robot2/joint1,robot2/joint2,robot2/joint3,robot2/joint4,robot2/joint5,robot2/joint6,robot2/joint7
-0.2,0.0,1.4999999999999998,0.5235987755982988,0.5235987755982988,0,1.5396216,0.36868605,0.4320522,0.43737403,0.06807495,0.11643938,-0.11722042,-2.2974124,-1.4212632,0.124598466,-0.09730859,-0.031171191,1.1886442,0.29586723
-0.2,0.0,1.4999999999999998,0.5235987755982988,0.5235987755982988,0,1.5397843,0.36919597,0.4317699,0.4375677,0.070852354,0.11926577,-0.13497837,-1.1027424,-1.519748,0.059759017,-0.12853253,0.042395283,1.1424588,1.1810398
-0.2,0.0,1.4999999999999998,0.5235987755982988,0.5235987755982988,0,1.5420628,0.3689107,0.43396604,0.43700203,0.07811793,0.12099611,-0.06377931,-0.54403025,-1.517644,-0.027873935,-0.080403104,-0.15253502,1.1396706,0.75185156
-0.2,0.0,1.4999999999999998,0.5235987755982988,0.5235987755982988,0,1.5397254,0.36767903,0.435019,0.43705246,0.08161597,0.12349505,-0.063889526,-1.7776089,-1.4491739,0.31580725,-0.030766916,0.031228235,1.1467239,0.3931502
-0.2,0.0,1.4999999999999998,0.5235987755982988,0.5235987755982988,0,1.5429139,0.36875018,0.4336334,0.43796074,0.078784,0.11949688,-0.12654822,-0.7509584,-1.4992554,0.029703954,-0.06502211,-0.015061992,1.2502264,0.35683402
-0.2,0.0,1.4999999999999998,0.5235987755982988,0.5235987755982988,0,1.5403147,0.3687329,0.43241602,0.4373979,0.070927605,0.120706566,-0.10034815,-1.1596392,-1.4375318,0.088007025,-0.066120476,0.13113141,1.0893452,0.3723755
-0.2,0.0,1.4999999999999998,0.5235987755982988,0.5235987755982988,0,1.5426569,0.3683313,0.43345636,0.43713865,0.06580667,0.11957948,-0.0860486,-1.5961475,-1.4431872,0.1530591,-0.09230808,-0.045780092,1.1039637,-0.10137971
-0.2,0.0,1.4999999999999998,0.5235987755982988,0.5235987755982988,0,1.5423667,0.36915365,0.43570283,0.4371176,0.07339852,0.118265636,-0.028455567,-1.1447387,-1.4368074,0.19244742,-0.12840644,-0.07842281,1.0842276,-0.5222277
-0.2,0.0,1.4999999999999998,0.5235987755982988,0.5235987755982988,0,1.5423417,0.368185,0.434628,0.43702513,0.07385055,0.12141346,-0.06378504,-2.0712876,-1.4846592,-0.075229146,-0.09775849,-0.06442909,1.1167226,0.08365173
-0.2,0.0,1.4999999999999998,0.5235987755982988,0.5235987755982988,0,1.541834,0.36883026,0.43236548,0.43692017,0.07131872,0.11718738,0.00014648867,-1.2822299,-1.446689,0.0391312,-0.0697072,0.09753557,1.1212294,0.47282007
-0.2,0.0,1.4999999999999998,0.5235987755982988,0.5235987755982988,0,1.5410826,0.36884353,0.4322596,0.4369919,0.07134218,0.12129928,-0.19759224,-1.5448339,-1.55961,0.03528008,-0.022656543,-0.13250971,1.0250983,0.5300583
-0.2,0.0,1.4999999999999998,0.5235987755982988,0.5235987755982988,0,1.5405862,0.3687675,0.43153358,0.43649438,0.074479446,0.1202357,-0.037506893,-1.1528419,-1.544967,-0.10210498,-0.09315522,0.058818888,1.1435856,0.7984352
-0.2,0.0,1.4999999999999998,0.5235987755982988,0.5235987755982988,0,1.5420425,0.36845338,0.4332124,0.4384534,0.07062109,0.12004821,-0.041103113,-1.255273,-1.3825992,0.3384235,-0.07753684,-0.06403044,1.1541171,0.050965674
-0.2,0.0,1.4999999999999998,0.5235987755982988,0.5235987755982988,0,1.5412815,0.3687616,0.43694174,0.43762362,0.07346685,0.11891199,0.03101533,-1.1504179,-1.571971,0.11618475,-0.015042815,-0.17120257,1.1270525,-0.9129308
-0.2,0.0,1.4999999999999998,0.5235987755982988,0.5235987755982988,0,1.5415767,0.3685859,0.43219867,0.43701175,0.07416048,0.119808234,-0.092585005,-2.0924714,-1.6078262,-0.24586944,-0.05487163,-0.046274737,1.1954195,0.2028975
-0.2,0.0,1.4999999999999998,0.5235987755982988,0.5235987755982988,0,1.5407735,0.36897522,0.4329058,0.4377979,0.06626968,0.12019289,-0.16534792,-1.6543062,-1.531741,0.2074631,-0.09074605,-0.05106387,1.205131,0.19704792
-0.2,0.0,1.4999999999999998,0.5235987755982988,0.5235987755982988,0,1.541391,0.3685149,0.43051422,0.43800098,0.07683845,0.12167671,-0.02804544,-1.6766398,-1.5194693,0.20619485,-0.09508763,0.1635446,1.1238877,-0.35981348
-0.2,0.0,1.4999999999999998,0.5235987755982988,0.5235987755982988,0,1.5401031,0.36792982,0.43318146,0.4374811,0.07101848,0.11759956,-0.1814293,-1.7352651,-1.5165837,0.1670688,0.02324306,-0.16648287,1.0159754,0.4652304
-0.2,0.0,1.4999999999999998,0.5235987755982988,0.5235987755982988,0,1.5418252,0.36882526,0.43100446,0.43797776,0.07004931,0.115152135,-0.02261324,-0.4476652,-1.4414581,0.1610658,-0.060942415,-0.08781762,1.1449811,0.58903116
-0.2,0.0,1.4999999999999998,0.5235987755982988,0.5235987755982988,0,1.5413351,0.3684915,0.43465474,0.43687388,0.07386482,0.11826768,-0.056287725,-1.1052549,-1.6137189,0.053297017,-0.046343848,-0.12057903,1.1194508,0.15727733
-0.2,0.0,1.4999999999999998,0.5235987755982988,0.5235987755982988,0,1.5406266,0.36852455,0.4316664,0.43694597,0.06997081,0.11899283,-0.0152698215,-1.3717444,-1.4377537,0.18238868,-0.07008781,-0.22874837,1.1896422,-0.34797835
-0.2,0.0,1.4999999999999998,0.5235987755982988,0.5235987755982988,0,1.5410889,0.37014854,0.43207732,0.43832684,0.06912151,0.12005799,-0.23400573,-1.6255097,-1.4627777,-0.007498494,-0.11123872,-0.00046297308,1.1525438,0.3257683
-0.2,0.0,1.4999999999999998,0.5235987755982988,0.5235987755982988,0,1.541111,0.3692043,0.4309255,0.43771124,0.07540643,0.12071166,-0.06167474,-1.2762127,-1.4395382,0.22666079,-0.10493251,-0.05572158,1.036566,0.3215579
-0.2,0.0,1.4999999999999998,0.5235987755982988,0.5235987755982988,0,1.5392352,0.36892313,0.43355742,0.43690956,0.06504789,0.11786879,-0.08238998,-1.8953843,-1.4161115,0.22958407,-0.026598621,0.15287305,1.2557461,0.32584888
-0.2,0.0,1.4999999999999998,0.5235987755982988,0.5235987755982988,0,1.5433106,0.3691455,0.43494862,0.43719098,0.07482174,0.119228534,-0.054125905,-1.7943331,-1.5547948,-0.084587194,-0.026005404,-0.18934731,1.195231,-0.24165563
-0.2,0.0,1.4999999999999998,0.5235987755982988,0.5235987755982988,0,1.5416083,0.36805916,0.4324145,0.43750623,0.071276076,0.117143825,-0.062407278,-1.8742118,-1.4030232,0.03334576,-0.0032480357,-0.34577373,1.1443212,0.70165217
-0.2,0.0,1.4999999999999998,0.5235987755982988,0.5235987755982988,0,1.5415105,0.36911473,0.43388858,0.43661857,0.078507416,0.12109651,-0.047462415,-1.3854235,-1.5014808,0.094496064,-0.08522204,-0.064032026,1.1579382,0.31701875
-0.2,0.0,1.4999999999999998,0.5235987755982988,0.5235987755982988,0,1.540718,0.36963177,0.43328768,0.4372374,0.07694252,0.121848874,-0.13635111,-1.1147714,-1.4031048,0.011888596,-0.101610266,0.046334594,1.1453613,-0.36869955
-0.2,0.0,1.4999999999999998,0.5235987755982988,0.5235987755982988,0,1.5398152,0.36870214,0.43573403,0.4365622,0.07287535,0.12001117,0.015188762,-1.6750605,-1.5042179,-0.08261256,-0.11111849,0.10529744,1.1837862,-0.34846258
-0.2,0.0,1.4999999999999998,0.5235987755982988,0.5235987755982988,0,1.5416288,0.3699555,0.43687838,0.43746287,0.07582803,0.11964021,-0.04226512,-2.4448965,-1.3874587,0.12982523,-0.12102791,-0.10534591,1.1970923,-0.48929796
-0.2,0.0,1.4999999999999998,0.5235987755982988,0.5235987755982988,0,1.5408691,0.36882588,0.431947,0.43760654,0.07550577,0.12244136,-0.13532878,-1.7946872,-1.4346573,0.3772173,-0.083910644,-0.23591773,1.1889145,0.28503314
-0.2,0.0,1.4999999999999998,0.5235987755982988,0.5235987755982988,0,1.5410668,0.36874953,0.43279564,0.43707824,0.074911706,0.12234203,-0.09640572,-1.7288111,-1.4717699,0.17863336,-0.035613373,-0.07901334,1.106278,0.08341327
-0.2,0.0,1.4999999999999998,0.5235987755982988,0.5235987755982988,0,1.5414914,0.3678808,0.43560436,0.43728393,0.0731105,0.1188235,-0.12188796,-1.4673887,-1.5563653,0.18632378,-0.07085311,-0.30988806,1.1217186,0.44509006
-0.2,0.0,1.4999999999999998,0.5235987755982988,0.5235987755982988,0,1.5412781,0.36852702,0.4330674,0.43751484,0.077205464,0.118693694,-0.07376443,-2.000787,-1.3791047,0.042699717,-0.075826,-0.31739658,1.1420335,-0.37227866
-0.2,0.0,1.4999999999999998,0.5235987755982988,0.5235987755982988,0,1.5413518,0.36808333,0.4321835,0.43654794,0.06783569,0.1172941,-0.101277016,-1.4954249,-1.3689082,0.075958766,-0.14217293,-0.0008614669,1.0832286,0.80481195
-0.2,0.0,1.4999999999999998,0.5235987755982988,0.5235987755982988,0,1.5412974,0.3681482,0.431159,0.43740153,0.07579459,0.12114439,-0.10458198,-1.3444526,-1.4340096,0.12655817,-0.026410906,0.16690673,1.1938206,0.24719727
-0.2,0.0,1.4999999999999998,0.5235987755982988,0.5235987755982988,0,1.5395975,0.36870232,0.43310866,0.43700686,0.06251119,0.11924927,-0.096208245,-1.1399012,-1.5176399,0.015753418,-0.09833515,-0.1720853,1.1762629,0.7452514
-0.2,0.0,1.4999999999999998,0.5235987755982988,0.5235987755982988,0,1.5420128,0.3684156,0.43303588,0.43741181,0.077537954,0.1180075,-0.039841875,-2.2333503,-1.6396441,-0.112705395,-0.091834545,-0.318279,1.0642821,0.058569103
-0.2,0.0,1.4999999999999998,0.5235987755982988,0.5235987755982988,0,1.5415053,0.3692498,0.43418747,0.4370816,0.077501595,0.120103,-0.13323192,-1.2863988,-1.5801988,-0.16352436,-0.07372726,0.049200345,1.1934541,-0.09481996
-0.2,0.0,1.4999999999999998,0.5235987755982988,0.5235987755982988,0,1.5412822,0.36860624,0.43225792,0.43759158,0.075420484,0.11954349,-0.012076555,-1.8977778,-1.4623641,-0.056179672,-0.08840559,-0.12173746,1.0712672,0.7628627
-0.2,0.0,1.4999999999999998,0.5235987755982988,0.5235987755982988,0,1.5403261,0.36865193,0.43547377,0.43796733,0.066237964,0.119490325,-0.120834865,-2.1793756,-1.4788532,0.022457562,-0.21921997,0.073308736,1.0725412,1.2753127
-0.2,0.0,1.4999999999999998,0.5235987755982988,0.5235987755982988,0,1.5433784,0.36888963,0.43361062,0.43629804,0.073334366,0.12238839,-0.07692723,-1.7171909,-1.4574718,0.110363245,-0.041651532,-0.10331919,1.1825945,-0.38121495
-0.2,0.0,1.4999999999999998,0.5235987755982988,0.5235987755982988,0,1.5410231,0.36928466,0.43531162,0.4372802,0.075662956,0.121002115,-0.048392795,-1.9467568,-1.5203857,-0.00061804545,-0.061817534,0.007908092,1.0491433,0.8247624
-0.2,0.0,1.4999999999999998,0.5235987755982988,0.5235987755982988,0,1.5421553,0.36886555,0.43652326,0.4361571,0.07019387,0.12154518,-0.0494327,-1.6529398,-1.5150805,0.033945005,-0.045991965,-0.14970931,1.181248,0.48591372
-0.2,0.0,1.4999999999999998,0.5235987755982988,0.5235987755982988,0,1.5410202,0.3686911,0.43248367,0.43884957,0.06710415,0.11779098,-0.14754936,-1.0297298,-1.5529082,-0.013931477,-0.10792839,-0.120964676,1.0617816,-0.16085967
-0.2,0.0,1.4999999999999998,0.5235987755982988,0.5235987755982988,0,1.540951,0.3680118,0.434138,0.43739113,0.07361299,0.119391605,-0.110339686,-1.796582,-1.5367566,0.26047617,-0.054747324,-0.03341595,1.1044227,0.73697674
-0.2,0.0,1.4999999999999998,0.5235987755982988,0.5235987755982988,0,1.541486,0.36793256,0.4349514,0.4365687,0.07519354,0.11794028,-0.059276618,-1.2375491,-1.5351406,-0.0726618,-0.09539395,-0.06072428,1.0292494,-0.33175588
-0.2,0.0,1.4999999999999998,0.5235987755982988,0.5235987755982988,0,1.5407739,0.3684655,0.43353042,0.43685615,0.07841181,0.12007927,-0.016427344,-0.8270243,-1.5177647,-0.012639295,-0.10409604,-0.24762619,1.1788428,0.0372149
-0.2,0.0,1.4999999999999998,0.5235987755982988,0.5235987755982988,0,1.5415304,0.3683161,0.43292418,0.43834114,0.07114595,0.11953054,0.034059107,-2.5138612,-1.4920676,-0.059760604,-0.064569674,-0.10472638,1.1662395,0.13123205
-0.2,0.0,1.4999999999999998,0.5235987755982988,0.5235987755982988,0,1.5411954,0.36933172,0.43484876,0.43697703,0.07761098,0.12130449,-0.13520734,-0.48269743,-1.5018744,-0.030705849,-0.06583041,-0.04403456,1.191156,-0.6503714
-0.2,0.0,1.4999999999999998,0.5235987755982988,0.5235987755982988,0,1.5411837,0.36842543,0.4316344,0.43777552,0.07796715,0.11991282,-0.0917376,-1.3579291,-1.562042,-0.054511443,-0.050427858,-0.059620563,1.1190637,0.010079674
-0.2,0.0,1.4999999999999998,0.5235987755982988,0.5235987755982988,0,1.5411265,0.36952204,0.4328651,0.43675676,0.07242931,0.12360556,-0.021554213,-1.5042555,-1.475005,0.06584021,-0.05503233,-0.05717598,1.1151711,0.12295756
-0.2,0.0,1.4999999999999998,0.5235987755982988,0.5235987755982988,0,1.5413151,0.36916375,0.43534437,0.43738085,0.07386604,0.12038029,-0.0017928712,-1.1973636,-1.4837371,0.030933354,-0.056679048,-0.05133655,1.1852949,0.2688498
-0.2,0.0,1.4999999999999998,0.5235987755982988,0.5235987755982988,0,1.5417742,0.36873183,0.43273035,0.4365127,0.07234683,0.122445114,-0.16120405,-2.2464213,-1.496468,0.095801935,-0.07869614,-0.1363674,1.1519405,0.14532442
-0.2,0.0,1.4999999999999998,0.5235987755982988,0.5235987755982988,0,1.5416217,0.36813945,0.43232557,0.43692815,0.06729288,0.12051642,-0.0169209,-0.92519,-1.4937351,-0.3201001,-0.053107668,-0.14972872,1.1225115,0.11514892
-0.2,0.0,1.4999999999999998,0.5235987755982988,0.5235987755982988,0,1.5400449,0.36910096,0.4330644,0.43762267,0.078372195,0.11986284,-0.15780692,-1.0597363,-1.443273,-0.03514131,-0.03772528,-0.08710728,1.1290189,0.026304428
-0.2,0.0,1.4999999999999998,0.5235987755982988,0.5235987755982988,0,1.5412116,0.36854514,0.43270636,0.43738368,0.07907273,0.123437114,-0.13548972,-0.9043273,-1.5451689,-0.13123082,-0.09620921,-0.16533789,1.1715996,0.6343443
-0.2,0.0,1.4999999999999998,0.5235987755982988,0.5235987755982988,0,1.5405345,0.3691173,0.43419483,0.43755594,0.06871252,0.11957317,-0.00772776,-0.42127082,-1.3499335,0.0861269,-0.053400796,-0.13987015,1.211401,-0.18289554
-0.2,0.0,1.4999999999999998,0.5235987755982988,0.5235987755982988,0,1.5409007,0.3678007,0.43112135,0.4374757,0.0652094,0.11993677,-0.07053747,-2.2663047,-1.5324986,0.04109466,-0.08929369,0.14245686,1.1278157,0.12237621
-0.2,0.0,1.4999999999999998,0.5235987755982988,0.5235987755982988,0,1.5407597,0.36849272,0.43318775,0.43735024,0.073557384,0.119697124,-0.073926955,-1.231731,-1.4669923,0.08998924,-0.055557936,-0.34258094,1.1170164,0.3989136
-0.2,0.0,1.4999999999999998,0.5235987755982988,0.5235987755982988,0,1.5412269,0.36825755,0.43531054,0.43793008,0.064743355,0.1181426,-0.05936082,-2.114443,-1.4214603,0.053598545,-0.06715642,-0.1060195,1.2053394,0.019028913
-0.2,0.0,1.4999999999999998,0.5235987755982988,0.5235987755982988,0,1.5412966,0.36884528,0.43410677,0.43725145,0.07325533,0.11914828,-0.054932185,-2.1344984,-1.5164487,0.037297223,0.034521468,-0.28896323,1.0748005,0.29282483
-0.2,0.0,1.4999999999999998,0.5235987755982988,0.5235987755982988,0,1.5418483,0.3685645,0.4324074,0.43824074,0.07193906,0.11814012,-0.21908303,-0.7065098,-1.5516183,-0.1944819,-0.07124971,0.04861675,1.1134497,0.2638756
-0.2,0.0,1.4999999999999998,0.5235987755982988,0.5235987755982988,0,1.5409421,0.36810616,0.43415582,0.4374221,0.06378386,0.118162416,-0.16248348,-1.58979,-1.5082176,0.13602848,-0.06134389,-0.037988704,1.078842,0.06342116
-0.2,0.0,1.4999999999999998,0.5235987755982988,0.5235987755982988,0,1.5411924,0.36959288,0.43146923,0.43733233,0.07459157,0.11982041,-0.12063859,-1.295484,-1.521775,0.14411283,-0.11122054,-0.1806171,1.0754448,1.0205579
-0.2,0.0,1.4999999999999998,0.5235987755982988,0.5235987755982988,0,1.5418515,0.36802897,0.434124,0.4381113,0.06879827,0.11994106,-0.062537596,-2.1850338,-1.432194,0.095821865,-0.06887385,0.11464905,1.1026876,0.40644982
-0.2,0.0,1.4999999999999998,0.5235987755982988,0.5235987755982988,0,1.5398108,0.36843994,0.43283072,0.43673378,0.07326238,0.123183325,-0.11773361,-1.513243,-1.4977944,0.085057475,-0.11474129,-0.11864788,1.081582,0.1976778
-0.2,0.0,1.4999999999999998,0.5235987755982988,0.5235987755982988,0,1.5420841,0.36929888,0.43221566,0.4363628,0.07445752,0.121703714,-0.053725448,-1.4502257,-1.412911,-0.17510624,-0.07836599,-0.06342235,1.0317945,-0.045146104
-0.2,0.0,1.4999999999999998,0.5235987755982988,0.5235987755982988,0,1.5409429,0.3676735,0.4381357,0.436778,0.0804489,0.117599815,-0.06423192,-1.6288903,-1.4873937,-0.13922933,-0.024581978,0.040788595,1.209238,0.67616695
-0.2,0.0,1.4999999999999998,0.5235987755982988,0.5235987755982988,0,1.5426247,0.36824363,0.43345973,0.4379946,0.07376649,0.120569855,-0.18387026,-1.971585,-1.543602,0.034933418,-0.02545931,-0.14901052,1.0427809,0.3232172
-0.2,0.0,1.4999999999999998,0.5235987755982988,0.5235987755982988,0,1.541111,0.3685341,0.43431792,0.43727544,0.07311782,0.11600213,-0.116814464,-1.2465127,-1.553808,0.03314763,-0.09008179,-0.1811278,1.1029981,0.43637195
-0.2,0.0,1.4999999999999998,0.5235987755982988,0.5235987755982988,0,1.5408119,0.36910358,0.4338657,0.4375386,0.07231432,0.11692683,-0.10976993,-1.4746941,-1.521817,0.1129098,-0.07119257,-0.033349656,1.1130291,-1.0674483
-0.2,0.0,1.4999999999999998,0.5235987755982988,0.5235987755982988,0,1.5409068,0.36972857,0.43209237,0.43764028,0.081205115,0.11958292,-0.20605633,-1.1577685,-1.5262773,0.1339506,-0.05256048,-0.1215059,1.2007575,0.63935673
-0.2,0.0,1.4999999999999998,0.5235987755982988,0.5235987755982988,0,1.5420895,0.36879456,0.43538782,0.43823704,0.07840379,0.12266084,-0.13986734,-1.6858976,-1.3159672,-0.22282006,-0.10380519,-0.23490502,1.0631828,-0.27866313
-0.2,0.0,1.4999999999999998,0.5235987755982988,0.5235987755982988,0,1.5401502,0.3678284,0.4332995,0.43614453,0.068291724,0.11704642,-0.2186375,-1.6984681,-1.4245948,0.17893615,-0.030923976,0.047345266,1.1689826,0.0671581
-0.2,0.0,1.4999999999999998,0.5235987755982988,0.5235987755982988,0,1.5423114,0.36909848,0.43338272,0.4372924,0.06951757,0.1194408,-0.17521167,-2.0225713,-1.4890735,0.021410674,-0.0540816,-0.23584627,1.1781136,-0.10637614
-0.2,0.0,1.4999999999999998,0.5235987755982988,0.5235987755982988,0,1.5424457,0.3677473,0.4338944,0.4364518,0.07527009,0.11948307,0.0053845346,-1.1897352,-1.4599695,-0.007003989,-0.14598146,-0.015124322,1.0657395,0.5700625
-0.2,0.0,1.4999999999999998,0.5235987755982988,0.5235987755982988,0,1.541282,0.3684728,0.4324921,0.43619883,0.06779881,0.11933492,-0.077464595,-1.3924984,-1.4543612,-0.08807111,-0.15113604,-0.10912561,1.1462325,0.072282694
-0.2,0.0,1.4999999999999998,0.5235987755982988,0.5235987755982988,0,1.5406506,0.36912367,0.43304792,0.43720093,0.07388465,0.12025142,-0.20463589,-1.7349391,-1.6185492,0.041710906,-0.10731991,-0.035096068,1.1995107,0.059685167
-0.2,0.0,1.4999999999999998,0.5235987755982988,0.5235987755982988,0,1.5405365,0.36782604,0.43352863,0.4372408,0.07264375,0.12369384,-0.1195609,-1.5723944,-1.5172181,-0.02861832,-0.079312846,-0.18532416,1.0787865,0.07438674
-0.2,0.0,1.4999999999999998,0.5235987755982988,0.5235987755982988,0,1.5415384,0.3693752,0.43470004,0.43689147,0.06944233,0.119135305,-0.13944547,-1.6076634,-1.467119,0.21283957,-0.04323178,-0.18397118,1.1268889,0.1591177
-0.2,0.0,1.4999999999999998,0.5235987755982988,0.5235987755982988,0,1.5415571,0.36898744,0.43246344,0.4375353,0.07570354,0.11748138,-0.08206148,-0.8002639,-1.4279277,0.13991338,-0.06937246,0.046749264,1.1004905,-0.58168817
-0.2,0.0,1.4999999999999998,0.5235987755982988,0.5235987755982988,0,1.5413473,0.36823758,0.4320765,0.43879902,0.076198004,0.11927534,-0.027080908,-1.8139298,-1.4157708,-0.041035615,-0.09220545,0.14278106,1.0766559,0.37469316
-0.2,0.0,1.4999999999999998,0.5235987755982988,0.5235987755982988,0,1.541316,0.36914396,0.43333876,0.43807727,0.06882209,0.11956489,-0.14135551,-1.4948184,-1.517619,-0.11411723,-0.09107306,0.026387889,1.2103841,1.4000599
-0.2,0.0,1.4999999999999998,0.5235987755982988,0.5235987755982988,0,1.5418905,0.3697712,0.43236446,0.43602347,0.07383016,0.11991058,-0.05252782,-0.8717948,-1.5027643,-0.075383894,-0.055477597,-0.22706695,1.1588216,0.4585481
-0.2,0.0,1.4999999999999998,0.5235987755982988,0.5235987755982988,0,1.5408863,0.36792162,0.43451393,0.43702915,0.07545844,0.12090549,-0.081060454,-0.798008,-1.528621,-0.033414796,-0.010996204,-0.07881127,1.103958,0.13073854
-0.2,0.0,1.4999999999999998,0.5235987755982988,0.5235987755982988,0,1.5414116,0.3692884,0.4332779,0.43873316,0.07334043,0.11868121,-0.05833748,-1.4056945,-1.585851,0.28879428,-0.03448123,-0.0005663469,1.0751445,0.17757823
-0.2,0.0,1.4999999999999998,0.5235987755982988,0.5235987755982988,0,1.5403161,0.36771125,0.4326587,0.43638283,0.073853165,0.117852114,-0.10794456,-2.4844801,-1.5889097,-0.19725187,-0.0599182,-0.106023826,1.0236877,-0.06788004
-0.2,0.0,1.4999999999999998,0.5235987755982988,0.5235987755982988,0,1.5411719,0.36869845,0.43300933,0.43770134,0.07386705,0.11933285,-0.08206645,-1.4870437,-1.4019603,-0.12923114,-0.056893628,-0.10372439,1.0606008,0.51639175
-0.2,0.0,1.4999999999999998,0.5235987755982988,0.5235987755982988,0,1.5412387,0.36814055,0.4319324,0.4378192,0.07674526,0.11738782,-0.13969092,-1.9884804,-1.4872966,0.22828451,0.00021573766,-0.14272405,1.0613674,0.5619272
-0.2,0.0,1.4999999999999998,0.5235987755982988,0.5235987755982988,0,1.5410668,0.3681454,0.43210202,0.43659317,0.07357448,0.12085896,-0.17703933,-1.4476596,-1.5696789,0.35004145,-0.14542598,-0.038313024,1.1030467,1.1900159
-0.2,0.0,1.4999999999999998,0.5235987755982988,0.5235987755982988,0,1.5416206,0.36931217,0.43354782,0.43763345,0.06570363,0.119470246,-0.06389247,-0.9664501,-1.3982005,-0.09700778,-0.1281408,-0.21898744,1.1465487,0.1541287
-0.2,0.0,1.4999999999999998,0.5235987755982988,0.5235987755982988,0,1.5398991,0.3682843,0.4332688,0.43719286,0.07406218,0.12163463,-0.16706257,-1.9807597,-1.4763314,-0.031495906,-0.10323936,-0.19037394,1.2113117,0.06698837
-0.2,0.0,1.4999999999999998,0.5235987755982988,0.5235987755982988,0,1.5415151,0.36968952,0.43388164,0.43675804,0.07141993,0.120571814,-0.095502675,-0.42273548,-1.489566,0.0976005,-0.0858957,-0.1728804,1.1487159,1.217647
-0.2,0.0,1.4999999999999998,0.5235987755982988,0.5235987755982988,0,1.5403979,0.3681259,0.43252078,0.4379329,0.07426274,0.12175117,-0.047565218,-1.1165036,-1.5843775,0.16822453,-0.07596796,-0.0389814,1.0829297,-0.37347993
-0.2,0.0,1.4999999999999998,0.5235987755982988,0.5235987755982988,0,1.5411497,0.3698571,0.43481725,0.4371155,0.07087515,0.12273493,-0.09150613,-2.1435366,-1.3764745,0.20520657,-0.051751483,-0.06572546,1.0763037,0.12779164
-0.2,0.0,1.4999999999999998,0.5235987755982988,0.5235987755982988,0,1.5415484,0.3695421,0.43482217,0.4363981,0.07133223,0.120679125,-0.08863235,-1.5144107,-1.4379832,0.14046243,-0.032269187,-0.13504992,1.0219011,-0.28047732
-0.2,0.0,1.4999999999999998,0.5235987755982988,0.5235987755982988,0,1.5402483,0.36808178,0.433354,0.4380702,0.072862804,0.11933762,-0.13067202,-1.8651259,-1.4880111,-0.18567623,-0.042108655,-0.090673745,1.1171625,-0.3498355
-0.2,0.0,1.4999999999999998,0.5235987755982988,0.5235987755982988,0,1.5397877,0.37027696,0.43453878,0.43719387,0.07590526,0.121242136,-0.097767964,-0.9248047,-1.5235639,0.0008057317,-0.021158488,-0.06094808,1.1412073,0.18964276
-0.2,0.0,1.4999999999999998,0.5235987755982988,0.5235987755982988,0,1.5403832,0.3688659,0.43401062,0.43732885,0.07033597,0.11898241,-0.0730004,-1.7835863,-1.4606916,0.13134545,-0.13393266,-0.07891492,1.0511771,-0.24051449
-0.2,0.0,1.4999999999999998,0.5235987755982988,0.5235987755982988,0,1.5399716,0.3694462,0.43448815,0.43727985,0.07602933,0.11972625,-0.06899517,-1.5193415,-1.4477503,0.21589968,-0.0691445,-0.13975227,1.199803,-0.2519902
-0.2,0.0,1.4999999999999998,0.5235987755982988,0.5235987755982988,0,1.5407106,0.36832035,0.43255267,0.4378812,0.069832616,0.11614195,0.061868973,-0.9429966,-1.5128762,0.10327174,-0.04417614,-0.120284565,1.1365589,-0.007064404
-0.2,0.0,1.4999999999999998,0.5235987755982988,0.5235987755982988,0,1.5407567,0.36978042,0.43254194,0.4366065,0.06834879,0.11688309,-0.0018234838,-1.0388412,-1.3861958,0.23341839,-0.0022779412,0.07552055,1.1126909,0.23807232
-0.2,0.0,1.4999999999999998,0.5235987755982988,0.5235987755982988,0,1.5413177,0.3688848,0.43135512,0.43760848,0.05369456,0.120197296,-0.043724973,-1.0312253,-1.4994335,0.10321456,-0.10194283,0.06753867,1.1172707,0.4621849
-0.2,0.0,1.4999999999999998,0.5235987755982988,0.5235987755982988,0,1.5410309,0.3688041,0.43398798,0.43711787,0.07120823,0.11687592,-0.19840802,-1.3060954,-1.3940293,0.32337794,-0.012154211,-0.08598024,1.1880127,0.22461183
-0.2,0.0,1.4999999999999998,0.5235987755982988,0.5235987755982988,0,1.5413611,0.3690804,0.43175286,0.43786407,0.07436237,0.119025946,0.002805042,-1.7402078,-1.5243548,0.17785513,-0.043826837,-0.020136036,1.1990763,0.11271795
-0.2,0.0,1.4999999999999998,0.5235987755982988,0.5235987755982988,0,1.5427284,0.36974728,0.4334406,0.4383989,0.07294759,0.1221422,-0.077279925,-1.9309486,-1.5397055,0.15724307,-0.12077435,-0.034625538,1.2013652,0.56941956
-0.2,0.0,1.4999999999999998,0.5235987755982988,0.5235987755982988,0,1.5415895,0.36951005,0.43237442,0.4376088,0.06914139,0.11946783,-0.15014195,-0.49355534,-1.4486183,-0.06707944,-0.09127308,0.079317056,1.1517847,-0.45010033
-0.2,0.0,1.4999999999999998,0.5235987755982988,0.5235987755982988,0,1.5401281,0.3691649,0.43519557,0.4372658,0.07474074,0.11974831,-0.18293853,-2.0815394,-1.5343431,0.1302001,-0.10756766,-0.15604314,1.1561509,0.20871034
-0.2,0.0,1.4999999999999998,0.5235987755982988,0.5235987755982988,0,1.5419375,0.36806276,0.4343432,0.43776375,0.07546953,0.11890604,-0.040382173,-1.2604923,-1.5536529,0.011385105,-0.057954315,-5.952338e-05,1.1932603,0.45538595
-0.2,0.0,1.4999999999999998,0.5235987755982988,0.5235987755982988,0,1.5422823,0.3683532,0.4351168,0.43757313,0.07378953,0.12277268,-0.082559995,-1.6768671,-1.560998,0.028925609,-0.08819128,-0.038294464,1.2090044,-0.6012615
-0.2,0.0,1.4999999999999998,0.5235987755982988,0.5235987755982988,0,1.5408362,0.3690662,0.4339215,0.4381667,0.070238,0.11807705,-0.07665446,-1.4920788,-1.4829298,0.118705206,-0.075523734,0.22785437,1.1466136,-0.17811994
-0.2,0.0,1.4999999999999998,0.5235987755982988,0.5235987755982988,0,1.5411307,0.36832532,0.43329528,0.43823135,0.07344598,0.117762074,-0.058021314,-0.9803004,-1.5252088,-0.3230557,-0.051398464,-0.028007012,1.1516082,0.42115867
-0.2,0.0,1.4999999999999998,0.5235987755982988,0.5235987755982988,0,1.5429517,0.36975622,0.43135235,0.43748888,0.075914,0.12117627,-0.10879243,-1.5800765,-1.5120777,0.042612072,-0.069338515,-0.013708546,1.0903203,0.30949026
-0.2,0.0,1.4999999999999998,0.5235987755982988,0.5235987755982988,0,1.5412009,0.36872077,0.4326258,0.436822,0.07240884,0.121744566,-0.04365011,-1.8403401,-1.5509896,0.15307924,-0.04534213,-0.008726511,1.260169,0.19778918
-0.2,0.0,1.4999999999999998,0.5235987755982988,0.5235987755982988,0,1.5411584,0.36890456,0.43325028,0.4371154,0.07412576,0.11808602,-0.07773822,-1.8777438,-1.5620446,0.1286053,-0.17165294,-0.19954208,1.1630858,0.54005533
-0.2,0.0,1.4999999999999998,0.5235987755982988,0.5235987755982988,0,1.5400997,0.36937124,0.43310872,0.4382582,0.07456548,0.118934065,-0.009274004,-0.6041125,-1.5454936,-0.08804595,-0.09730548,-0.0852762,1.0656377,-0.3136693
-0.2,0.0,1.4999999999999998,0.5235987755982988,0.5235987755982988,0,1.5398788,0.36919865,0.4340181,0.43721873,0.070511654,0.120593034,-0.03994044,-2.1156526,-1.4950554,0.046666026,-0.11245849,0.04764712,1.1887298,0.17154521
-0.2,0.0,1.4999999999999998,0.5235987755982988,0.5235987755982988,0,1.5404693,0.36958995,0.43149006,0.43667397,0.06898657,0.11875006,-0.06765479,-1.9044393,-1.4918807,0.254006,-0.07538329,0.042906716,1.1847302,0.4380272
-0.2,0.0,1.4999999999999998,0.5235987755982988,0.5235987755982988,0,1.5414295,0.36931753,0.43115965,0.4370834,0.06791382,0.12126522,-0.055516202,-1.5367717,-1.4043859,0.16247699,-0.07318957,-0.20598395,1.1723486,-0.39030036
-0.2,0.0,1.4999999999999998,0.5235987755982988,0.5235987755982988,0,1.5413752,0.36784264,0.43263155,0.43824223,0.071097955,0.11765207,-0.085245,-1.1454965,-1.5196323,0.060360465,-0.06301907,0.004497491,1.1675174,0.65231144
-0.2,0.0,1.4999999999999998,0.5235987755982988,0.5235987755982988,0,1.540353,0.3682678,0.43310857,0.43814412,0.070106976,0.118126355,-0.12932445,-1.0702512,-1.4631066,-0.031856053,-0.06281959,-0.01830896,1.112923,-0.022917528
-0.2,0.0,1.4999999999999998,0.5235987755982988,0.5235987755982988,0,1.5414594,0.3689793,0.43459472,0.43799087,0.06941152,0.12323624,-0.086448476,-1.2925172,-1.4864182,-0.024973314,-0.016839901,0.03364521,1.1491067,0.6104891
-0.2,0.0,1.4999999999999998,0.5235987755982988,0.5235987755982988,0,1.5416999,0.36973187,0.434029,0.43679154,0.07065413,0.12051517,-0.052012686,-2.33991,-1.390734,-0.04379417,-0.05195602,0.108887725,1.1791818,0.19816422
-0.2,0.0,1.4999999999999998,0.5235987755982988,0.5235987755982988,0,1.5415735,0.36841622,0.43177563,0.43784654,0.068840384,0.12207268,-0.07665123,-0.8310751,-1.492644,0.22553338,-0.0018236436,0.11591331,1.113267,-0.28644085
-0.2,0.0,1.4999999999999998,0.5235987755982988,0.5235987755982988,0,1.5412095,0.36927357,0.43482122,0.43751624,0.067723095,0.11631035,-0.014261545,-1.7922914,-1.4116974,0.070523396,-0.12193745,-0.015636154,1.1257422,0.2040881
-0.2,0.0,1.4999999999999998,0.5235987755982988,0.5235987755982988,0,1.5418828,0.3696268,0.4333538,0.43713158,0.06858098,0.12208836,-0.104506865,-1.0591949,-1.3437266,0.2466567,-0.06833937,0.11079493,1.0600458,-0.55070764
-0.2,0.0,1.4999999999999998,0.5235987755982988,0.5235987755982988,0,1.540762,0.36768222,0.43362287,0.43638584,0.07093435,0.121126086,-0.047851346,-0.81468034,-1.5551287,-0.023994895,-0.075262986,-0.06584186,1.1947963,0.19105847
-0.2,0.0,1.4999999999999998,0.5235987755982988,0.5235987755982988,0,1.540552,0.3687534,0.43344787,0.43772843,0.07517998,0.12265905,-0.0994506,-1.3477305,-1.5269783,-0.09120812,-0.10838797,0.009513993,0.995722,0.72603136
-0.2,0.0,1.4999999999999998,0.5235987755982988,0.5235987755982988,0,1.5407304,0.36976942,0.4324673,0.43833715,0.074119665,0.11807619,-0.11215964,-1.176353,-1.6214671,0.17246065,-0.06456401,-0.15823667,1.1864996,-0.49868888
-0.2,0.0,1.4999999999999998,0.5235987755982988,0.5235987755982988,0,1.5414462,0.36997932,0.4320392,0.43805912,0.07405998,0.11897803,-0.17504828,-0.63470334,-1.5689652,-0.24974892,-0.03134228,0.04150068,1.1004952,-0.0692039
-0.2,0.0,1.4999999999999998,0.5235987755982988,0.5235987755982988,0,1.5409,0.36897057,0.4340183,0.43792677,0.072898075,0.12039525,-0.09358541,-1.9178666,-1.3944575,-0.2678822,-0.119879045,0.04684533,1.1689203,1.4187907
-0.2,0.0,1.4999999999999998,0.5235987755982988,0.5235987755982988,0,1.5397854,0.36900234,0.43473023,0.43884006,0.07457543,0.120092295,-0.16985027,-1.4788334,-1.5899694,0.07967374,-0.083060175,-0.12902448,1.1878989,0.28012186
-0.2,0.0,1.4999999999999998,0.5235987755982988,0.5235987755982988,0,1.5421438,0.3685094,0.4325932,0.43800548,0.074993156,0.11912189,-0.09317657,-2.0183365,-1.4515201,-0.112724975,-0.05553903,-0.09469757,1.1604767,-0.3827874
-0.2,0.0,1.4999999999999998,0.5235987755982988,0.5235987755982988,0,1.5426378,0.36953133,0.43263298,0.43788922,0.073458426,0.120469525,-0.018723955,-1.7060395,-1.5091974,0.19114186,-0.02101978,0.1894247,1.1334852,0.01449912
-0.2,0.0,1.4999999999999998,0.5235987755982988,0.5235987755982988,0,1.5413775,0.36937463,0.43337026,0.437866,0.07262831,0.11738881,-0.03956979,-1.8042212,-1.3954885,0.0496358,-0.046331283,-0.14731242,1.1426104,0.03244928
-0.2,0.0,1.4999999999999998,0.5235987755982988,0.5235987755982988,0,1.5415514,0.3683722,0.4325608,0.43687475,0.074266106,0.11966545,-0.18190636,-2.7546031,-1.5409998,-0.24604885,-0.09992713,0.19932598,1.1739309,0.058261488
-0.2,0.0,1.4999999999999998,0.5235987755982988,0.5235987755982988,0,1.5418876,0.36863858,0.43243477,0.437838,0.06688273,0.12116794,-0.18834248,-2.4775221,-1.5932581,-0.15312582,-0.10225814,-0.25760993,1.1858182,0.6157062
-0.2,0.0,1.4999999999999998,0.5235987755982988,0.5235987755982988,0,1.5414824,0.36901367,0.43333572,0.4362822,0.07019371,0.12150989,-0.10110017,-1.5076073,-1.4545873,0.0873411,-0.120343216,-0.17738967,1.1333976,0.6325351
-0.2,0.0,1.4999999999999998,0.5235987755982988,0.5235987755982988,0,1.5412866,0.3688577,0.43330234,0.43747425,0.0723904,0.12024801,-0.2102483,-1.3388889,-1.4372877,0.011197232,-0.091805175,-0.021286571,1.0639939,0.16220315
-0.2,0.0,1.4999999999999998,0.5235987755982988,0.5235987755982988,0,1.5416304,0.3697152,0.43344057,0.43688524,0.07336319,0.117232,-0.07808785,-1.4378549,-1.5513918,0.23344812,-0.1040349,0.032738045,1.0661013,0.5512854
-0.2,0.0,1.4999999999999998,0.5235987755982988,0.5235987755982988,0,1.540935,0.3688386,0.43383375,0.43812847,0.078054845,0.11734205,-0.08957842,-0.92156124,-1.5202249,-0.0031142486,-0.047894914,0.048448406,1.1398486,0.15049091
-0.2,0.0,1.4999999999999998,0.5235987755982988,0.5235987755982988,0,1.5402442,0.3669448,0.43397433,0.43788671,0.066705994,0.119305134,-0.0005811696,-1.3361442,-1.4537053,0.063764066,-0.07151688,-0.16695641,1.2051579,0.8812115
-0.2,0.0,1.4999999999999998,0.5235987755982988,0.5235987755982988,0,1.5422093,0.36858156,0.43430305,0.43750113,0.07141617,0.12210333,-0.04303578,-1.0685172,-1.6103163,0.0069035674,-0.0379398,-0.16271554,1.1114049,-0.8846532
-0.2,0.0,1.4999999999999998,0.5235987755982988,0.5235987755982988,0,1.5407368,0.36972684,0.4334906,0.43702587,0.07234029,0.11999412,-0.018241625,-2.450838,-1.5932217,0.27844912,-0.08109328,-0.071092,1.1319289,-0.26705247
-0.2,0.0,1.4999999999999998,0.5235987755982988,0.5235987755982988,0,1.5413195,0.36873597,0.43340912,0.4377806,0.07891281,0.12068554,-0.043577738,-1.2928596,-1.6167419,0.06776111,-0.093405575,-0.06834312,1.1595619,0.14253016
-0.2,0.0,1.4999999999999998,0.5235987755982988,0.5235987755982988,0,1.542086,0.368987,0.43273392,0.43767908,0.0757187,0.120506555,-0.15815653,-2.062393,-1.4730273,-0.22797523,-0.061757755,0.014727393,1.1111305,0.26572606
-0.2,0.0,1.4999999999999998,0.5235987755982988,0.5235987755982988,0,1.5410665,0.36911428,0.43288052,0.43734288,0.075231925,0.11852711,-0.11019374,-1.1399261,-1.4005581,0.08065979,-0.14382663,-0.06706987,1.1175654,0.19433112
-0.2,0.0,1.4999999999999998,0.5235987755982988,0.5235987755982988,0,1.5412695,0.36772627,0.4352515,0.43721554,0.07080062,0.12086771,-0.14439748,-1.4674042,-1.4884814,0.13561584,-0.085813716,0.030690229,1.2247984,0.5955757
-0.2,0.0,1.4999999999999998,0.5235987755982988,0.5235987755982988,0,1.5418898,0.36973158,0.42984438,0.43710068,0.071940236,0.1205652,-0.14330976,-1.3968043,-1.576807,-0.013086139,-0.082240425,-0.057553276,1.1587538,0.6769508
-0.2,0.0,1.4999999999999998,0.5235987755982988,0.5235987755982988,0,1.5404093,0.36818355,0.43284845,0.43783578,0.06500611,0.12175002,-0.114001386,-0.9047837,-1.4556221,0.13916454,-0.044711802,-0.057153724,1.1527348,0.15389682
-0.2,0.0,1.4999999999999998,0.5235987755982988,0.5235987755982988,0,1.5412171,0.36898342,0.43184495,0.43692365,0.0677065,0.1182175,0.04351743,-1.5025257,-1.5201995,0.112340204,-0.10733055,-0.20696989,1.2131623,-0.35296476
-0.2,0.0,1.4999999999999998,0.5235987755982988,0.5235987755982988,0,1.5412173,0.36878037,0.43420607,0.4380811,0.068385206,0.11848798,-0.04196584,-1.1333907,-1.5044488,0.077663615,-0.1309107,-0.049399972,1.1007072,0.7589286
-0.2,0.0,1.4999999999999998,0.5235987755982988,0.5235987755982988,0,1.5410631,0.36920196,0.43515253,0.43754503,0.069537215,0.11794796,-0.10238607,-2.0011654,-1.4429446,0.31308052,-0.06438188,-0.1461199,0.95479846,0.73593014
-0.2,0.0,1.4999999999999998,0.5235987755982988,0.5235987755982988,0,1.5415454,0.36989057,0.4346062,0.43679848,0.073009774,0.11925287,0.058065865,-1.7515622,-1.3548748,0.030791825,-0.09149174,0.013886782,1.1301806,-0.31330717
-0.2,0.0,1.4999999999999998,0.5235987755982988,0.5235987755982988,0,1.5422152,0.36881715,0.43291962,0.4373828,0.07120731,0.121639684,-0.0997378,-1.4927092,-1.5565606,0.13331564,-0.051945686,0.15116161,1.1196847,-0.5458428
-0.2,0.0,1.4999999999999998,0.5235987755982988,0.5235987755982988,0,1.54005,0.36908975,0.4324864,0.43707502,0.07249508,0.11827526,-0.0466208,-0.57603997,-1.447694,0.006295943,-0.14370407,-0.18511331,1.1258497,0.4485003
-0.2,0.0,1.4999999999999998,0.5235987755982988,0.5235987755982988,0,1.5411152,0.36879677,0.4337204,0.43825877,0.06820652,0.12011475,0.0043047,-1.8904262,-1.4336848,-0.03702926,-0.0508688,-0.25733417,1.114897,0.2643316
-0.2,0.0,1.4999999999999998,0.5235987755982988,0.5235987755982988,0,1.5400754,0.36849502,0.43553033,0.4376577,0.06985183,0.1222825,-0.038877264,-2.0469286,-1.4311048,0.08509075,0.005336818,-0.16242528,1.1764303,0.6209295
-0.2,0.0,1.4999999999999998,0.5235987755982988,0.5235987755982988,0,1.5420103,0.3696222,0.43434483,0.43706053,0.07069126,0.118735656,-0.06656614,-1.0494614,-1.5135609,-0.074791916,-0.0675504,-0.04394653,1.1111591,1.168709
-0.2,0.0,1.4999999999999998,0.5235987755982988,0.5235987755982988,0,1.5395775,0.36936286,0.43352604,0.4375381,0.07447831,0.123542175,-0.15298903,-1.2619222,-1.3957119,0.07964683,-0.07841478,-0.0123792635,1.131309,0.25759396
-0.2,0.0,1.4999999999999998,0.5235987755982988,0.5235987755982988,0,1.5409503,0.3684267,0.43292117,0.43867114,0.07198844,0.11807631,-0.19957599,-2.4291615,-1.376461,-0.0022548966,-0.07681932,-0.09054043,1.0749068,0.24244016
-0.2,0.0,1.4999999999999998,0.5235987755982988,0.5235987755982988,0,1.5422148,0.36876082,0.43328193,0.4376762,0.07653497,0.118474714,-0.10962498,-1.4267714,-1.5551258,-0.14727226,-0.10182695,-0.070132524,1.1174275,-0.10958031
-0.2,0.0,1.4999999999999998,0.5235987755982988,0.5235987755982988,0,1.5409293,0.36946583,0.43320927,0.43818274,0.06913612,0.11820478,0.032764863,-1.8562254,-1.4934329,0.08387459,-0.08779939,-0.0674778,1.074093,0.3074931
-0.2,0.0,1.4999999999999998,0.5235987755982988,0.5235987755982988,0,1.5414753,0.3683695,0.43402722,0.43757415,0.074368596,0.12170477,-0.05737134,-1.1419867,-1.4493638,-0.046149056,-0.076721236,0.038375404,1.1800579,0.40341043
-0.2,0.0,1.4999999999999998,0.5235987755982988,0.5235987755982988,0,1.5397961,0.36804664,0.4314294,0.43746722,0.073661186,0.11779751,-0.102880485,-0.9636258,-1.5467405,-0.14641204,-0.038122218,0.07164847,1.1852263,0.39109677
-0.2,0.0,1.4999999999999998,0.5235987755982988,0.5235987755982988,0,1.5413067,0.36896187,0.43294194,0.4375254,0.06757501,0.11741143,-0.11063665,-1.1796441,-1.6614345,0.19925508,-0.1509142,-0.072688796,1.0498389,0.13098557
-0.2,0.0,1.4999999999999998,0.5235987755982988,0.5235987755982988,0,1.5423102,0.36875767,0.43428975,0.4368955,0.062464267,0.12127157,-0.029618997,-1.6458176,-1.5684826,0.07739437,-0.10031542,-0.1534147,1.0860925,-0.8230593
-0.2,0.0,1.4999999999999998,0.5235987755982988,0.5235987755982988,0,1.5412045,0.3693133,0.43262643,0.4377337,0.07776156,0.12017669,-0.069780275,-0.97430974,-1.573932,-0.013777994,-0.067602634,-0.17519732,1.0989599,0.9787849
-0.2,0.0,1.4999999999999998,0.5235987755982988,0.5235987755982988,0,1.5425308,0.36800233,0.43329623,0.4385119,0.06571746,0.11809147,-0.016797539,-2.2321515,-1.4728055,-0.022414945,-0.11893298,-0.076718256,1.0806079,-0.16560999
-0.2,0.0,1.4999999999999998,0.5235987755982988,0.5235987755982988,0,1.5431734,0.36989436,0.43321067,0.43733236,0.068699285,0.117382325,-0.006017112,-1.4429458,-1.5408012,0.084672764,-0.058169406,-0.11367378,1.1828213,0.07536143
-0.2,0.0,1.4999999999999998,0.5235987755982988,0.5235987755982988,0,1.5415328,0.36947906,0.43227068,0.4379261,0.0744271,0.120086916,-0.022110038,-0.42500317,-1.4558089,0.15121648,0.0015751825,-0.02485631,1.1563526,0.16091052
-0.2,0.0,1.4999999999999998,0.5235987755982988,0.5235987755982988,0,1.5417924,0.36988345,0.43340388,0.4371285,0.07815574,0.120143875,-0.110776834,-0.34442943,-1.6045551,0.14707708,-0.06737845,-0.18085262,1.1051227,-0.3921998
-0.2,0.0,1.4999999999999998,0.5235987755982988,0.5235987755982988,0,1.5402448,0.36820567,0.43480816,0.43614602,0.067593865,0.121270515,-0.0682412,-1.0520904,-1.4952115,0.22196554,-0.13172689,-0.12562133,1.2130963,0.26366264
-0.2,0.0,1.4999999999999998,0.5235987755982988,0.5235987755982988,0,1.5417038,0.36944893,0.43267787,0.43802685,0.07119361,0.11974285,-0.13057202,-1.3703071,-1.5979737,0.04425673,-0.1671949,-0.028752677,1.1162437,0.47004843
-0.2,0.0,1.4999999999999998,0.5235987755982988,0.5235987755982988,0,1.5413665,0.3681757,0.43389863,0.43831924,0.06824861,0.1211413,-0.027630374,-2.1412299,-1.4484597,0.042623185,-0.06367719,-0.0566368,1.1478852,0.2633573
-0.2,0.0,1.4999999999999998,0.5235987755982988,0.5235987755982988,0,1.5406462,0.3681687,0.43298823,0.43753892,0.07170775,0.119434305,-0.09552858,-1.3954874,-1.5556842,0.25807828,-0.046553608,0.008041178,1.1735214,0.20824254
-0.2,0.0,1.4999999999999998,0.5235987755982988,0.5235987755982988,0,1.5423032,0.3691848,0.43407732,0.43747768,0.07328257,0.11908757,-0.097990066,-1.1956849,-1.4915242,-0.1172404,-0.018037291,-0.08729616,1.1755967,0.98306394
-0.2,0.0,1.4999999999999998,0.5235987755982988,0.5235987755982988,0,1.5405409,0.36888722,0.43251264,0.43743432,0.072091386,0.11781022,-0.0041556084,-2.434179,-1.4052958,-0.022321718,-0.02035445,0.029954528,1.1153314,-0.5671153
-0.2,0.0,1.4999999999999998,0.5235987755982988,0.5235987755982988,0,1.5406613,0.3687832,0.43503544,0.4361024,0.07384981,0.11839629,-0.13901982,-0.7061596,-1.4939053,0.4247493,-0.08698414,-0.17384079,1.1457051,-0.1920502
-0.2,0.0,1.4999999999999998,0.5235987755982988,0.5235987755982988,0,1.5428413,0.3685343,0.4314165,0.43778002,0.07326721,0.1216308,-0.087439336,-1.6673841,-1.449501,-0.014557714,-0.054586064,-0.11173671,1.1262225,-0.138453
-0.2,0.0,1.4999999999999998,0.5235987755982988,0.5235987755982988,0,1.5407491,0.3689671,0.43433127,0.4379275,0.073721305,0.11990276,-0.03162862,-1.0137559,-1.4642612,0.23750015,-0.03202044,-0.24421436,1.091929,-0.13554285
-0.2,0.0,1.4999999999999998,0.5235987755982988,0.5235987755982988,0,1.540923,0.36871487,0.4324405,0.43759146,0.070807695,0.11782191,-0.11033183,-0.733499,-1.5241729,-0.1431702,-0.13983075,0.23905292,1.2472376,-0.09446702
-0.2,0.0,1.4999999999999998,0.5235987755982988,0.5235987755982988,0,1.5411085,0.36786503,0.43449873,0.43747672,0.07394695,0.121466435,-0.04034877,-2.4254205,-1.3892791,-0.20956454,-0.093642004,-0.060403585,1.1563338,0.3827219
-0.2,0.0,1.4999999999999998,0.5235987755982988,0.5235987755982988,0,1.5402648,0.36895958,0.43367898,0.4378684,0.078389786,0.12037277,-0.21439174,-2.0156503,-1.4512677,0.081853405,-0.12191855,-0.09906766,1.1850506,1.020881
-0.2,0.0,1.4999999999999998,0.5235987755982988,0.5235987755982988,0,1.5416915,0.36840343,0.43152952,0.4367945,0.07702999,0.12082629,-0.052333552,-0.9469061,-1.5500894,0.06830483,-0.024593553,0.2187098,1.2411159,-0.47402793
-0.2,0.0,1.4999999999999998,0.5235987755982988,0.5235987755982988,0,1.5410947,0.3681147,0.43309417,0.43703896,0.06686186,0.12017842,-0.010256323,-1.5163922,-1.5505033,0.14218281,-0.0757474,-0.12005216,1.1348418,0.025789207
-0.2,0.0,1.4999999999999998,0.5235987755982988,0.5235987755982988,0,1.5410149,0.36828828,0.43406466,0.43732548,0.07227657,0.12062802,-0.05631283,-0.748672,-1.5320128,0.26632157,-0.03322035,-0.112845115,1.1540449,0.3372668
-0.2,0.0,1.4999999999999998,0.5235987755982988,0.5235987755982988,0,1.5408872,0.36820096,0.433893,0.4372925,0.06944094,0.121115945,-0.02564872,-1.7437875,-1.5249815,-0.11120198,-0.092005625,-0.1965419,1.1161166,0.48851824
-0.2,0.0,1.4999999999999998,0.5235987755982988,0.5235987755982988,0,1.5406313,0.3698469,0.43390742,0.43702096,0.078212455,0.12028269,-0.08052672,-1.2401081,-1.5042355,0.13530685,-0.13449235,-0.17315719,1.0569794,0.2217616
-0.2,0.0,1.4999999999999998,0.5235987755982988,0.5235987755982988,0,1.5400329,0.368396,0.4321762,0.43783838,0.072171256,0.12136555,-0.0967171,-0.20251426,-1.457919,-0.029890558,-0.14508384,-0.121821366,1.084906,0.33001167
-0.2,0.0,1.4999999999999998,0.5235987755982988,0.5235987755982988,0,1.5417732,0.3689284,0.43334123,0.43725708,0.06988025,0.11929321,0.0078033055,-2.2445452,-1.4667487,0.30309197,-0.17609577,-0.1836398,1.1607524,0.15654987
-0.2,0.0,1.4999999999999998,0.5235987755982988,0.5235987755982988,0,1.5408585,0.37023777,0.43458873,0.43694064,0.07766439,0.121835925,-0.11100751,-0.6744712,-1.4782714,0.22739357,-0.09535753,-0.10170126,1.1394664,0.17791742
-0.2,0.0,1.4999999999999998,0.5235987755982988,0.5235987755982988,0,1.5412428,0.36927983,0.4336905,0.43774498,0.07612167,0.12090131,-0.21099575,-1.1784863,-1.5034845,-0.046611425,-0.073989175,0.13225143,1.1409845,0.02659003
-0.2,0.0,1.4999999999999998,0.5235987755982988,0.5235987755982988,0,1.5409805,0.36906105,0.43302718,0.4377396,0.06912647,0.12084203,-0.17935336,-1.5126393,-1.5544037,0.022551801,-0.030236028,0.043337498,1.1632688,0.07812907
-0.2,0.0,1.4999999999999998,0.5235987755982988,0.5235987755982988,0,1.5413883,0.3687711,0.4333911,0.43633866,0.06654807,0.12113136,-0.17575,-1.0735916,-1.5399017,0.11059074,-0.11524648,-0.04869161,1.1728392,0.123371795
-0.2,0.0,1.4999999999999998,0.5235987755982988,0.5235987755982988,0,1.5411605,0.3700271,0.43355957,0.4373404,0.07194944,0.11953127,-0.02886445,-1.5174401,-1.5639756,0.12064138,-0.022448834,-0.053270295,1.1128049,0.5226309
-0.2,0.0,1.4999999999999998,0.5235987755982988,0.5235987755982988,0,1.5409636,0.36794937,0.4320673,0.43715814,0.07261426,0.11948814,-0.14976196,-1.2311275,-1.5176088,0.16200586,-0.12290343,-0.10701815,1.2249498,-0.08581952
-0.2,0.0,1.4999999999999998,0.5235987755982988,0.5235987755982988,0,1.5401642,0.3679531,0.43402478,0.43729365,0.061840825,0.118046515,-0.05283187,-1.471159,-1.6406785,0.3989931,-0.12909569,-0.1266801,1.0778155,-0.52750516
-0.2,0.0,1.4999999999999998,0.5235987755982988,0.5235987755982988,0,1.5413703,0.36896443,0.43224367,0.437712,0.0771576,0.11987046,-0.056263342,-1.8987025,-1.4036586,-0.079095736,-0.048050884,-0.14340574,1.0905137,0.5881159
-0.2,0.0,1.4999999999999998,0.5235987755982988,0.5235987755982988,0,1.5433252,0.36954877,0.43304855,0.43835396,0.07157911,0.120204456,0.008766258,-1.4076586,-1.4980006,0.022996526,-0.07001657,-0.088217214,1.1523687,0.36166206
-0.2,0.0,1.4999999999999998,0.5235987755982988,0.5235987755982988,0,1.5413319,0.36799368,0.43233192,0.43835622,0.07719298,0.118585184,-0.026907101,-1.1505241,-1.4444422,0.14010282,-0.0463334,-0.12108451,1.0760822,0.58112526
-0.2,0.0,1.4999999999999998,0.5235987755982988,0.5235987755982988,0,1.541151,0.36883023,0.43461293,0.4379055,0.069949046,0.11910998,-0.050386764,-1.6323991,-1.49717,0.30771488,-0.021896277,-0.1460274,1.165932,0.6764932
-0.2,0.0,1.4999999999999998,0.5235987755982988,0.5235987755982988,0,1.541505,0.36783886,0.43326136,0.43682876,0.06383074,0.11809301,-0.048413914,-2.119602,-1.3424745,0.19399785,-0.06300187,0.03959434,1.139583,-0.23909721
-0.2,0.0,1.4999999999999998,0.5235987755982988,0.5235987755982988,0,1.5400794,0.3682372,0.4328901,0.43827572,0.07412598,0.11918739,-0.11728311,-1.4674307,-1.4395367,0.112271234,-0.08070128,-0.22275577,1.1304588,-0.40542695
-0.2,0.0,1.4999999999999998,0.5235987755982988,0.5235987755982988,0,1.5424944,0.36785492,0.43601102,0.4377206,0.077293225,0.117579706,0.013852559,-1.5100031,-1.5824114,-0.182714,-0.109632276,0.00042826709,1.0573708,-0.03294855
-0.2,0.0,1.4999999999999998,0.5235987755982988,0.5235987755982988,0,1.5416392,0.36855268,0.43229416,0.43755868,0.07035155,0.1192952,-0.028957084,-1.6009679,-1.5011606,0.15933904,-0.04444121,-0.016352056,1.1332142,0.39499232
-0.2,0.0,1.4999999999999998,0.5235987755982988,0.5235987755982988,0,1.5401211,0.36950284,0.43427342,0.4384607,0.07225378,0.120305456,-0.048000485,-2.6098757,-1.4121976,0.08496531,0.0025543314,-0.15638529,1.2278144,-0.069371074
-0.2,0.0,1.4999999999999998,0.5235987755982988,0.5235987755982988,0,1.5406713,0.36873838,0.43225452,0.43743423,0.06420626,0.119356014,-0.025672987,-0.79767716,-1.4664272,-0.09788621,-0.09650956,-0.080860645,0.9890958,0.5765117
-0.2,0.0,1.4999999999999998,0.5235987755982988,0.5235987755982988,0,1.5408398,0.36931735,0.43342116,0.4367928,0.071964055,0.11977928,0.015882127,-0.94027966,-1.4805676,0.16538343,-0.121231124,-0.14088559,1.2120643,0.41044182
-0.2,0.0,1.4999999999999998,0.5235987755982988,0.5235987755982988,0,1.5413082,0.3691257,0.43071344,0.43617028,0.07213806,0.12117893,-0.24508245,-1.5371853,-1.5351824,-0.1102277,-0.08036154,-0.021543853,1.0676451,0.9400862
-0.2,0.0,1.4999999999999998,0.5235987755982988,0.5235987755982988,0,1.542103,0.3694916,0.43333519,0.4368453,0.06846312,0.121201105,-0.1395997,-1.939799,-1.5531391,0.017452493,-0.050833177,-0.104217194,1.0446926,-0.31853935
-0.2,0.0,1.4999999999999998,0.5235987755982988,0.5235987755982988,0,1.5412025,0.3672965,0.4324501,0.43691656,0.07630008,0.12108783,0.014784439,-0.98117596,-1.4551779,0.20769702,-0.115169026,0.0006332932,1.1220869,-0.4945285
-0.2,0.0,1.4999999999999998,0.5235987755982988,0.5235987755982988,0,1.5414948,0.36878663,0.43367675,0.43682644,0.0700896,0.11910576,-0.08405368,-1.4268433,-1.4372239,0.053234998,-0.08968774,-0.03960644,1.2351798,0.50631845
-0.2,0.0,1.4999999999999998,0.5235987755982988,0.5235987755982988,0,1.5405186,0.36990935,0.4327516,0.43738905,0.07104681,0.117067054,-0.050459508,-1.5029074,-1.6571889,0.031101603,-0.088959984,0.09730016,1.1951648,0.8771384
-0.2,0.0,1.4999999999999998,0.5235987755982988,0.5235987755982988,0,1.5415722,0.36874643,0.43407416,0.43827072,0.069400184,0.11881898,-0.06988044,-1.1469496,-1.6033462,0.041219316,-0.034647994,-0.19835126,1.1559176,-0.1025445
-0.2,0.0,1.4999999999999998,0.5235987755982988,0.5235987755982988,0,1.5407503,0.36751226,0.43384266,0.43759346,0.068342365,0.12140122,-0.14160639,-1.3968642,-1.5223585,-0.005009622,-0.14338022,0.07595791,1.1187311,0.4470886
-0.2,0.0,1.4999999999999998,0.5235987755982988,0.5235987755982988,0,1.5412266,0.36927062,0.43310738,0.43721226,0.07311717,0.12263724,-0.12625673,-1.8499085,-1.5186838,0.053781528,-0.033459146,0.06949879,1.1238219,-0.38253075
-0.2,0.0,1.4999999999999998,0.5235987755982988,0.5235987755982988,0,1.540224,0.36893085,0.43283594,0.4363375,0.059348546,0.11746453,0.106775105,-1.8658545,-1.47892,0.011204851,-0.12007082,-0.13585524,1.186461,0.21176232
-0.2,0.0,1.4999999999999998,0.5235987755982988,0.5235987755982988,0,1.5414714,0.3694961,0.43199423,0.4370842,0.07352252,0.1198037,-0.09991157,-1.6112837,-1.6153498,0.35738018,-0.07941369,-0.07402801,1.212712,-0.6226311
-0.2,0.0,1.4999999999999998,0.5235987755982988,0.5235987755982988,0,1.5397375,0.36948282,0.4339744,0.43724743,0.07109962,0.12128856,0.0071207676,-1.4644582,-1.5489802,0.1308353,-0.10598465,0.036615904,1.0140098,-0.1969477
-0.2,0.0,1.4999999999999998,0.5235987755982988,0.5235987755982988,0,1.5400891,0.36920056,0.43490267,0.43673,0.075192876,0.11859955,-0.10426528,-1.4121172,-1.5454099,0.18532346,-0.043098755,-0.22105396,1.1630635,-0.017432235
-0.2,0.0,1.4999999999999998,0.5235987755982988,0.5235987755982988,0,1.542006,0.3679728,0.4336699,0.43726197,0.06529503,0.123010896,-0.14616814,-0.78814155,-1.4770343,-0.036113344,-0.11039704,0.014229362,1.1927843,0.16236532
-0.2,0.0,1.4999999999999998,0.5235987755982988,0.5235987755982988,0,1.5416275,0.36808693,0.43150812,0.43775696,0.075557575,0.12055186,-0.17779475,-2.2300906,-1.6736033,0.21388204,-0.027914707,-0.35485768,1.0589875,0.9934089
-0.2,0.0,1.4999999999999998,0.5235987755982988,0.5235987755982988,0,1.5417798,0.3697705,0.43206197,0.4376894,0.07199055,0.1217897,-0.11536647,-2.0971904,-1.568034,0.073605716,-0.09321913,-0.11074862,0.9792363,1.072529
-0.2,0.0,1.4999999999999998,0.5235987755982988,0.5235987755982988,0,1.5413034,0.36952484,0.43234542,0.43759182,0.07403611,0.12006476,-0.054701086,-1.9804982,-1.5359652,-0.0004797383,-0.07986161,-0.2883488,1.2277519,0.71440697
-0.2,0.0,1.4999999999999998,0.5235987755982988,0.5235987755982988,0,1.5410787,0.3693121,0.43243402,0.43651733,0.07718833,0.1196467,-0.0017082106,-2.0497055,-1.63244,0.07436017,-0.09992269,-0.08627513,1.0979546,-0.43330768
-0.2,0.0,1.4999999999999998,0.5235987755982988,0.5235987755982988,0,1.5397667,0.36897567,0.43462998,0.43789023,0.07418432,0.12146915,-0.08224031,-1.0578023,-1.5239551,-0.030811768,-0.05663994,-0.096025474,1.2032232,0.892419
-0.2,0.0,1.4999999999999998,0.5235987755982988,0.5235987755982988,0,1.540135,0.36979598,0.4338441,0.43725145,0.069156535,0.12152742,-0.09240455,-1.803018,-1.520171,-0.20139635,-0.07800246,0.00618007,1.1205174,0.27980578
-0.2,0.0,1.4999999999999998,0.5235987755982988,0.5235987755982988,0,1.5403847,0.3691461,0.4348044,0.43741208,0.06437726,0.122136526,-0.033744894,-1.7365038,-1.5642544,0.17942922,-0.056458585,0.045652393,1.03725,0.4611886
-0.2,0.0,1.4999999999999998,0.5235987755982988,0.5235987755982988,0,1.5419023,0.3690748,0.43360764,0.43753788,0.07293711,0.11771213,-0.1354771,-1.6942446,-1.5108103,0.08828106,-0.10802987,-0.26442593,1.0773455,0.9197955
-0.2,0.0,1.4999999999999998,0.5235987755982988,0.5235987755982988,0,1.5401086,0.36872423,0.43562064,0.43847328,0.072381146,0.11898762,-0.01258861,-1.379609,-1.5765997,0.3577536,-0.106295705,-0.14325678,1.1581136,0.45811585
-0.2,0.0,1.4999999999999998,0.5235987755982988,0.5235987755982988,0,1.5403076,0.36870787,0.43571478,0.43650934,0.07306366,0.11930558,-0.018139077,-2.4800699,-1.4813483,0.015722677,-0.15007189,0.021498332,1.1453114,0.79257876
-0.2,0.0,1.4999999999999998,0.5235987755982988,0.5235987755982988,0,1.5391834,0.36837372,0.43403244,0.43636125,0.07467913,0.12042745,-0.11533023,-1.5065552,-1.436211,0.25979495,-0.03748232,-0.07424964,1.1785164,0.51642394
-0.2,0.0,1.4999999999999998,0.5235987755982988,0.5235987755982988,0,1.5424093,0.36889642,0.43381888,0.43839374,0.07463615,0.11970275,-0.124284856,-1.6150366,-1.4198236,-0.07163624,-0.08857268,-0.040436964,1.1833626,0.4385262
-0.2,0.0,1.4999999999999998,0.5235987755982988,0.5235987755982988,0,1.5412617,0.36833715,0.43405747,0.43694383,0.064367235,0.1181953,-0.15069133,-1.6859509,-1.5467265,-0.012637963,-0.11157578,0.049952753,1.1926938,-0.56492597
-0.2,0.0,1.4999999999999998,0.5235987755982988,0.5235987755982988,0,1.5416361,0.36865792,0.43366975,0.43676686,0.0763166,0.120438516,-0.15832692,-1.0905792,-1.3907454,0.08516496,-0.1073003,0.01833126,1.0784172,0.13099945
-0.2,0.0,1.4999999999999998,0.5235987755982988,0.5235987755982988,0,1.5416241,0.3683793,0.43570086,0.43566707,0.081633955,0.12133063,-0.05727158,-1.0441995,-1.4806114,-0.18966798,-0.16503884,-0.24923709,1.1091094,-0.28495064
-0.2,0.0,1.4999999999999998,0.5235987755982988,0.5235987755982988,0,1.5408493,0.36997905,0.43280116,0.43742394,0.07044745,0.12179118,-0.073877774,-2.1605911,-1.5119284,0.13713653,-0.11256754,-0.1364663,1.0424739,0.50740594
-0.2,0.0,1.4999999999999998,0.5235987755982988,0.5235987755982988,0,1.5406752,0.36919567,0.43372467,0.43676868,0.06944462,0.11765133,-0.0776308,-1.6496966,-1.5847828,-0.0044117705,-0.17703125,0.0017649073,1.1214497,0.24863559
-0.2,0.0,1.4999999999999998,0.5235987755982988,0.5235987755982988,0,1.5409696,0.36954856,0.4332346,0.4377197,0.0822633,0.12127215,-0.11108181,-1.4559728,-1.5285167,0.028423568,0.032741494,-0.14353986,1.1009686,0.34051383
-0.2,0.0,1.4999999999999998,0.5235987755982988,0.5235987755982988,0,1.5424342,0.36859748,0.43446386,0.43746302,0.079801366,0.12135334,-0.051330864,-1.4794878,-1.4980567,0.25807735,-0.06513831,-0.029974783,1.216583,-0.053540938
-0.2,0.0,1.4999999999999998,0.5235987755982988,0.5235987755982988,0,1.5422544,0.36846632,0.43595555,0.437615,0.07472443,0.118569,-0.03537917,-1.917536,-1.4389952,0.19530734,-0.08754837,0.04515654,1.083306,0.16956559
-0.2,0.0,1.4999999999999998,0.5235987755982988,0.5235987755982988,0,1.5414443,0.36871997,0.4350574,0.43656576,0.0721831,0.11989659,-0.056067556,-1.3195561,-1.5683385,-0.26941907,-0.07511177,-0.29650882,1.1060151,-0.0080337105
-0.2,0.0,1.4999999999999998,0.5235987755982988,0.5235987755982988,0,1.5401196,0.36852863,0.4341791,0.43750903,0.073027976,0.11905733,-0.16237237,-0.8786181,-1.4521836,0.023607856,-0.037721325,-0.23902082,1.1863617,0.6657099
-0.2,0.0,1.4999999999999998,0.5235987755982988,0.5235987755982988,0,1.541043,0.3698425,0.43412396,0.43763936,0.075646125,0.118530616,-0.23405643,-1.8942701,-1.4840168,0.37054262,-0.019824997,-0.09127036,1.1071553,0.7720988
-0.2,0.0,1.4999999999999998,0.5235987755982988,0.5235987755982988,0,1.5419081,0.3688134,0.42998835,0.43667608,0.07129156,0.1199892,-0.08172181,-1.579673,-1.593611,-0.23217554,-0.028034661,-0.10534565,1.2001113,0.053234126
-0.2,0.0,1.4999999999999998,0.5235987755982988,0.5235987755982988,0,1.5410767,0.36894122,0.43293962,0.4378731,0.075962745,0.1207023,-0.0361863,-1.6609762,-1.6354576,0.25529256,-0.060632553,-0.17207451,1.1337639,0.7196784
-0.2,0.0,1.4999999999999998,0.5235987755982988,0.5235987755982988,0,1.5408748,0.3695456,0.43218967,0.43814132,0.07504697,0.12094094,-0.083534844,-0.84818196,-1.4384397,-0.04473757,0.020532588,-0.0060712644,1.1143609,0.29204452
-0.2,0.0,1.4999999999999998,0.5235987755982988,0.5235987755982988,0,1.5400474,0.3679083,0.43299362,0.43698433,0.07833531,0.12102244,-0.13250394,-1.0968889,-1.4916419,-0.016145416,-0.068391636,-0.10170935,1.0887682,0.13320331
-0.2,0.0,1.4999999999999998,0.5235987755982988,0.5235987755982988,0,1.5409919,0.3679025,0.43294796,0.4381262,0.07614133,0.12011506,-0.09859146,-1.2802612,-1.616403,0.0872261,-0.060424034,-0.07049898,1.0742667,0.4684547
-0.2,0.0,1.4999999999999998,0.5235987755982988,0.5235987755982988,0,1.5392864,0.3693443,0.43197057,0.4371052,0.07463248,0.119950555,-0.05824194,-1.566648,-1.3214483,0.2613889,-0.09688604,-0.30453044,1.1495069,0.3694696
-0.2,0.0,1.4999999999999998,0.5235987755982988,0.5235987755982988,0,1.5413321,0.36741924,0.43596223,0.43807212,0.07516364,0.11935792,-0.089891456,-0.8895747,-1.4832258,0.20397179,-0.09492089,-0.16310912,1.1893799,0.020780208
-0.2,0.0,1.4999999999999998,0.5235987755982988,0.5235987755982988,0,1.5411463,0.36966884,0.4339289,0.43749097,0.075629964,0.1206807,-0.074413806,-1.876166,-1.4987373,0.08415644,-0.12196111,-0.1729218,1.1670462,0.86017877
-0.2,0.0,1.4999999999999998,0.5235987755982988,0.5235987755982988,0,1.5422591,0.36977723,0.4321637,0.43646392,0.06304098,0.11651018,0.0014519754,-1.5938624,-1.5319127,0.08177196,-0.056113563,-0.019369856,1.0936525,-0.2947334
-0.2,0.0,1.4999999999999998,0.5235987755982988,0.5235987755982988,0,1.5404832,0.36799246,0.43453652,0.43722576,0.07280172,0.11985708,-0.12538688,-1.8374121,-1.5847932,-0.06471279,0.007998103,-0.07651595,1.0971646,0.60596263
