sanky1234/BimanualDexCatch/isaacgymenvs/cem_results/football_pose_-0.2_0.10000000000000003_1.0999999999999999_-0.5235987755982988_-0.5235987755982988_0_2025-05-25.csv
x,y,z,roll,pitch,yaw,robot1/joint1,robot1/joint2,robot1/joint3,robot1/joint4,robot1/joint5,robot1/joint6,robot1/joint7,robot2/joint1,robot2/joint2,robot2/joint3,robot2/joint4,robot2/joint5,robot2/joint6,robot2/joint7
-0.2,0.10000000000000003,1.0999999999999999,-0.5235987755982988,-0.5235987755982988,0,1.24075,0.5777049,0.5259369,0.28583556,0.28615788,0.68243575,2.1117382,-0.4223931,-1.4186635,0.6458049,0.23085125,0.23454227,0.82324564,0.083728835
-0.2,0.10000000000000003,1.0999999999999999,-0.5235987755982988,-0.5235987755982988,0,1.2418071,0.5785565,0.52621126,0.2859096,0.28473288,0.68638855,2.4321182,-1.243479,-1.6417476,-0.18171114,-0.03635853,0.03834209,0.7452172,0.1033179
-0.2,0.10000000000000003,1.0999999999999999,-0.5235987755982988,-0.5235987755982988,0,1.2407696,0.5776609,0.527291,0.28543618,0.28285378,0.6839858,2.016494,-0.8966686,-1.4626611,1.4034661,0.03317924,0.25365645,1.1001626,-0.21493824
-0.2,0.10000000000000003,1.0999999999999999,-0.5235987755982988,-0.5235987755982988,0,1.2428163,0.5776526,0.52669954,0.28585348,0.28523833,0.68209225,2.3802593,-0.39018786,-1.524981,0.52677524,-0.047588833,-0.08186392,0.77560717,-0.17103319
-0.2,0.10000000000000003,1.0999999999999999,-0.5235987755982988,-0.5235987755982988,0,1.242285,0.5784707,0.5269262,0.28439993,0.28029892,0.6824727,2.2565765,-0.39539555,-1.4932168,-0.2412487,0.012238831,-0.17462124,0.980124,-0.64205813
-0.2,0.10000000000000003,1.0999999999999999,-0.5235987755982988,-0.5235987755982988,0,1.2406615,0.5772491,0.5279427,0.28540805,0.28363922,0.6834228,2.2669408,-0.44953924,-1.4084169,-0.053968742,0.0709141,0.36212298,0.90763485,-0.35431427
-0.2,0.10000000000000003,1.0999999999999999,-0.5235987755982988,-0.5235987755982988,0,1.2427096,0.5782176,0.52622634,0.28521264,0.2818426,0.68479156,2.0703719,-0.4269551,-1.4337319,-0.06024509,-0.027141217,0.42968836,1.1062605,0.1018153
-0.2,0.10000000000000003,1.0999999999999999,-0.5235987755982988,-0.5235987755982988,0,1.2407311,0.57779825,0.5261307,0.28580663,0.28545806,0.68350697,2.1208277,-0.5312202,-1.4936621,0.33896875,0.039623126,0.080966406,1.146118,-0.2628377
-0.2,0.10000000000000003,1.0999999999999999,-0.5235987755982988,-0.5235987755982988,0,1.2424306,0.57793164,0.526621,0.28703162,0.28590116,0.6813723,1.8304086,-0.33488584,-1.5277377,-0.10037908,0.09199291,0.18238021,0.64990026,-0.35679293
-0.2,0.10000000000000003,1.0999999999999999,-0.5235987755982988,-0.5235987755982988,0,1.2405803,0.57713246,0.527001,0.2856184,0.2843559,0.68099535,2.308876,-0.79550207,-1.371355,0.049867056,0.053123485,-0.18985683,1.0354452,-0.5574072
-0.2,0.10000000000000003,1.0999999999999999,-0.5235987755982988,-0.5235987755982988,0,1.2419078,0.5778528,0.52661365,0.28562,0.28253338,0.6837416,1.9071811,-0.28218478,-1.6220022,0.063561425,0.123959,-0.3046163,1.3210324,-0.10437389
-0.2,0.10000000000000003,1.0999999999999999,-0.5235987755982988,-0.5235987755982988,0,1.2402322,0.57748,0.5266765,0.28584126,0.28186953,0.6801067,1.968024,-0.7328108,-1.2894644,0.903664,-0.055633236,-0.4045472,1.1077398,-0.2843469
-0.2,0.10000000000000003,1.0999999999999999,-0.5235987755982988,-0.5235987755982988,0,1.2415885,0.5778593,0.52540845,0.2860669,0.28381824,0.67926556,2.1914964,-0.2677078,-1.4027933,0.75627625,-0.15668517,0.27810127,1.1116524,-0.5049509
-0.2,0.10000000000000003,1.0999999999999999,-0.5235987755982988,-0.5235987755982988,0,1.2428621,0.57747054,0.52556854,0.28536105,0.28457972,0.68095845,2.2472737,-0.07441605,-1.3384186,0.3271819,-0.16560194,0.40755492,1.171181,0.07342987
-0.2,0.10000000000000003,1.0999999999999999,-0.5235987755982988,-0.5235987755982988,0,1.2441626,0.57772994,0.52616155,0.28540838,0.28249136,0.6820689,2.2395725,-1.0913124,-1.4432645,1.0188211,0.07265242,0.55602515,0.9092382,-0.19788292
-0.2,0.10000000000000003,1.0999999999999999,-0.5235987755982988,-0.5235987755982988,0,1.2435889,0.57796365,0.5261376,0.2857817,0.2842162,0.682909,2.370998,0.08682658,-1.3646394,0.21630272,-0.02459008,-0.0027844454,1.1711336,-0.052231014
-0.2,0.10000000000000003,1.0999999999999999,-0.5235987755982988,-0.5235987755982988,0,1.2433908,0.57756764,0.52572787,0.28555918,0.28336594,0.68554217,2.0181272,-0.7651478,-1.511176,-0.08184824,-0.03634038,0.06913147,0.9569833,0.3279167
-0.2,0.10000000000000003,1.0999999999999999,-0.5235987755982988,-0.5235987755982988,0,1.242947,0.57765394,0.52680624,0.28579947,0.28208658,0.6819638,2.2367942,-0.8240085,-1.3974535,0.01714494,0.05625117,0.18789548,0.71763563,-0.037908223
-0.2,0.10000000000000003,1.0999999999999999,-0.5235987755982988,-0.5235987755982988,0,1.2404583,0.5781567,0.5257174,0.28599092,0.28247663,0.6814574,1.8804828,-1.019763,-1.4361124,0.26429766,-0.04480711,-0.37550035,1.2922609,-0.065332554
-0.2,0.10000000000000003,1.0999999999999999,-0.5235987755982988,-0.5235987755982988,0,1.2394998,0.5777121,0.52671474,0.28607973,0.28542185,0.68211895,2.3404768,0.16324188,-1.4626544,0.65436184,0.091036566,0.44755125,0.81883883,-0.50689024
-0.2,0.10000000000000003,1.0999999999999999,-0.5235987755982988,-0.5235987755982988,0,1.24297,0.57811594,0.52599204,0.28611994,0.28386548,0.6798174,2.0594497,0.13166621,-1.3138561,-0.014450692,0.22718534,0.07464365,1.1822673,0.18786152
-0.2,0.10000000000000003,1.0999999999999999,-0.5235987755982988,-0.5235987755982988,0,1.2414211,0.57814276,0.52605534,0.28584334,0.28338313,0.68622494,1.8658124,-0.44544545,-1.4739937,0.41831616,0.020959599,0.053520594,0.98770964,0.2204326
-0.2,0.10000000000000003,1.0999999999999999,-0.5235987755982988,-0.5235987755982988,0,1.2447073,0.5785684,0.52687365,0.2856156,0.27930194,0.6824628,2.0479841,-0.86606276,-1.3219787,0.005305535,0.015704198,-0.17061223,0.92796683,-0.6515318
-0.2,0.10000000000000003,1.0999999999999999,-0.5235987755982988,-0.5235987755982988,0,1.2423697,0.5786578,0.5277286,0.28567508,0.28312984,0.6830484,2.5148442,-0.18226773,-1.5102478,0.09580486,0.043155253,0.5510198,1.013983,-0.08032907
-0.2,0.10000000000000003,1.0999999999999999,-0.5235987755982988,-0.5235987755982988,0,1.2410802,0.57752794,0.5278343,0.28571126,0.28114605,0.68465513,1.9741099,-0.19961219,-1.309404,0.27756503,-0.19960591,-0.022222316,0.9679901,-0.73589146
-0.2,0.10000000000000003,1.0999999999999999,-0.5235987755982988,-0.5235987755982988,0,1.2404017,0.5783661,0.5275889,0.285248,0.28574052,0.683532,2.4066622,-0.12868541,-1.4461061,0.13414972,0.12220582,-0.23573868,0.8094981,-0.12436292
-0.2,0.10000000000000003,1.0999999999999999,-0.5235987755982988,-0.5235987755982988,0,1.241525,0.57770765,0.5261733,0.2856894,0.2872637,0.6821191,1.9002619,-0.90674824,-1.3016098,0.49677566,-0.015989967,-0.2594316,1.0128022,-0.034161117
-0.2,0.10000000000000003,1.0999999999999999,-0.5235987755982988,-0.5235987755982988,0,1.2427453,0.57809526,0.5267982,0.28556615,0.28016585,0.6821864,1.9382757,0.021929892,-1.2333374,0.63485545,-0.015455916,0.26363593,1.0370007,-0.15987533
-0.2,0.10000000000000003,1.0999999999999999,-0.5235987755982988,-0.5235987755982988,0,1.240356,0.5789385,0.52636546,0.28535402,0.2829531,0.6774361,2.1778612,-0.53484416,-1.6265134,0.041148074,-0.21846794,-0.036838133,1.2245808,-0.018843712
-0.2,0.10000000000000003,1.0999999999999999,-0.5235987755982988,-0.5235987755982988,0,1.243875,0.5772032,0.5262216,0.28585446,0.28839338,0.68038803,2.157848,0.16051732,-1.3539944,0.8835087,0.03573264,-0.2805393,0.97220296,-0.27411473
-0.2,0.10000000000000003,1.0999999999999999,-0.5235987755982988,-0.5235987755982988,0,1.2427763,0.5776223,0.5266167,0.28676766,0.28247002,0.6862165,2.329219,-0.17804195,-1.4486314,-0.1268958,0.02700521,0.17049824,0.9200353,-0.108572856
-0.2,0.10000000000000003,1.0999999999999999,-0.5235987755982988,-0.5235987755982988,0,1.241814,0.5776576,0.52709484,0.28489074,0.28827545,0.6808175,2.0343456,-0.3373705,-1.5622137,0.86950713,0.08152015,-0.41895112,1.2840073,-0.23117687
-0.2,0.10000000000000003,1.0999999999999999,-0.5235987755982988,-0.5235987755982988,0,1.2421612,0.5785109,0.52590805,0.28524858,0.2807195,0.6805619,2.5435627,-0.28011075,-1.4322584,-0.050829466,-0.14808837,-0.43223265,0.8117868,0.15540512
-0.2,0.10000000000000003,1.0999999999999999,-0.5235987755982988,-0.5235987755982988,0,1.2411767,0.578035,0.525739,0.28517786,0.2866795,0.6815894,2.0038702,-0.11719972,-1.3741791,1.335017,-0.026735146,0.1834291,0.8928975,0.056715716
-0.2,0.10000000000000003,1.0999999999999999,-0.5235987755982988,-0.5235987755982988,0,1.2453542,0.57765216,0.52684265,0.28489658,0.2868204,0.67985123,2.0310361,0.77632403,-1.4441686,0.49979287,0.06346531,-0.15052308,0.88966376,-0.30781263
-0.2,0.10000000000000003,1.0999999999999999,-0.5235987755982988,-0.5235987755982988,0,1.2407506,0.57739514,0.5257058,0.28629145,0.2839592,0.68335396,2.4268806,-0.05400904,-1.5691386,0.9298566,-0.106547624,-0.47738662,0.7982348,-0.22279146
-0.2,0.10000000000000003,1.0999999999999999,-0.5235987755982988,-0.5235987755982988,0,1.2418768,0.5780402,0.5261422,0.28563577,0.28306687,0.68421805,2.442619,-0.5050995,-1.4970416,-0.08152305,-0.34122205,-0.010099681,0.91909987,-0.30674422
-0.2,0.10000000000000003,1.0999999999999999,-0.5235987755982988,-0.5235987755982988,0,1.2414273,0.5776169,0.5272757,0.28551754,0.2842156,0.6816425,2.3161957,-0.16950037,-1.4141495,0.4043804,0.12222067,0.056185983,1.1204578,-0.022501525
-0.2,0.10000000000000003,1.0999999999999999,-0.5235987755982988,-0.5235987755982988,0,1.2415687,0.57719857,0.52673376,0.28625736,0.2797227,0.68355876,1.9035196,-0.7376458,-1.3478539,1.1154236,0.14729325,-0.33692387,1.138337,-0.9625088
-0.2,0.10000000000000003,1.0999999999999999,-0.5235987755982988,-0.5235987755982988,0,1.2442576,0.57780725,0.52586347,0.28556406,0.2801326,0.67874265,1.8691304,-0.18537433,-1.3640034,0.17759477,0.10137584,0.41554365,1.3129232,-0.1859104
-0.2,0.10000000000000003,1.0999999999999999,-0.5235987755982988,-0.5235987755982988,0,1.2442085,0.57742065,0.5284075,0.2860324,0.28328177,0.6837073,1.8096734,-0.21334486,-1.4420966,0.6181894,0.1825088,0.16404854,0.896577,0.7855221
-0.2,0.10000000000000003,1.0999999999999999,-0.5235987755982988,-0.5235987755982988,0,1.2404423,0.5771798,0.5261776,0.28562868,0.28107825,0.6805145,2.3705292,-0.6852461,-1.5149832,1.2554028,-0.057862766,0.39937964,1.0121832,-0.24127784
-0.2,0.10000000000000003,1.0999999999999999,-0.5235987755982988,-0.5235987755982988,0,1.2434579,0.5781533,0.5266557,0.28502774,0.28151292,0.68534374,2.1715195,-0.94706935,-1.3442549,0.399977,-0.13220392,0.5691128,1.4212492,-0.047442846
-0.2,0.10000000000000003,1.0999999999999999,-0.5235987755982988,-0.5235987755982988,0,1.2437234,0.57782507,0.52698094,0.28571543,0.27951354,0.6821725,2.154569,-0.63622963,-1.4654073,0.46869698,-0.100502364,-0.6590783,0.96677756,-0.17593159
-0.2,0.10000000000000003,1.0999999999999999,-0.5235987755982988,-0.5235987755982988,0,1.2424719,0.57794595,0.52760077,0.286169,0.28189385,0.68171704,2.0293062,-1.0557812,-1.426028,0.029029919,-0.064339295,-0.13733578,1.1950809,-0.35001683
-0.2,0.10000000000000003,1.0999999999999999,-0.5235987755982988,-0.5235987755982988,0,1.2407057,0.5781709,0.5259996,0.28537202,0.28273904,0.681674,2.54313,-0.57526445,-1.4954453,0.52978146,0.09639961,0.35866943,0.92722493,0.40722322
-0.2,0.10000000000000003,1.0999999999999999,-0.5235987755982988,-0.5235987755982988,0,1.2422165,0.577836,0.52750194,0.285466,0.2862134,0.68337435,2.0770025,-0.034156077,-1.5027008,0.86653084,-0.050402205,-0.57523865,0.951291,-0.5923383
-0.2,0.10000000000000003,1.0999999999999999,-0.5235987755982988,-0.5235987755982988,0,1.2407719,0.5779318,0.5271727,0.28553966,0.28056395,0.6853994,1.8283004,-0.2597857,-1.4912798,0.9431239,-0.17105094,-0.35400793,0.8158497,0.16484125
-0.2,0.10000000000000003,1.0999999999999999,-0.5235987755982988,-0.5235987755982988,0,1.2430207,0.5781175,0.52736694,0.28578696,0.28235647,0.6782669,2.2434654,-0.91893345,-1.4567028,0.7940851,-0.04843195,-0.1949013,1.1455612,0.050190657
-0.2,0.10000000000000003,1.0999999999999999,-0.5235987755982988,-0.5235987755982988,0,1.2430427,0.578196,0.52669156,0.2861621,0.2812744,0.684365,2.6175272,-0.40436244,-1.5793912,0.22720899,-0.03806777,0.45599937,0.9169389,-0.40842086
-0.2,0.10000000000000003,1.0999999999999999,-0.5235987755982988,-0.5235987755982988,0,1.243488,0.5771565,0.5270694,0.28624448,0.28179312,0.68265396,2.4118464,-0.56985646,-1.4694831,1.069149,0.041560307,0.106764644,1.1666697,-0.63681334
-0.2,0.10000000000000003,1.0999999999999999,-0.5235987755982988,-0.5235987755982988,0,1.2447202,0.57807004,0.5284056,0.28584424,0.282802,0.68326616,2.347705,-0.735874,-1.2411768,0.37925205,-0.28567496,0.068704516,1.1824074,-0.36144698
-0.2,0.10000000000000003,1.0999999999999999,-0.5235987755982988,-0.5235987755982988,0,1.2443748,0.57772774,0.5253784,0.28657615,0.28252792,0.68312913,1.9961282,0.30085647,-1.4072042,-0.3574271,-0.21445611,0.23495111,1.1231177,0.04973786
-0.2,0.10000000000000003,1.0999999999999999,-0.5235987755982988,-0.5235987755982988,0,1.2399004,0.57759863,0.52641445,0.2852573,0.28664148,0.6825952,2.5201833,-0.81728965,-1.4777418,0.107003495,-0.00624273,-0.005624768,1.1924472,-0.20210215
-0.2,0.10000000000000003,1.0999999999999999,-0.5235987755982988,-0.5235987755982988,0,1.2425433,0.5781134,0.5255994,0.2850552,0.28528583,0.68145525,2.4504166,-0.5158894,-1.3707082,0.8181759,0.017953496,-0.007942048,1.0495752,-1.1326636
-0.2,0.10000000000000003,1.0999999999999999,-0.5235987755982988,-0.5235987755982988,0,1.2428771,0.57859546,0.52531564,0.28544608,0.28354043,0.6869626,2.1407933,-0.024914427,-1.5496205,0.6359725,-0.0668999,0.15471882,0.9054081,-0.17284144
-0.2,0.10000000000000003,1.0999999999999999,-0.5235987755982988,-0.5235987755982988,0,1.2415175,0.57776845,0.5264042,0.28489056,0.2832524,0.6804663,2.0893655,-0.77400124,-1.4552338,0.8062788,-0.16710849,0.16337126,1.1500553,0.43564063
-0.2,0.10000000000000003,1.0999999999999999,-0.5235987755982988,-0.5235987755982988,0,1.244368,0.578366,0.5248295,0.2848485,0.28364772,0.6818112,1.8840868,-0.65183705,-1.4541551,0.67121196,-0.16279835,0.04600437,0.8017717,0.19716334
-0.2,0.10000000000000003,1.0999999999999999,-0.5235987755982988,-0.5235987755982988,0,1.2433192,0.5782742,0.5275752,0.28621277,0.28495625,0.68669426,2.0857582,-0.46020228,-1.5515972,1.1314534,-0.04863826,-0.1659013,0.89277303,-0.17721148
-0.2,0.10000000000000003,1.0999999999999999,-0.5235987755982988,-0.5235987755982988,0,1.241581,0.57787037,0.52610207,0.2858772,0.28322032,0.6815322,2.196661,0.035621792,-1.6254387,-0.0058134454,-0.09425455,-0.09953773,0.7120941,-0.63856196
-0.2,0.10000000000000003,1.0999999999999999,-0.5235987755982988,-0.5235987755982988,0,1.2407515,0.57746404,0.52509683,0.28562587,0.28523028,0.68263,2.0455902,-0.72866416,-1.5257899,0.30416688,0.07719799,-0.045160547,1.1538619,-0.20758076
-0.2,0.10000000000000003,1.0999999999999999,-0.5235987755982988,-0.5235987755982988,0,1.2453024,0.5779102,0.5245678,0.28546694,0.2840509,0.68087935,2.4789834,-0.51514196,-1.4367669,0.7247269,0.052845288,-0.21840194,1.3991491,0.1786122
-0.2,0.10000000000000003,1.0999999999999999,-0.5235987755982988,-0.5235987755982988,0,1.2425643,0.5780818,0.52601886,0.28517327,0.28007585,0.68526584,2.1767445,-0.5094128,-1.5256633,-0.32171914,-0.0857716,0.29902336,0.83373684,-0.047936432
-0.2,0.10000000000000003,1.0999999999999999,-0.5235987755982988,-0.5235987755982988,0,1.2444963,0.57796943,0.5262774,0.28544062,0.2809667,0.6866327,1.959715,-1.2681667,-1.361283,0.50255215,0.01879568,0.42071605,1.0640279,0.4171951
-0.2,0.10000000000000003,1.0999999999999999,-0.5235987755982988,-0.5235987755982988,0,1.2415304,0.5775403,0.5270759,0.28609335,0.2825143,0.6804851,2.3991065,-0.1805913,-1.4833523,0.5654466,-0.0061863507,-0.15634586,0.8313822,-0.72380346
-0.2,0.10000000000000003,1.0999999999999999,-0.5235987755982988,-0.5235987755982988,0,1.2417948,0.57822186,0.52620834,0.2856192,0.28771698,0.6812829,1.3830727,-0.7945529,-1.5191286,-0.051869966,-0.19402769,0.38976228,0.9358676,0.12502167
-0.2,0.10000000000000003,1.0999999999999999,-0.5235987755982988,-0.5235987755982988,0,1.2452906,0.57841617,0.5258113,0.28612024,0.28346118,0.68269557,1.9543197,-0.21717294,-1.4666951,1.0421579,-0.13346435,0.27405566,0.8948559,0.5502035
-0.2,0.10000000000000003,1.0999999999999999,-0.5235987755982988,-0.5235987755982988,0,1.239623,0.5780347,0.52774614,0.28496882,0.28624955,0.6799693,2.2234292,-0.2266335,-1.550041,-0.1289159,-0.021885565,-0.015158214,1.2136391,-0.82251585
-0.2,0.10000000000000003,1.0999999999999999,-0.5235987755982988,-0.5235987755982988,0,1.2437174,0.5791574,0.52618617,0.28569517,0.28445646,0.684127,2.318387,0.14547047,-1.4246285,0.6327278,-0.14084803,0.28957987,0.98502,-0.49809667
-0.2,0.10000000000000003,1.0999999999999999,-0.5235987755982988,-0.5235987755982988,0,1.2442231,0.5774591,0.52591735,0.2857941,0.28217867,0.68146926,1.7392141,-0.001639436,-1.4726726,0.65919346,-0.003546126,-0.0096523985,0.87351954,0.019041374
-0.2,0.10000000000000003,1.0999999999999999,-0.5235987755982988,-0.5235987755982988,0,1.2417793,0.5781314,0.5265715,0.28550473,0.27972004,0.68046296,2.1538649,-0.8524251,-1.441453,1.1366688,0.023769528,-0.077031784,0.8751534,-0.44169614
-0.2,0.10000000000000003,1.0999999999999999,-0.5235987755982988,-0.5235987755982988,0,1.2420155,0.578408,0.5257171,0.286078,0.2810514,0.6845758,1.9950364,-0.06495609,-1.5587231,0.64920497,-0.1485149,0.3364993,1.2108692,0.45941058
-0.2,0.10000000000000003,1.0999999999999999,-0.5235987755982988,-0.5235987755982988,0,1.2416567,0.5779459,0.5270452,0.28566325,0.28581408,0.68282264,2.4832122,-0.4124486,-1.4057615,1.0574071,-0.04800012,-0.01627409,0.9549632,-0.6146554
-0.2,0.10000000000000003,1.0999999999999999,-0.5235987755982988,-0.5235987755982988,0,1.2430922,0.5778983,0.52633446,0.28602454,0.28171313,0.6819726,2.4621837,-1.0639449,-1.4415137,1.6599681,0.20620641,0.012335152,1.166819,-0.37043747
-0.2,0.10000000000000003,1.0999999999999999,-0.5235987755982988,-0.5235987755982988,0,1.2431867,0.5779368,0.525377,0.2859171,0.28182262,0.6788716,1.9805027,-0.58901626,-1.3642721,-0.086084075,0.08155874,-0.12369418,1.056997,0.73760784
-0.2,0.10000000000000003,1.0999999999999999,-0.5235987755982988,-0.5235987755982988,0,1.2437139,0.57757384,0.5261151,0.28572747,0.28621265,0.68194723,2.0509562,-0.7221298,-1.4852464,0.50243235,-0.017464787,0.13950191,1.0251929,0.24835913
-0.2,0.10000000000000003,1.0999999999999999,-0.5235987755982988,-0.5235987755982988,0,1.2417207,0.5785576,0.526605,0.2862821,0.27838123,0.68016136,2.291466,-1.3358678,-1.5970858,0.68954366,-0.061014917,-0.20543225,0.9415337,-0.11825948
-0.2,0.10000000000000003,1.0999999999999999,-0.5235987755982988,-0.5235987755982988,0,1.2437685,0.5787663,0.52378917,0.2856032,0.2841356,0.682053,2.3357332,0.032584593,-1.3310218,-0.352761,0.14151321,0.03160169,0.96053636,0.12361017
-0.2,0.10000000000000003,1.0999999999999999,-0.5235987755982988,-0.5235987755982988,0,1.2431345,0.57790446,0.52598757,0.28602687,0.28423938,0.68196887,2.3364213,0.2688874,-1.4478267,0.73571974,-0.27312765,0.17667867,1.3752261,-0.4543368
-0.2,0.10000000000000003,1.0999999999999999,-0.5235987755982988,-0.5235987755982988,0,1.2404094,0.5782193,0.5266539,0.28568357,0.28151593,0.6808463,1.8016075,-0.5913513,-1.5841155,0.62053835,-0.028762378,-0.23913768,0.863822,-0.40611428
-0.2,0.10000000000000003,1.0999999999999999,-0.5235987755982988,-0.5235987755982988,0,1.2415591,0.5779957,0.52742505,0.2859315,0.28016967,0.6823922,2.5818477,-0.6309333,-1.493272,0.60585177,0.12215251,-0.07567586,1.0954627,-0.73212683
-0.2,0.10000000000000003,1.0999999999999999,-0.5235987755982988,-0.5235987755982988,0,1.2412355,0.57785285,0.5254109,0.28571284,0.2874197,0.6817221,2.3825045,-0.18517926,-1.4912853,0.23081186,-0.06434458,-0.13513876,1.1063194,-0.2569828
-0.2,0.10000000000000003,1.0999999999999999,-0.5235987755982988,-0.5235987755982988,0,1.2419082,0.57734257,0.5259629,0.28575757,0.28214788,0.68292046,2.1808643,-1.0680089,-1.5434299,0.013476187,-0.0152938925,-0.08258643,1.0997841,0.19673313
-0.2,0.10000000000000003,1.0999999999999999,-0.5235987755982988,-0.5235987755982988,0,1.2397097,0.57810813,0.52690506,0.2855287,0.28056863,0.6829777,2.316225,-0.17703134,-1.5048324,0.8162174,-0.15897626,0.04462396,1.2867596,-0.11049091
-0.2,0.10000000000000003,1.0999999999999999,-0.5235987755982988,-0.5235987755982988,0,1.2437054,0.57893956,0.52713734,0.28593242,0.28245693,0.6766414,2.0913792,-0.43908888,-1.3095397,1.0872157,-0.14042968,0.3040662,0.9191429,-0.27597806
-0.2,0.10000000000000003,1.0999999999999999,-0.5235987755982988,-0.5235987755982988,0,1.2411298,0.5784069,0.5282611,0.28612715,0.281259,0.67880017,2.2254062,-0.6715022,-1.5182554,-0.027404122,-0.10941336,0.2907613,0.84736955,0.14331831
-0.2,0.10000000000000003,1.0999999999999999,-0.5235987755982988,-0.5235987755982988,0,1.243792,0.5775933,0.52679,0.28561375,0.28211227,0.677696,2.2256014,-0.8789536,-1.5560825,-1.0093004,-0.029962761,0.31998336,1.1209387,0.20472088
-0.2,0.10000000000000003,1.0999999999999999,-0.5235987755982988,-0.5235987755982988,0,1.2412183,0.57826215,0.52660096,0.2858247,0.28164735,0.6839407,2.330912,-0.9270529,-1.5196282,0.10970253,-0.14278366,0.26269978,0.97506046,-0.61837906
-0.2,0.10000000000000003,1.0999999999999999,-0.5235987755982988,-0.5235987755982988,0,1.2413822,0.57763547,0.5243784,0.28621852,0.2831143,0.6828403,2.4667184,0.20417044,-1.5353687,-0.21262671,-0.045233805,-0.3636447,1.1264768,-0.48318198
-0.2,0.10000000000000003,1.0999999999999999,-0.5235987755982988,-0.5235987755982988,0,1.2433437,0.5782461,0.5257266,0.2858499,0.28020614,0.6836679,2.547851,-0.83032346,-1.4895502,0.12724672,-0.26250434,0.09615136,1.0725672,-0.5992202
-0.2,0.10000000000000003,1.0999999999999999,-0.5235987755982988,-0.5235987755982988,0,1.244512,0.578013,0.52515817,0.2860243,0.28772864,0.6804239,2.0310385,-0.07714343,-1.511228,1.0454874,-0.17174597,0.3564184,1.0372404,0.06677602
-0.2,0.10000000000000003,1.0999999999999999,-0.5235987755982988,-0.5235987755982988,0,1.2403072,0.5787793,0.5263106,0.28525445,0.28498295,0.68445635,2.6377594,-0.51041406,-1.5510178,1.0329949,-0.1176885,-0.18931317,1.025959,-0.15594403
-0.2,0.10000000000000003,1.0999999999999999,-0.5235987755982988,-0.5235987755982988,0,1.2458627,0.5783568,0.52542543,0.2859448,0.28137085,0.68455595,1.878047,-0.27187946,-1.3542001,0.7249982,-0.025373533,0.03340381,1.4323592,-0.44554794
-0.2,0.10000000000000003,1.0999999999999999,-0.5235987755982988,-0.5235987755982988,0,1.2433445,0.57805324,0.5280843,0.28562668,0.27739573,0.6813608,2.2290006,-0.81636095,-1.600162,0.40093556,0.08167057,0.087716945,1.0381937,-0.50069475
-0.2,0.10000000000000003,1.0999999999999999,-0.5235987755982988,-0.5235987755982988,0,1.2429422,0.5776653,0.5260074,0.28637666,0.28199965,0.6832821,2.1537478,-0.92675006,-1.4554121,-0.41749462,-0.032375075,0.03199768,1.155175,-0.024050413
-0.2,0.10000000000000003,1.0999999999999999,-0.5235987755982988,-0.5235987755982988,0,1.2448212,0.5781059,0.5271782,0.28608125,0.27843863,0.68135995,1.7811165,-0.73995227,-1.451158,0.6101228,0.07117578,-0.043974582,1.1915333,0.9168151
-0.2,0.10000000000000003,1.0999999999999999,-0.5235987755982988,-0.5235987755982988,0,1.2421951,0.57838076,0.5268614,0.28593856,0.28231725,0.68264514,2.745919,-0.6722958,-1.4753735,1.2193161,-0.07839714,0.41805604,1.1661607,-0.4932512
-0.2,0.10000000000000003,1.0999999999999999,-0.5235987755982988,-0.5235987755982988,0,1.2454364,0.57848233,0.5269341,0.28543296,0.27975368,0.683897,2.0513728,-0.3160932,-1.5421326,0.24699166,-0.024745222,0.22314526,1.0965545,0.36596212
-0.2,0.10000000000000003,1.0999999999999999,-0.5235987755982988,-0.5235987755982988,0,1.242277,0.5788475,0.5268397,0.2860482,0.2856569,0.68757766,2.0288968,-0.45010853,-1.4233838,-0.036085647,-0.096175455,0.4199756,0.97583467,0.23474216
-0.2,0.10000000000000003,1.0999999999999999,-0.5235987755982988,-0.5235987755982988,0,1.2430679,0.57831407,0.5269616,0.28505743,0.2836553,0.68342793,2.4230938,-0.81899256,-1.4182374,-0.4170784,-0.07615535,0.22546881,0.9358345,-0.68420225
-0.2,0.10000000000000003,1.0999999999999999,-0.5235987755982988,-0.5235987755982988,0,1.242306,0.5772541,0.5261172,0.28618962,0.28291345,0.67929316,2.0213802,-0.94912344,-1.405044,0.52255803,0.05197655,-0.19637105,0.70743483,-0.3700058
-0.2,0.10000000000000003,1.0999999999999999,-0.5235987755982988,-0.5235987755982988,0,1.2432518,0.57849485,0.525528,0.28506067,0.27890766,0.68543744,1.8040802,-0.22770482,-1.3759735,0.65019524,-0.066512555,0.25544187,0.65175,-0.69406575
-0.2,0.10000000000000003,1.0999999999999999,-0.5235987755982988,-0.5235987755982988,0,1.2415463,0.5779409,0.52674896,0.28482226,0.28185844,0.6820526,2.378222,0.059445284,-1.3946761,0.7170969,-0.04838046,0.5248239,0.68988174,0.18897064
-0.2,0.10000000000000003,1.0999999999999999,-0.5235987755982988,-0.5235987755982988,0,1.2433655,0.57808125,0.5279898,0.285182,0.28353256,0.68214023,2.3991935,-0.12746252,-1.4114089,-0.43997943,0.033313107,0.5657191,0.82968,0.2953392
-0.2,0.10000000000000003,1.0999999999999999,-0.5235987755982988,-0.5235987755982988,0,1.2384862,0.578249,0.5256101,0.28597113,0.28272197,0.6824995,2.0457249,0.106004655,-1.3355038,-0.009631349,0.051894303,0.6320612,1.0962954,0.4111327
-0.2,0.10000000000000003,1.0999999999999999,-0.5235987755982988,-0.5235987755982988,0,1.2424269,0.5783309,0.5267247,0.28565198,0.28046033,0.68264675,2.0802352,0.33028966,-1.4523606,1.0435411,-0.15633935,-0.081729695,0.5333185,0.27388796
-0.2,0.10000000000000003,1.0999999999999999,-0.5235987755982988,-0.5235987755982988,0,1.2415348,0.57858986,0.52573997,0.28532606,0.28159818,0.68472147,2.1726253,-0.45439145,-1.35622,0.28071934,0.05418343,-0.18676056,0.64090765,-0.9354085
-0.2,0.10000000000000003,1.0999999999999999,-0.5235987755982988,-0.5235987755982988,0,1.2405599,0.57890403,0.52569664,0.28468663,0.2843535,0.68064195,2.0421715,-0.33735007,-1.2703344,0.4839012,0.08887184,-0.05405899,0.962695,0.20681672
-0.2,0.10000000000000003,1.0999999999999999,-0.5235987755982988,-0.5235987755982988,0,1.2410767,0.577938,0.527156,0.28582492,0.2877133,0.6830089,1.8118491,-0.34233034,-1.4100318,-0.38810128,-0.19626059,-0.48952532,0.7952629,0.46134654
-0.2,0.10000000000000003,1.0999999999999999,-0.5235987755982988,-0.5235987755982988,0,1.2427177,0.5778938,0.5263103,0.28614303,0.28089467,0.6805659,1.9607154,-0.6085034,-1.2776928,0.8238247,-0.098251574,-0.67589194,0.89448786,-0.14157122
-0.2,0.10000000000000003,1.0999999999999999,-0.5235987755982988,-0.5235987755982988,0,1.2413725,0.5781295,0.5247985,0.28500253,0.28343537,0.6812284,2.0638547,-0.14018899,-1.538787,0.2814192,-0.056111187,0.44055802,0.75146735,-0.71494067
-0.2,0.10000000000000003,1.0999999999999999,-0.5235987755982988,-0.5235987755982988,0,1.2409738,0.57718086,0.5266661,0.28530854,0.28040168,0.68445283,2.3409975,-0.5122838,-1.4594498,0.58574325,0.14755338,0.11940081,1.3714968,-0.37475908
-0.2,0.10000000000000003,1.0999999999999999,-0.5235987755982988,-0.5235987755982988,0,1.2409879,0.5786831,0.5255185,0.28546187,0.28507707,0.6796212,2.3373497,-0.57865435,-1.4365423,0.10111696,-0.10070682,0.37565473,0.75434613,0.41492903
-0.2,0.10000000000000003,1.0999999999999999,-0.5235987755982988,-0.5235987755982988,0,1.240385,0.5775089,0.52558297,0.28577465,0.28317282,0.6828429,1.8620821,0.33707613,-1.3507218,-0.30519304,-0.027571246,-0.34240624,0.9595689,-0.23072259
-0.2,0.10000000000000003,1.0999999999999999,-0.5235987755982988,-0.5235987755982988,0,1.2412456,0.57766545,0.5259524,0.28589123,0.28857303,0.68275243,2.2802,-0.83850336,-1.3200151,-0.06381967,-0.10458085,0.28294227,0.9720301,0.046407644
-0.2,0.10000000000000003,1.0999999999999999,-0.5235987755982988,-0.5235987755982988,0,1.2402401,0.57881,0.5266638,0.28537184,0.27957416,0.68285686,2.369191,0.586673,-1.3778942,0.65889215,0.0022019937,-0.2875671,0.7959333,-0.51971316
-0.2,0.10000000000000003,1.0999999999999999,-0.5235987755982988,-0.5235987755982988,0,1.2431401,0.57817954,0.52672684,0.28549594,0.2792401,0.68164986,2.01936,-0.81261015,-1.3413949,0.15769133,0.14315672,0.43825677,0.94674295,-0.26822308
-0.2,0.10000000000000003,1.0999999999999999,-0.5235987755982988,-0.5235987755982988,0,1.242905,0.5771617,0.52399296,0.28559464,0.27778745,0.6855187,2.304468,-0.94319546,-1.4428239,0.19484879,-0.049275845,-0.06065933,0.69547564,-0.05574391
-0.2,0.10000000000000003,1.0999999999999999,-0.5235987755982988,-0.5235987755982988,0,1.2412014,0.57746184,0.5255157,0.2862069,0.27883384,0.68022764,2.1126788,-1.2218165,-1.4577498,-0.17501774,-0.18144092,0.19923778,0.99496984,0.53073555
-0.2,0.10000000000000003,1.0999999999999999,-0.5235987755982988,-0.5235987755982988,0,1.241869,0.57794166,0.52716917,0.28503096,0.28726912,0.6767358,2.0038214,-1.1891899,-1.3936336,-0.57712126,0.03608143,0.23121513,0.8436102,-0.8927106
-0.2,0.10000000000000003,1.0999999999999999,-0.5235987755982988,-0.5235987755982988,0,1.2414069,0.57690966,0.5275196,0.28583643,0.28437752,0.6851521,2.2075655,0.2774774,-1.446933,0.34428054,-0.01932299,-0.08717776,0.7921861,0.32161242
-0.2,0.10000000000000003,1.0999999999999999,-0.5235987755982988,-0.5235987755982988,0,1.2435349,0.5772467,0.52599317,0.28594846,0.28395647,0.6780925,2.240339,-0.5194227,-1.2721257,-0.011801487,0.02149935,0.42619646,1.0224634,-0.8099974
-0.2,0.10000000000000003,1.0999999999999999,-0.5235987755982988,-0.5235987755982988,0,1.2413197,0.5777665,0.5255022,0.2854387,0.28499386,0.68361586,2.0687928,-0.48666376,-1.3679789,0.48463213,-0.03755056,-0.011050818,0.8901767,-0.30890033
-0.2,0.10000000000000003,1.0999999999999999,-0.5235987755982988,-0.5235987755982988,0,1.2405685,0.5783539,0.52544904,0.28577927,0.28025156,0.6840755,2.0851839,-0.5280554,-1.3063965,-0.31484807,0.056628928,-0.18816775,1.1127824,-0.16972212
-0.2,0.10000000000000003,1.0999999999999999,-0.5235987755982988,-0.5235987755982988,0,1.2420222,0.5777909,0.5267165,0.28590226,0.28353238,0.6809265,1.9850873,-0.47940028,-1.3613299,0.80857843,0.10273047,0.12589228,0.7948779,-0.004738296
-0.2,0.10000000000000003,1.0999999999999999,-0.5235987755982988,-0.5235987755982988,0,1.2425079,0.5775279,0.5268342,0.28602636,0.2855318,0.68826383,2.186544,-0.9287784,-1.2856053,-0.7076219,0.11771319,-0.0082032615,1.280358,-0.29904807
-0.2,0.10000000000000003,1.0999999999999999,-0.5235987755982988,-0.5235987755982988,0,1.2417061,0.5778201,0.52703637,0.28553656,0.28360978,0.6830961,2.1243968,-0.31292436,-1.4434376,1.0322783,0.05394815,-0.09114589,0.7819538,-0.39103317
-0.2,0.10000000000000003,1.0999999999999999,-0.5235987755982988,-0.5235987755982988,0,1.2416749,0.57795453,0.5262226,0.28635496,0.28432626,0.68224376,2.22942,-0.5397704,-1.3519484,0.94161564,0.1322201,0.057941265,1.3219522,0.043320592
-0.2,0.10000000000000003,1.0999999999999999,-0.5235987755982988,-0.5235987755982988,0,1.2462434,0.57774734,0.5261095,0.285504,0.2853572,0.68457246,1.9580406,-0.5121912,-1.4893923,-0.014700055,-0.08688172,-0.21240048,0.9270043,-0.5567505
-0.2,0.10000000000000003,1.0999999999999999,-0.5235987755982988,-0.5235987755982988,0,1.2421875,0.5781769,0.5267778,0.28628585,0.28922907,0.68192065,2.343539,-0.25810724,-1.3261546,-0.42389464,0.0021257536,-0.116796985,0.79788554,-0.011463255
-0.2,0.10000000000000003,1.0999999999999999,-0.5235987755982988,-0.5235987755982988,0,1.2424548,0.57813054,0.5269213,0.28588545,0.2845183,0.6809875,2.4881742,-0.6959847,-1.6667166,0.8311989,-0.3248142,0.14535184,0.8715328,-0.18876126
-0.2,0.10000000000000003,1.0999999999999999,-0.5235987755982988,-0.5235987755982988,0,1.2403624,0.5778292,0.5269529,0.28601292,0.28267154,0.6831578,1.8522913,-0.3107229,-1.4006236,-0.44253495,0.05974011,-0.13090783,1.2907634,-0.569722
-0.2,0.10000000000000003,1.0999999999999999,-0.5235987755982988,-0.5235987755982988,0,1.2414266,0.57769144,0.5264435,0.2856393,0.2904817,0.6844869,2.292988,-1.013649,-1.6151288,0.4763084,-0.21495539,0.47891814,0.99732274,-0.78502035
-0.2,0.10000000000000003,1.0999999999999999,-0.5235987755982988,-0.5235987755982988,0,1.2423413,0.5785603,0.52679527,0.28527412,0.28348216,0.68071216,2.1028783,-0.49926832,-1.4990773,0.59285027,0.1533424,0.016278181,1.408809,0.017906338
-0.2,0.10000000000000003,1.0999999999999999,-0.5235987755982988,-0.5235987755982988,0,1.2420113,0.5777507,0.5265227,0.2857991,0.27984783,0.68192285,2.041746,-0.725307,-1.4488621,0.3459508,-0.3199826,0.0648515,1.2326906,0.37381065
-0.2,0.10000000000000003,1.0999999999999999,-0.5235987755982988,-0.5235987755982988,0,1.2420577,0.5784222,0.5266467,0.2857771,0.28527266,0.68708587,2.0056958,-0.7009589,-1.4681339,0.10099053,-0.17668547,-0.22112991,0.81428236,-0.3784584
-0.2,0.10000000000000003,1.0999999999999999,-0.5235987755982988,-0.5235987755982988,0,1.2416382,0.5777428,0.52706414,0.28612557,0.2824148,0.68465245,1.8654546,-0.15223728,-1.3876843,0.23214695,0.024539988,0.40735915,1.0670229,-0.29484826
-0.2,0.10000000000000003,1.0999999999999999,-0.5235987755982988,-0.5235987755982988,0,1.2416984,0.57829326,0.52662325,0.28596482,0.2832126,0.6823071,2.2772884,-0.22904722,-1.3875533,-0.5521189,-0.05766976,0.3396741,0.9264007,0.012983529
-0.2,0.10000000000000003,1.0999999999999999,-0.5235987755982988,-0.5235987755982988,0,1.2436295,0.57883155,0.52373457,0.2849857,0.27928582,0.68405706,2.032564,-1.1544043,-1.3491068,0.576651,0.037922703,-0.38231185,1.1537523,-0.17933288
-0.2,0.10000000000000003,1.0999999999999999,-0.5235987755982988,-0.5235987755982988,0,1.241235,0.5780997,0.5251012,0.28536907,0.2812359,0.6847729,2.1604326,-0.05864996,-1.5173885,0.22752029,-0.19847663,0.026766988,1.0270813,-0.10769467
-0.2,0.10000000000000003,1.0999999999999999,-0.5235987755982988,-0.5235987755982988,0,1.242453,0.5778921,0.5277972,0.28582072,0.27926946,0.68239266,2.3117023,-0.37600082,-1.3138199,0.2700771,-0.013604364,-0.3669821,0.85504943,0.26818055
-0.2,0.10000000000000003,1.0999999999999999,-0.5235987755982988,-0.5235987755982988,0,1.241881,0.5775094,0.5263617,0.2855624,0.2822684,0.6831035,2.0527427,-0.6129828,-1.4786024,-0.6115556,-0.21523218,-0.5000683,0.9208677,-0.49195635
-0.2,0.10000000000000003,1.0999999999999999,-0.5235987755982988,-0.5235987755982988,0,1.2430707,0.5786417,0.52479565,0.28496128,0.2839668,0.6848164,2.0703793,-0.9995395,-1.3619171,-0.28079468,-0.11829807,0.38278705,1.2458198,0.18066803
-0.2,0.10000000000000003,1.0999999999999999,-0.5235987755982988,-0.5235987755982988,0,1.2436681,0.5776549,0.524345,0.28525615,0.28841156,0.6831017,2.175562,-0.54302424,-1.448128,-0.42506167,0.0547348,0.045748614,1.01306,-0.33466175
-0.2,0.10000000000000003,1.0999999999999999,-0.5235987755982988,-0.5235987755982988,0,1.2425196,0.57752216,0.52679944,0.28563836,0.2863249,0.68432647,2.1829424,-0.46674934,-1.375341,0.6048909,0.024200916,0.031492095,1.1883421,-0.10603887
-0.2,0.10000000000000003,1.0999999999999999,-0.5235987755982988,-0.5235987755982988,0,1.2422831,0.57705843,0.52643365,0.28595743,0.28389853,0.68606293,1.9849292,0.31868055,-1.5008916,0.6903744,-0.24893132,-0.16616695,1.2322139,-0.9888666
-0.2,0.10000000000000003,1.0999999999999999,-0.5235987755982988,-0.5235987755982988,0,1.241757,0.57704264,0.52585036,0.2856981,0.2843995,0.68101174,1.9252174,-0.087525144,-1.5220535,0.941219,-0.034198154,-0.2860675,1.0388296,-0.4278515
-0.2,0.10000000000000003,1.0999999999999999,-0.5235987755982988,-0.5235987755982988,0,1.2407423,0.5777912,0.52588797,0.28519124,0.2885012,0.6846956,2.31795,-0.7294198,-1.4080663,0.7680752,0.042142514,-0.02986229,0.9052314,-0.9741087
-0.2,0.10000000000000003,1.0999999999999999,-0.5235987755982988,-0.5235987755982988,0,1.242287,0.57799095,0.526515,0.28580436,0.2839453,0.6794842,2.148103,-0.5487897,-1.4558933,-0.21809606,0.036536977,-0.05810523,1.1884726,0.27188912
-0.2,0.10000000000000003,1.0999999999999999,-0.5235987755982988,-0.5235987755982988,0,1.2423177,0.5783037,0.5260491,0.28634313,0.27942902,0.6833429,1.9484235,-0.1838466,-1.4644636,-0.27819556,-0.12019247,0.069039725,0.8791771,0.037983377
-0.2,0.10000000000000003,1.0999999999999999,-0.5235987755982988,-0.5235987755982988,0,1.2443426,0.57770604,0.5261543,0.28558245,0.2836397,0.6789625,1.5871656,-0.24537125,-1.4375411,1.0151805,-0.09864013,0.25192934,1.5084269,0.31322026
-0.2,0.10000000000000003,1.0999999999999999,-0.5235987755982988,-0.5235987755982988,0,1.2434367,0.5784221,0.52512985,0.2858973,0.28734002,0.68619937,2.3469222,0.7521013,-1.3594372,0.9473595,-0.0423177,0.136471,0.9117585,-0.04533478
-0.2,0.10000000000000003,1.0999999999999999,-0.5235987755982988,-0.5235987755982988,0,1.2426366,0.57785547,0.52574486,0.28583038,0.27912298,0.68351424,2.2576153,-1.2479942,-1.4552224,0.9705558,-0.13468789,-0.29690284,1.3640547,-0.027215824
-0.2,0.10000000000000003,1.0999999999999999,-0.5235987755982988,-0.5235987755982988,0,1.2420721,0.57833153,0.5261636,0.28577912,0.28460255,0.6847158,2.14523,-0.8950214,-1.5126673,-0.03503954,-0.016143886,0.09322438,0.8808528,-0.4717646
-0.2,0.10000000000000003,1.0999999999999999,-0.5235987755982988,-0.5235987755982988,0,1.2423576,0.5787485,0.5263396,0.28565055,0.28632575,0.6836838,1.7944322,0.066059634,-1.3957018,0.19067243,-0.121876806,-0.09086405,1.2101207,-0.697632
-0.2,0.10000000000000003,1.0999999999999999,-0.5235987755982988,-0.5235987755982988,0,1.2410141,0.5788149,0.52437687,0.28497636,0.28605622,0.6840562,2.223484,-0.42373493,-1.6650839,0.29136705,0.05704984,-0.121431306,1.153386,-0.31496376
-0.2,0.10000000000000003,1.0999999999999999,-0.5235987755982988,-0.5235987755982988,0,1.2422959,0.5774069,0.52717805,0.28583077,0.2811566,0.68422663,1.9827454,-1.1119368,-1.4869576,0.5271169,-0.039589416,0.18701702,1.3287404,-0.42234832
-0.2,0.10000000000000003,1.0999999999999999,-0.5235987755982988,-0.5235987755982988,0,1.2425202,0.57781136,0.52656007,0.28596586,0.27711427,0.68174297,2.316537,0.08907,-1.4472169,1.0184561,-0.10216429,0.10110938,1.1753207,-0.4664349
-0.2,0.10000000000000003,1.0999999999999999,-0.5235987755982988,-0.5235987755982988,0,1.2401367,0.57775205,0.5255873,0.28602183,0.28244838,0.6864939,1.9610997,-0.59383595,-1.6331474,-0.13641098,-0.14792608,-0.16833922,1.2156413,0.67838097
-0.2,0.10000000000000003,1.0999999999999999,-0.5235987755982988,-0.5235987755982988,0,1.2425767,0.5780364,0.52633435,0.28580585,0.284915,0.6831561,2.1685607,-0.17919835,-1.5098768,-0.35712883,0.012353583,0.08910702,1.1158121,0.1071236
-0.2,0.10000000000000003,1.0999999999999999,-0.5235987755982988,-0.5235987755982988,0,1.2432989,0.5783985,0.5262933,0.28603622,0.28191328,0.6811051,2.009118,-0.28022543,-1.4565684,-0.092190504,-0.20722316,0.17947027,1.0655789,-0.19468853
-0.2,0.10000000000000003,1.0999999999999999,-0.5235987755982988,-0.5235987755982988,0,1.240115,0.5785348,0.52680147,0.28557524,0.28119454,0.6795256,2.4060435,-0.37682852,-1.6278359,-0.28702608,-0.06823995,0.13750437,1.0901679,0.03309298
-0.2,0.10000000000000003,1.0999999999999999,-0.5235987755982988,-0.5235987755982988,0,1.2427026,0.5776129,0.5261047,0.2863825,0.28338817,0.68071806,2.344654,-0.3032597,-1.5240738,-0.018707788,0.0792629,-0.09531415,1.1203285,-0.36212137
-0.2,0.10000000000000003,1.0999999999999999,-0.5235987755982988,-0.5235987755982988,0,1.2447228,0.5778852,0.5245524,0.2852462,0.2827909,0.6846259,2.2181275,-1.3222687,-1.5336409,1.1477273,-0.07066437,-0.06964653,0.9538119,-0.5193756
-0.2,0.10000000000000003,1.0999999999999999,-0.5235987755982988,-0.5235987755982988,0,1.2421151,0.577908,0.5269338,0.28610158,0.2851353,0.6807589,2.1921387,-1.153561,-1.5333296,0.04498126,0.026037604,0.026690261,1.1200728,0.44942597
-0.2,0.10000000000000003,1.0999999999999999,-0.5235987755982988,-0.5235987755982988,0,1.2440528,0.57872444,0.5271469,0.285437,0.2862823,0.6854293,2.4906416,-0.14797775,-1.5461087,0.4215721,-0.056450643,0.3656613,1.0062685,-0.41173553
-0.2,0.10000000000000003,1.0999999999999999,-0.5235987755982988,-0.5235987755982988,0,1.2416277,0.5777655,0.5271,0.2865065,0.28554484,0.68667245,1.9400458,-0.66735065,-1.5468975,0.5162418,-0.032868586,-0.03381891,1.1212599,-0.18732908
-0.2,0.10000000000000003,1.0999999999999999,-0.5235987755982988,-0.5235987755982988,0,1.2456537,0.5786164,0.5260613,0.2861604,0.28448746,0.68349224,1.8210703,-0.22670156,-1.4323009,0.15881039,-0.05317845,0.21298465,0.9583095,-1.3022231
-0.2,0.10000000000000003,1.0999999999999999,-0.5235987755982988,-0.5235987755982988,0,1.2441074,0.5782211,0.5260312,0.28545853,0.28011373,0.68011683,1.8959303,-0.0080780545,-1.5672317,0.1936904,-0.070131786,0.16709983,1.251565,-0.24043822
-0.2,0.10000000000000003,1.0999999999999999,-0.5235987755982988,-0.5235987755982988,0,1.2403038,0.5773004,0.5277795,0.28567767,0.28166142,0.6822903,2.3473153,-0.12329025,-1.3623698,-0.6257469,-0.07253569,-0.24727714,1.3161176,0.073753715
-0.2,0.10000000000000003,1.0999999999999999,-0.5235987755982988,-0.5235987755982988,0,1.2438234,0.57812136,0.5261549,0.28622645,0.28079778,0.6823675,2.4087398,-0.65177554,-1.4463838,0.21201304,0.080305904,0.5864325,0.9759865,-0.5519827
-0.2,0.10000000000000003,1.0999999999999999,-0.5235987755982988,-0.5235987755982988,0,1.2424687,0.57799876,0.52782804,0.28553408,0.28553683,0.68483925,2.0312023,-0.17977186,-1.308289,1.0130007,-0.24864848,0.48719576,0.8091299,0.28396407
-0.2,0.10000000000000003,1.0999999999999999,-0.5235987755982988,-0.5235987755982988,0,1.2429522,0.57775193,0.52543926,0.2855583,0.28566384,0.6858733,2.376389,-0.53703564,-1.2955159,0.2894916,0.078393735,0.5591123,0.88931066,0.88504505
-0.2,0.10000000000000003,1.0999999999999999,-0.5235987755982988,-0.5235987755982988,0,1.2408781,0.57834214,0.5271991,0.2860435,0.2840075,0.6850007,1.9518654,-0.85469514,-1.3946193,-0.49768993,-0.08125147,-0.3320936,0.7326174,-0.4885025
-0.2,0.10000000000000003,1.0999999999999999,-0.5235987755982988,-0.5235987755982988,0,1.2410203,0.57752347,0.52539974,0.28566986,0.28279337,0.68166023,2.1196976,-0.5282197,-1.4340078,0.76316893,0.1194603,0.29866418,0.6885823,0.38757205
-0.2,0.10000000000000003,1.0999999999999999,-0.5235987755982988,-0.5235987755982988,0,1.2424845,0.5773598,0.5243309,0.28599295,0.28300312,0.68117946,2.3714256,-0.69539595,-1.3876468,1.090833,0.019112954,-0.31685793,0.92628837,-0.6724278
-0.2,0.10000000000000003,1.0999999999999999,-0.5235987755982988,-0.5235987755982988,0,1.2403961,0.5780984,0.52877384,0.28548494,0.28096557,0.6838054,2.1955605,0.16137493,-1.4247805,-0.009687472,0.31831023,-0.040199123,1.207199,-0.42229086
-0.2,0.10000000000000003,1.0999999999999999,-0.5235987755982988,-0.5235987755982988,0,1.2429537,0.5780199,0.5263778,0.28597984,0.28327274,0.68017584,2.7734575,-0.94785386,-1.4949105,-0.1822496,-0.36081478,0.407363,1.0758982,-0.19871429
-0.2,0.10000000000000003,1.0999999999999999,-0.5235987755982988,-0.5235987755982988,0,1.2426696,0.5775121,0.52696234,0.28559536,0.28256005,0.67942214,2.1762629,-0.97309667,-1.3654215,0.87724054,-0.08773484,-0.22814228,1.0508883,-0.41259775
-0.2,0.10000000000000003,1.0999999999999999,-0.5235987755982988,-0.5235987755982988,0,1.2418306,0.577738,0.52558815,0.2858856,0.28289783,0.6803553,1.9673357,-0.009397643,-1.4561967,0.3768186,0.079176575,-0.13943379,0.892818,-0.2937198
-0.2,0.10000000000000003,1.0999999999999999,-0.5235987755982988,-0.5235987755982988,0,1.2388511,0.57816255,0.5276571,0.28500795,0.2811644,0.6820695,1.9028583,-0.6037468,-1.6219631,0.11840263,0.034899782,0.15816545,0.8709307,0.78730774
-0.2,0.10000000000000003,1.0999999999999999,-0.5235987755982988,-0.5235987755982988,0,1.2401913,0.5786718,0.52622956,0.28498298,0.2806837,0.6832689,2.2863243,-0.063518696,-1.3110324,-0.0025355322,0.085400306,0.42426023,0.79897904,0.10941432
-0.2,0.10000000000000003,1.0999999999999999,-0.5235987755982988,-0.5235987755982988,0,1.2424903,0.5775833,0.52557003,0.28647164,0.27972043,0.68443376,2.312428,-0.6125991,-1.2808648,1.0321624,0.05330037,0.12343493,1.1056608,-0.21810298
-0.2,0.10000000000000003,1.0999999999999999,-0.5235987755982988,-0.5235987755982988,0,1.2410753,0.57819015,0.525898,0.28558803,0.2845982,0.68148357,1.7859298,-0.3220968,-1.5089515,0.033869646,-0.27344233,0.4426429,0.8000369,-0.35613614
-0.2,0.10000000000000003,1.0999999999999999,-0.5235987755982988,-0.5235987755982988,0,1.242975,0.5772867,0.526698,0.28535342,0.2822748,0.68254864,1.7973781,-0.80286545,-1.5740104,-0.36684108,-0.07583058,0.07244299,0.976868,-0.24825442
-0.2,0.10000000000000003,1.0999999999999999,-0.5235987755982988,-0.5235987755982988,0,1.241586,0.5788069,0.5283949,0.28519452,0.28691256,0.68419266,2.5051494,-0.61661243,-1.3980273,-0.16799521,0.27611423,0.17704798,0.8507109,-0.58567655
-0.2,0.10000000000000003,1.0999999999999999,-0.5235987755982988,-0.5235987755982988,0,1.2421972,0.57775885,0.5261071,0.28591287,0.2854351,0.6842817,2.3488405,-0.23133159,-1.5341167,-0.4267017,0.16039443,-0.6353608,0.8589958,-0.5943379
-0.2,0.10000000000000003,1.0999999999999999,-0.5235987755982988,-0.5235987755982988,0,1.2414958,0.5781414,0.5272719,0.28619912,0.28027886,0.6829548,1.9315052,-0.4790367,-1.4380727,0.49812192,0.13780096,0.110919334,1.1747288,-0.18442297
-0.2,0.10000000000000003,1.0999999999999999,-0.5235987755982988,-0.5235987755982988,0,1.2423112,0.57772195,0.52631974,0.2860642,0.28100196,0.683792,2.4071774,-1.0190762,-1.396397,0.81171197,-0.011758347,0.19535072,1.0232592,-0.63551366
-0.2,0.10000000000000003,1.0999999999999999,-0.5235987755982988,-0.5235987755982988,0,1.2410191,0.5780379,0.5255817,0.28562725,0.2805513,0.6798257,2.1531239,-0.45879114,-1.5438677,0.1320597,0.055465154,0.04170097,0.62360495,0.3452175
-0.2,0.10000000000000003,1.0999999999999999,-0.5235987755982988,-0.5235987755982988,0,1.2411171,0.57875985,0.5251572,0.28544617,0.2826397,0.6857618,2.008834,0.59667563,-1.4030777,0.25277573,0.027479975,-0.22037132,1.0943964,-0.43986747
-0.2,0.10000000000000003,1.0999999999999999,-0.5235987755982988,-0.5235987755982988,0,1.2425748,0.5787989,0.5252277,0.28476912,0.27893665,0.6821825,2.0261927,-1.1858671,-1.2070483,0.6114347,-0.07414217,0.028536653,1.2604915,-0.9894496
-0.2,0.10000000000000003,1.0999999999999999,-0.5235987755982988,-0.5235987755982988,0,1.2441052,0.5784053,0.5259723,0.28567815,0.28219542,0.6818435,2.0539048,-0.61842203,-1.3648386,0.11299195,-0.07818099,0.08888022,0.9386109,-0.21410365
-0.2,0.10000000000000003,1.0999999999999999,-0.5235987755982988,-0.5235987755982988,0,1.2411696,0.57821286,0.5258154,0.28574628,0.2828117,0.6847935,2.2911723,-0.19997282,-1.5646065,0.46772844,0.018805329,0.5645089,1.1504152,0.08139841
-0.2,0.10000000000000003,1.0999999999999999,-0.5235987755982988,-0.5235987755982988,0,1.2451739,0.57738715,0.5252676,0.28630498,0.27968448,0.6837076,2.1869426,-0.6335296,-1.4255409,0.92427313,0.029548343,-0.47612667,1.446957,-0.19221665
-0.2,0.10000000000000003,1.0999999999999999,-0.5235987755982988,-0.5235987755982988,0,1.2428097,0.5775777,0.5255593,0.28605512,0.28004262,0.6804489,2.3602903,-0.665482,-1.4856718,0.03716695,-0.009967582,0.005824901,0.9867582,-0.9217743
-0.2,0.10000000000000003,1.0999999999999999,-0.5235987755982988,-0.5235987755982988,0,1.2435753,0.5783979,0.5256553,0.2856344,0.2812205,0.68291485,2.1660392,-0.6022271,-1.392123,0.17359176,0.24373429,-0.14101167,0.8664956,0.19739021
-0.2,0.10000000000000003,1.0999999999999999,-0.5235987755982988,-0.5235987755982988,0,1.2431254,0.57787675,0.52702546,0.28597832,0.2817844,0.6807942,1.8800253,-0.39385036,-1.3649368,-0.11435034,0.2023026,0.15629826,0.9389736,0.015442959
-0.2,0.10000000000000003,1.0999999999999999,-0.5235987755982988,-0.5235987755982988,0,1.2426339,0.5779672,0.526507,0.28523412,0.28382432,0.68634987,1.9695694,-1.1142313,-1.4444555,0.2188778,0.17347762,-0.042638507,0.82686365,-0.30598584
-0.2,0.10000000000000003,1.0999999999999999,-0.5235987755982988,-0.5235987755982988,0,1.2437311,0.5778487,0.52615875,0.28593144,0.2829123,0.6833187,2.409888,0.4243574,-1.4237325,-0.04222748,-0.10444373,0.042392787,1.0522681,-0.77554685
-0.2,0.10000000000000003,1.0999999999999999,-0.5235987755982988,-0.5235987755982988,0,1.2418332,0.57787085,0.5259583,0.28669402,0.28710526,0.68314385,2.2493253,0.400007,-1.4659873,0.43172786,0.002999566,0.15761255,0.87933546,-0.29202354
-0.2,0.10000000000000003,1.0999999999999999,-0.5235987755982988,-0.5235987755982988,0,1.2417074,0.5783017,0.52629954,0.28566882,0.28019154,0.6855647,1.8108492,-0.2702149,-1.2571565,0.2764013,-0.23808804,0.31877893,1.0684187,-0.006359909
-0.2,0.10000000000000003,1.0999999999999999,-0.5235987755982988,-0.5235987755982988,0,1.2408918,0.57747734,0.52427167,0.28565434,0.28658268,0.68062335,2.1698208,-0.37749773,-1.4299937,0.02989058,0.03262128,0.34578905,1.1020479,-0.39037526
-0.2,0.10000000000000003,1.0999999999999999,-0.5235987755982988,-0.5235987755982988,0,1.2403795,0.5779125,0.5255383,0.28485647,0.2824729,0.6846229,2.3139737,-0.021640658,-1.4574031,-0.094246455,-0.0444491,-0.2208162,1.1192901,0.18021631
-0.2,0.10000000000000003,1.0999999999999999,-0.5235987755982988,-0.5235987755982988,0,1.2415811,0.57765573,0.5258026,0.28534487,0.27758142,0.68346995,2.191032,-0.62324303,-1.4568416,1.1084093,0.049908835,0.060176026,1.4296889,0.14193818
-0.2,0.10000000000000003,1.0999999999999999,-0.5235987755982988,-0.5235987755982988,0,1.2414472,0.577645,0.52756137,0.2862423,0.28290063,0.6817166,2.2080488,-1.4120941,-1.4065963,0.46929762,0.17322217,-0.027750775,0.844153,-0.9909683
-0.2,0.10000000000000003,1.0999999999999999,-0.5235987755982988,-0.5235987755982988,0,1.2416013,0.57782423,0.5262754,0.28593463,0.28491318,0.6802728,1.9594923,-0.21234001,-1.3901408,0.07585199,-0.10288636,0.4333787,0.95053834,-0.17516963
-0.2,0.10000000000000003,1.0999999999999999,-0.5235987755982988,-0.5235987755982988,0,1.2423265,0.5781661,0.5270916,0.28590488,0.28344604,0.68282235,2.09414,-1.1856221,-1.5153451,-0.006396128,0.17896561,-0.09807057,0.6776029,-0.13809228
-0.2,0.10000000000000003,1.0999999999999999,-0.5235987755982988,-0.5235987755982988,0,1.24046,0.5777233,0.5260928,0.28561357,0.28321996,0.6846923,2.0385218,-0.40496582,-1.401268,0.19969146,-0.03518966,0.4691374,1.0571138,-0.21348608
-0.2,0.10000000000000003,1.0999999999999999,-0.5235987755982988,-0.5235987755982988,0,1.2436191,0.5780054,0.5267124,0.28623268,0.28647822,0.68314534,1.9643805,0.13888909,-1.3261577,0.33712044,0.021044748,-0.4990531,0.8861964,0.77611405
-0.2,0.10000000000000003,1.0999999999999999,-0.5235987755982988,-0.5235987755982988,0,1.2412969,0.5782422,0.52650094,0.28544632,0.2785566,0.6804533,2.1920266,-0.19092202,-1.3924631,-0.30723026,0.09519118,-0.02579633,1.0063952,0.38733813
-0.2,0.10000000000000003,1.0999999999999999,-0.5235987755982988,-0.5235987755982988,0,1.2453257,0.57812107,0.5283609,0.28535983,0.2818876,0.68186265,1.7614409,-0.9066714,-1.4509794,0.47179696,-0.1862565,-0.23088235,0.81829566,-0.32646334
-0.2,0.10000000000000003,1.0999999999999999,-0.5235987755982988,-0.5235987755982988,0,1.2407435,0.5776111,0.52534366,0.2854003,0.28445908,0.68024504,1.7346619,-0.9983117,-1.5487813,0.10443652,-0.040690824,-0.26334438,0.9971704,0.33151576
-0.2,0.10000000000000003,1.0999999999999999,-0.5235987755982988,-0.5235987755982988,0,1.2421616,0.5778789,0.52602214,0.2862949,0.28333122,0.68297315,1.9105142,-0.13161407,-1.5453109,0.5349831,-0.068149365,0.2382574,1.2759893,-0.14579214
-0.2,0.10000000000000003,1.0999999999999999,-0.5235987755982988,-0.5235987755982988,0,1.241793,0.5782121,0.52759975,0.28566772,0.28774822,0.68015796,2.2786732,-0.6526773,-1.4769402,-0.3493939,0.03964686,0.23636925,0.838645,0.19389753
-0.2,0.10000000000000003,1.0999999999999999,-0.5235987755982988,-0.5235987755982988,0,1.2423329,0.5780632,0.5244771,0.2856299,0.28309605,0.6850978,1.9788684,-0.33639023,-1.312939,1.3906537,-0.225445,0.16880274,1.0208895,0.48376647
-0.2,0.10000000000000003,1.0999999999999999,-0.5235987755982988,-0.5235987755982988,0,1.2412562,0.57875216,0.527455,0.28515464,0.28029135,0.67945343,2.1435683,0.06252682,-1.405349,-0.2252952,-0.115506575,-0.33724433,0.9911354,0.013490517
-0.2,0.10000000000000003,1.0999999999999999,-0.5235987755982988,-0.5235987755982988,0,1.24397,0.5774054,0.52613354,0.28651884,0.28417456,0.6831609,1.6333556,0.43890738,-1.3169421,-0.26868203,0.00707332,0.31946364,1.0963984,-0.082104966
-0.2,0.10000000000000003,1.0999999999999999,-0.5235987755982988,-0.5235987755982988,0,1.2416809,0.57817066,0.52597284,0.2854775,0.2852965,0.6827769,1.8940508,-0.57119226,-1.4858238,0.685053,0.13419437,0.027739255,1.0374141,-0.23035032
-0.2,0.10000000000000003,1.0999999999999999,-0.5235987755982988,-0.5235987755982988,0,1.2433877,0.5770325,0.5261376,0.28653336,0.27849412,0.6841866,2.180232,-0.25239754,-1.4801222,-0.53328735,0.112781696,0.0009872618,0.83814913,0.21888229
-0.2,0.10000000000000003,1.0999999999999999,-0.5235987755982988,-0.5235987755982988,0,1.242537,0.5780182,0.52736944,0.28554013,0.28116557,0.68211275,2.0757582,-0.89345527,-1.5199094,0.058087885,0.14585513,0.022609012,1.0509354,-0.27874568
-0.2,0.10000000000000003,1.0999999999999999,-0.5235987755982988,-0.5235987755982988,0,1.2418648,0.57691437,0.5258889,0.28623724,0.28376195,0.68350804,2.072252,0.08279274,-1.5253875,1.3416018,-0.0147314295,0.35419852,1.0131469,-0.028081616
-0.2,0.10000000000000003,1.0999999999999999,-0.5235987755982988,-0.5235987755982988,0,1.2437346,0.5778447,0.52582526,0.28582534,0.28237835,0.68173677,1.8818927,0.18081354,-1.3824658,0.6987409,0.013652703,-0.19472952,1.1038978,0.057813063
-0.2,0.10000000000000003,1.0999999999999999,-0.5235987755982988,-0.5235987755982988,0,1.2436585,0.5779618,0.5251129,0.28565097,0.28090462,0.6797625,2.0820258,-0.4476644,-1.4189811,1.0681343,-0.01484252,0.24943388,1.3821827,-0.66727746
-0.2,0.10000000000000003,1.0999999999999999,-0.5235987755982988,-0.5235987755982988,0,1.2441101,0.5783877,0.52469,0.28514725,0.28451204,0.6852065,2.0758748,-0.7280813,-1.564402,0.2650926,0.024688022,0.6184895,1.1134392,0.31134015
-0.2,0.10000000000000003,1.0999999999999999,-0.5235987755982988,-0.5235987755982988,0,1.2415622,0.57815623,0.52670807,0.28513435,0.27953014,0.6839833,2.3719103,-0.77146286,-1.5572736,0.5082687,0.0132338265,-0.09645563,1.2363328,-0.027560974
-0.2,0.10000000000000003,1.0999999999999999,-0.5235987755982988,-0.5235987755982988,0,1.242313,0.5786597,0.52497244,0.28533754,0.28061807,0.6806828,1.6463429,-0.79123336,-1.4732544,0.23410106,-0.17056948,0.11784486,1.0141927,-0.57962763
-0.2,0.10000000000000003,1.0999999999999999,-0.5235987755982988,-0.5235987755982988,0,1.2433804,0.57786494,0.5261033,0.28573215,0.2853506,0.68545187,2.030571,-0.3389003,-1.4701517,0.28669015,-0.122425035,0.037140947,1.1531878,-0.27392298
-0.2,0.10000000000000003,1.0999999999999999,-0.5235987755982988,-0.5235987755982988,0,1.2462907,0.57735145,0.5268047,0.28601158,0.28208315,0.682193,2.0539675,0.27544743,-1.4631702,-0.39595458,-0.173103,0.28450078,1.1733392,-0.20722805
-0.2,0.10000000000000003,1.0999999999999999,-0.5235987755982988,-0.5235987755982988,0,1.2383541,0.5780465,0.52570075,0.286139,0.28346735,0.68525404,1.9795811,-0.9654238,-1.3990263,0.7892851,0.004981946,0.49714008,1.0523943,-0.012565881
-0.2,0.10000000000000003,1.0999999999999999,-0.5235987755982988,-0.5235987755982988,0,1.2416755,0.57787216,0.5245719,0.28600428,0.28598103,0.681359,1.8146182,-0.4153422,-1.5327841,0.41715005,-0.08519654,0.39232937,0.7418711,0.2889349
-0.2,0.10000000000000003,1.0999999999999999,-0.5235987755982988,-0.5235987755982988,0,1.2445177,0.5769772,0.52620685,0.28580484,0.28373355,0.68114275,1.9864379,-0.06534153,-1.3313123,-0.3078995,0.10176546,0.29279217,0.97114015,0.3151284
-0.2,0.10000000000000003,1.0999999999999999,-0.5235987755982988,-0.5235987755982988,0,1.2429299,0.57917684,0.5252035,0.28584778,0.2835906,0.6817852,2.3652625,-0.35969263,-1.3646971,-0.01889473,-0.066416405,0.3608083,0.8745326,-0.08814738
-0.2,0.10000000000000003,1.0999999999999999,-0.5235987755982988,-0.5235987755982988,0,1.2414774,0.57806945,0.5279452,0.28591558,0.282462,0.6833514,2.0200171,-0.20855631,-1.4423306,0.48608193,0.1236571,0.25048158,1.0530497,-0.39012167
-0.2,0.10000000000000003,1.0999999999999999,-0.5235987755982988,-0.5235987755982988,0,1.242716,0.5785421,0.5277622,0.28657937,0.28554332,0.6808335,2.1955767,-0.25306612,-1.462972,1.0705106,0.079656556,0.013207726,0.6450529,0.7127052
-0.2,0.10000000000000003,1.0999999999999999,-0.5235987755982988,-0.5235987755982988,0,1.2439941,0.5782837,0.5272758,0.28612486,0.28520983,0.68271077,2.3565283,0.09428585,-1.348638,0.91012657,-0.13904187,-0.16927083,1.2412201,-0.09413546
-0.2,0.10000000000000003,1.0999999999999999,-0.5235987755982988,-0.5235987755982988,0,1.2428805,0.57781976,0.526557,0.28513908,0.28597558,0.6873887,1.9251873,0.26780742,-1.5829183,0.4622312,-0.00840043,0.17271404,1.1858838,-0.43570256
-0.2,0.10000000000000003,1.0999999999999999,-0.5235987755982988,-0.5235987755982988,0,1.2446483,0.5783881,0.5256621,0.28630233,0.28210476,0.68389934,2.2152195,-0.11599663,-1.496063,0.58755475,0.062048014,-0.26856592,1.0408254,0.24305579
-0.2,0.10000000000000003,1.0999999999999999,-0.5235987755982988,-0.5235987755982988,0,1.2449992,0.5774921,0.5262604,0.28661236,0.28256372,0.6807364,1.8895376,-0.25052765,-1.5055426,-0.116736464,0.04033433,0.24499875,1.172135,-1.2038825
-0.2,0.10000000000000003,1.0999999999999999,-0.5235987755982988,-0.5235987755982988,0,1.2421776,0.57790434,0.527937,0.28545052,0.2890952,0.6828578,2.0423448,-0.3181564,-1.3238332,1.2893448,0.13005994,-0.047540974,1.0460962,-0.63602567
-0.2,0.10000000000000003,1.0999999999999999,-0.5235987755982988,-0.5235987755982988,0,1.2433454,0.57805574,0.52670753,0.28572342,0.28465265,0.682785,1.9607929,-0.48918933,-1.2355915,0.942842,0.23459986,-0.09090181,1.2692742,-0.114191264
-0.2,0.10000000000000003,1.0999999999999999,-0.5235987755982988,-0.5235987755982988,0,1.2428291,0.5778771,0.5261618,0.28501365,0.28606066,0.68653,2.314801,-0.48888102,-1.281936,1.143367,-0.12651211,-0.11165243,1.466469,0.10039253
-0.2,0.10000000000000003,1.0999999999999999,-0.5235987755982988,-0.5235987755982988,0,1.2399908,0.5782946,0.5278805,0.2856362,0.28372043,0.6825107,1.7428042,-0.097073205,-1.5395691,0.7232216,-0.2321225,-0.09451375,0.7492274,0.075664155
-0.2,0.10000000000000003,1.0999999999999999,-0.5235987755982988,-0.5235987755982988,0,1.2425964,0.57737696,0.5251352,0.2858704,0.28368127,0.6821403,2.0671568,-0.24992706,-1.4054227,0.32603827,0.09881316,0.149379,0.80633,0.1279869
-0.2,0.10000000000000003,1.0999999999999999,-0.5235987755982988,-0.5235987755982988,0,1.2414696,0.5775764,0.52583,0.28538147,0.28101015,0.68370634,2.2640896,0.0217236,-1.3914995,-0.2256514,0.06284722,0.62517184,0.8518605,-0.39713177
-0.2,0.10000000000000003,1.0999999999999999,-0.5235987755982988,-0.5235987755982988,0,1.2419454,0.5780659,0.52593535,0.28556028,0.2797704,0.682346,2.0532522,-1.1552453,-1.2092884,0.61124516,-0.17000832,-0.036301613,0.7901129,0.5668554
-0.2,0.10000000000000003,1.0999999999999999,-0.5235987755982988,-0.5235987755982988,0,1.2424538,0.57780576,0.5256795,0.2858782,0.28202364,0.68054277,1.710983,-0.8207427,-1.359647,0.24236311,-0.075873606,-0.0034106574,1.1562678,-0.254171
-0.2,0.10000000000000003,1.0999999999999999,-0.5235987755982988,-0.5235987755982988,0,1.2422203,0.57810646,0.52566355,0.28557634,0.28187364,0.6837191,2.0702696,-0.6695389,-1.3957978,0.25491256,-0.03909187,0.739534,0.96803105,-0.36953878
-0.2,0.10000000000000003,1.0999999999999999,-0.5235987755982988,-0.5235987755982988,0,1.242925,0.57768494,0.5265671,0.28538275,0.279083,0.6831045,2.2730484,-0.6790979,-1.5173324,0.19668467,-0.012628949,0.25412834,1.2909735,-0.15671581
-0.2,0.10000000000000003,1.0999999999999999,-0.5235987755982988,-0.5235987755982988,0,1.2444236,0.57772124,0.526265,0.28561392,0.28870046,0.6827668,2.0107667,0.19917229,-1.3019735,0.8742445,-0.040492326,0.17432444,0.9193957,-0.38491052
-0.2,0.10000000000000003,1.0999999999999999,-0.5235987755982988,-0.5235987755982988,0,1.2403964,0.5778386,0.5279523,0.28624165,0.2813998,0.6786238,1.90267,-0.050285894,-1.5978668,0.1118509,0.17505035,0.6465689,1.4153758,-0.5132806
-0.2,0.10000000000000003,1.0999999999999999,-0.5235987755982988,-0.5235987755982988,0,1.2442378,0.5777132,0.5270304,0.2854921,0.28561112,0.6847591,1.8112751,-0.8705437,-1.4458246,0.5464788,-0.020042237,0.502951,1.0479409,-0.42613018
-0.2,0.10000000000000003,1.0999999999999999,-0.5235987755982988,-0.5235987755982988,0,1.245224,0.5786429,0.5254216,0.28568724,0.28447056,0.68410176,2.294979,-0.16788983,-1.4365717,0.36687636,0.1388413,-0.15016313,0.8422893,-0.7244477
-0.2,0.10000000000000003,1.0999999999999999,-0.5235987755982988,-0.5235987755982988,0,1.2424611,0.5777313,0.5260507,0.2861338,0.28181592,0.6814905,2.215157,-0.49257722,-1.5444454,0.3063876,-0.029633692,-0.25477922,1.1406666,-0.67072713
-0.2,0.10000000000000003,1.0999999999999999,-0.5235987755982988,-0.5235987755982988,0,1.2417717,0.5772749,0.52634066,0.28593886,0.28076208,0.6828287,2.0545356,-0.5783393,-1.4011381,0.5366903,-0.19105256,0.020545729,0.9331215,-0.6859398
-0.2,0.10000000000000003,1.0999999999999999,-0.5235987755982988,-0.5235987755982988,0,1.2430074,0.57836634,0.5281343,0.28573513,0.2839808,0.68152374,2.2976248,-0.7662811,-1.4476246,-0.33727118,0.051463403,0.1436782,0.7535529,-0.13825837
