sanky1234/BimanualDexCatch/isaacgymenvs/cem_results/football_pose_-0.2_0.10000000000000003_1.0999999999999999_0.0_0.0_0_2025-05-25.csv
x,y,z,roll,pitch,yaw,robot1/joint1,robot1/joint2,robot1/joint3,robot1/joint4,robot1/joint5,robot1/joint6,robot1/joint7,robot2/joint1,robot2/joint2,robot2/joint3,robot2/joint4,robot2/joint5,robot2/joint6,robot2/joint7
-0.2,0.10000000000000003,1.0999999999999999,0.0,0.0,0,0.6321186,0.013597245,0.98716056,0.64342076,-0.1839214,1.091035,-0.081416875,0.8650995,-1.6970612,-1.183124,-0.06528875,-0.12114943,1.227639,-1.4221543
-0.2,0.10000000000000003,1.0999999999999999,0.0,0.0,0,0.614352,-0.0031221323,0.99032503,0.63200396,-0.18186922,1.0064579,-0.11201245,0.8648396,-1.69382,-1.179868,0.005107843,-0.06938396,1.1263567,-2.9190056
-0.2,0.10000000000000003,1.0999999999999999,0.0,0.0,0,0.639645,0.027943298,0.98820287,0.63292193,-0.1791888,1.0241926,0.59476155,0.8643525,-1.6949787,-1.1933628,0.04085539,0.19851048,0.9604839,0.33841184
-0.2,0.10000000000000003,1.0999999999999999,0.0,0.0,0,0.62729794,0.01463559,0.98472285,0.6430633,-0.1437402,1.0653226,-0.9139329,0.8673533,-1.695725,-1.1961759,0.034688223,0.32197112,1.1273768,-0.85180897
-0.2,0.10000000000000003,1.0999999999999999,0.0,0.0,0,0.62205285,0.026000636,0.98291653,0.63074905,-0.20177205,1.0684191,-1.1034582,0.8553858,-1.6928205,-1.2108569,-0.07973063,0.45426145,1.195359,-0.71034515
-0.2,0.10000000000000003,1.0999999999999999,0.0,0.0,0,0.632304,0.031026362,0.9852967,0.6434834,-0.20967959,1.0767194,0.048300594,0.85794395,-1.6980088,-1.2003769,-0.15860936,0.0014713018,0.90080893,-0.7137057
-0.2,0.10000000000000003,1.0999999999999999,0.0,0.0,0,0.63177484,0.028660355,0.9827594,0.64210725,-0.18411788,1.0268072,-0.58586204,0.86139023,-1.6940296,-1.1804014,-0.06788679,0.5263327,1.040691,-0.9258997
-0.2,0.10000000000000003,1.0999999999999999,0.0,0.0,0,0.63080937,0.01812146,0.98491013,0.6399165,-0.20367648,1.0855734,-1.6566249,0.86463803,-1.6917104,-1.1901304,0.033897728,0.18595737,1.132947,-1.2837679
-0.2,0.10000000000000003,1.0999999999999999,0.0,0.0,0,0.61671066,0.030461518,0.98460317,0.6408865,-0.16104184,0.96308064,1.4814197,0.8579322,-1.7026812,-1.2051328,-0.066390455,0.1267757,1.0891463,-0.0935152
-0.2,0.10000000000000003,1.0999999999999999,0.0,0.0,0,0.62647814,0.030415678,0.9822739,0.637385,-0.16399066,1.0847663,-1.4140404,0.8617297,-1.6968694,-1.1995885,-0.014763593,-0.010474543,0.93512756,-0.2611408
-0.2,0.10000000000000003,1.0999999999999999,0.0,0.0,0,0.62248445,0.03993001,0.98637736,0.64088845,-0.15876257,1.0688695,-0.27024898,0.8586105,-1.6971278,-1.1904267,-0.0909799,-0.26917753,0.8515292,-0.95716375
-0.2,0.10000000000000003,1.0999999999999999,0.0,0.0,0,0.6343261,0.023105806,0.98817396,0.6297321,-0.19362685,1.0443975,-0.55310845,0.8651339,-1.7011526,-1.2046232,-0.051233914,0.18307315,1.1030216,-0.16344634
-0.2,0.10000000000000003,1.0999999999999999,0.0,0.0,0,0.62085694,0.041443005,0.9902637,0.6372373,-0.17384957,0.9515569,1.3794491,0.85848063,-1.7040958,-1.1802042,-0.0066852043,-0.20665263,1.0493975,-0.85745573
-0.2,0.10000000000000003,1.0999999999999999,0.0,0.0,0,0.62106097,0.003273933,0.98797053,0.6328111,-0.21146497,0.99990565,-0.34164014,0.858839,-1.6945325,-1.1875185,-0.090325326,0.22868757,0.9772086,0.12596281
-0.2,0.10000000000000003,1.0999999999999999,0.0,0.0,0,0.6227756,0.026718529,0.98849857,0.6393525,-0.19394262,1.0387676,0.36308596,0.86565065,-1.6964204,-1.2144425,0.04111033,0.18353935,1.2468065,-0.6549149
-0.2,0.10000000000000003,1.0999999999999999,0.0,0.0,0,0.6194418,0.025332568,0.9889298,0.6370717,-0.17541783,0.98540473,0.5751201,0.861535,-1.7004604,-1.2050037,-0.07111922,-0.16692343,0.9880684,0.112481564
-0.2,0.10000000000000003,1.0999999999999999,0.0,0.0,0,0.6287781,0.022801511,0.9896706,0.6308421,-0.19009843,1.0280403,-0.6913337,0.8615425,-1.6885371,-1.2033461,0.060037233,0.16564688,0.95316327,-1.0853924
-0.2,0.10000000000000003,1.0999999999999999,0.0,0.0,0,0.61190903,0.010331583,0.98851657,0.63381875,-0.16115463,1.1363759,-0.04590259,0.86183983,-1.7071596,-1.2208378,-0.033035472,0.28767416,1.0015408,-1.3418995
-0.2,0.10000000000000003,1.0999999999999999,0.0,0.0,0,0.6318388,0.03744811,0.9886391,0.634553,-0.1981089,1.0723442,-0.8838134,0.86222637,-1.6959981,-1.1897154,-0.0049267504,0.16587995,1.1390548,-1.7338283
-0.2,0.10000000000000003,1.0999999999999999,0.0,0.0,0,0.60594994,0.019997483,0.98917484,0.6480058,-0.17502832,1.1025594,-0.6380997,0.8560213,-1.7005486,-1.1977776,-0.12007993,-0.064379744,1.2214814,-0.42645022
-0.2,0.10000000000000003,1.0999999999999999,0.0,0.0,0,0.6323448,0.043718822,0.98864436,0.63442796,-0.1774055,1.137189,-0.0045919623,0.86262876,-1.6880192,-1.1994531,0.0027138689,-0.0012006426,1.0132183,-0.7549836
-0.2,0.10000000000000003,1.0999999999999999,0.0,0.0,0,0.6198623,0.009462537,0.99462914,0.62833965,-0.17606589,1.0127076,-0.90753716,0.85937786,-1.7002434,-1.1830654,-0.03311955,0.26543504,1.0297463,-0.77908856
-0.2,0.10000000000000003,1.0999999999999999,0.0,0.0,0,0.6316922,0.024638109,0.982869,0.6275403,-0.2032356,1.0456175,-0.41720325,0.8620171,-1.7077024,-1.1920853,-0.14610136,-0.23658477,1.1015553,-0.7762082
-0.2,0.10000000000000003,1.0999999999999999,0.0,0.0,0,0.6249703,0.044845745,0.9908107,0.6395425,-0.16868621,1.0929519,0.13095418,0.8616051,-1.6967909,-1.186876,0.018028049,0.27245742,1.1048899,-0.56104094
-0.2,0.10000000000000003,1.0999999999999999,0.0,0.0,0,0.6171597,0.03318731,0.9877149,0.642677,-0.18271145,1.0290201,-1.4236593,0.85979116,-1.7028391,-1.1969359,-0.079312235,0.34712493,1.080072,-0.29636946
-0.2,0.10000000000000003,1.0999999999999999,0.0,0.0,0,0.63163805,0.025274264,0.98176473,0.6406266,-0.20045406,1.0314397,0.15920727,0.85750175,-1.6989324,-1.1621755,-0.047970735,-0.109701164,1.0271801,-0.9144755
-0.2,0.10000000000000003,1.0999999999999999,0.0,0.0,0,0.62266314,0.03397012,0.9877604,0.6491241,-0.19044207,0.9958002,-0.100657515,0.86360395,-1.7057046,-1.1960407,-0.14111389,0.17526706,1.1188737,-0.32403785
-0.2,0.10000000000000003,1.0999999999999999,0.0,0.0,0,0.62064457,0.020082014,0.98803884,0.6371656,-0.1685477,1.0515414,0.0022260938,0.8651188,-1.7083962,-1.1970271,0.030649226,-0.13035166,0.9602503,-0.6553476
-0.2,0.10000000000000003,1.0999999999999999,0.0,0.0,0,0.6267608,0.033660337,0.9877515,0.6350904,-0.1954028,1.150747,0.22732566,0.8617736,-1.702085,-1.1873703,0.08013802,-0.050518546,0.99641395,-0.6046416
-0.2,0.10000000000000003,1.0999999999999999,0.0,0.0,0,0.6333036,0.030906033,0.99104434,0.63666236,-0.18611111,1.1499907,0.078834645,0.8631062,-1.7036114,-1.1749858,-0.028948221,-0.0622515,0.99526036,-0.60475284
-0.2,0.10000000000000003,1.0999999999999999,0.0,0.0,0,0.6234914,0.044584185,0.9921167,0.6352889,-0.1859873,1.0524056,-1.3411901,0.8625397,-1.6984053,-1.1850291,-0.05248279,0.121721,0.8999825,-0.5839806
-0.2,0.10000000000000003,1.0999999999999999,0.0,0.0,0,0.6252638,0.01261524,0.9873953,0.631036,-0.18389516,1.0460181,0.8070803,0.86300963,-1.7005011,-1.2044774,-0.007092142,-0.10286491,1.168242,-0.8312714
-0.2,0.10000000000000003,1.0999999999999999,0.0,0.0,0,0.63036716,0.027155703,0.9778508,0.6340432,-0.20297466,1.028559,-0.73939484,0.85853755,-1.7069763,-1.1908739,-0.18055718,-0.055768583,1.0252297,-0.5580721
-0.2,0.10000000000000003,1.0999999999999999,0.0,0.0,0,0.62567,0.034006447,0.9842186,0.63484764,-0.16911498,0.9991025,-1.9639157,0.86221457,-1.7006546,-1.2057445,-0.023841219,-0.0045830263,0.98239064,-1.2323382
-0.2,0.10000000000000003,1.0999999999999999,0.0,0.0,0,0.6194868,0.030652395,0.99227965,0.6320595,-0.17434622,1.1202127,0.55515,0.8605509,-1.7019724,-1.194539,0.046631187,-0.20208703,1.0953275,-0.4653046
-0.2,0.10000000000000003,1.0999999999999999,0.0,0.0,0,0.62434727,0.011529052,0.9868142,0.63443583,-0.19797695,1.0869408,-0.33191627,0.8587839,-1.6961006,-1.1840463,-0.029274173,-0.31502953,0.9921905,-0.5058307
-0.2,0.10000000000000003,1.0999999999999999,0.0,0.0,0,0.61801714,0.033185266,0.98757446,0.6441462,-0.19048001,1.0706292,-1.8005021,0.8573211,-1.7038898,-1.1829063,-0.0790792,-0.17892171,1.0701398,-0.58750796
-0.2,0.10000000000000003,1.0999999999999999,0.0,0.0,0,0.63147366,0.04153248,0.98781115,0.6408347,-0.19026805,0.9952436,-0.18431881,0.8616287,-1.6942685,-1.1888216,-0.06733862,0.40467742,1.0905973,-0.0444603
-0.2,0.10000000000000003,1.0999999999999999,0.0,0.0,0,0.6246686,0.033108685,0.98503107,0.6426427,-0.18605083,1.0104661,-0.81703347,0.8620979,-1.7011136,-1.2023687,-0.023459105,-0.089351095,1.0054213,-0.15614063
-0.2,0.10000000000000003,1.0999999999999999,0.0,0.0,0,0.61690396,0.012274414,0.99177444,0.6329538,-0.20263009,1.0049629,-0.40669814,0.8569886,-1.699256,-1.1845572,-0.06864988,0.0015283087,0.9282182,-0.6170116
-0.2,0.10000000000000003,1.0999999999999999,0.0,0.0,0,0.61584896,0.03381097,0.99128777,0.6410206,-0.18308039,1.1455511,0.39205265,0.8635817,-1.7040029,-1.2098414,-0.10492515,0.20590289,1.0966768,-1.052569
-0.2,0.10000000000000003,1.0999999999999999,0.0,0.0,0,0.6227828,-0.003194065,0.98519206,0.6410973,-0.17298022,1.0377423,0.9330608,0.86230236,-1.6930205,-1.1922383,-0.11618375,0.08968584,1.1464825,-0.4030247
-0.2,0.10000000000000003,1.0999999999999999,0.0,0.0,0,0.619519,0.023560591,0.98488545,0.6366907,-0.20187257,0.9984778,-0.10370563,0.85768116,-1.7039921,-1.208311,0.10052786,0.2912169,1.1814399,0.45882398
-0.2,0.10000000000000003,1.0999999999999999,0.0,0.0,0,0.62809014,0.019253265,0.9825979,0.6508109,-0.19952239,1.0777637,0.7336296,0.86392874,-1.6916741,-1.1792939,-0.11869394,0.31879592,0.9145408,-0.89961797
-0.2,0.10000000000000003,1.0999999999999999,0.0,0.0,0,0.6182181,0.007774605,0.98614043,0.64075154,-0.19189268,0.998541,1.2071456,0.86185026,-1.6976234,-1.2074136,-0.06989082,0.109771684,0.98455024,-2.2051916
-0.2,0.10000000000000003,1.0999999999999999,0.0,0.0,0,0.6159084,0.029391944,0.9904546,0.64032286,-0.1701451,1.0109779,0.45206925,0.8607877,-1.7050439,-1.2017311,0.02637949,0.2782121,1.052628,-0.7684793
-0.2,0.10000000000000003,1.0999999999999999,0.0,0.0,0,0.62009495,0.03373689,0.98607755,0.6365149,-0.21271223,1.126085,1.321806,0.8585636,-1.705048,-1.2015913,-0.067242645,-0.12689981,1.0731573,-1.0112672
-0.2,0.10000000000000003,1.0999999999999999,0.0,0.0,0,0.624811,0.029417237,0.99202704,0.6257964,-0.16741708,1.1093701,0.34579626,0.8653084,-1.6967771,-1.2129498,-0.0080154035,0.17267121,0.9518548,-0.6543612
-0.2,0.10000000000000003,1.0999999999999999,0.0,0.0,0,0.62258416,0.023737572,0.986711,0.64188665,-0.18183002,1.1275762,0.27960005,0.8619767,-1.6950352,-1.1931115,-0.05903756,-0.035324905,1.164857,-1.9939301
-0.2,0.10000000000000003,1.0999999999999999,0.0,0.0,0,0.6191183,0.022555614,0.98161584,0.6426372,-0.17993452,1.0785112,-0.4871912,0.8597603,-1.6979232,-1.223068,0.019533668,-0.13273287,1.0759312,-0.8506917
-0.2,0.10000000000000003,1.0999999999999999,0.0,0.0,0,0.61985207,0.032722685,0.9865747,0.64013696,-0.1674076,0.9925988,0.045635153,0.857614,-1.7028139,-1.1993638,-0.01992536,0.2689416,0.91572475,-1.7570267
-0.2,0.10000000000000003,1.0999999999999999,0.0,0.0,0,0.62108207,0.031886544,0.99010456,0.63724786,-0.1777388,1.0951364,-0.13311216,0.86352,-1.6998599,-1.2002311,0.058633536,0.062417172,1.0749846,-0.7661909
-0.2,0.10000000000000003,1.0999999999999999,0.0,0.0,0,0.61090815,0.0030353817,0.9927386,0.6444969,-0.1754968,0.9698045,-0.20346907,0.8534978,-1.6935651,-1.209374,0.16629511,-0.1670629,1.0121552,-1.0861866
-0.2,0.10000000000000003,1.0999999999999999,0.0,0.0,0,0.62371033,0.040226523,0.9865308,0.63818264,-0.19012803,1.1366725,0.07131881,0.8608659,-1.7024612,-1.2042062,-0.10016155,-0.078547105,1.150976,-1.8800951
-0.2,0.10000000000000003,1.0999999999999999,0.0,0.0,0,0.6199798,0.034199707,0.99222744,0.639092,-0.20093168,1.0696372,1.4896342,0.85871977,-1.6954902,-1.1972867,0.07571052,-0.14785026,1.1747117,-1.4534222
-0.2,0.10000000000000003,1.0999999999999999,0.0,0.0,0,0.63131636,0.04631336,0.98894453,0.6327472,-0.18937741,1.0680277,0.4113981,0.85935616,-1.6870563,-1.1897757,-0.15476693,0.15759309,1.1607281,-2.1507277
-0.2,0.10000000000000003,1.0999999999999999,0.0,0.0,0,0.6289631,0.0374507,0.98514146,0.6354579,-0.17791118,1.0098758,0.740251,0.86251557,-1.6993752,-1.2035749,-0.058125746,0.062930174,1.0419914,-1.0506603
-0.2,0.10000000000000003,1.0999999999999999,0.0,0.0,0,0.6281374,0.047539033,0.9861149,0.6407376,-0.1912683,1.1168497,-1.5171919,0.86233246,-1.6956081,-1.1908633,-0.02954358,-0.3520611,0.91201603,-0.36471024
-0.2,0.10000000000000003,1.0999999999999999,0.0,0.0,0,0.64190197,0.039270766,0.98848826,0.6433724,-0.1940332,1.1059868,-0.7056126,0.86374897,-1.7018422,-1.1818154,0.011180611,0.27871224,1.0608534,-1.1093535
-0.2,0.10000000000000003,1.0999999999999999,0.0,0.0,0,0.6177978,0.023792895,0.98903227,0.64456546,-0.2134374,1.078207,0.52773356,0.859472,-1.6940753,-1.20689,-0.03167425,0.05920591,0.9751359,-1.8439406
-0.2,0.10000000000000003,1.0999999999999999,0.0,0.0,0,0.63055,0.015153495,0.9824161,0.63360465,-0.1659201,0.9765533,-0.24571565,0.86040795,-1.6942161,-1.1997534,-0.0013302594,-0.41433617,0.99668306,-0.6702331
-0.2,0.10000000000000003,1.0999999999999999,0.0,0.0,0,0.62903607,0.024548162,0.98505664,0.6352864,-0.1901492,1.0785311,-0.9556236,0.86105037,-1.6970459,-1.195456,-0.00068984873,-0.22046283,0.9910767,-0.032112736
-0.2,0.10000000000000003,1.0999999999999999,0.0,0.0,0,0.62926424,0.041665044,0.98815817,0.63265836,-0.17985651,1.005031,0.6170399,0.86184144,-1.6995962,-1.2019564,-0.004238754,-0.2626448,0.99602604,-0.67848045
-0.2,0.10000000000000003,1.0999999999999999,0.0,0.0,0,0.6264024,0.008398301,0.9888791,0.64835167,-0.18363786,0.970058,0.09090124,0.86665255,-1.6912075,-1.1955495,-0.018870687,0.2523522,1.1032121,-0.6276006
-0.2,0.10000000000000003,1.0999999999999999,0.0,0.0,0,0.6416056,0.011723466,0.99439985,0.6369809,-0.16316302,1.051748,0.58222353,0.85948867,-1.6928091,-1.2030418,-0.11054892,0.3123286,1.043164,-0.48210153
-0.2,0.10000000000000003,1.0999999999999999,0.0,0.0,0,0.6225501,0.00635024,0.9912384,0.6323876,-0.18003371,0.9237286,-0.008709935,0.8601803,-1.6991326,-1.1866369,-0.028804798,0.14328979,1.0897964,-0.30167973
-0.2,0.10000000000000003,1.0999999999999999,0.0,0.0,0,0.6250803,0.021687925,0.98426485,0.63544863,-0.15315448,0.9974162,0.58789253,0.8614425,-1.6920342,-1.2142507,-0.13428392,0.13381444,1.0263891,-0.31839097
-0.2,0.10000000000000003,1.0999999999999999,0.0,0.0,0,0.626656,0.027485065,0.98158485,0.64260817,-0.19985716,1.080588,-0.7463822,0.8616077,-1.70853,-1.1975899,0.04555889,0.0665314,1.013434,-1.7893869
-0.2,0.10000000000000003,1.0999999999999999,0.0,0.0,0,0.62375796,0.014306099,0.9868613,0.6377223,-0.17874558,1.1211091,0.37052,0.860908,-1.6992829,-1.1866966,-0.0010177045,-0.31636843,1.2205182,-0.6008219
-0.2,0.10000000000000003,1.0999999999999999,0.0,0.0,0,0.6214701,0.024413936,0.98901236,0.6411376,-0.18314481,1.088899,-0.8385266,0.86265683,-1.7001567,-1.1984031,-0.08014839,-0.022506597,1.3147336,-1.0373608
-0.2,0.10000000000000003,1.0999999999999999,0.0,0.0,0,0.6193083,0.024562944,0.98316824,0.6420575,-0.20721735,1.0173676,-0.32892284,0.85595334,-1.7006482,-1.2019026,0.0073483326,-0.23256174,0.8987298,-1.307154
-0.2,0.10000000000000003,1.0999999999999999,0.0,0.0,0,0.6250167,0.033150475,0.9847243,0.64216626,-0.19595058,1.1346672,-0.46401078,0.85660493,-1.696485,-1.1922246,0.057250146,0.15240644,1.033411,0.31701797
-0.2,0.10000000000000003,1.0999999999999999,0.0,0.0,0,0.6231902,0.010479394,0.9919478,0.6365312,-0.19503462,1.060422,-0.52289397,0.8627294,-1.6968436,-1.1918226,-0.05103708,0.11158577,0.8613046,-0.02369677
-0.2,0.10000000000000003,1.0999999999999999,0.0,0.0,0,0.62644947,0.040934287,0.9848317,0.6406574,-0.18679999,1.0500834,-0.38497546,0.8575386,-1.6963301,-1.1915811,-0.06279964,0.28568256,1.3005954,-1.1150022
-0.2,0.10000000000000003,1.0999999999999999,0.0,0.0,0,0.62537205,0.029608808,0.98253655,0.6339264,-0.20450488,0.9466168,-0.47764373,0.85722524,-1.7012274,-1.2134079,0.0019231632,0.13674338,1.0947908,-1.2290647
-0.2,0.10000000000000003,1.0999999999999999,0.0,0.0,0,0.62887317,0.03577997,0.987315,0.644841,-0.14821002,1.08231,-0.93155175,0.85659987,-1.6938086,-1.2029047,0.0050373655,0.28367594,1.0233475,-0.7019732
-0.2,0.10000000000000003,1.0999999999999999,0.0,0.0,0,0.64580995,0.028791204,0.98882663,0.6360836,-0.18570003,1.0661654,-0.6636926,0.8632754,-1.6914986,-1.2003276,0.0129430825,0.18633233,1.0682803,-0.74052334
-0.2,0.10000000000000003,1.0999999999999999,0.0,0.0,0,0.6253794,0.015345097,0.98386794,0.6412475,-0.18428366,1.113163,-0.830051,0.86207795,-1.7009519,-1.1937418,0.0179444,-0.16988823,0.92526287,-1.2910767
-0.2,0.10000000000000003,1.0999999999999999,0.0,0.0,0,0.62377954,0.022238642,0.9887049,0.63864577,-0.17046902,1.0188696,0.17633891,0.8636605,-1.6989781,-1.1985984,-0.0066680773,-0.11934794,1.0672506,0.44943467
-0.2,0.10000000000000003,1.0999999999999999,0.0,0.0,0,0.6279176,0.013770568,0.9825932,0.62829965,-0.18914297,1.0720414,0.43553296,0.859884,-1.7010978,-1.2098117,-0.050333407,0.095265776,1.18953,-1.3115093
-0.2,0.10000000000000003,1.0999999999999999,0.0,0.0,0,0.6222919,0.03757067,0.9855832,0.64646345,-0.16757433,1.1079109,0.53812975,0.85814357,-1.7091861,-1.1864017,0.030382346,-0.034784306,0.97189337,-0.87626964
-0.2,0.10000000000000003,1.0999999999999999,0.0,0.0,0,0.62550676,0.0075391848,0.98833454,0.6364342,-0.17247719,1.126479,1.3666184,0.8643274,-1.7020804,-1.1884135,-0.00038047266,0.11640448,1.1498806,-1.1009341
-0.2,0.10000000000000003,1.0999999999999999,0.0,0.0,0,0.63345444,0.009869754,0.97875845,0.6391901,-0.18924543,0.9662515,-0.99726254,0.86329734,-1.7092149,-1.1863652,0.048339143,0.15817282,1.0672829,-1.4792808
-0.2,0.10000000000000003,1.0999999999999999,0.0,0.0,0,0.62704355,0.03752891,0.98486686,0.6377344,-0.20073582,1.0663998,-1.1696784,0.85873145,-1.6977034,-1.2041566,0.017589455,-0.09103423,1.1181239,-0.8569508
-0.2,0.10000000000000003,1.0999999999999999,0.0,0.0,0,0.62519264,0.042185854,0.99261,0.63407105,-0.18608612,1.0298429,-0.25795382,0.8600334,-1.6973587,-1.1997061,-0.091485254,-0.088018455,1.0678016,-0.43082184
-0.2,0.10000000000000003,1.0999999999999999,0.0,0.0,0,0.631424,0.021259442,0.99109095,0.6418966,-0.18110847,0.9853018,0.33016175,0.8641783,-1.6901485,-1.185549,0.0009743974,0.06891231,1.081814,0.22510819
-0.2,0.10000000000000003,1.0999999999999999,0.0,0.0,0,0.63113785,0.036136754,0.9851858,0.6324518,-0.19253212,1.1107473,-1.1126281,0.86246145,-1.7010161,-1.2071342,-0.06393162,-0.3483299,0.99099517,-0.8557877
-0.2,0.10000000000000003,1.0999999999999999,0.0,0.0,0,0.6322353,0.037816063,0.9815728,0.6380207,-0.18278368,1.1001465,0.49568823,0.86374706,-1.6976917,-1.2106925,-0.19624142,0.010196136,1.1753957,0.44191805
-0.2,0.10000000000000003,1.0999999999999999,0.0,0.0,0,0.63296574,0.01249014,0.9815142,0.64310277,-0.16276352,1.0802348,-0.913692,0.85721666,-1.6969197,-1.2044704,0.027952608,0.21563582,1.0120301,-1.4340439
-0.2,0.10000000000000003,1.0999999999999999,0.0,0.0,0,0.62597024,0.020741425,0.98688835,0.63873565,-0.18884112,1.0394106,0.47028568,0.8619599,-1.7009218,-1.1973927,-0.07968459,-0.041652095,1.0081694,-1.4462547
-0.2,0.10000000000000003,1.0999999999999999,0.0,0.0,0,0.63299495,0.023117995,0.9831246,0.63844556,-0.17540078,0.975727,-0.39999133,0.8617812,-1.6985382,-1.1910473,0.091250196,0.23710045,1.1210024,-0.79362005
-0.2,0.10000000000000003,1.0999999999999999,0.0,0.0,0,0.6263364,0.0420585,0.98126924,0.6439832,-0.17335525,1.0549153,0.070314735,0.85859305,-1.7012947,-1.2039428,-0.00867472,-0.007289102,1.1468698,-2.0558183
-0.2,0.10000000000000003,1.0999999999999999,0.0,0.0,0,0.6311289,0.044304136,0.98193544,0.63626266,-0.19592914,1.06911,-0.012296092,0.85944945,-1.7042447,-1.2005514,0.03288336,-0.041980494,1.1666621,-1.8869667
-0.2,0.10000000000000003,1.0999999999999999,0.0,0.0,0,0.6275146,0.025045404,0.9897909,0.6377427,-0.18773483,0.95709395,-0.01978488,0.8607142,-1.7016684,-1.1879202,0.054838117,0.25837883,1.1438931,-1.6657054
-0.2,0.10000000000000003,1.0999999999999999,0.0,0.0,0,0.61164075,0.008800998,0.98496044,0.6421467,-0.17684504,1.0005293,-1.4318044,0.85439086,-1.6947651,-1.1933727,-0.08119206,0.15634817,1.1043338,-0.6943358
-0.2,0.10000000000000003,1.0999999999999999,0.0,0.0,0,0.6235291,0.036479432,0.98836446,0.6365659,-0.17646919,1.0662045,0.08048434,0.86044663,-1.7056338,-1.1992476,-0.17994002,-0.15802716,0.89250255,-0.79076195
-0.2,0.10000000000000003,1.0999999999999999,0.0,0.0,0,0.6288468,0.017703664,0.9855215,0.63208336,-0.1762322,1.0570074,-0.07606979,0.859497,-1.698811,-1.1949644,-0.10081089,-0.0036115083,1.049204,-2.0812685
-0.2,0.10000000000000003,1.0999999999999999,0.0,0.0,0,0.6349579,0.040808637,0.98873025,0.6281563,-0.17803401,1.0089628,-0.05938478,0.8629504,-1.6963756,-1.1908511,-0.13758327,0.19258104,1.0250912,-1.0853283
-0.2,0.10000000000000003,1.0999999999999999,0.0,0.0,0,0.619143,0.026300913,0.98902476,0.6380756,-0.20041122,1.0660367,0.81327415,0.85708517,-1.7009354,-1.2002623,-0.01977819,-0.14131209,1.0153477,-1.0417815
-0.2,0.10000000000000003,1.0999999999999999,0.0,0.0,0,0.6339673,0.038874447,0.98176384,0.6325696,-0.15657158,1.0290792,-0.33667177,0.8565266,-1.6968243,-1.1921588,-0.07559526,0.085650645,0.83295614,-1.7980453
-0.2,0.10000000000000003,1.0999999999999999,0.0,0.0,0,0.6245768,0.021970518,0.9886271,0.636613,-0.18751478,1.0097781,0.23985918,0.8616113,-1.7025034,-1.2027152,0.013167526,-0.2759676,1.0877159,-0.6932882
-0.2,0.10000000000000003,1.0999999999999999,0.0,0.0,0,0.6240385,0.01623647,0.9886484,0.63328916,-0.17714615,1.1108303,-0.2116835,0.85972416,-1.7001475,-1.1937387,-0.121534176,0.054475278,1.2152677,-0.9091516
-0.2,0.10000000000000003,1.0999999999999999,0.0,0.0,0,0.618616,0.028240925,0.9927055,0.6390611,-0.16251697,1.072837,-0.06922062,0.85912544,-1.6925993,-1.2023758,0.088062935,-0.2434463,1.0451505,-0.33000204
-0.2,0.10000000000000003,1.0999999999999999,0.0,0.0,0,0.6279056,0.037943184,0.9868895,0.6371444,-0.20790873,1.0090655,-0.25801492,0.857341,-1.7027845,-1.1874043,-0.11311603,-0.12489742,0.9773412,-1.19711
-0.2,0.10000000000000003,1.0999999999999999,0.0,0.0,0,0.6281712,0.012800384,0.9902399,0.6376919,-0.1935443,0.9870043,-0.3003316,0.8674688,-1.702444,-1.1999775,-0.009184367,0.22627255,1.2583438,-1.1947618
-0.2,0.10000000000000003,1.0999999999999999,0.0,0.0,0,0.6238733,0.035378862,0.9837702,0.6422931,-0.18154943,1.0097764,-1.208206,0.8584635,-1.6974785,-1.213636,-0.1915464,0.04942322,1.1752175,-0.9799867
-0.2,0.10000000000000003,1.0999999999999999,0.0,0.0,0,0.6249208,0.025933273,0.99047166,0.6284839,-0.1837534,1.0379269,0.4344685,0.8626177,-1.7082481,-1.2083135,-0.029840106,0.32214227,1.3034868,-1.4174114
-0.2,0.10000000000000003,1.0999999999999999,0.0,0.0,0,0.6283628,0.040801898,0.9832004,0.6414842,-0.17266646,1.0848324,0.33291343,0.8579964,-1.699153,-1.1877056,-0.12665068,0.12200327,1.0945587,-0.8598415
-0.2,0.10000000000000003,1.0999999999999999,0.0,0.0,0,0.62931436,0.034552682,0.98767143,0.643969,-0.19936322,1.0957142,-0.38874453,0.8574216,-1.6996504,-1.1912531,-0.049517207,-0.085618764,1.0254014,-1.081985
-0.2,0.10000000000000003,1.0999999999999999,0.0,0.0,0,0.6351583,0.011096083,0.98637205,0.63904876,-0.16985455,1.0118308,0.37959528,0.8654542,-1.6998044,-1.186254,-0.11701188,-0.0045198672,1.0238658,-1.4197326
-0.2,0.10000000000000003,1.0999999999999999,0.0,0.0,0,0.62375253,0.019206427,0.98591596,0.6402341,-0.19026454,1.0312338,0.51389575,0.8611976,-1.7072002,-1.1994328,0.07183636,0.3166883,1.0573641,-1.5641693
-0.2,0.10000000000000003,1.0999999999999999,0.0,0.0,0,0.6351629,0.029911587,0.9976396,0.639384,-0.17401156,1.0754013,-0.15317982,0.85937905,-1.6947467,-1.1943675,-0.108265795,0.057696965,0.96684724,0.013015866
-0.2,0.10000000000000003,1.0999999999999999,0.0,0.0,0,0.6252125,0.025780017,0.9875451,0.63585055,-0.17684476,1.0866561,-0.5202038,0.85558146,-1.6951553,-1.1881891,0.0071804356,0.31100115,0.89656377,-0.89121014
-0.2,0.10000000000000003,1.0999999999999999,0.0,0.0,0,0.62382084,0.030890757,0.98803234,0.639667,-0.1711895,1.0496988,-0.18642625,0.863268,-1.7033055,-1.2080374,-0.15825336,-0.023414643,1.0525705,-0.7991915
-0.2,0.10000000000000003,1.0999999999999999,0.0,0.0,0,0.62379855,0.019933268,0.99131906,0.63524246,-0.17895183,1.0626811,0.54508674,0.8642766,-1.7105852,-1.2007872,-0.12208323,0.2545043,1.052131,-0.9881243
-0.2,0.10000000000000003,1.0999999999999999,0.0,0.0,0,0.62094164,0.021843195,0.99193364,0.6480651,-0.19258732,1.0824157,1.2991498,0.8612976,-1.6999749,-1.2104187,0.008708885,-0.080241494,0.9608924,-1.204147
-0.2,0.10000000000000003,1.0999999999999999,0.0,0.0,0,0.62118566,0.03454251,0.9878244,0.6505541,-0.14650919,1.084003,-0.2832158,0.8577052,-1.6999568,-1.1919549,0.003908869,0.29518905,1.23695,-0.2609475
-0.2,0.10000000000000003,1.0999999999999999,0.0,0.0,0,0.620104,0.022006828,0.9898078,0.63717395,-0.20182323,1.0416191,-0.68198246,0.8576896,-1.6960721,-1.2066839,-0.07560775,0.31122783,1.0805745,-2.3015811
-0.2,0.10000000000000003,1.0999999999999999,0.0,0.0,0,0.61613214,0.029908074,0.9903298,0.644464,-0.16844708,1.0913686,-1.111767,0.8595994,-1.7055461,-1.2027584,0.044636756,0.05524536,1.0574114,-1.1194392
-0.2,0.10000000000000003,1.0999999999999999,0.0,0.0,0,0.62910604,0.032671005,0.98650724,0.637822,-0.1819769,1.0197027,-0.91516185,0.8604645,-1.700354,-1.1918542,-0.14498886,0.3578453,1.0225227,-2.5462062
-0.2,0.10000000000000003,1.0999999999999999,0.0,0.0,0,0.62190133,0.0255041,0.9882783,0.63765174,-0.20323074,1.0293882,-0.80658436,0.86059606,-1.7100632,-1.2040727,0.07030941,-0.11332938,0.9663906,-0.6870968
-0.2,0.10000000000000003,1.0999999999999999,0.0,0.0,0,0.64029855,0.025356216,0.9795292,0.6373471,-0.17049724,1.0617999,0.84020853,0.8658031,-1.7045177,-1.194075,0.021735283,-0.1778359,1.201263,-0.72997576
-0.2,0.10000000000000003,1.0999999999999999,0.0,0.0,0,0.62849593,0.005024355,0.9862569,0.6281704,-0.16692135,1.0577706,0.64097756,0.86123586,-1.7054403,-1.201611,-0.069878675,0.34401107,1.0651997,-0.7700214
-0.2,0.10000000000000003,1.0999999999999999,0.0,0.0,0,0.64194083,0.028900359,0.98744774,0.6485496,-0.18060094,0.99050766,-0.44829538,0.86635196,-1.7014164,-1.1930678,0.09300031,0.029543582,1.0851803,-0.40475973
-0.2,0.10000000000000003,1.0999999999999999,0.0,0.0,0,0.63569164,0.03991606,0.9846172,0.6380951,-0.16534424,1.0198742,-0.77044785,0.8681349,-1.7069802,-1.216785,0.013698758,0.012461028,1.0684751,-1.3513082
-0.2,0.10000000000000003,1.0999999999999999,0.0,0.0,0,0.6165825,0.0019577625,0.98281956,0.6477542,-0.22124475,1.0014936,-1.195158,0.8609755,-1.7011421,-1.2112796,-0.09661414,0.030520586,1.1043532,-0.5200524
-0.2,0.10000000000000003,1.0999999999999999,0.0,0.0,0,0.6319324,0.00065252435,0.9906797,0.63601726,-0.18720959,1.0826445,0.26083994,0.867735,-1.704515,-1.1851833,-0.045375485,-0.1255465,1.0092871,-1.868794
-0.2,0.10000000000000003,1.0999999999999999,0.0,0.0,0,0.62467545,0.028444821,0.991444,0.6315788,-0.15441056,0.99277407,-0.18147066,0.86195594,-1.6994206,-1.2045714,-0.0863302,-0.020521725,0.9410836,-0.8002324
-0.2,0.10000000000000003,1.0999999999999999,0.0,0.0,0,0.63186115,0.025624901,0.98655456,0.6427162,-0.18789737,1.0727143,0.3882381,0.8628484,-1.6963674,-1.186564,-0.066958874,0.33803558,1.1353531,-1.2119534
-0.2,0.10000000000000003,1.0999999999999999,0.0,0.0,0,0.6340451,0.030391289,0.9802219,0.6390194,-0.18820411,1.0853713,0.14589481,0.8593102,-1.7045704,-1.1950574,-0.05092574,0.45478287,1.1106637,-0.91651005
-0.2,0.10000000000000003,1.0999999999999999,0.0,0.0,0,0.6322915,0.022878809,0.9844785,0.6295313,-0.19847216,1.0493183,0.18161376,0.85748297,-1.6948158,-1.2053763,-0.028120691,0.4866003,0.952927,0.21886986
-0.2,0.10000000000000003,1.0999999999999999,0.0,0.0,0,0.6348441,0.032060307,0.98565173,0.6396075,-0.19470398,1.0758897,0.87251884,0.8655725,-1.7013929,-1.2032192,-0.021445565,0.2988448,1.1428466,-1.5491663
-0.2,0.10000000000000003,1.0999999999999999,0.0,0.0,0,0.62976456,0.03539209,0.98808336,0.635038,-0.18823276,1.1147401,0.0144649735,0.86162835,-1.7003818,-1.1990882,-0.16581285,0.040217735,1.061023,-0.6025072
-0.2,0.10000000000000003,1.0999999999999999,0.0,0.0,0,0.6267678,0.034891844,0.98219585,0.642251,-0.17783736,1.1199816,-1.0179911,0.85952324,-1.6980425,-1.2161529,-0.058295842,0.32766196,0.949302,-0.35226423
-0.2,0.10000000000000003,1.0999999999999999,0.0,0.0,0,0.63006306,0.014804167,0.98177755,0.6355961,-0.20224874,1.0414388,-0.5300445,0.85994554,-1.702422,-1.203963,0.17330924,0.13773377,1.0273981,-1.1478808
-0.2,0.10000000000000003,1.0999999999999999,0.0,0.0,0,0.6255071,0.030059425,0.9881111,0.6387065,-0.20078632,0.9966368,-0.864396,0.86164534,-1.694915,-1.2253201,-0.023182685,-0.0030737014,1.0712799,-0.27106208
-0.2,0.10000000000000003,1.0999999999999999,0.0,0.0,0,0.6319032,0.03487045,0.98497283,0.6371746,-0.18130313,1.0135224,-0.23071124,0.8613943,-1.7014189,-1.1989911,-0.06124969,-0.19115502,1.0004148,0.092524365
-0.2,0.10000000000000003,1.0999999999999999,0.0,0.0,0,0.6217778,0.031480562,0.9950247,0.6321421,-0.1714244,1.1072159,0.22011209,0.8601594,-1.6988689,-1.2086995,-0.017243482,0.22811508,1.0035653,-0.50294
-0.2,0.10000000000000003,1.0999999999999999,0.0,0.0,0,0.62896156,0.02930119,0.9856495,0.6351191,-0.1747951,1.0440361,-0.72726464,0.8591554,-1.6987926,-1.2087432,0.037743397,-0.23591827,0.9488404,0.21642771
-0.2,0.10000000000000003,1.0999999999999999,0.0,0.0,0,0.63629186,0.006810306,0.9871601,0.64223206,-0.20305815,1.0241716,-0.32716534,0.86385816,-1.6931063,-1.1889735,-0.15941101,0.56185085,1.0661672,-1.3256862
-0.2,0.10000000000000003,1.0999999999999999,0.0,0.0,0,0.6351313,-0.0030218118,0.991189,0.6401693,-0.2114365,1.0410817,-0.5745895,0.8652216,-1.6890985,-1.1824913,0.007304329,-0.13269098,0.9091189,-1.6245655
-0.2,0.10000000000000003,1.0999999999999999,0.0,0.0,0,0.62634116,0.013484114,0.98985666,0.6340664,-0.19632065,1.0334822,-0.28825974,0.860175,-1.6987659,-1.196652,-0.091847986,0.23787424,1.0915192,-0.7231179
-0.2,0.10000000000000003,1.0999999999999999,0.0,0.0,0,0.6252122,0.022635488,0.9878363,0.6404338,-0.18446492,1.076046,-0.51176554,0.8609372,-1.7001146,-1.201191,-0.068739735,-0.06394768,0.913216,-0.45564786
-0.2,0.10000000000000003,1.0999999999999999,0.0,0.0,0,0.6170939,0.024014601,0.9928856,0.6397779,-0.18046312,1.0538104,-0.51472104,0.85572815,-1.6940826,-1.2032517,-0.05069948,0.2663841,1.0542268,-1.2342747
-0.2,0.10000000000000003,1.0999999999999999,0.0,0.0,0,0.63378847,0.013897309,0.9806958,0.63813764,-0.20758203,1.0713853,-0.4343689,0.8637681,-1.706782,-1.1986544,-0.09296058,-0.1486509,1.0391008,0.4208538
-0.2,0.10000000000000003,1.0999999999999999,0.0,0.0,0,0.62474424,0.04182297,0.9926625,0.63764286,-0.1828184,1.0417649,-1.6678863,0.8610657,-1.7027878,-1.2175888,0.07471099,0.062085774,0.9970066,-0.38860217
-0.2,0.10000000000000003,1.0999999999999999,0.0,0.0,0,0.6372354,0.022533517,0.9837016,0.64141804,-0.18093042,1.0334455,-0.061856918,0.86326903,-1.6972791,-1.191643,-0.047272194,0.26330146,1.0883331,-0.3795227
-0.2,0.10000000000000003,1.0999999999999999,0.0,0.0,0,0.63431287,0.03515191,0.99023724,0.63343465,-0.20089339,1.0287344,-1.1307214,0.8605695,-1.6976414,-1.2009479,-0.10514053,0.16460213,0.92421085,-1.1735836
-0.2,0.10000000000000003,1.0999999999999999,0.0,0.0,0,0.6273134,0.003132044,0.9928563,0.6346492,-0.21520995,1.0995193,0.9031518,0.86455405,-1.7034352,-1.1977826,0.06393237,0.18168116,0.92971545,-1.6928005
-0.2,0.10000000000000003,1.0999999999999999,0.0,0.0,0,0.6286708,0.0128085725,0.9904651,0.6428287,-0.18019083,0.9949653,-0.43234187,0.8609608,-1.6920366,-1.1948258,-0.051280286,0.10360145,1.097338,-1.5035498
-0.2,0.10000000000000003,1.0999999999999999,0.0,0.0,0,0.6247204,0.025703166,0.9898678,0.6396529,-0.19320898,0.9992209,0.27956045,0.8588052,-1.709698,-1.1898676,-0.069916345,0.13207026,1.0489339,-0.3378365
-0.2,0.10000000000000003,1.0999999999999999,0.0,0.0,0,0.6338969,0.0091310395,0.98381346,0.63501805,-0.20101911,1.0324683,-1.5965344,0.86258036,-1.7067276,-1.1944529,-0.012903281,-0.054127906,1.0756774,-1.2784077
-0.2,0.10000000000000003,1.0999999999999999,0.0,0.0,0,0.6256407,0.030711656,0.9929324,0.6372397,-0.21759005,1.073105,0.044660036,0.86130613,-1.7020862,-1.2054826,-0.011034524,-0.15066178,0.9370023,-1.3720074
-0.2,0.10000000000000003,1.0999999999999999,0.0,0.0,0,0.6245881,0.014335197,0.9877392,0.6340504,-0.18403481,1.026207,0.5549896,0.8569828,-1.7000654,-1.2068233,0.010626174,0.19989407,1.0681666,0.10162005
-0.2,0.10000000000000003,1.0999999999999999,0.0,0.0,0,0.62821776,0.018465357,0.9889045,0.64759296,-0.19442777,0.94745743,-0.7043441,0.8626735,-1.6962454,-1.1999645,-0.06599305,-0.13221909,1.1652951,-0.0816926
-0.2,0.10000000000000003,1.0999999999999999,0.0,0.0,0,0.6318923,0.023990571,0.99211925,0.6390026,-0.19568309,0.9733518,-0.5485135,0.8590756,-1.7009091,-1.1996759,-0.061329488,0.09603722,1.0334722,-1.483919
-0.2,0.10000000000000003,1.0999999999999999,0.0,0.0,0,0.633945,0.02385205,0.9915052,0.62558085,-0.19809692,1.1049212,-0.031419873,0.8601785,-1.7004604,-1.1981839,-0.045885228,0.02187517,0.9774608,-1.5231247
-0.2,0.10000000000000003,1.0999999999999999,0.0,0.0,0,0.6254499,0.025943259,0.9926325,0.64175695,-0.19410403,1.1137242,-0.06655969,0.8608807,-1.7076613,-1.1962698,0.0109820245,0.011363083,0.90983146,-1.0054258
-0.2,0.10000000000000003,1.0999999999999999,0.0,0.0,0,0.63801455,0.011732429,0.9960817,0.6398094,-0.16932,1.0963756,-0.499045,0.8589971,-1.6983473,-1.2065244,-0.02481653,0.3285573,1.0125289,-1.3933142
-0.2,0.10000000000000003,1.0999999999999999,0.0,0.0,0,0.6533703,0.0044449237,0.9896316,0.63882375,-0.18210728,1.0495248,-1.598413,0.86555105,-1.6976331,-1.1911424,0.009911778,-0.10524148,1.0039952,-0.11558917
-0.2,0.10000000000000003,1.0999999999999999,0.0,0.0,0,0.60344875,0.03542675,0.98560655,0.6433118,-0.20673026,1.1562285,0.10475756,0.8673171,-1.6978148,-1.2024039,-0.025650857,-0.44083658,1.0387759,-2.2117856
-0.2,0.10000000000000003,1.0999999999999999,0.0,0.0,0,0.61513907,0.037525028,0.9792188,0.635567,-0.20402496,1.0591277,1.3495275,0.8670213,-1.6928111,-1.1855164,-0.14366028,-0.21309894,1.1647362,-1.7079359
-0.2,0.10000000000000003,1.0999999999999999,0.0,0.0,0,0.6071134,0.03654724,0.98763925,0.6383956,-0.18789716,1.0788547,-0.5579635,0.86971635,-1.6981163,-1.2033185,0.058961112,-0.17633423,1.063345,0.30973142
-0.2,0.10000000000000003,1.0999999999999999,0.0,0.0,0,0.60809296,0.041659746,0.9861582,0.6362993,-0.18199511,1.0322094,-0.7159258,0.86633325,-1.6939262,-1.1996275,0.027053185,0.20785384,1.16354,-1.0577432
-0.2,0.10000000000000003,1.0999999999999999,0.0,0.0,0,0.6161431,0.03710119,0.9861059,0.63278,-0.20098747,1.0089427,-0.5355745,0.8644385,-1.6983964,-1.1833489,0.095786825,-0.078532256,0.94767046,-0.92731816
-0.2,0.10000000000000003,1.0999999999999999,0.0,0.0,0,0.6235467,0.042479914,0.9817309,0.6387501,-0.21759638,1.0201699,-0.53471273,0.86296606,-1.686158,-1.1882845,-0.15679914,0.20332341,1.139518,-1.2446448
-0.2,0.10000000000000003,1.0999999999999999,0.0,0.0,0,0.61431843,0.04471555,0.98262745,0.6374139,-0.20853421,1.0323607,0.23771635,0.8638913,-1.705702,-1.1827072,-0.0019223597,0.3417856,1.156134,-0.30179825
-0.2,0.10000000000000003,1.0999999999999999,0.0,0.0,0,0.6125555,0.0355997,0.98604953,0.6321702,-0.1893349,1.066635,0.010143033,0.86311495,-1.6959459,-1.1906577,-0.027260045,-0.2344664,0.78847146,-1.0348587
-0.2,0.10000000000000003,1.0999999999999999,0.0,0.0,0,0.61674386,0.035720117,0.9838103,0.63533854,-0.19026583,1.0015522,0.16330484,0.86592555,-1.6970612,-1.196082,0.08401465,-0.07329215,0.89263934,-0.6291906
-0.2,0.10000000000000003,1.0999999999999999,0.0,0.0,0,0.6145605,0.039892487,0.9903119,0.628444,-0.1881924,1.0000093,-0.7543523,0.8646902,-1.6958257,-1.1869423,-0.047081023,-0.24482757,1.1067393,0.37876135
-0.2,0.10000000000000003,1.0999999999999999,0.0,0.0,0,0.6128248,0.020134484,0.9906659,0.6319115,-0.18382685,1.1080952,-0.5437784,0.87182033,-1.6893737,-1.1919429,-0.11085435,-0.062067367,1.0988959,-0.21408029
-0.2,0.10000000000000003,1.0999999999999999,0.0,0.0,0,0.5876156,0.033881135,0.9813207,0.6383349,-0.16573668,1.0701753,0.9623551,0.86201197,-1.698354,-1.1969029,0.06500927,0.25552678,1.163408,-1.0525006
-0.2,0.10000000000000003,1.0999999999999999,0.0,0.0,0,0.6030954,0.025663538,0.9858093,0.6354521,-0.17879973,1.0738202,0.47110102,0.85920775,-1.70047,-1.1893024,0.06600302,0.075077675,0.9449707,-0.65475035
-0.2,0.10000000000000003,1.0999999999999999,0.0,0.0,0,0.61016417,0.0465212,0.9800336,0.6435574,-0.17224383,1.1432925,-0.45316547,0.8648555,-1.7066092,-1.1998281,-0.050350197,-0.11003731,0.9145922,0.07805319
-0.2,0.10000000000000003,1.0999999999999999,0.0,0.0,0,0.60620236,0.02743316,0.9875687,0.62891465,-0.19526657,1.1367061,0.17124392,0.86414284,-1.6996726,-1.209424,-0.036458045,-0.061063908,1.1361104,-1.1202929
-0.2,0.10000000000000003,1.0999999999999999,0.0,0.0,0,0.6117205,0.02486952,0.9838353,0.6323069,-0.20652702,1.0015615,0.22034273,0.8577011,-1.6944954,-1.1900524,0.04992241,0.10730594,1.089366,-0.79981506
-0.2,0.10000000000000003,1.0999999999999999,0.0,0.0,0,0.60754484,0.018444251,0.98774266,0.6417851,-0.17300205,1.1427428,0.44403228,0.8660557,-1.6953955,-1.1899798,-0.150411,0.01870349,1.1685753,-1.2006419
-0.2,0.10000000000000003,1.0999999999999999,0.0,0.0,0,0.6066188,0.04991724,0.98473316,0.64726096,-0.19582368,1.0950586,-0.7147377,0.86411124,-1.703506,-1.1989752,-0.039599758,0.12313695,1.1271818,-1.9149443
-0.2,0.10000000000000003,1.0999999999999999,0.0,0.0,0,0.61071295,0.044931374,0.98969156,0.63453734,-0.18948008,1.0597302,-0.9981857,0.8605186,-1.687141,-1.2002985,-0.1257168,-0.04137544,1.0710499,-1.2878201
-0.2,0.10000000000000003,1.0999999999999999,0.0,0.0,0,0.6142373,0.044089045,0.9864391,0.64310104,-0.20087725,1.0101359,-0.5697246,0.8625807,-1.6979192,-1.1835619,-0.06112562,0.05120312,0.9044868,-0.7997149
-0.2,0.10000000000000003,1.0999999999999999,0.0,0.0,0,0.61922514,0.040465392,0.98196656,0.6335812,-0.15679874,1.1036986,-2.1115046,0.8657671,-1.7027464,-1.1991522,0.054845426,0.013856756,1.1518762,-0.81147385
-0.2,0.10000000000000003,1.0999999999999999,0.0,0.0,0,0.62222135,0.03088006,0.98715997,0.6387481,-0.20314223,1.0397694,-0.9226889,0.8629017,-1.6961795,-1.1981763,0.05139839,0.26848835,0.95985395,-1.238817
-0.2,0.10000000000000003,1.0999999999999999,0.0,0.0,0,0.62265414,0.040845346,0.9847285,0.6323035,-0.1800381,0.9795171,-0.27771232,0.8622834,-1.6940511,-1.1873001,-0.030529922,0.10857592,0.97877777,-1.4570858
-0.2,0.10000000000000003,1.0999999999999999,0.0,0.0,0,0.608555,0.03003,0.98558336,0.63348216,-0.15367107,1.0413907,-0.55513567,0.8605772,-1.6948441,-1.2011043,-0.018034417,0.033428572,1.0069758,-1.1859514
-0.2,0.10000000000000003,1.0999999999999999,0.0,0.0,0,0.6110997,0.05049922,0.9845601,0.64527434,-0.19702907,0.99575716,1.1925817,0.8631819,-1.6982043,-1.2039199,-0.115054324,0.59266233,1.2019114,-0.5843774
-0.2,0.10000000000000003,1.0999999999999999,0.0,0.0,0,0.61715215,0.027518472,0.98534817,0.629722,-0.19140124,1.0348533,0.052500892,0.86648667,-1.7091144,-1.1990606,0.011224081,0.23638529,1.092059,-0.58526176
-0.2,0.10000000000000003,1.0999999999999999,0.0,0.0,0,0.6141607,0.046574254,0.988822,0.6374909,-0.17173749,0.96582705,-0.7352343,0.86515075,-1.7003483,-1.2015376,-0.05589394,0.4705347,1.0457379,-0.33089527
-0.2,0.10000000000000003,1.0999999999999999,0.0,0.0,0,0.6101186,0.0161024,0.98497,0.63437223,-0.19012989,1.1140122,-0.08488469,0.86038965,-1.6908823,-1.2048781,-0.019656803,0.38325548,1.0415367,-0.18371345
-0.2,0.10000000000000003,1.0999999999999999,0.0,0.0,0,0.6052875,0.052149273,0.9936898,0.6297851,-0.20601071,1.1582074,-0.7776752,0.86592877,-1.6945026,-1.2142725,0.025632022,0.24444848,1.0302311,-1.164513
-0.2,0.10000000000000003,1.0999999999999999,0.0,0.0,0,0.63686615,0.046909466,0.9882586,0.639726,-0.20458846,1.0311055,-0.44608256,0.85954183,-1.6855174,-1.1736207,0.02075471,0.32327795,1.0475847,-2.0332553
-0.2,0.10000000000000003,1.0999999999999999,0.0,0.0,0,0.61740613,0.032554407,0.9822325,0.6247642,-0.17730215,1.1256658,0.5151101,0.86077785,-1.6990033,-1.2033092,-0.053977404,0.390313,1.0726352,-0.9232795
-0.2,0.10000000000000003,1.0999999999999999,0.0,0.0,0,0.6150342,0.030654002,0.9851549,0.6327165,-0.16907561,1.0552909,0.10120197,0.86709416,-1.7002734,-1.2127254,-0.027332356,0.017418496,0.9089431,-0.5591543
-0.2,0.10000000000000003,1.0999999999999999,0.0,0.0,0,0.6158766,0.036153197,0.9875765,0.6375282,-0.16580714,1.0537674,-0.39900845,0.8622184,-1.6960711,-1.1967863,-0.103779696,-0.053132523,0.99306226,-1.3411944
-0.2,0.10000000000000003,1.0999999999999999,0.0,0.0,0,0.61630404,0.023861492,0.98499805,0.6296333,-0.18988226,1.0441421,-1.0445011,0.8620882,-1.7000754,-1.1980917,-0.013302305,-0.17650515,1.1194643,-1.3910856
-0.2,0.10000000000000003,1.0999999999999999,0.0,0.0,0,0.6139153,0.0020099438,0.9842617,0.63704914,-0.17573689,0.97603154,-0.043567378,0.8614115,-1.6969045,-1.1866487,0.013610508,0.1490818,0.97413605,-0.97875494
-0.2,0.10000000000000003,1.0999999999999999,0.0,0.0,0,0.6184431,0.017601695,0.98869526,0.63148344,-0.19931713,1.1474591,0.11775163,0.86208117,-1.6994216,-1.1864574,-0.08898261,0.25589275,0.9473355,-0.042201627
-0.2,0.10000000000000003,1.0999999999999999,0.0,0.0,0,0.6285341,0.023331616,0.9834422,0.6347563,-0.1873412,1.1089255,0.3710818,0.86503494,-1.690931,-1.183788,0.025195168,-0.15366769,1.1167359,-0.100515395
-0.2,0.10000000000000003,1.0999999999999999,0.0,0.0,0,0.6199546,0.03270827,0.98705226,0.6371264,-0.20545758,1.095466,-1.6695256,0.8642228,-1.697448,-1.1977814,-0.07456465,0.17101462,0.96734095,-1.246788
-0.2,0.10000000000000003,1.0999999999999999,0.0,0.0,0,0.61727476,0.03254359,0.98113316,0.6367954,-0.17952384,1.0947888,-0.6753563,0.8606092,-1.6902583,-1.2006022,0.041034844,0.13889053,0.98123276,-0.8871278
-0.2,0.10000000000000003,1.0999999999999999,0.0,0.0,0,0.6216108,0.042349387,0.9867279,0.6335344,-0.16909513,1.1141727,-0.601376,0.8613896,-1.6972244,-1.1869051,0.03592738,-0.2165665,1.1080984,-0.18419586
-0.2,0.10000000000000003,1.0999999999999999,0.0,0.0,0,0.61741465,0.060060598,0.9811895,0.6373481,-0.189188,1.059235,0.6608427,0.85563004,-1.7034082,-1.1981448,-0.1378985,0.47336537,0.84614027,0.21145514
-0.2,0.10000000000000003,1.0999999999999999,0.0,0.0,0,0.6167429,0.032691497,0.98192483,0.6341655,-0.16366169,0.9993582,-0.14526868,0.8622273,-1.6981577,-1.1986539,-0.013242793,0.074358255,1.0187738,-0.39718416
-0.2,0.10000000000000003,1.0999999999999999,0.0,0.0,0,0.61397994,0.048979357,0.98932946,0.640244,-0.16219412,1.0667975,-0.84357244,0.8620918,-1.7005159,-1.2057724,0.05699304,0.14120117,1.1682601,-1.7142869
-0.2,0.10000000000000003,1.0999999999999999,0.0,0.0,0,0.6117919,0.014739244,0.98298836,0.64294606,-0.19397725,1.1619457,-0.13827673,0.8619374,-1.7034204,-1.1975936,-0.0064493883,0.11938793,0.98683494,0.065292485
-0.2,0.10000000000000003,1.0999999999999999,0.0,0.0,0,0.60715204,0.022999806,0.98877037,0.6362885,-0.17989755,0.9780931,-0.14010005,0.8596482,-1.7013141,-1.2022452,-0.03677451,0.38644278,1.061373,-1.3925445
-0.2,0.10000000000000003,1.0999999999999999,0.0,0.0,0,0.6323314,0.033880178,0.9837481,0.62791437,-0.20493487,1.0310158,0.4323445,0.86025137,-1.7049469,-1.1907035,-0.042126853,0.26899624,1.1430243,-0.4424406
-0.2,0.10000000000000003,1.0999999999999999,0.0,0.0,0,0.6314217,0.03140411,0.9800993,0.6353658,-0.18563253,1.0544721,0.2365186,0.859822,-1.6957335,-1.1956128,0.005257079,0.12773311,0.95294535,-0.5279175
-0.2,0.10000000000000003,1.0999999999999999,0.0,0.0,0,0.61526465,0.026124122,0.99192,0.6271619,-0.15749563,0.9878842,-0.88849735,0.86027455,-1.6990796,-1.18544,0.0051752306,-0.22061077,1.1025565,-0.66735315
-0.2,0.10000000000000003,1.0999999999999999,0.0,0.0,0,0.6180673,0.027112324,0.9868431,0.6457622,-0.19609371,1.0900456,-1.4188247,0.8616837,-1.6932327,-1.1912086,-0.023880737,-0.046348795,1.1509984,-1.3764291
-0.2,0.10000000000000003,1.0999999999999999,0.0,0.0,0,0.62229395,0.03446368,0.98530823,0.631567,-0.18479978,1.0089144,-0.14547057,0.86402005,-1.694041,-1.2197322,-0.043171287,0.3015743,1.0602868,-1.4347366
-0.2,0.10000000000000003,1.0999999999999999,0.0,0.0,0,0.6241156,0.016830826,0.9795496,0.6427832,-0.18140128,1.058114,-0.65290487,0.86361307,-1.6976931,-1.1853739,-0.0042366427,0.060435854,1.0904833,-1.1517128
-0.2,0.10000000000000003,1.0999999999999999,0.0,0.0,0,0.6171586,0.013994893,0.9885844,0.6372834,-0.18772615,0.9661376,-1.4183371,0.8592392,-1.6986065,-1.1776465,0.002140653,-0.11839342,0.9253193,-0.45484966
-0.2,0.10000000000000003,1.0999999999999999,0.0,0.0,0,0.60662466,0.024865871,0.98912984,0.6360383,-0.15525897,1.0363225,0.3613322,0.8583906,-1.707438,-1.1924033,0.1317063,0.09372125,1.034942,-0.98643225
-0.2,0.10000000000000003,1.0999999999999999,0.0,0.0,0,0.61333615,0.007436685,0.98904717,0.6412376,-0.17882322,1.064512,0.3105461,0.86846364,-1.7028003,-1.2091675,-0.13419783,-0.10177271,1.0342382,0.023797344
-0.2,0.10000000000000003,1.0999999999999999,0.0,0.0,0,0.6103496,0.028480556,0.9899381,0.63205636,-0.16805257,1.0731795,-0.56895274,0.8582355,-1.6880436,-1.214432,-0.099189766,-0.20761304,1.0174613,-0.9558425
-0.2,0.10000000000000003,1.0999999999999999,0.0,0.0,0,0.6106738,0.015218113,0.98791677,0.63727945,-0.15993303,1.0720848,-0.82547176,0.86239535,-1.7030332,-1.1929013,-0.07978152,0.0152704595,1.0088094,-0.38940546
-0.2,0.10000000000000003,1.0999999999999999,0.0,0.0,0,0.6158611,0.02126627,0.9935568,0.6276758,-0.17573541,0.9817168,-0.6469067,0.8597512,-1.6957948,-1.1831799,0.031780124,0.043975823,1.0154748,-0.869031
-0.2,0.10000000000000003,1.0999999999999999,0.0,0.0,0,0.61024046,0.03270534,0.9898922,0.6423944,-0.17059752,1.018207,-0.34138256,0.8606314,-1.7060802,-1.1849128,-0.048051152,0.26044995,0.9565947,-1.2726322
-0.2,0.10000000000000003,1.0999999999999999,0.0,0.0,0,0.6181465,0.015959084,0.9869093,0.63734,-0.21524426,1.031674,0.2867237,0.86187994,-1.7009449,-1.1935327,-0.080533236,0.1706361,1.0359807,-0.70206565
-0.2,0.10000000000000003,1.0999999999999999,0.0,0.0,0,0.6179066,0.011602522,0.9873469,0.63791597,-0.17923518,0.96399164,-1.368532,0.8658671,-1.7034783,-1.1914172,-0.11559527,0.00020180218,1.1736712,-1.9890727
-0.2,0.10000000000000003,1.0999999999999999,0.0,0.0,0,0.6139644,0.023593139,0.98928845,0.63156056,-0.1768128,1.1151369,-0.27500066,0.8599198,-1.7018352,-1.1995192,0.13187878,0.13359408,1.1076965,-1.1339511
-0.2,0.10000000000000003,1.0999999999999999,0.0,0.0,0,0.61579084,0.054652423,0.9895566,0.641709,-0.1575375,0.9995167,0.4775231,0.85849994,-1.7039604,-1.1963843,-0.02526014,0.19121073,1.0470197,-1.0391119
-0.2,0.10000000000000003,1.0999999999999999,0.0,0.0,0,0.62178445,0.01821755,0.9858687,0.6377612,-0.21391119,0.99092805,-1.2572547,0.86045367,-1.6934004,-1.1928817,-0.11835733,0.12248756,0.9111122,-2.6405363
-0.2,0.10000000000000003,1.0999999999999999,0.0,0.0,0,0.62148565,0.028800825,0.98665273,0.6385582,-0.1667234,1.1111647,-0.29893377,0.8644477,-1.6950043,-1.2021878,-0.026919777,0.17514531,1.1221617,-1.8932488
-0.2,0.10000000000000003,1.0999999999999999,0.0,0.0,0,0.6223399,0.041211456,0.9879244,0.63668215,-0.1806485,1.129824,0.5707847,0.8604084,-1.6928167,-1.2006409,-0.074701115,0.1133952,1.1124657,-1.9379771
-0.2,0.10000000000000003,1.0999999999999999,0.0,0.0,0,0.6240333,0.011066619,0.981209,0.6443295,-0.1864765,1.1066785,0.28776407,0.8630923,-1.7012546,-1.1805328,-0.067613564,-0.07597603,1.0549322,-0.78734165
-0.2,0.10000000000000003,1.0999999999999999,0.0,0.0,0,0.6259353,0.000418415,0.980634,0.64027244,-0.200003,1.0258465,-1.3097011,0.86375564,-1.7023255,-1.1937399,-0.07490879,0.114243835,1.1398221,-2.7894292
-0.2,0.10000000000000003,1.0999999999999999,0.0,0.0,0,0.6257351,0.0039927037,0.98805726,0.63296646,-0.16589913,0.9592484,0.28140873,0.8631221,-1.6933674,-1.1813068,-0.052091017,0.14702612,1.1544685,-0.6205294
-0.2,0.10000000000000003,1.0999999999999999,0.0,0.0,0,0.61277735,0.035967432,0.98874056,0.6360562,-0.2308382,1.0762279,0.46200234,0.8553329,-1.7007408,-1.2063657,-0.101613924,-0.05285303,1.1667128,-1.8698974
-0.2,0.10000000000000003,1.0999999999999999,0.0,0.0,0,0.6188958,0.034497492,0.9913469,0.6368966,-0.18370649,1.0894454,-0.36271915,0.861787,-1.6999241,-1.1993327,0.04133455,0.097381435,1.174607,0.0054686954
-0.2,0.10000000000000003,1.0999999999999999,0.0,0.0,0,0.6250084,0.042828437,0.9837126,0.637246,-0.15951526,1.1064411,-0.69373745,0.85819125,-1.6995982,-1.2106963,-0.05298392,0.1534621,0.97141695,-0.4953236
-0.2,0.10000000000000003,1.0999999999999999,0.0,0.0,0,0.6177946,0.019291233,0.9865807,0.6427863,-0.1779352,1.0556536,0.42419064,0.86117315,-1.7026724,-1.1895188,0.043788362,0.32112786,0.9438106,-0.13621221
-0.2,0.10000000000000003,1.0999999999999999,0.0,0.0,0,0.6099262,0.024653213,0.985138,0.6357051,-0.1835014,1.0035013,-0.5904723,0.8647166,-1.7058865,-1.1935076,-0.09043249,0.21505591,1.1512223,-1.5989175
-0.2,0.10000000000000003,1.0999999999999999,0.0,0.0,0,0.6287455,0.035911825,0.9861698,0.64095134,-0.1781502,1.0014997,-0.39120823,0.8612463,-1.7010889,-1.1804277,-0.0033009634,-0.12017191,1.1419731,-0.7928088
-0.2,0.10000000000000003,1.0999999999999999,0.0,0.0,0,0.6181679,0.03427259,0.988026,0.63157344,-0.197547,1.1313562,-0.27802807,0.85761285,-1.7023656,-1.201221,-0.08317114,-0.332971,1.1510087,-0.43378976
-0.2,0.10000000000000003,1.0999999999999999,0.0,0.0,0,0.62125534,0.016257828,0.9815538,0.6427772,-0.1777862,1.0559531,-0.063005134,0.86300105,-1.7002064,-1.2066619,0.0532581,0.14143173,1.1449497,-1.2001623
-0.2,0.10000000000000003,1.0999999999999999,0.0,0.0,0,0.616638,0.020937175,0.98356825,0.6342407,-0.19036649,1.0794169,0.049269047,0.86693674,-1.7038867,-1.1872045,-0.0023107158,0.20545039,1.0248153,-1.8688217
-0.2,0.10000000000000003,1.0999999999999999,0.0,0.0,0,0.61811936,0.025132947,0.9868416,0.64138603,-0.17720821,0.992366,-0.8072983,0.8624687,-1.7014433,-1.2086741,0.030436352,-0.034552917,1.0925138,0.13335365
-0.2,0.10000000000000003,1.0999999999999999,0.0,0.0,0,0.6335455,0.017701047,0.97889525,0.6337642,-0.18284854,1.0531555,-0.5167791,0.8623798,-1.69799,-1.1906137,-0.1663519,-0.48565963,0.9955748,-0.8182349
-0.2,0.10000000000000003,1.0999999999999999,0.0,0.0,0,0.62604034,0.035078857,0.9879015,0.62739265,-0.1560194,1.0217446,-0.3298856,0.85793835,-1.6917123,-1.195588,-0.0025988824,0.19245408,1.1413351,0.8377912
-0.2,0.10000000000000003,1.0999999999999999,0.0,0.0,0,0.61911213,0.050473012,0.98510194,0.6404991,-0.16261867,1.0965781,-0.3243201,0.8548386,-1.7035716,-1.2079947,-0.042718317,0.016399495,1.1813542,-1.0315617
-0.2,0.10000000000000003,1.0999999999999999,0.0,0.0,0,0.6220792,0.039462935,0.9845931,0.6462289,-0.17127466,1.0309842,0.39205757,0.8593673,-1.7002065,-1.1919823,-0.02361257,-0.166164,0.9570265,-0.89925885
-0.2,0.10000000000000003,1.0999999999999999,0.0,0.0,0,0.6203381,0.025772203,0.9904188,0.6372225,-0.1672167,0.9270103,0.04088178,0.862059,-1.6942246,-1.2185045,-0.096247464,0.14369056,1.2223196,-0.6238408
-0.2,0.10000000000000003,1.0999999999999999,0.0,0.0,0,0.6255525,0.0027001125,0.9822645,0.6421586,-0.17700602,1.0679575,-0.54471076,0.8614399,-1.7002488,-1.1929935,0.03429876,-0.25821692,1.0629451,-1.3910254
-0.2,0.10000000000000003,1.0999999999999999,0.0,0.0,0,0.62407166,0.025859892,0.9843318,0.64271426,-0.16913362,0.99275804,-0.44751504,0.8610004,-1.7038128,-1.1996727,-0.017027335,0.33118257,1.0842069,-0.6152764
-0.2,0.10000000000000003,1.0999999999999999,0.0,0.0,0,0.62575036,0.036382847,0.98810005,0.63438356,-0.17121147,0.99312407,0.22548263,0.85936844,-1.6956589,-1.2075634,0.052928507,0.25357336,0.94052166,0.3095925
-0.2,0.10000000000000003,1.0999999999999999,0.0,0.0,0,0.62152433,0.027054263,0.9880609,0.63885593,-0.16788268,1.1068178,0.6798995,0.85834366,-1.7028936,-1.1865327,-0.037370272,0.23276697,0.87584144,-0.7357668
-0.2,0.10000000000000003,1.0999999999999999,0.0,0.0,0,0.6322148,0.0069126016,0.9816828,0.63840723,-0.17128305,1.0585012,0.22962558,0.86391175,-1.696008,-1.2074177,0.019945195,-0.004514445,1.0871193,0.61889035
-0.2,0.10000000000000003,1.0999999999999999,0.0,0.0,0,0.6212481,0.017537728,0.9875951,0.6413567,-0.19697773,1.1383665,-0.8238327,0.8582241,-1.6942585,-1.2123698,-0.06811795,0.007855155,1.0369104,-2.2843418
-0.2,0.10000000000000003,1.0999999999999999,0.0,0.0,0,0.6257485,0.021912508,0.99119455,0.64152443,-0.1834697,1.0326763,0.027383644,0.8618031,-1.7002107,-1.1922228,-0.11500725,0.5559213,1.0486472,-0.6469396
-0.2,0.10000000000000003,1.0999999999999999,0.0,0.0,0,0.61560535,0.029242449,0.98839897,0.6360843,-0.15545696,1.0971472,1.0475549,0.8637673,-1.6972067,-1.1817664,0.020577284,-0.04473528,1.0359191,-0.6466125
-0.2,0.10000000000000003,1.0999999999999999,0.0,0.0,0,0.61354256,0.043726146,0.9909826,0.64626455,-0.1949407,1.0311555,-0.11432624,0.8622379,-1.6971473,-1.1964852,-0.046432264,-0.09467175,1.190797,0.8377809
-0.2,0.10000000000000003,1.0999999999999999,0.0,0.0,0,0.613243,0.0375024,0.98679763,0.6330369,-0.17115563,1.066039,-0.65347904,0.85874367,-1.6943024,-1.1891812,0.013588788,-0.29504052,1.0613874,-0.7607732
-0.2,0.10000000000000003,1.0999999999999999,0.0,0.0,0,0.63505405,0.024631478,0.9766934,0.63389176,-0.22223845,1.0028975,0.42732626,0.86112195,-1.7033039,-1.1892982,0.001501982,-0.17876233,1.0490489,-1.7674389
-0.2,0.10000000000000003,1.0999999999999999,0.0,0.0,0,0.6191726,0.055887252,0.98874855,0.64025027,-0.1879888,1.0209064,-0.8744432,0.86133385,-1.6982083,-1.2066511,0.07779697,0.33792937,1.0305343,-0.07585066
-0.2,0.10000000000000003,1.0999999999999999,0.0,0.0,0,0.6131991,0.0155596305,0.99221855,0.6315977,-0.18006063,1.1446754,-0.8797284,0.86187476,-1.6979855,-1.1940101,-0.09452551,-0.008452915,1.1107085,-1.5726075
