sanky1234/BimanualDexCatch/isaacgymenvs/cem_results/football_pose_0.1_0.1_1.0999999999999999_0.0_-0.5235987755982988_0_2025-05-27.csv
x,y,z,roll,pitch,yaw,robot1/joint1,robot1/joint2,robot1/joint3,robot1/joint4,robot1/joint5,robot1/joint6,robot1/joint7,robot2/joint1,robot2/joint2,robot2/joint3,robot2/joint4,robot2/joint5,robot2/joint6,robot2/joint7
0.1,0.1,1.0999999999999999,0.0,-0.5235987755982988,0,-0.8378764,0.3241452,-0.94430876,0.8386804,-0.8541989,1.5453705,-2.166966,0.26910946,1.2569199,-0.12273654,-0.057795,0.047144488,1.2244883,0.89448977
0.1,0.1,1.0999999999999999,0.0,-0.5235987755982988,0,-0.8362228,0.32514894,-0.9451851,0.8430214,-0.8552309,1.544261,-2.1750543,0.4908011,1.3468661,-0.11455867,-0.078518815,-0.08477758,1.2581742,-0.89573365
0.1,0.1,1.0999999999999999,0.0,-0.5235987755982988,0,-0.8366369,0.32362014,-0.9443344,0.8428498,-0.850791,1.5419289,-2.1695619,0.06522395,1.2801583,-0.18353884,-0.033521436,-0.06964717,1.2738465,1.4130682
0.1,0.1,1.0999999999999999,0.0,-0.5235987755982988,0,-0.8366413,0.32487372,-0.9437907,0.8429991,-0.8540324,1.545427,-2.1640766,1.3418342,1.2526836,0.0775306,-0.027850192,0.11844345,1.2264193,0.1261498
0.1,0.1,1.0999999999999999,0.0,-0.5235987755982988,0,-0.8355145,0.32321545,-0.9444039,0.842859,-0.84986997,1.5445182,-2.1676445,0.76045406,1.2680125,0.090217724,-0.095778875,0.096396245,1.2062143,0.33044967
0.1,0.1,1.0999999999999999,0.0,-0.5235987755982988,0,-0.836193,0.323029,-0.94390196,0.840709,-0.8514503,1.5456933,-2.1717548,0.00048556013,1.3536004,-0.12621482,-0.0666745,0.03467059,1.1868382,0.6406618
0.1,0.1,1.0999999999999999,0.0,-0.5235987755982988,0,-0.8357135,0.32368696,-0.9455845,0.8422754,-0.8517314,1.5453266,-2.173121,0.76949877,1.3145669,-0.0014254005,-0.072740294,0.05488114,1.2294153,0.008869999
0.1,0.1,1.0999999999999999,0.0,-0.5235987755982988,0,-0.83685243,0.32379815,-0.9442028,0.84215146,-0.8483236,1.5463371,-2.1616356,0.14442721,1.2399261,0.064492024,-0.054657478,-0.0066413702,1.2791173,-0.7146838
0.1,0.1,1.0999999999999999,0.0,-0.5235987755982988,0,-0.8372111,0.3247178,-0.94308084,0.84221965,-0.85083485,1.5438122,-2.164211,0.24616027,1.3477069,0.2472198,-0.05852954,-0.040488806,1.228073,-0.18840241
0.1,0.1,1.0999999999999999,0.0,-0.5235987755982988,0,-0.8366213,0.3234689,-0.9429515,0.83804226,-0.8506814,1.5441703,-2.1673882,-0.13719277,1.3608648,-0.12597299,-0.050575696,0.01953485,1.1418285,0.9700229
0.1,0.1,1.0999999999999999,0.0,-0.5235987755982988,0,-0.8361293,0.32419735,-0.9438991,0.8414067,-0.8519681,1.5462575,-2.172015,1.2003318,1.2525121,-0.018027458,-0.06392007,0.1621466,1.259591,-0.33723083
0.1,0.1,1.0999999999999999,0.0,-0.5235987755982988,0,-0.8362376,0.32387435,-0.9442706,0.84290427,-0.84850603,1.542995,-2.1697433,0.66559386,1.3575116,-0.21715246,-0.06623863,-0.014682689,1.1791608,0.30987176
0.1,0.1,1.0999999999999999,0.0,-0.5235987755982988,0,-0.8358225,0.32253075,-0.9423241,0.8413253,-0.8515922,1.5450196,-2.1722174,-0.50460416,1.2662264,0.030439826,-0.050121494,-0.011474325,1.2449957,0.21224554
0.1,0.1,1.0999999999999999,0.0,-0.5235987755982988,0,-0.83686674,0.32306919,-0.9444989,0.8409688,-0.85188156,1.5450538,-2.1754122,0.7138339,1.1883506,0.21826535,-0.048345808,0.026431093,1.2568009,0.45352593
0.1,0.1,1.0999999999999999,0.0,-0.5235987755982988,0,-0.83647054,0.32438356,-0.94560355,0.83880097,-0.850042,1.5456706,-2.1588721,0.07798294,1.2992253,-0.029741859,-0.09880697,0.043134514,1.2367516,-0.18644154
0.1,0.1,1.0999999999999999,0.0,-0.5235987755982988,0,-0.8346452,0.3227088,-0.9452841,0.8423094,-0.8518779,1.5459659,-2.1732063,0.30464584,1.2526724,0.12072258,-0.060487863,0.05026069,1.2376294,-0.124832205
0.1,0.1,1.0999999999999999,0.0,-0.5235987755982988,0,-0.8363989,0.32284442,-0.94397503,0.84362537,-0.8509761,1.5450752,-2.1638954,0.46369836,1.2917855,0.11769408,-0.052112784,0.06347811,1.2346976,-0.21987413
0.1,0.1,1.0999999999999999,0.0,-0.5235987755982988,0,-0.8372687,0.324935,-0.9457571,0.840283,-0.8470468,1.5458676,-2.164913,0.05920368,1.3467928,-0.23959024,-0.10839189,0.0796653,1.1893553,0.6190149
0.1,0.1,1.0999999999999999,0.0,-0.5235987755982988,0,-0.836489,0.32454857,-0.94441617,0.8393066,-0.8518975,1.5455834,-2.1825376,1.5814539,1.299589,-0.17555515,-0.06697293,0.011611364,1.1446197,1.5609894
0.1,0.1,1.0999999999999999,0.0,-0.5235987755982988,0,-0.83704907,0.32353726,-0.9454538,0.8460868,-0.8520772,1.5454533,-2.1663985,-0.45496947,1.3501811,0.15388311,-0.051833533,0.0037606752,1.1800016,-0.19316468
0.1,0.1,1.0999999999999999,0.0,-0.5235987755982988,0,-0.8365925,0.32400253,-0.94419354,0.84292465,-0.8508325,1.5425968,-2.156069,1.042755,1.3079456,-0.061829105,-0.05328278,-0.0832267,1.2308881,0.19977096
0.1,0.1,1.0999999999999999,0.0,-0.5235987755982988,0,-0.83717936,0.32297984,-0.9451864,0.8477403,-0.8491557,1.5459527,-2.1688457,0.3102208,1.3546093,0.24032673,-0.07395342,0.026006881,1.229204,-0.08706259
0.1,0.1,1.0999999999999999,0.0,-0.5235987755982988,0,-0.8357829,0.32277122,-0.9445425,0.84778386,-0.85254127,1.5456897,-2.1762655,-0.26276845,1.352129,-0.200187,-0.10888354,-0.04036168,1.2578232,0.14692329
0.1,0.1,1.0999999999999999,0.0,-0.5235987755982988,0,-0.83708423,0.32356283,-0.9447185,0.83924246,-0.85153913,1.5444173,-2.1522563,-0.6039557,1.2734873,-0.032378294,-0.066017956,0.03152816,1.2149236,-0.44780508
0.1,0.1,1.0999999999999999,0.0,-0.5235987755982988,0,-0.8355508,0.32350254,-0.9441547,0.8435687,-0.84902066,1.5446213,-2.170267,-0.39692655,1.3768177,-0.14102425,-0.061078336,-0.052333526,1.2466462,-0.29788834
0.1,0.1,1.0999999999999999,0.0,-0.5235987755982988,0,-0.8392072,0.3237193,-0.94504094,0.8431465,-0.84863394,1.5458937,-2.1781383,1.3446254,1.2649927,0.02378396,-0.011692347,0.022941656,1.2456697,0.83577186
0.1,0.1,1.0999999999999999,0.0,-0.5235987755982988,0,-0.8357949,0.3237157,-0.9445843,0.8428113,-0.8519621,1.5459447,-2.1632016,-0.099507906,1.3638693,-0.17222863,-0.050976746,0.1150478,1.2442216,1.2688123
0.1,0.1,1.0999999999999999,0.0,-0.5235987755982988,0,-0.8358565,0.32455894,-0.9442692,0.8436916,-0.85267615,1.5433085,-2.1688542,0.9717222,1.317853,-0.1720216,-0.038996454,0.03392129,1.1997498,-0.1735109
0.1,0.1,1.0999999999999999,0.0,-0.5235987755982988,0,-0.8359142,0.32460853,-0.9453844,0.83896214,-0.85086286,1.543694,-2.17011,1.7158649,1.2187752,-0.08015878,-0.060966656,0.06213485,1.297397,0.25487202
0.1,0.1,1.0999999999999999,0.0,-0.5235987755982988,0,-0.8365248,0.32380694,-0.9457752,0.8409986,-0.8486387,1.5472034,-2.1611714,1.1434085,1.3769225,0.007257435,-0.040323067,0.06454085,1.2547861,0.9713421
0.1,0.1,1.0999999999999999,0.0,-0.5235987755982988,0,-0.83715343,0.32345083,-0.9442596,0.8445618,-0.8526788,1.5436863,-2.1767108,-0.581163,1.2447282,-0.19993886,-0.05202667,-0.19662318,1.2367717,0.19061533
0.1,0.1,1.0999999999999999,0.0,-0.5235987755982988,0,-0.83663255,0.32529855,-0.94394296,0.84178776,-0.8522596,1.545643,-2.1579368,0.35857108,1.277364,0.08096362,-0.048966978,-0.0995188,1.2462168,0.93879676
0.1,0.1,1.0999999999999999,0.0,-0.5235987755982988,0,-0.8370029,0.32420683,-0.9443572,0.8415631,-0.8528506,1.5448399,-2.1712563,0.85411865,1.3337047,0.29642546,-0.049269516,0.108034246,1.1428684,0.978702
0.1,0.1,1.0999999999999999,0.0,-0.5235987755982988,0,-0.8365524,0.32392472,-0.94395375,0.83828527,-0.851194,1.5436188,-2.1509795,-1.1023133,1.2030118,-0.115871914,-0.09711818,0.105717346,1.2462409,0.46905324
0.1,0.1,1.0999999999999999,0.0,-0.5235987755982988,0,-0.83592916,0.3244717,-0.94513613,0.8471796,-0.85032153,1.5459572,-2.1623743,1.4067143,1.2048146,-0.024535708,-0.042296745,-0.092068456,1.1737832,-0.49916556
0.1,0.1,1.0999999999999999,0.0,-0.5235987755982988,0,-0.8366181,0.32554156,-0.94514835,0.8432584,-0.8518868,1.5445452,-2.1664212,1.9679518,1.270927,-0.12522994,-0.103890054,0.03286713,1.2447417,0.62708753
0.1,0.1,1.0999999999999999,0.0,-0.5235987755982988,0,-0.83715796,0.32351795,-0.9447352,0.83975047,-0.8524835,1.5465971,-2.1641872,-0.36261466,1.3434168,0.14285429,-0.09513661,0.010387243,1.2716402,0.2355479
0.1,0.1,1.0999999999999999,0.0,-0.5235987755982988,0,-0.8361881,0.32473034,-0.9450874,0.8399935,-0.8507331,1.5467803,-2.1744444,0.38440108,1.3533351,0.25811282,-0.096815445,0.046937965,1.1952441,-0.11302069
0.1,0.1,1.0999999999999999,0.0,-0.5235987755982988,0,-0.83518386,0.32273448,-0.943852,0.8441233,-0.8509505,1.544108,-2.1645305,-0.33440247,1.3440048,-0.03454318,-0.046264872,0.0045595923,1.2340987,0.17592633
0.1,0.1,1.0999999999999999,0.0,-0.5235987755982988,0,-0.83619106,0.32377347,-0.94509715,0.8419545,-0.85118175,1.5445049,-2.1585095,-0.7164237,1.2713664,-0.107858896,-0.033984438,-0.013792466,1.2192967,0.050974064
0.1,0.1,1.0999999999999999,0.0,-0.5235987755982988,0,-0.8362473,0.32383677,-0.9444091,0.83750457,-0.84994906,1.5457729,-2.1668124,0.26321352,1.2557638,-0.062472373,-0.0827683,0.028522031,1.263743,1.4821105
0.1,0.1,1.0999999999999999,0.0,-0.5235987755982988,0,-0.8365126,0.32483947,-0.9449245,0.84490824,-0.8498213,1.544539,-2.1650212,-0.24189612,1.2963518,0.1701642,-0.029397734,0.09922156,1.2377719,0.06881228
0.1,0.1,1.0999999999999999,0.0,-0.5235987755982988,0,-0.83628434,0.32380596,-0.9444789,0.8477541,-0.8493916,1.5443808,-2.1655936,0.12017049,1.3451778,-0.0028081113,-0.08308615,0.06163202,1.3164116,0.55525464
0.1,0.1,1.0999999999999999,0.0,-0.5235987755982988,0,-0.8367482,0.32368106,-0.9449126,0.8406521,-0.85194266,1.546632,-2.1662169,0.4402216,1.3213141,0.09426658,-0.07945446,0.038605906,1.2144611,0.2600922
0.1,0.1,1.0999999999999999,0.0,-0.5235987755982988,0,-0.8367586,0.32394576,-0.9434979,0.8463297,-0.8515352,1.5445062,-2.169682,0.40652022,1.4052622,0.0037675293,-0.05091135,0.106513284,1.2099956,0.06738582
0.1,0.1,1.0999999999999999,0.0,-0.5235987755982988,0,-0.83652353,0.3221918,-0.9446125,0.84153235,-0.8509087,1.5443623,-2.1651363,0.4589134,1.315278,0.06264435,-0.07050101,0.072670504,1.1464831,-0.2548104
0.1,0.1,1.0999999999999999,0.0,-0.5235987755982988,0,-0.8362372,0.32412452,-0.9441263,0.84135777,-0.849903,1.5446523,-2.1685503,0.39669195,1.3424301,-0.08358473,-0.0757782,0.13112745,1.2087622,0.7869882
0.1,0.1,1.0999999999999999,0.0,-0.5235987755982988,0,-0.8374766,0.32316434,-0.9448814,0.8429748,-0.8505749,1.5456519,-2.175365,0.9190278,1.2783191,-0.11905901,-0.092924744,0.14040464,1.210342,0.60730547
0.1,0.1,1.0999999999999999,0.0,-0.5235987755982988,0,-0.83618534,0.32291463,-0.94419205,0.8425382,-0.8501391,1.5456638,-2.1644115,0.6719681,1.283662,-0.21980181,-0.07349212,0.058013383,1.2384322,0.30258062
0.1,0.1,1.0999999999999999,0.0,-0.5235987755982988,0,-0.8362759,0.3236952,-0.9445753,0.84190476,-0.8467289,1.5430546,-2.169747,0.74532217,1.295849,0.08817213,-0.0596214,0.012639537,1.1964642,-0.3614654
0.1,0.1,1.0999999999999999,0.0,-0.5235987755982988,0,-0.83630097,0.3233283,-0.94363505,0.8434724,-0.8524156,1.5460699,-2.1624534,1.2215445,1.2345239,-0.03745887,-0.084205784,0.016400617,1.1802635,0.34367016
0.1,0.1,1.0999999999999999,0.0,-0.5235987755982988,0,-0.83659875,0.32315513,-0.94423187,0.8429541,-0.851374,1.543623,-2.1597404,0.5622309,1.293467,0.08014427,-0.04744384,0.0052469,1.2766914,-0.26150364
0.1,0.1,1.0999999999999999,0.0,-0.5235987755982988,0,-0.8369853,0.3231534,-0.94386405,0.84343433,-0.85172933,1.5442116,-2.1575177,0.22910595,1.2735429,0.036948226,-0.01974901,-0.12068138,1.2131646,0.34982336
0.1,0.1,1.0999999999999999,0.0,-0.5235987755982988,0,-0.8365538,0.32446513,-0.94532484,0.83939964,-0.85112804,1.5450281,-2.1740906,1.1050979,1.3170923,-0.119873874,-0.07670925,-0.14191943,1.2536569,-0.04860917
0.1,0.1,1.0999999999999999,0.0,-0.5235987755982988,0,-0.8368616,0.32366845,-0.94457406,0.84003806,-0.8498497,1.5447267,-2.1673958,0.6536922,1.2354529,0.16805585,-0.06515545,0.06713201,1.2725607,0.64792156
0.1,0.1,1.0999999999999999,0.0,-0.5235987755982988,0,-0.83762777,0.32384768,-0.9432081,0.8403433,-0.85113525,1.5465736,-2.1740825,0.13255394,1.2707256,-0.016622722,-0.051757276,0.062659994,1.2583314,0.07972725
0.1,0.1,1.0999999999999999,0.0,-0.5235987755982988,0,-0.83668756,0.3250471,-0.94620913,0.84378666,-0.8518791,1.546326,-2.1590977,-0.11969326,1.330136,0.04787353,-0.07776198,0.010653339,1.3068306,0.49411115
0.1,0.1,1.0999999999999999,0.0,-0.5235987755982988,0,-0.83735234,0.3253728,-0.94367355,0.8395861,-0.84918576,1.5457503,-2.1744556,-1.7203636,1.3003441,-0.079853766,-0.086630054,-0.024796203,1.2181449,0.55445045
0.1,0.1,1.0999999999999999,0.0,-0.5235987755982988,0,-0.836203,0.32331616,-0.9448134,0.84118783,-0.85154647,1.5457772,-2.1803446,-0.2086172,1.2625364,-0.037705217,-0.08476155,-0.089398585,1.1925014,-1.0162675
0.1,0.1,1.0999999999999999,0.0,-0.5235987755982988,0,-0.8371811,0.32421023,-0.9440299,0.8395241,-0.85061705,1.5431883,-2.1650755,-0.041192662,1.3331013,0.07048877,-0.066107675,0.033917394,1.1450369,2.1201336
0.1,0.1,1.0999999999999999,0.0,-0.5235987755982988,0,-0.8369949,0.32501623,-0.94475913,0.84338075,-0.85412425,1.5466988,-2.149575,-1.5254602,1.3482726,0.10035682,-0.065156154,0.1259777,1.241107,-0.5091573
0.1,0.1,1.0999999999999999,0.0,-0.5235987755982988,0,-0.8359297,0.3242339,-0.94563955,0.838601,-0.85206157,1.544462,-2.1778162,-0.9077266,1.3377585,-0.21187559,-0.04785399,-0.08597802,1.2357433,0.08981685
0.1,0.1,1.0999999999999999,0.0,-0.5235987755982988,0,-0.8377104,0.32225126,-0.9431053,0.84231406,-0.853087,1.5450882,-2.1614525,-0.5395004,1.2671632,0.208876,-0.042419888,0.075899184,1.2535522,1.3296807
0.1,0.1,1.0999999999999999,0.0,-0.5235987755982988,0,-0.8371936,0.3243146,-0.9441907,0.84424275,-0.8525785,1.5475829,-2.1614993,0.44867766,1.3426105,0.007087894,-0.08213569,0.0070769596,1.1941892,-0.02715593
0.1,0.1,1.0999999999999999,0.0,-0.5235987755982988,0,-0.8366347,0.3239231,-0.9449066,0.83753973,-0.8554618,1.5442979,-2.1594727,-0.40339437,1.3284155,0.17772809,-0.017893841,2.2330018e-05,1.2296613,-0.3869662
0.1,0.1,1.0999999999999999,0.0,-0.5235987755982988,0,-0.8365121,0.32324386,-0.94407064,0.842036,-0.8484552,1.5467439,-2.1721509,0.10447455,1.3170444,0.03107902,-0.067405425,-0.10635527,1.187673,0.4289898
0.1,0.1,1.0999999999999999,0.0,-0.5235987755982988,0,-0.8375559,0.3220914,-0.944184,0.83877003,-0.8483255,1.5425736,-2.1798542,0.20466518,1.3463762,0.047280755,-0.071051754,-0.024155669,1.2339252,1.2807673
0.1,0.1,1.0999999999999999,0.0,-0.5235987755982988,0,-0.8372557,0.32264498,-0.9454251,0.8419424,-0.8506758,1.5471803,-2.1583197,-1.6294079,1.3777266,0.025342587,-0.05961553,0.012247169,1.2140889,-0.19726378
0.1,0.1,1.0999999999999999,0.0,-0.5235987755982988,0,-0.83663243,0.32368267,-0.9448919,0.8427754,-0.85081404,1.5450193,-2.1750922,-0.6066609,1.3200306,-0.06128969,-0.07694358,-0.14433008,1.2277143,-0.54614043
0.1,0.1,1.0999999999999999,0.0,-0.5235987755982988,0,-0.8357824,0.32274368,-0.9451812,0.842735,-0.8484215,1.545025,-2.1671798,0.68212163,1.3585675,-0.1370213,-0.06554316,-0.033422116,1.2656904,0.27889073
0.1,0.1,1.0999999999999999,0.0,-0.5235987755982988,0,-0.83677745,0.32418835,-0.9448904,0.84299254,-0.85009813,1.5449361,-2.1726255,1.1656328,1.2892536,0.063983396,-0.035778496,-0.039719354,1.2099953,0.1849054
0.1,0.1,1.0999999999999999,0.0,-0.5235987755982988,0,-0.836677,0.32215312,-0.94510466,0.8415783,-0.8505309,1.544067,-2.173748,-2.6030579,1.2782273,-0.13457708,-0.06464697,0.1449021,1.19229,0.040484305
0.1,0.1,1.0999999999999999,0.0,-0.5235987755982988,0,-0.8363019,0.3229375,-0.9458594,0.84440243,-0.84895885,1.5447516,-2.1656098,0.1121285,1.3284497,-0.0036780185,-0.04843613,0.06543855,1.2525394,1.6540816
0.1,0.1,1.0999999999999999,0.0,-0.5235987755982988,0,-0.83719707,0.32389665,-0.9445376,0.83996373,-0.84939265,1.5448058,-2.1690867,0.7255963,1.291606,-0.30956846,-0.037071194,0.01968916,1.1826501,-0.10640668
0.1,0.1,1.0999999999999999,0.0,-0.5235987755982988,0,-0.8362234,0.32391366,-0.9447473,0.8411397,-0.8549142,1.5458187,-2.1776834,-0.88742226,1.3051014,-0.12036477,-0.0489169,-0.046233013,1.2035004,-0.057200033
0.1,0.1,1.0999999999999999,0.0,-0.5235987755982988,0,-0.8356912,0.32391042,-0.9452606,0.8432158,-0.855154,1.5440539,-2.1737864,1.7696778,1.3003242,-0.115383185,-0.053556837,0.010397508,1.2274755,0.91392016
0.1,0.1,1.0999999999999999,0.0,-0.5235987755982988,0,-0.8368094,0.32377532,-0.94530606,0.838823,-0.8504877,1.5456704,-2.1645985,0.95746577,1.3441318,0.060421027,-0.057441168,0.10632577,1.1813974,1.2286994
0.1,0.1,1.0999999999999999,0.0,-0.5235987755982988,0,-0.8370273,0.3242018,-0.94442064,0.83862,-0.8529089,1.5456212,-2.163694,0.89844656,1.2799363,-0.24696012,-0.04028849,0.16122493,1.2583327,-0.39327565
0.1,0.1,1.0999999999999999,0.0,-0.5235987755982988,0,-0.83635306,0.3240068,-0.94465494,0.84416693,-0.85081947,1.5440978,-2.1680837,0.3704506,1.3142595,-0.04719885,-0.051025406,0.059583332,1.1474636,-0.09696869
0.1,0.1,1.0999999999999999,0.0,-0.5235987755982988,0,-0.83593625,0.32360235,-0.9458545,0.8394058,-0.85226744,1.5467477,-2.1657732,0.37686706,1.2606316,0.12121982,-0.041545108,0.021081358,1.2626889,0.6705253
0.1,0.1,1.0999999999999999,0.0,-0.5235987755982988,0,-0.83670324,0.32442746,-0.9451122,0.84168094,-0.85049844,1.5462285,-2.176904,-0.24823116,1.2914548,0.0011435254,-0.052535597,-0.25423974,1.2253675,1.2471303
0.1,0.1,1.0999999999999999,0.0,-0.5235987755982988,0,-0.83611846,0.3239683,-0.94391954,0.8404151,-0.85151404,1.5440104,-2.1622062,0.30939838,1.3515859,-0.12924775,-0.06109512,0.03746055,1.211513,-0.5640005
0.1,0.1,1.0999999999999999,0.0,-0.5235987755982988,0,-0.8372806,0.32461774,-0.9449876,0.84447324,-0.8516003,1.54589,-2.1789324,0.9314512,1.253116,-0.062359955,-0.017520014,-0.018638967,1.2218107,0.19385947
0.1,0.1,1.0999999999999999,0.0,-0.5235987755982988,0,-0.83576006,0.32350558,-0.9448408,0.8417997,-0.8512883,1.5448204,-2.175077,1.5357888,1.403002,-0.06418017,-0.053156078,0.00024265928,1.2369916,1.4679941
0.1,0.1,1.0999999999999999,0.0,-0.5235987755982988,0,-0.836785,0.32316643,-0.9452279,0.8466843,-0.8503517,1.5432411,-2.1709306,0.05237982,1.3977559,-0.15964587,-0.05721967,-0.021547966,1.1729739,-0.23747845
0.1,0.1,1.0999999999999999,0.0,-0.5235987755982988,0,-0.83752114,0.3228422,-0.94508773,0.83782,-0.84977216,1.545295,-2.1767762,0.43307975,1.2711993,-0.025184207,-0.041190535,0.112149544,1.1809772,-0.29503414
0.1,0.1,1.0999999999999999,0.0,-0.5235987755982988,0,-0.8370393,0.3249574,-0.94452775,0.8452384,-0.85272694,1.5431592,-2.173012,0.44329643,1.3215368,-0.16843998,-0.05669149,-0.01996681,1.2207874,2.2256057
0.1,0.1,1.0999999999999999,0.0,-0.5235987755982988,0,-0.83643246,0.32476798,-0.945251,0.84338486,-0.8485207,1.5440246,-2.1629634,-0.4952708,1.2917918,0.12123219,-0.049677677,0.030809121,1.2137554,-1.478791
0.1,0.1,1.0999999999999999,0.0,-0.5235987755982988,0,-0.8368358,0.32302928,-0.94411874,0.8408315,-0.84947455,1.5457215,-2.1689851,1.6933475,1.3021272,0.1639929,-0.04616614,-0.09428747,1.2648242,0.6697041
0.1,0.1,1.0999999999999999,0.0,-0.5235987755982988,0,-0.83698446,0.32254553,-0.9436659,0.8433616,-0.8515806,1.5448639,-2.1631627,0.02906678,1.3200451,-0.052526593,-0.08214762,0.13903551,1.2524005,0.16939926
0.1,0.1,1.0999999999999999,0.0,-0.5235987755982988,0,-0.8372406,0.32419395,-0.9439861,0.84447676,-0.8496001,1.545003,-2.1523976,-1.0413721,1.2340269,0.04900356,-0.072125256,-0.074390925,1.2186093,0.6439836
0.1,0.1,1.0999999999999999,0.0,-0.5235987755982988,0,-0.8360481,0.32355848,-0.9462468,0.83877677,-0.84886426,1.5453262,-2.17564,0.82348704,1.293946,-0.12306784,-0.06069536,-0.023178507,1.2694222,-0.52628934
0.1,0.1,1.0999999999999999,0.0,-0.5235987755982988,0,-0.83538055,0.32217088,-0.94451064,0.844561,-0.85036236,1.5422705,-2.1666415,1.0215391,1.2949164,-0.13994473,-0.05481974,0.06339369,1.2375023,1.0685668
0.1,0.1,1.0999999999999999,0.0,-0.5235987755982988,0,-0.8367204,0.32258248,-0.94487923,0.8444966,-0.8499535,1.546438,-2.1667445,-0.696617,1.3237886,0.22315359,-0.074184194,0.16784497,1.2080973,0.095183164
0.1,0.1,1.0999999999999999,0.0,-0.5235987755982988,0,-0.83697885,0.32347035,-0.9450802,0.84285975,-0.84824866,1.544841,-2.166892,0.3074155,1.3418773,0.103587545,-0.03905109,0.09497339,1.1721072,0.16422194
0.1,0.1,1.0999999999999999,0.0,-0.5235987755982988,0,-0.83710665,0.32297617,-0.9447945,0.8433254,-0.8519285,1.5452496,-2.1709304,-0.26480073,1.2724302,-0.16247489,-0.018809002,-0.018894723,1.2392285,-0.31036437
0.1,0.1,1.0999999999999999,0.0,-0.5235987755982988,0,-0.8369002,0.32296368,-0.9439704,0.8403403,-0.85133964,1.5448102,-2.1696675,1.2026021,1.3895593,0.16740839,-0.030465793,-0.0006780737,1.2431884,0.5553085
0.1,0.1,1.0999999999999999,0.0,-0.5235987755982988,0,-0.83701485,0.3236539,-0.94412893,0.84094346,-0.8505603,1.5461986,-2.1705217,1.226956,1.317312,0.12375015,-0.10202138,-0.18815659,1.1695119,1.0737
0.1,0.1,1.0999999999999999,0.0,-0.5235987755982988,0,-0.8367711,0.32334515,-0.9447929,0.84031737,-0.85195595,1.5468264,-2.1663003,0.47553897,1.3432683,0.15387885,-0.045034423,0.037418228,1.251639,0.26689833
0.1,0.1,1.0999999999999999,0.0,-0.5235987755982988,0,-0.8368736,0.32515743,-0.946205,0.84314793,-0.85364217,1.5439078,-2.171102,1.2976425,1.3358672,-0.010684987,-0.059717614,-0.0059145773,1.2580059,-0.25398728
0.1,0.1,1.0999999999999999,0.0,-0.5235987755982988,0,-0.83721095,0.32326627,-0.94484603,0.8434387,-0.8532921,1.5434709,-2.157528,0.9442735,1.2738639,0.057856858,-0.04200306,0.037772346,1.1802753,0.42394015
0.1,0.1,1.0999999999999999,0.0,-0.5235987755982988,0,-0.83766764,0.32425362,-0.9445476,0.8413206,-0.8523395,1.5457724,-2.1574962,1.3680584,1.2645857,-0.10307102,-0.061857168,-0.009825792,1.2036963,1.1234554
0.1,0.1,1.0999999999999999,0.0,-0.5235987755982988,0,-0.8364579,0.32262093,-0.94477534,0.8412993,-0.8501709,1.5435715,-2.1738791,0.81341976,1.2927723,-0.038131874,-0.047684446,-0.07590794,1.2285339,1.2175248
0.1,0.1,1.0999999999999999,0.0,-0.5235987755982988,0,-0.83650386,0.32320148,-0.94448346,0.8387999,-0.84768087,1.5454053,-2.1721048,-0.9752096,1.3571004,-0.36941162,-0.0671355,-0.10697301,1.2763989,-0.1354458
0.1,0.1,1.0999999999999999,0.0,-0.5235987755982988,0,-0.8358556,0.32383493,-0.9452204,0.8399863,-0.85048103,1.5460436,-2.167452,0.5244725,1.3149514,0.030355636,-0.073033474,-0.010043809,1.2326803,0.8825511
0.1,0.1,1.0999999999999999,0.0,-0.5235987755982988,0,-0.83650863,0.3247027,-0.94469374,0.8402017,-0.8521164,1.54598,-2.1800046,0.22376364,1.3774033,-0.10888659,-0.071707696,0.0122458,1.2106392,1.1006553
0.1,0.1,1.0999999999999999,0.0,-0.5235987755982988,0,-0.8366612,0.32307622,-0.94487125,0.8413495,-0.8505181,1.5454316,-2.1595948,-0.26662114,1.2755015,0.089808,-0.043862235,0.06627333,1.272583,1.1307229
0.1,0.1,1.0999999999999999,0.0,-0.5235987755982988,0,-0.837092,0.32306835,-0.9443203,0.8409493,-0.85223556,1.5455877,-2.1634972,0.61426896,1.3116534,0.21863292,-0.07224349,-0.13304831,1.1879975,0.2792543
0.1,0.1,1.0999999999999999,0.0,-0.5235987755982988,0,-0.8366251,0.32339093,-0.94491136,0.84225434,-0.8512135,1.546028,-2.1613836,0.17416435,1.3555176,-0.2494913,-0.0694962,0.16182902,1.1672896,0.12895392
0.1,0.1,1.0999999999999999,0.0,-0.5235987755982988,0,-0.836508,0.32361096,-0.94528955,0.84136647,-0.8513988,1.5444154,-2.1623275,0.23287813,1.3468984,-0.16864687,-0.0677471,-0.02548106,1.2231425,0.23150176
0.1,0.1,1.0999999999999999,0.0,-0.5235987755982988,0,-0.8378156,0.3235309,-0.9456435,0.8415269,-0.849117,1.5457381,-2.1592307,1.3523293,1.2804577,0.00037886846,-0.053938273,-0.018260334,1.2546773,-1.2105664
0.1,0.1,1.0999999999999999,0.0,-0.5235987755982988,0,-0.8382613,0.32219097,-0.94513786,0.8384212,-0.8495908,1.5485911,-2.1576118,1.1232557,1.3291612,0.07419266,-0.11534977,0.009508003,1.2451398,0.16506188
0.1,0.1,1.0999999999999999,0.0,-0.5235987755982988,0,-0.8369723,0.3229588,-0.94447726,0.8436766,-0.85124487,1.5449942,-2.167689,1.6185563,1.287246,-0.04011795,-0.06379458,0.096786,1.194772,-0.23808183
0.1,0.1,1.0999999999999999,0.0,-0.5235987755982988,0,-0.8377629,0.32468128,-0.9448822,0.84260035,-0.85411507,1.5450606,-2.1612673,0.46173665,1.311155,-0.066619545,-0.046217132,-0.14049013,1.2239251,-0.3659105
0.1,0.1,1.0999999999999999,0.0,-0.5235987755982988,0,-0.8373468,0.3225932,-0.94358194,0.84106076,-0.8543018,1.544926,-2.1679254,-0.092058174,1.2829082,-0.0502055,-0.04167668,0.12113739,1.1877084,-1.9496855
0.1,0.1,1.0999999999999999,0.0,-0.5235987755982988,0,-0.8379596,0.32289916,-0.94504076,0.8422209,-0.85168004,1.5480051,-2.1591268,-0.05075852,1.3311167,0.0076267864,-0.047162607,-0.17574474,1.2258749,1.5802227
0.1,0.1,1.0999999999999999,0.0,-0.5235987755982988,0,-0.8372547,0.3239595,-0.9439747,0.8416771,-0.84926623,1.5455414,-2.1717849,0.88663095,1.2543992,0.26680663,-0.08670825,0.071527876,1.2476336,0.19526802
0.1,0.1,1.0999999999999999,0.0,-0.5235987755982988,0,-0.83753484,0.32311374,-0.9447785,0.8422537,-0.8553498,1.5462205,-2.1748617,-0.23669815,1.2144163,0.20570207,-0.06191915,0.0431861,1.1879332,-0.865705
0.1,0.1,1.0999999999999999,0.0,-0.5235987755982988,0,-0.8354603,0.32196245,-0.9446552,0.8444645,-0.8499766,1.5456816,-2.167265,0.53776824,1.3369496,-0.002532458,-0.04383725,0.053369723,1.2217711,1.0309994
0.1,0.1,1.0999999999999999,0.0,-0.5235987755982988,0,-0.8363558,0.32448554,-0.9468314,0.8411295,-0.85434926,1.5447077,-2.176426,0.35355476,1.3790122,-0.010918809,-0.06837976,-0.054513656,1.2247415,0.3657569
0.1,0.1,1.0999999999999999,0.0,-0.5235987755982988,0,-0.8365346,0.3241265,-0.94527763,0.8433178,-0.8512942,1.5449888,-2.1744735,1.1974326,1.368616,-0.13050774,-0.08879429,-0.009479846,1.2403611,0.18524238
0.1,0.1,1.0999999999999999,0.0,-0.5235987755982988,0,-0.8362818,0.3232128,-0.9435697,0.8422455,-0.849295,1.5435859,-2.1734858,1.2129079,1.3543346,0.15554266,-0.07582873,0.035960596,1.182839,1.1469846
0.1,0.1,1.0999999999999999,0.0,-0.5235987755982988,0,-0.83634645,0.324404,-0.9469076,0.84019774,-0.8497631,1.5443954,-2.165775,0.62483716,1.3573291,0.28395566,-0.06665267,-0.013420973,1.2673382,1.1363574
0.1,0.1,1.0999999999999999,0.0,-0.5235987755982988,0,-0.8361118,0.32340428,-0.94396776,0.8390928,-0.8500148,1.5456607,-2.1695209,1.0861244,1.2767338,-0.27689892,-0.039305553,0.03664674,1.2031758,0.3576599
0.1,0.1,1.0999999999999999,0.0,-0.5235987755982988,0,-0.83622247,0.3243046,-0.94424194,0.84039456,-0.85382175,1.5447716,-2.1620195,-0.63620186,1.278612,-0.17660117,-0.060465746,0.010400065,1.1963682,-0.18313627
0.1,0.1,1.0999999999999999,0.0,-0.5235987755982988,0,-0.8365019,0.3232575,-0.9446666,0.8437529,-0.85212505,1.5444916,-2.1600952,0.6398965,1.2813724,-0.21008717,-0.076945305,0.042558625,1.1378905,0.11852794
0.1,0.1,1.0999999999999999,0.0,-0.5235987755982988,0,-0.83668035,0.32447147,-0.94395196,0.842347,-0.8519179,1.5439218,-2.1694448,-0.9498201,1.348182,0.014326807,-0.075333536,-0.028097613,1.178772,1.4044253
0.1,0.1,1.0999999999999999,0.0,-0.5235987755982988,0,-0.83635145,0.32471946,-0.9452332,0.84245074,-0.8494514,1.5438312,-2.1594303,1.2384789,1.2440207,0.06218063,-0.07345277,-0.02627513,1.2223581,-0.15844312
0.1,0.1,1.0999999999999999,0.0,-0.5235987755982988,0,-0.837417,0.32394415,-0.94475645,0.84115434,-0.8547501,1.5455543,-2.1622276,-0.42919895,1.349241,-0.08434769,-0.06322101,-0.077818856,1.2564771,1.0128074
0.1,0.1,1.0999999999999999,0.0,-0.5235987755982988,0,-0.83825046,0.32363084,-0.9443978,0.8382613,-0.854044,1.5428172,-2.1548178,0.9663872,1.2782644,-0.023832904,-0.085165486,0.028942952,1.2306446,-1.0363483
0.1,0.1,1.0999999999999999,0.0,-0.5235987755982988,0,-0.83604276,0.3244314,-0.945311,0.83885753,-0.853684,1.5424237,-2.1691391,0.80983096,1.2714546,-0.19197561,-0.07458322,-0.0014401603,1.2356732,-0.1251751
0.1,0.1,1.0999999999999999,0.0,-0.5235987755982988,0,-0.8365336,0.3235035,-0.94505984,0.84013945,-0.8500757,1.5458138,-2.1709135,0.29192618,1.3658818,-0.008701449,-0.028433956,-0.010605331,1.2541679,0.13966
0.1,0.1,1.0999999999999999,0.0,-0.5235987755982988,0,-0.8366931,0.3232144,-0.9463298,0.840924,-0.85182697,1.5461047,-2.1723685,0.48484495,1.2901638,-0.15043342,-0.0501526,-0.06206327,1.2004175,1.414652
0.1,0.1,1.0999999999999999,0.0,-0.5235987755982988,0,-0.83716625,0.32244107,-0.94558764,0.8371236,-0.8490984,1.5462022,-2.1760573,0.56399316,1.3118647,0.10746566,-0.056234565,-0.014223265,1.3427036,0.06695774
0.1,0.1,1.0999999999999999,0.0,-0.5235987755982988,0,-0.83575165,0.32159987,-0.94374186,0.84456235,-0.8504278,1.5427698,-2.174019,-0.09443098,1.3706574,-0.2874592,-0.04103412,-0.07591906,1.1919967,0.82928264
0.1,0.1,1.0999999999999999,0.0,-0.5235987755982988,0,-0.83691764,0.32382825,-0.94519776,0.84013885,-0.8530906,1.5465754,-2.1547747,-0.1944933,1.2651144,0.35581487,-0.05475147,0.16449745,1.2111909,-0.25914493
0.1,0.1,1.0999999999999999,0.0,-0.5235987755982988,0,-0.83678323,0.32388502,-0.94561094,0.8397441,-0.84782207,1.5439963,-2.1749876,0.47715914,1.331622,0.15963542,-0.05423804,0.018594738,1.2268279,0.3133015
0.1,0.1,1.0999999999999999,0.0,-0.5235987755982988,0,-0.8368234,0.3225987,-0.9459979,0.8426504,-0.85529965,1.5447632,-2.1599183,-0.79746556,1.3550394,0.0064048576,-0.05245654,-0.058764,1.1807164,0.5303863
0.1,0.1,1.0999999999999999,0.0,-0.5235987755982988,0,-0.8365752,0.32326004,-0.94596356,0.8400361,-0.8457472,1.54531,-2.1675842,1.338515,1.2505801,-0.13653046,-0.042574354,-0.0029970838,1.2246767,0.23532644
0.1,0.1,1.0999999999999999,0.0,-0.5235987755982988,0,-0.83543473,0.3244507,-0.9442229,0.8470618,-0.8467387,1.5462472,-2.1641197,-0.19018936,1.2060412,-0.11259588,-0.049398042,0.025444258,1.2168158,-0.35019565
0.1,0.1,1.0999999999999999,0.0,-0.5235987755982988,0,-0.83567905,0.3242838,-0.9441741,0.8441209,-0.85339254,1.5458146,-2.174338,-0.4087632,1.3515447,0.086444855,-0.06881768,-0.05223063,1.3069247,0.15357076
0.1,0.1,1.0999999999999999,0.0,-0.5235987755982988,0,-0.83614373,0.32517627,-0.94442356,0.84221065,-0.8519967,1.5448115,-2.1764452,-0.65207165,1.3726511,-0.17229505,-0.06716277,0.0062123686,1.1556183,0.39848122
0.1,0.1,1.0999999999999999,0.0,-0.5235987755982988,0,-0.83604246,0.32419705,-0.9439019,0.8454991,-0.85135126,1.5467974,-2.1656682,0.15141699,1.2495397,0.09552679,-0.05333938,-0.021672571,1.164587,0.0030719151
0.1,0.1,1.0999999999999999,0.0,-0.5235987755982988,0,-0.83637816,0.324539,-0.944164,0.8430995,-0.8474198,1.546088,-2.1660762,0.31460762,1.3294559,0.016855564,-0.03481522,0.073018275,1.1770782,-0.30818915
0.1,0.1,1.0999999999999999,0.0,-0.5235987755982988,0,-0.836998,0.32582068,-0.9455958,0.84403276,-0.8514877,1.5443665,-2.1586719,0.44174844,1.2722626,-0.06362845,-0.081965916,-0.018789198,1.1893766,0.7707795
0.1,0.1,1.0999999999999999,0.0,-0.5235987755982988,0,-0.8349598,0.32419392,-0.943972,0.8468804,-0.8524234,1.5462928,-2.1685555,-0.7621028,1.2476978,-0.043716967,-0.072170794,-0.036769915,1.2192044,1.2714196
0.1,0.1,1.0999999999999999,0.0,-0.5235987755982988,0,-0.8363399,0.32552254,-0.94525295,0.8420916,-0.8471843,1.5445659,-2.173102,-0.029587157,1.3242065,-0.06644652,-0.037965085,0.040884715,1.2488594,1.0127738
0.1,0.1,1.0999999999999999,0.0,-0.5235987755982988,0,-0.83544016,0.3248963,-0.94449097,0.84091955,-0.8522492,1.5461427,-2.1699395,-0.25217262,1.2271193,-0.15097526,-0.058377173,-0.11960205,1.2258466,0.16217159
0.1,0.1,1.0999999999999999,0.0,-0.5235987755982988,0,-0.8358185,0.32312813,-0.94451493,0.8423149,-0.85052735,1.5441196,-2.169212,1.4964865,1.3005631,-0.10487508,-0.08545316,0.021255711,1.278617,-0.14794585
0.1,0.1,1.0999999999999999,0.0,-0.5235987755982988,0,-0.8364527,0.323492,-0.944629,0.84153825,-0.85039943,1.5454,-2.1645644,1.705673,1.3770839,-0.19809316,-0.07069752,0.017118836,1.2337699,0.256267
0.1,0.1,1.0999999999999999,0.0,-0.5235987755982988,0,-0.8365444,0.32396904,-0.9426668,0.84434116,-0.85062444,1.5460101,-2.1657953,0.3714996,1.3675753,0.117606364,-0.09774237,0.2018897,1.227231,0.29211676
0.1,0.1,1.0999999999999999,0.0,-0.5235987755982988,0,-0.83678454,0.3240095,-0.9432468,0.8400083,-0.8491622,1.5455183,-2.163917,1.005135,1.2660375,-0.075972706,-0.0785472,0.025990745,1.2130361,-0.9601582
0.1,0.1,1.0999999999999999,0.0,-0.5235987755982988,0,-0.8361391,0.3243509,-0.9437858,0.84371376,-0.84850496,1.5437142,-2.1630313,0.075360596,1.2870553,-0.22728716,-0.048980143,-0.050655928,1.2587126,-0.6353786
0.1,0.1,1.0999999999999999,0.0,-0.5235987755982988,0,-0.83665115,0.32440835,-0.94396955,0.84560865,-0.84836876,1.545001,-2.1619532,-0.7769677,1.2913847,0.065843455,-0.06323068,-0.015629135,1.2496804,-0.09604521
0.1,0.1,1.0999999999999999,0.0,-0.5235987755982988,0,-0.83555585,0.32413942,-0.94470316,0.8360042,-0.8511367,1.5456988,-2.1547391,0.042225912,1.2981155,-0.0041910363,-0.057946663,0.11097779,1.24971,-0.15648267
0.1,0.1,1.0999999999999999,0.0,-0.5235987755982988,0,-0.8361305,0.32318938,-0.943458,0.8421565,-0.84805995,1.5449235,-2.1585186,0.18428917,1.2696897,0.09656873,-0.038349874,0.1743734,1.1935117,0.3305703
0.1,0.1,1.0999999999999999,0.0,-0.5235987755982988,0,-0.8366539,0.32540202,-0.94428647,0.84191895,-0.84690905,1.5461913,-2.155266,0.32996815,1.3578143,-0.048686057,-0.08077151,0.03176987,1.2668364,-1.397157
0.1,0.1,1.0999999999999999,0.0,-0.5235987755982988,0,-0.8358502,0.3259068,-0.94470197,0.8429078,-0.84994453,1.5463345,-2.164001,0.051711187,1.3239361,-0.045778662,-0.08735002,0.04191048,1.2107116,0.63976073
0.1,0.1,1.0999999999999999,0.0,-0.5235987755982988,0,-0.83690184,0.32435155,-0.94468254,0.8393917,-0.8504199,1.5465878,-2.1664228,0.7870925,1.3239845,0.11363417,-0.041530088,0.0651718,1.2580222,-0.54280627
0.1,0.1,1.0999999999999999,0.0,-0.5235987755982988,0,-0.8352731,0.3244947,-0.9451354,0.84355605,-0.85131246,1.5458395,-2.164003,0.07428852,1.2995192,0.09434155,-0.045731183,0.107822366,1.2167457,0.098999865
0.1,0.1,1.0999999999999999,0.0,-0.5235987755982988,0,-0.8357283,0.32357436,-0.94343054,0.8423864,-0.8492327,1.5456661,-2.1714778,1.2587473,1.2674284,-0.12310492,-0.04294696,0.06624355,1.2554744,0.11038042
0.1,0.1,1.0999999999999999,0.0,-0.5235987755982988,0,-0.8354036,0.32418352,-0.9444656,0.8423621,-0.85032547,1.5462278,-2.1664135,0.63608503,1.4213157,-0.22567607,-0.08664266,-0.03526944,1.2074924,-0.45009828
0.1,0.1,1.0999999999999999,0.0,-0.5235987755982988,0,-0.8372617,0.3232724,-0.9448133,0.84328526,-0.8532989,1.5461571,-2.1586444,-0.50343055,1.254859,-0.23475398,-0.03839311,0.055900183,1.2350549,1.0836508
0.1,0.1,1.0999999999999999,0.0,-0.5235987755982988,0,-0.8357532,0.32245588,-0.94444597,0.8417813,-0.8506821,1.5457474,-2.1547546,0.9725251,1.2895888,0.06629473,-0.08438108,0.08329229,1.216864,1.0941929
0.1,0.1,1.0999999999999999,0.0,-0.5235987755982988,0,-0.8376309,0.32343253,-0.9443171,0.84329474,-0.85071456,1.543737,-2.1823587,0.78982687,1.371749,0.0022002128,-0.08379483,-0.1031429,1.2396784,-0.40717793
0.1,0.1,1.0999999999999999,0.0,-0.5235987755982988,0,-0.8371457,0.3248045,-0.9442119,0.84852046,-0.8496205,1.5460463,-2.163777,0.6520177,1.3108923,-0.048678614,-0.08569472,-0.09917164,1.2185261,-0.17649394
0.1,0.1,1.0999999999999999,0.0,-0.5235987755982988,0,-0.8363313,0.32465363,-0.9445399,0.84366775,-0.84656566,1.5466805,-2.162999,1.4728185,1.3058434,-0.04453501,-0.05832735,-0.034140166,1.2439733,0.48119545
0.1,0.1,1.0999999999999999,0.0,-0.5235987755982988,0,-0.83738595,0.3260463,-0.94484925,0.8455677,-0.8475105,1.5450562,-2.1745574,-0.34058335,1.3828158,0.06676785,-0.05003898,-0.07973901,1.226387,0.19601303
0.1,0.1,1.0999999999999999,0.0,-0.5235987755982988,0,-0.83663344,0.32390428,-0.94504845,0.8412342,-0.8516576,1.5457428,-2.1798978,0.45456755,1.2439537,0.10870227,-0.030886427,-0.111400865,1.2048914,0.40747547
0.1,0.1,1.0999999999999999,0.0,-0.5235987755982988,0,-0.8369867,0.32313952,-0.9443989,0.8428309,-0.84761715,1.5442721,-2.1658025,0.3048673,1.3108623,0.32010213,-0.06545465,0.05118221,1.1538827,-0.10206015
0.1,0.1,1.0999999999999999,0.0,-0.5235987755982988,0,-0.83658814,0.32388368,-0.94567907,0.8429541,-0.85064584,1.5454828,-2.1578724,0.4566302,1.253076,0.007989954,-0.08768076,-0.10693395,1.2638533,1.3971334
0.1,0.1,1.0999999999999999,0.0,-0.5235987755982988,0,-0.8369184,0.32402372,-0.9441495,0.84603447,-0.8510693,1.5435146,-2.1708825,-0.2554757,1.2235118,-0.15284039,-0.08024682,0.037072066,1.1711422,-0.10837994
0.1,0.1,1.0999999999999999,0.0,-0.5235987755982988,0,-0.8369277,0.3247713,-0.9446892,0.84061927,-0.8479366,1.5472295,-2.1764371,-0.13020463,1.3380575,0.108548276,-0.031147363,0.13234453,1.2091033,-0.07479082
0.1,0.1,1.0999999999999999,0.0,-0.5235987755982988,0,-0.8349524,0.3238065,-0.94447905,0.84337455,-0.8500054,1.5456285,-2.1653621,0.74590886,1.2270799,-0.1557973,-0.033441417,-0.04138775,1.2460904,-0.7351872
0.1,0.1,1.0999999999999999,0.0,-0.5235987755982988,0,-0.83584374,0.3228343,-0.94478315,0.8449632,-0.8532832,1.5461297,-2.1624277,1.9147403,1.2806438,0.02088934,-0.051212523,-0.08356224,1.2825768,0.43068287
0.1,0.1,1.0999999999999999,0.0,-0.5235987755982988,0,-0.83746046,0.3246165,-0.9438693,0.8385105,-0.84918857,1.5466744,-2.170687,0.48583803,1.3882746,0.10473393,-0.11523853,-0.12616429,1.2565224,1.4191333
0.1,0.1,1.0999999999999999,0.0,-0.5235987755982988,0,-0.8354924,0.32413995,-0.94322646,0.8432942,-0.85265505,1.5452863,-2.1663408,-0.239224,1.3228956,-0.18653028,-0.10066446,0.20557901,1.2283449,0.005328995
0.1,0.1,1.0999999999999999,0.0,-0.5235987755982988,0,-0.83581865,0.32455972,-0.94446117,0.8424255,-0.85013795,1.5450869,-2.1720362,2.2457945,1.3939853,0.06505872,-0.028264906,0.12672228,1.1972754,0.05851581
0.1,0.1,1.0999999999999999,0.0,-0.5235987755982988,0,-0.835546,0.32348174,-0.9446153,0.84097105,-0.85056746,1.5463709,-2.1658711,1.3057697,1.363344,-0.013797485,-0.047863815,0.0995344,1.2003582,-0.3428164
0.1,0.1,1.0999999999999999,0.0,-0.5235987755982988,0,-0.83653617,0.3245401,-0.94524163,0.84697825,-0.8502292,1.5446305,-2.171163,-1.1125082,1.2572557,0.019297775,-0.07546235,-0.102559075,1.2188753,0.8064596
0.1,0.1,1.0999999999999999,0.0,-0.5235987755982988,0,-0.83598745,0.3229573,-0.94282705,0.8434694,-0.85098726,1.5449989,-2.171639,0.04494467,1.2303005,0.017002448,-0.066742815,-0.06482524,1.2906296,0.23599948
0.1,0.1,1.0999999999999999,0.0,-0.5235987755982988,0,-0.8368086,0.3244195,-0.9435987,0.8411912,-0.85271037,1.5448174,-2.1664321,-0.53528446,1.3029929,0.22946768,-0.06440151,0.13633953,1.2083704,-1.1212796
0.1,0.1,1.0999999999999999,0.0,-0.5235987755982988,0,-0.8365287,0.32428405,-0.94403213,0.8418723,-0.8498267,1.54532,-2.1598306,0.5651405,1.2673835,0.069529854,-0.10400352,0.099434294,1.2432607,0.030225862
0.1,0.1,1.0999999999999999,0.0,-0.5235987755982988,0,-0.83651245,0.32347265,-0.94460243,0.8422483,-0.8513339,1.5471321,-2.1829412,-0.15121001,1.3297728,-0.36069965,-0.055379637,0.0010086012,1.2690934,0.3277567
0.1,0.1,1.0999999999999999,0.0,-0.5235987755982988,0,-0.8354813,0.32459584,-0.9463376,0.84327066,-0.8484242,1.5428745,-2.1693697,0.041890047,1.3470378,-0.11596973,-0.030342542,0.1384346,1.2330307,1.0180157
0.1,0.1,1.0999999999999999,0.0,-0.5235987755982988,0,-0.83690035,0.3224293,-0.9457237,0.83941346,-0.8482742,1.545788,-2.1643481,0.37855497,1.3287674,-0.23332828,-0.088463075,0.04690993,1.2432467,-0.07497357
0.1,0.1,1.0999999999999999,0.0,-0.5235987755982988,0,-0.83553225,0.32309946,-0.944505,0.843613,-0.8484627,1.5448445,-2.16367,0.25864366,1.3170971,0.046781197,-0.0059192483,0.10443774,1.2451367,0.4214333
0.1,0.1,1.0999999999999999,0.0,-0.5235987755982988,0,-0.8374653,0.32352567,-0.94329065,0.8432446,-0.85329944,1.5440787,-2.16203,-0.76273286,1.3155624,0.08185059,-0.0416225,-0.0012580457,1.2520164,1.4573866
0.1,0.1,1.0999999999999999,0.0,-0.5235987755982988,0,-0.8364431,0.3232526,-0.9433082,0.8424566,-0.8539403,1.5456231,-2.1659849,1.7332307,1.367167,0.08353412,-0.08875822,0.02532493,1.186337,-0.17003278
0.1,0.1,1.0999999999999999,0.0,-0.5235987755982988,0,-0.83597916,0.32284147,-0.94489074,0.84117484,-0.8534641,1.5448028,-2.175076,-0.59505105,1.2930098,-0.14072981,-0.05857522,0.015183126,1.2378851,0.104046926
0.1,0.1,1.0999999999999999,0.0,-0.5235987755982988,0,-0.8362675,0.32393152,-0.94425875,0.8435872,-0.8487081,1.5433042,-2.173173,0.22041282,1.238425,0.13902284,-0.08659672,0.08238439,1.2574232,0.0632537
0.1,0.1,1.0999999999999999,0.0,-0.5235987755982988,0,-0.8357671,0.32267904,-0.94567275,0.8438459,-0.8489695,1.5433794,-2.169086,-0.8116108,1.3679899,0.33557928,-0.058322042,0.02128181,1.2332981,-0.39424473
0.1,0.1,1.0999999999999999,0.0,-0.5235987755982988,0,-0.83641577,0.32278338,-0.9436623,0.8397048,-0.8528318,1.5456967,-2.1500447,-0.12023736,1.3485777,0.08691324,-0.08362006,-0.06440169,1.2369748,0.35984868
0.1,0.1,1.0999999999999999,0.0,-0.5235987755982988,0,-0.83788127,0.32393658,-0.94389904,0.84538996,-0.8499086,1.5466151,-2.1710906,-0.2890769,1.3703454,0.131989,-0.070509166,0.16101287,1.2765256,0.943145
0.1,0.1,1.0999999999999999,0.0,-0.5235987755982988,0,-0.8357869,0.32444322,-0.944129,0.8431236,-0.85376424,1.5457066,-2.1621845,-0.7801786,1.2754123,-0.06113514,-0.064242564,-0.06711815,1.1971697,0.66008866
0.1,0.1,1.0999999999999999,0.0,-0.5235987755982988,0,-0.8373435,0.32532588,-0.9449477,0.84409994,-0.8497573,1.5453489,-2.1614907,-0.3515528,1.3643665,0.16939636,-0.09418993,0.038074043,1.2323756,0.48801497
0.1,0.1,1.0999999999999999,0.0,-0.5235987755982988,0,-0.8366258,0.32312873,-0.94501364,0.84028137,-0.8506679,1.5443974,-2.174731,0.9237348,1.3092024,0.1713605,-0.040405635,0.018443579,1.2165872,1.4592791
0.1,0.1,1.0999999999999999,0.0,-0.5235987755982988,0,-0.83701545,0.32447305,-0.94632393,0.8456353,-0.851123,1.5449988,-2.1748385,-1.6649065,1.3096898,-0.17081523,-0.048924517,-0.12295261,1.1527615,-0.21813628
0.1,0.1,1.0999999999999999,0.0,-0.5235987755982988,0,-0.8363844,0.3247625,-0.94478023,0.84246284,-0.8529329,1.548321,-2.1645145,-0.2970447,1.2393228,0.10140253,-0.0475343,-0.032340482,1.2021283,-0.27345857
0.1,0.1,1.0999999999999999,0.0,-0.5235987755982988,0,-0.8364116,0.32355422,-0.94466126,0.84275424,-0.8506933,1.5459698,-2.1657865,0.572585,1.374735,-0.18872562,-0.045166135,0.07652179,1.183949,-0.19053246
0.1,0.1,1.0999999999999999,0.0,-0.5235987755982988,0,-0.83558935,0.32366312,-0.9447087,0.8434138,-0.8481848,1.5463178,-2.1547494,1.5094434,1.3568207,-0.009983542,-0.053280648,-0.01182273,1.2026218,-0.08217019
0.1,0.1,1.0999999999999999,0.0,-0.5235987755982988,0,-0.8373843,0.32449058,-0.9441928,0.8436159,-0.8528356,1.5435394,-2.1831686,0.40979478,1.2705781,-0.030673748,-0.03915888,-0.071343616,1.2024766,-0.7197656
0.1,0.1,1.0999999999999999,0.0,-0.5235987755982988,0,-0.83681995,0.3248028,-0.9457809,0.83887583,-0.8536168,1.5459353,-2.1479015,0.8561857,1.2966917,0.13329516,-0.07308808,-0.078938656,1.2765473,-0.16946642
0.1,0.1,1.0999999999999999,0.0,-0.5235987755982988,0,-0.8365599,0.32292095,-0.9444873,0.84057367,-0.8508472,1.5451163,-2.1655924,1.4192418,1.2924792,-0.13880192,-0.055712186,-0.048338544,1.2664622,-0.6676548
0.1,0.1,1.0999999999999999,0.0,-0.5235987755982988,0,-0.83653694,0.3234792,-0.9445165,0.83845574,-0.8506997,1.5465995,-2.162194,1.1625713,1.2747223,-0.20881891,-0.09377268,0.111551024,1.2931541,0.94262695
0.1,0.1,1.0999999999999999,0.0,-0.5235987755982988,0,-0.836663,0.3242563,-0.94533265,0.84367436,-0.8503614,1.5439281,-2.163313,-0.3090878,1.356683,0.042960156,-0.03709143,0.0778297,1.2263652,0.493816
0.1,0.1,1.0999999999999999,0.0,-0.5235987755982988,0,-0.8370229,0.32366234,-0.94440943,0.84090704,-0.85039246,1.5447685,-2.1643217,0.21902998,1.4108442,-0.16006728,-0.08127375,-0.10078202,1.2394058,0.556803
0.1,0.1,1.0999999999999999,0.0,-0.5235987755982988,0,-0.83668685,0.32287428,-0.94475895,0.84586936,-0.84892577,1.54455,-2.1638215,-0.13847604,1.2470917,-0.004148977,-0.051311243,-0.11753125,1.2231447,-0.28707743
0.1,0.1,1.0999999999999999,0.0,-0.5235987755982988,0,-0.8371658,0.3245692,-0.94484884,0.847462,-0.8516076,1.5461334,-2.1755075,1.0209433,1.2353102,0.02395881,-0.061865725,0.11408188,1.148818,-0.11452929
0.1,0.1,1.0999999999999999,0.0,-0.5235987755982988,0,-0.8368952,0.32412162,-0.945136,0.8426552,-0.8516723,1.5446537,-2.155819,0.71810985,1.2811109,-0.07751311,-0.07408318,-0.033936195,1.2442577,0.21284258
0.1,0.1,1.0999999999999999,0.0,-0.5235987755982988,0,-0.8374065,0.32575595,-0.94339967,0.84318525,-0.85352576,1.5451673,-2.1690862,0.8074098,1.2989128,0.09949398,-0.058783893,0.10484588,1.3034889,-0.5746997
0.1,0.1,1.0999999999999999,0.0,-0.5235987755982988,0,-0.8365496,0.32394874,-0.9443746,0.84686697,-0.8527732,1.5431957,-2.1714432,0.4223909,1.2881528,0.0018111638,-0.076978855,0.10377141,1.220238,-0.26557985
0.1,0.1,1.0999999999999999,0.0,-0.5235987755982988,0,-0.836856,0.32467553,-0.9437973,0.8387887,-0.8505713,1.5459359,-2.1747146,0.8797316,1.270528,0.16310455,-0.08441294,-0.11307116,1.2376796,-0.021111423
0.1,0.1,1.0999999999999999,0.0,-0.5235987755982988,0,-0.8375165,0.3244387,-0.94523185,0.84042853,-0.85018724,1.5471807,-2.1695404,0.053045895,1.2619566,0.076629356,-0.060420007,0.008590378,1.2799346,-1.1477017
0.1,0.1,1.0999999999999999,0.0,-0.5235987755982988,0,-0.83550376,0.32389364,-0.94614637,0.84282994,-0.85380805,1.5471143,-2.1611028,-0.586304,1.2796537,0.036025994,-0.117787555,-0.14686324,1.2407777,0.5728121
0.1,0.1,1.0999999999999999,0.0,-0.5235987755982988,0,-0.8363297,0.3243901,-0.9462574,0.84052914,-0.85356444,1.5445725,-2.1699371,-0.2075696,1.2446028,0.12907,-0.06220745,0.09115511,1.23914,-0.44295824
0.1,0.1,1.0999999999999999,0.0,-0.5235987755982988,0,-0.8348727,0.3235973,-0.9444459,0.8440606,-0.85391295,1.5457921,-2.1719625,1.7427608,1.3027436,0.14814076,-0.05798558,0.015563724,1.2436887,0.25917804
0.1,0.1,1.0999999999999999,0.0,-0.5235987755982988,0,-0.8357736,0.32352608,-0.9440415,0.8394287,-0.8500237,1.5440801,-2.170451,-0.56880796,1.3860333,-0.010508592,-0.068529606,0.031822454,1.196206,1.0919812
0.1,0.1,1.0999999999999999,0.0,-0.5235987755982988,0,-0.83620316,0.323042,-0.9443365,0.84509104,-0.852557,1.5451872,-2.1735525,0.33459708,1.2819613,-0.06222131,-0.060790755,-0.050006896,1.2566625,0.29436696
0.1,0.1,1.0999999999999999,0.0,-0.5235987755982988,0,-0.83724254,0.32337657,-0.9438222,0.84124815,-0.84814095,1.5458193,-2.1758404,0.8669478,1.3204764,0.24064992,-0.055902146,0.103289135,1.2463741,-0.8703036
0.1,0.1,1.0999999999999999,0.0,-0.5235987755982988,0,-0.83818173,0.32383165,-0.944058,0.8401428,-0.851867,1.5474496,-2.1484504,-1.2620584,1.3196315,0.07430647,-0.096226096,0.19785157,1.2056855,0.05771575
0.1,0.1,1.0999999999999999,0.0,-0.5235987755982988,0,-0.8375415,0.3244453,-0.94471014,0.84200764,-0.85344774,1.5465764,-2.1881568,0.22683325,1.3107182,-0.08425207,-0.084551595,0.07832933,1.1940374,-0.031626914
0.1,0.1,1.0999999999999999,0.0,-0.5235987755982988,0,-0.83717453,0.32351044,-0.94554174,0.83897805,-0.8496605,1.5465713,-2.1638055,-0.44890976,1.2325188,0.16128887,-0.03705177,0.14394048,1.2266775,0.72976005
0.1,0.1,1.0999999999999999,0.0,-0.5235987755982988,0,-0.8362176,0.32399473,-0.9451132,0.8444048,-0.8548706,1.5443162,-2.1735237,0.7011934,1.2480941,0.06912099,-0.09185574,0.013618131,1.2265378,-0.49125803
0.1,0.1,1.0999999999999999,0.0,-0.5235987755982988,0,-0.8369182,0.3240556,-0.9436893,0.84411705,-0.8543715,1.5454204,-2.1763146,1.1218965,1.1946522,-0.17505485,-0.044831026,0.064383656,1.2268199,1.112868
0.1,0.1,1.0999999999999999,0.0,-0.5235987755982988,0,-0.8374951,0.32386708,-0.9438612,0.84322363,-0.85178494,1.5442158,-2.1733675,0.15746897,1.2230573,0.048450805,-0.010221996,-0.05296473,1.2303548,-1.2699784
0.1,0.1,1.0999999999999999,0.0,-0.5235987755982988,0,-0.83747476,0.326089,-0.9441235,0.84142727,-0.851814,1.5465014,-2.163849,0.6159853,1.3085479,0.1671953,-0.023654697,0.00093745114,1.2137886,-0.15957803
0.1,0.1,1.0999999999999999,0.0,-0.5235987755982988,0,-0.8377318,0.3243251,-0.94526035,0.83999604,-0.8491953,1.5452554,-2.1741493,-0.37798443,1.2990396,0.06945748,-0.06711521,-0.051745158,1.2506001,-1.2328794
0.1,0.1,1.0999999999999999,0.0,-0.5235987755982988,0,-0.8357506,0.32384393,-0.94538945,0.84267384,-0.849773,1.5451143,-2.1646008,0.014005594,1.3318862,-0.0074776527,-0.09193844,0.053166695,1.2222656,0.3586902
0.1,0.1,1.0999999999999999,0.0,-0.5235987755982988,0,-0.83643275,0.3219513,-0.94408303,0.84142697,-0.85105157,1.5449319,-2.1718717,1.819834,1.4095331,-0.11253553,-0.05596145,-0.16435155,1.2962804,-0.13397016
0.1,0.1,1.0999999999999999,0.0,-0.5235987755982988,0,-0.8362632,0.32285002,-0.9448422,0.8426514,-0.8516811,1.5448818,-2.1621525,-0.43359876,1.3502579,-0.109595746,-0.06829125,-0.06341394,1.230795,0.38574556
0.1,0.1,1.0999999999999999,0.0,-0.5235987755982988,0,-0.8361284,0.32436693,-0.94543254,0.8425968,-0.85165346,1.5423175,-2.175579,-0.52712494,1.2773186,-0.0061916546,-0.029978158,0.15049712,1.2692939,0.23993741
0.1,0.1,1.0999999999999999,0.0,-0.5235987755982988,0,-0.83607596,0.32218,-0.9450118,0.84084034,-0.85396796,1.5473771,-2.1789432,0.5678255,1.2946266,-0.14643566,-0.03672872,0.11168694,1.2410475,0.026460202
0.1,0.1,1.0999999999999999,0.0,-0.5235987755982988,0,-0.8367958,0.32242206,-0.94357854,0.84538555,-0.852797,1.5431567,-2.1693563,-0.7034407,1.3137447,-0.109524265,-0.045290694,0.06368451,1.2355388,0.6095266
0.1,0.1,1.0999999999999999,0.0,-0.5235987755982988,0,-0.8368434,0.3236535,-0.9454595,0.8428483,-0.8503691,1.5472684,-2.178087,1.2901683,1.3453075,-0.036570065,-0.084966555,0.07115103,1.2470117,1.3324236
0.1,0.1,1.0999999999999999,0.0,-0.5235987755982988,0,-0.83722556,0.3238662,-0.9452342,0.84396833,-0.85203457,1.5455313,-2.1507804,-0.08145618,1.3609843,0.028215861,-0.056904227,0.123575784,1.2151841,0.08655292
0.1,0.1,1.0999999999999999,0.0,-0.5235987755982988,0,-0.83798474,0.32319573,-0.9455452,0.84681004,-0.8496718,1.5446393,-2.1719248,-0.27576503,1.2782477,0.004401817,-0.043486312,0.13232473,1.1690398,1.0295957
0.1,0.1,1.0999999999999999,0.0,-0.5235987755982988,0,-0.8370785,0.32420686,-0.94450283,0.84454125,-0.8506788,1.546188,-2.1661103,2.51468,1.2316887,-0.08347049,-0.10325307,-0.07850699,1.2740293,0.8420182
0.1,0.1,1.0999999999999999,0.0,-0.5235987755982988,0,-0.83664775,0.32528582,-0.94444907,0.84528136,-0.85161376,1.5452,-2.1652286,1.8951219,1.2222774,0.30935034,-0.057409227,0.105463624,1.2447187,-0.104970045
0.1,0.1,1.0999999999999999,0.0,-0.5235987755982988,0,-0.8360482,0.32462707,-0.9450056,0.84245604,-0.85090595,1.5458632,-2.1587327,0.56038034,1.2449003,0.18481399,-0.0849417,0.15986176,1.1875609,0.5532698
0.1,0.1,1.0999999999999999,0.0,-0.5235987755982988,0,-0.83705217,0.3245586,-0.9431021,0.84519494,-0.85275805,1.5454303,-2.1586576,0.20257486,1.2862864,0.029066466,-0.0714891,-0.034853004,1.1931729,0.8129246
0.1,0.1,1.0999999999999999,0.0,-0.5235987755982988,0,-0.83818257,0.32520425,-0.9436988,0.84217614,-0.851725,1.5461397,-2.1760926,0.58809394,1.260485,0.28844014,-0.062913895,-0.16406704,1.203879,0.78179824
0.1,0.1,1.0999999999999999,0.0,-0.5235987755982988,0,-0.8354238,0.32454103,-0.9434581,0.8404275,-0.8514863,1.5460874,-2.1716907,-0.3583507,1.2836589,0.14473431,-0.07560726,-0.051281743,1.1731263,0.052273866
0.1,0.1,1.0999999999999999,0.0,-0.5235987755982988,0,-0.836475,0.32242694,-0.9448783,0.84129244,-0.85147136,1.5446424,-2.174114,0.04543826,1.2227132,0.19504392,-0.0175892,-0.0037770607,1.2569797,-1.0238276
0.1,0.1,1.0999999999999999,0.0,-0.5235987755982988,0,-0.8361221,0.32484156,-0.94463384,0.84175175,-0.849088,1.5455979,-2.1675742,0.56919765,1.3563192,0.024587972,-0.062307093,0.033650525,1.2109988,-0.80791056
0.1,0.1,1.0999999999999999,0.0,-0.5235987755982988,0,-0.83614254,0.32491323,-0.94429255,0.84197515,-0.85202825,1.544193,-2.1623383,1.237753,1.2968438,-0.16704744,-0.077607036,0.08182788,1.2002797,-0.24311483
0.1,0.1,1.0999999999999999,0.0,-0.5235987755982988,0,-0.8361774,0.32411766,-0.9444516,0.8391955,-0.8502451,1.5478923,-2.1712346,0.26501223,1.2875689,0.03343776,-0.033232696,0.063557126,1.2420996,0.6713719
0.1,0.1,1.0999999999999999,0.0,-0.5235987755982988,0,-0.8360209,0.32456094,-0.9450989,0.84341186,-0.8525383,1.5449011,-2.174061,0.2160613,1.2863721,0.36120325,-0.07582676,0.055226464,1.1661768,0.7346856
0.1,0.1,1.0999999999999999,0.0,-0.5235987755982988,0,-0.83665276,0.3232024,-0.94429004,0.8430736,-0.85064685,1.5459886,-2.1669698,-0.5133227,1.2935109,-0.046126265,-0.06895653,0.08358011,1.257731,0.85025656
0.1,0.1,1.0999999999999999,0.0,-0.5235987755982988,0,-0.8371819,0.32303593,-0.9451724,0.83815765,-0.8483834,1.5451969,-2.1705759,0.36831912,1.367839,-0.12842491,-0.047169384,0.00090969907,1.23751,0.056782696
0.1,0.1,1.0999999999999999,0.0,-0.5235987755982988,0,-0.83667105,0.32402998,-0.9451384,0.84357196,-0.8514287,1.5447297,-2.172648,-0.2639147,1.2555329,0.0072362456,-0.055523578,-0.076259896,1.2134418,0.7583046
0.1,0.1,1.0999999999999999,0.0,-0.5235987755982988,0,-0.8362003,0.32427517,-0.9430196,0.8449629,-0.8527487,1.5445385,-2.1776357,0.2160781,1.3085381,-0.002634538,-0.09187744,-0.041104212,1.2472566,-0.19515958
0.1,0.1,1.0999999999999999,0.0,-0.5235987755982988,0,-0.8359402,0.32611087,-0.9451711,0.84341836,-0.84698665,1.5457451,-2.1633146,0.120710544,1.3174577,0.050295733,-0.10351387,0.09927142,1.2632507,0.83378345
0.1,0.1,1.0999999999999999,0.0,-0.5235987755982988,0,-0.83596635,0.32430583,-0.9454412,0.84522796,-0.8493749,1.5455465,-2.1709142,0.54425764,1.2554741,0.22222243,-0.083155386,-0.008494069,1.200499,1.0136772
0.1,0.1,1.0999999999999999,0.0,-0.5235987755982988,0,-0.83768785,0.32407025,-0.9430397,0.8402079,-0.8486789,1.548399,-2.1711898,0.413063,1.266373,0.21967684,-0.046255365,0.03504691,1.2267876,0.27767265
0.1,0.1,1.0999999999999999,0.0,-0.5235987755982988,0,-0.83656615,0.32340297,-0.94451076,0.8435229,-0.8536781,1.5450908,-2.1708772,-1.1137385,1.259723,-0.09201508,-0.07564444,0.15561964,1.32901,-0.07140015
