sanky1234/BimanualDexCatch/isaacgymenvs/cem_results/football_pose_-0.2_0.10000000000000003_0.7_0.0_0.5235987755982988_0_2025-05-25.csv
x,y,z,roll,pitch,yaw,robot1/joint1,robot1/joint2,robot1/joint3,robot1/joint4,robot1/joint5,robot1/joint6,robot1/joint7,robot2/joint1,robot2/joint2,robot2/joint3,robot2/joint4,robot2/joint5,robot2/joint6,robot2/joint7
-0.2,0.10000000000000003,0.7,0.0,0.5235987755982988,0,-0.16218266,1.5953265,0.98243505,0.022264773,-0.41218945,0.55957085,1.9963526,-0.70168346,-1.6972913,-0.18352196,-0.16015299,-0.07339947,1.2107137,0.75767845
-0.2,0.10000000000000003,0.7,0.0,0.5235987755982988,0,-0.18187302,1.6017059,0.9965085,0.023187116,-0.36918303,0.5919451,2.1246758,-1.6896358,-1.6615775,0.24780947,-0.15561046,0.050240852,0.97063506,0.6318159
-0.2,0.10000000000000003,0.7,0.0,0.5235987755982988,0,-0.14563227,1.5829077,0.99068904,0.023802495,-0.3565198,0.5687375,1.92743,-0.53782517,-1.6913116,0.18463862,-0.047119357,0.009671924,1.081419,0.09725629
-0.2,0.10000000000000003,0.7,0.0,0.5235987755982988,0,-0.16071041,1.5858222,0.9974984,0.021396922,-0.37662467,0.59944093,1.9702106,-0.40555757,-1.6142479,-0.1851469,-0.11838937,-0.18367186,1.1218352,1.0752003
-0.2,0.10000000000000003,0.7,0.0,0.5235987755982988,0,-0.14690523,1.580302,0.98597133,0.011287727,-0.41513535,0.5953427,2.078974,-0.19881228,-1.6549675,-0.26711828,-0.08997255,0.012758389,1.180693,0.61668074
-0.2,0.10000000000000003,0.7,0.0,0.5235987755982988,0,-0.17075437,1.5916306,0.9863243,0.01714056,-0.42793104,0.5871573,2.1930082,-2.1488385,-1.724971,-0.030187456,-0.20068789,-0.18423115,1.1547428,1.1236683
-0.2,0.10000000000000003,0.7,0.0,0.5235987755982988,0,-0.18079153,1.5947547,0.98954,0.037079167,-0.37581334,0.5815138,2.071573,-0.14516513,-1.6061255,-0.19665521,-0.11473924,0.020280236,0.96118313,0.73184466
-0.2,0.10000000000000003,0.7,0.0,0.5235987755982988,0,-0.16001794,1.5897297,0.99583024,0.01794679,-0.42147127,0.58498836,2.083727,-1.4091729,-1.6444324,-0.14758548,-0.057116866,-0.14637642,0.94469994,0.76742095
-0.2,0.10000000000000003,0.7,0.0,0.5235987755982988,0,-0.16377898,1.5922116,0.9936333,0.02236392,-0.40973365,0.57336587,1.9948196,-0.5204593,-1.5343205,-0.020548483,-0.12873526,-0.11916725,1.0742223,0.15026048
-0.2,0.10000000000000003,0.7,0.0,0.5235987755982988,0,-0.17965627,1.5920844,1.0005064,0.030720979,-0.35921147,0.58591187,1.8061353,-1.1758021,-1.5670049,0.16670401,-0.06711479,-0.11628196,0.9634751,0.30181342
-0.2,0.10000000000000003,0.7,0.0,0.5235987755982988,0,-0.14546521,1.5822461,0.99727726,0.0119286915,-0.40817732,0.579841,1.7646452,-1.3170516,-1.5268815,-0.006740355,-0.17292273,0.0020542382,0.9800042,0.02207198
-0.2,0.10000000000000003,0.7,0.0,0.5235987755982988,0,-0.17423756,1.5843648,0.99830586,0.0307136,-0.4179991,0.57995427,2.0740802,-1.6089666,-1.6504985,0.14086895,-0.07371924,-0.11660817,1.2104154,0.0631856
-0.2,0.10000000000000003,0.7,0.0,0.5235987755982988,0,-0.15402408,1.5818801,1.0046825,0.023467416,-0.4105278,0.567255,2.0645463,0.28467584,-1.4606786,0.19804059,-0.07640376,-0.036070134,1.2011985,1.1233457
-0.2,0.10000000000000003,0.7,0.0,0.5235987755982988,0,-0.12702382,1.5972807,0.9987365,0.0014844213,-0.36397013,0.58607435,2.1239994,-0.5269012,-1.4136167,-0.04144211,-0.14139812,-0.2941792,1.2019556,0.571792
-0.2,0.10000000000000003,0.7,0.0,0.5235987755982988,0,-0.14886902,1.5956098,1.010591,0.018751632,-0.3492476,0.5811286,2.3018227,-1.7705519,-1.6190207,0.04223797,-0.15949517,-0.16524734,1.0988742,0.33509454
-0.2,0.10000000000000003,0.7,0.0,0.5235987755982988,0,-0.1740313,1.5825282,0.98958504,0.037888322,-0.34442198,0.61031663,1.8048431,-1.0017523,-1.5938054,-0.01863369,-0.18625468,-0.034729935,1.25399,0.5020731
-0.2,0.10000000000000003,0.7,0.0,0.5235987755982988,0,-0.13155507,1.5880967,0.99917716,0.004816367,-0.3523452,0.5779145,1.8865819,-1.5672797,-1.5799844,-0.016539268,-0.19391327,-0.27475277,1.2169107,0.41568398
-0.2,0.10000000000000003,0.7,0.0,0.5235987755982988,0,-0.16114804,1.5901968,0.99240685,0.021259949,-0.36387357,0.58239883,1.9094075,-1.2119641,-1.4748487,0.2189489,-0.035934683,0.047751825,1.1576619,0.105352804
-0.2,0.10000000000000003,0.7,0.0,0.5235987755982988,0,-0.1474912,1.5893773,0.9791008,0.020257667,-0.35626248,0.5843707,2.1509907,-0.20890516,-1.5822126,-0.19950384,0.014379721,-0.1458163,1.1149029,0.3578001
-0.2,0.10000000000000003,0.7,0.0,0.5235987755982988,0,-0.17593631,1.5980273,0.9877033,0.019800507,-0.40844384,0.5626823,2.0132585,-0.06788058,-1.6079415,-0.100399956,0.011826496,-0.22593118,1.2486811,-0.11084042
-0.2,0.10000000000000003,0.7,0.0,0.5235987755982988,0,-0.14824697,1.590507,1.0061361,0.009816626,-0.41229367,0.59411246,1.9313285,-1.5302271,-1.6212149,-0.059697308,-0.081349105,-0.060102526,1.0700488,0.65637654
-0.2,0.10000000000000003,0.7,0.0,0.5235987755982988,0,-0.18919818,1.5994445,0.9914438,0.030830482,-0.40099108,0.5637595,2.0046794,-1.290267,-1.6052914,-0.14012547,-0.07772549,-0.14491615,1.1425401,0.8503114
-0.2,0.10000000000000003,0.7,0.0,0.5235987755982988,0,-0.21261972,1.5922228,0.98969084,0.075301975,-0.36473116,0.567849,1.9586399,-1.117042,-1.5121622,-0.047108043,-0.1647913,-0.06689122,1.1354091,0.27901134
-0.2,0.10000000000000003,0.7,0.0,0.5235987755982988,0,-0.14838792,1.5807078,0.9946731,0.019813964,-0.41544443,0.57608294,2.0331235,-1.4485681,-1.6211455,0.01617517,-0.14278488,-0.16507936,0.9253782,0.6052411
-0.2,0.10000000000000003,0.7,0.0,0.5235987755982988,0,-0.14361398,1.5818285,1.0018052,0.01746538,-0.37924057,0.5760291,1.8901582,-0.20101263,-1.6072844,-0.12615043,-0.044598915,-0.18615013,1.0783758,0.023734353
-0.2,0.10000000000000003,0.7,0.0,0.5235987755982988,0,-0.15008855,1.5905414,0.9921866,0.028305342,-0.42021158,0.5720374,1.9373554,-2.269959,-1.7308494,-0.09645598,-0.11703652,-0.19446585,1.0550791,1.1629395
-0.2,0.10000000000000003,0.7,0.0,0.5235987755982988,0,-0.16960353,1.5909269,0.9968114,0.03956432,-0.37555295,0.5787555,1.8520184,-0.48136786,-1.7599838,-0.083261244,-0.072996445,-0.34681648,1.0733331,0.75826985
-0.2,0.10000000000000003,0.7,0.0,0.5235987755982988,0,-0.1486869,1.5823469,1.0009352,0.05036293,-0.36484766,0.57318836,1.9690098,-0.4263381,-1.578791,-0.054310516,-0.01670727,0.11514032,1.097245,0.009218009
-0.2,0.10000000000000003,0.7,0.0,0.5235987755982988,0,-0.18197247,1.5850779,0.98557776,0.05011856,-0.42105937,0.56948304,1.8367077,-1.2838947,-1.6192671,0.30643672,-0.16472128,0.12308823,1.0809819,-0.05307177
-0.2,0.10000000000000003,0.7,0.0,0.5235987755982988,0,-0.19371971,1.5868362,0.9856292,0.061040137,-0.3852684,0.57683325,1.9251243,-0.878434,-1.5425743,0.15732792,-0.13653122,-0.14574225,1.1454192,1.1302141
-0.2,0.10000000000000003,0.7,0.0,0.5235987755982988,0,-0.14712058,1.5940297,1.0051107,0.009785611,-0.41112792,0.5802016,2.088192,-0.32232773,-1.4568461,0.010561551,-0.11130431,-0.019955706,1.2791319,0.7045013
-0.2,0.10000000000000003,0.7,0.0,0.5235987755982988,0,-0.14785099,1.5984273,0.990887,0.012689668,-0.4026857,0.5801477,1.7861612,-1.8847649,-1.6599113,0.02955075,-0.110746056,-0.32334775,1.0860633,0.002345469
-0.2,0.10000000000000003,0.7,0.0,0.5235987755982988,0,-0.15667869,1.5897264,0.99902636,0.015245088,-0.42291227,0.5757716,1.9494278,-1.0174022,-1.5750359,-0.026493914,-0.13958833,-0.27858967,1.0053278,1.2642758
-0.2,0.10000000000000003,0.7,0.0,0.5235987755982988,0,-0.17358866,1.5852919,0.99851215,0.03218117,-0.3713612,0.5821818,2.1649735,-1.6874382,-1.5955335,-0.095758334,-0.17293003,-0.07511157,1.2035627,0.75543797
-0.2,0.10000000000000003,0.7,0.0,0.5235987755982988,0,-0.15161131,1.5823996,1.0037726,0.02873712,-0.38630444,0.55053973,1.7939004,-0.97713006,-1.772321,-0.027242176,-0.07142612,-0.17120235,1.0335102,0.6044591
-0.2,0.10000000000000003,0.7,0.0,0.5235987755982988,0,-0.15987924,1.5766491,1.0037428,0.03503163,-0.40781876,0.57569396,1.9788152,-0.9590999,-1.7349982,-0.1305455,-0.06519788,-0.13753623,1.2665972,-0.024804333
-0.2,0.10000000000000003,0.7,0.0,0.5235987755982988,0,-0.16858034,1.587983,0.9897465,0.0356305,-0.35281122,0.5749395,2.132755,-1.4261894,-1.4915084,-0.18598767,-0.15616296,-0.11877442,1.0990331,1.2156285
-0.2,0.10000000000000003,0.7,0.0,0.5235987755982988,0,-0.15950634,1.602573,0.992903,0.021803895,-0.35557333,0.59256715,2.136063,-0.71104246,-1.772532,0.012331186,0.0023754844,-0.30744365,0.8158524,0.46620452
-0.2,0.10000000000000003,0.7,0.0,0.5235987755982988,0,-0.16161111,1.588829,0.99767613,0.029938012,-0.38727272,0.5823537,1.6320617,-0.21128249,-1.6530133,0.13191022,-0.09068513,-0.18394983,1.028817,1.0601362
-0.2,0.10000000000000003,0.7,0.0,0.5235987755982988,0,-0.14609373,1.578774,1.012444,0.025971869,-0.3863879,0.5695023,1.4800944,-0.8061876,-1.714068,-0.061600152,-0.04515132,-0.0029294568,1.4925412,0.54695827
-0.2,0.10000000000000003,0.7,0.0,0.5235987755982988,0,-0.14930974,1.5957588,0.9944313,0.010150282,-0.37724707,0.56933624,1.8615333,-0.32697517,-1.6596502,0.06717105,-0.16319779,-0.04752112,1.0363183,0.58254373
-0.2,0.10000000000000003,0.7,0.0,0.5235987755982988,0,-0.15445626,1.5941143,0.9923207,0.025838621,-0.3508187,0.56896186,1.8669647,-0.8221491,-1.5779194,0.13543278,-0.16655096,-0.026185114,1.4303622,0.3291669
-0.2,0.10000000000000003,0.7,0.0,0.5235987755982988,0,-0.16551691,1.5949686,0.9970284,0.033718146,-0.39790127,0.56780773,2.0379522,-1.113648,-1.5323769,-0.09259005,-0.11905492,-0.048439898,1.1239315,0.598264
-0.2,0.10000000000000003,0.7,0.0,0.5235987755982988,0,-0.1616665,1.6032584,0.99133784,0.019950647,-0.41393423,0.5975913,1.9486145,-1.1516443,-1.7258347,0.027684936,-0.14025559,-0.19212003,1.1823765,0.53426653
-0.2,0.10000000000000003,0.7,0.0,0.5235987755982988,0,-0.16624336,1.5924711,0.98088527,0.030068303,-0.4151928,0.5530801,2.034916,-1.6346655,-1.56407,0.08655032,-0.011404235,-0.12659635,0.96010214,0.583812
-0.2,0.10000000000000003,0.7,0.0,0.5235987755982988,0,-0.18243286,1.5921226,0.9998534,0.05126463,-0.41271168,0.5674548,2.1281734,-0.41398904,-1.4869143,-0.08397712,-0.089945145,-0.12423751,1.0562168,0.9268334
-0.2,0.10000000000000003,0.7,0.0,0.5235987755982988,0,-0.15320332,1.6011943,0.9961102,0.013964635,-0.40674892,0.5886129,2.098841,-0.9848502,-1.7933005,0.08947269,-0.21288587,-0.16833895,1.0822583,0.9364386
-0.2,0.10000000000000003,0.7,0.0,0.5235987755982988,0,-0.1575188,1.6002519,0.9932343,0.021768646,-0.3936794,0.5820562,1.8841463,-1.4619184,-1.7122089,0.026475899,-0.0018703938,0.04364469,1.2520399,0.35318542
-0.2,0.10000000000000003,0.7,0.0,0.5235987755982988,0,-0.1555458,1.5892042,0.9827031,0.01817744,-0.379926,0.574075,1.9774679,-1.4599696,-1.6424434,0.107835636,-0.14877997,-0.08932323,0.96110505,-0.48542953
-0.2,0.10000000000000003,0.7,0.0,0.5235987755982988,0,-0.1427867,1.5956074,1.0113307,0.021225026,-0.37500328,0.5833277,1.790964,-0.999111,-1.5402981,0.10731342,-0.1689115,-0.17625289,1.060043,1.2535974
-0.2,0.10000000000000003,0.7,0.0,0.5235987755982988,0,-0.13155234,1.5901576,1.0036359,0.0053212997,-0.3536568,0.5704092,1.773255,-0.68456745,-1.7297431,0.12825498,-0.228686,-0.069633,1.1680762,0.9357603
-0.2,0.10000000000000003,0.7,0.0,0.5235987755982988,0,-0.15108979,1.5871383,0.98738563,0.020297734,-0.3627083,0.5829651,2.107876,-2.1966934,-1.6349418,-0.026384069,-0.03581696,-0.14403258,1.2735682,0.23182936
-0.2,0.10000000000000003,0.7,0.0,0.5235987755982988,0,-0.14985213,1.5819733,0.9860931,0.02956059,-0.37504664,0.56515074,2.0098486,-2.0037687,-1.5230781,0.12098379,-0.106704615,-0.19117248,1.0090078,0.750348
-0.2,0.10000000000000003,0.7,0.0,0.5235987755982988,0,-0.16255799,1.5932007,1.0059321,0.025886828,-0.34847876,0.55994624,1.7958419,-0.74473435,-1.5694638,0.0626682,-0.11911916,-0.17716126,0.9535569,0.49805987
-0.2,0.10000000000000003,0.7,0.0,0.5235987755982988,0,-0.14832613,1.5931461,1.0000067,0.023769928,-0.35962877,0.55182505,2.2680345,-1.7076857,-1.5116088,0.12051025,-0.03697679,-0.15991782,1.0733804,0.48251066
-0.2,0.10000000000000003,0.7,0.0,0.5235987755982988,0,-0.14750151,1.5804943,0.9862916,0.032146238,-0.4384851,0.5828221,1.853271,-1.876436,-1.6175697,-0.2400851,-0.11741456,-0.11808145,1.1934867,0.5978861
-0.2,0.10000000000000003,0.7,0.0,0.5235987755982988,0,-0.13631743,1.5897274,0.9950613,0.010199317,-0.39759514,0.5696086,1.9225287,-0.11125103,-1.5209669,0.07784021,-0.046595804,0.045346215,1.1693745,0.5384596
-0.2,0.10000000000000003,0.7,0.0,0.5235987755982988,0,-0.15019545,1.5870042,0.99707127,0.029446552,-0.35280293,0.58087593,2.1872346,-0.14318782,-1.5099931,-0.3008439,-0.13657573,-0.30037895,1.3625114,1.0509967
-0.2,0.10000000000000003,0.7,0.0,0.5235987755982988,0,-0.1510804,1.5909027,0.995979,0.01557655,-0.36911654,0.56243575,2.1290126,-1.9768562,-1.5528876,0.06955677,-0.038149133,-0.20009215,1.1959329,0.33611286
-0.2,0.10000000000000003,0.7,0.0,0.5235987755982988,0,-0.14639561,1.5978457,0.98484117,0.009723824,-0.37445495,0.534405,1.995574,-1.1672795,-1.7510754,0.17702365,-0.15612197,-0.13959053,1.1845583,0.4286797
-0.2,0.10000000000000003,0.7,0.0,0.5235987755982988,0,-0.1698718,1.581904,0.9960687,0.03373778,-0.39799553,0.57482314,1.8066087,-2.9019856,-1.6123518,-0.04978689,-0.15966257,-0.14445876,1.1318284,0.60230047
-0.2,0.10000000000000003,0.7,0.0,0.5235987755982988,0,-0.14203034,1.581865,0.99778366,0.017307717,-0.41478276,0.5634604,1.9782486,-1.9550055,-1.6853398,0.17669132,-0.1988893,-0.17572102,0.87848127,0.12810454
-0.2,0.10000000000000003,0.7,0.0,0.5235987755982988,0,-0.1504685,1.5793283,0.99035597,0.048635323,-0.4042657,0.5701497,1.8871586,-1.6337014,-1.4486351,-0.1585324,-0.10087588,-0.07969206,0.9700532,0.83818185
-0.2,0.10000000000000003,0.7,0.0,0.5235987755982988,0,-0.16941851,1.5929928,1.0133718,0.059751496,-0.45901844,0.5728331,2.2479153,-1.6470344,-1.5359328,-0.11990215,-0.20250368,-0.035862923,1.2679241,0.50126606
-0.2,0.10000000000000003,0.7,0.0,0.5235987755982988,0,-0.17233752,1.5839435,0.9998535,0.050820686,-0.41152063,0.57446134,1.8464141,-0.5231548,-1.5804139,-0.045430638,-0.0667432,-0.1761474,1.1105709,-0.1034022
-0.2,0.10000000000000003,0.7,0.0,0.5235987755982988,0,-0.13790691,1.5881876,0.98433715,0.0028008856,-0.42070335,0.5850039,1.86896,-1.3543439,-1.5954589,0.011084988,-0.071998574,-0.20798773,0.96355176,-0.4973548
-0.2,0.10000000000000003,0.7,0.0,0.5235987755982988,0,-0.14442347,1.580571,0.9938246,0.015171543,-0.4133411,0.5630498,1.7307775,-1.223518,-1.4988914,0.061700158,-0.17022735,-0.11036533,1.2339123,0.9082185
-0.2,0.10000000000000003,0.7,0.0,0.5235987755982988,0,-0.17116666,1.5887316,0.98374975,0.03123399,-0.37987685,0.5741535,1.7996541,-0.54075444,-1.541531,0.047023185,-0.072558284,-0.18413079,0.94084704,-0.28983885
-0.2,0.10000000000000003,0.7,0.0,0.5235987755982988,0,-0.16160302,1.5944221,0.9858995,0.029089507,-0.3600613,0.5936369,1.9271994,-0.9878518,-1.7545041,-0.04610771,-0.119278,-0.1236018,1.2201035,0.32622647
-0.2,0.10000000000000003,0.7,0.0,0.5235987755982988,0,-0.13901746,1.5939313,1.0043106,0.029883817,-0.4256932,0.5926283,1.6923128,-0.9879627,-1.5029749,0.031803016,-0.15510935,-0.18372883,1.24863,0.9886333
-0.2,0.10000000000000003,0.7,0.0,0.5235987755982988,0,-0.16299482,1.5827689,1.0006654,0.03096079,-0.37701416,0.57451147,1.968938,-2.2367578,-1.5597701,-0.017994255,-0.094258524,-0.20102133,1.0172944,0.11518769
-0.2,0.10000000000000003,0.7,0.0,0.5235987755982988,0,-0.1489988,1.5882401,0.99606293,0.0150729725,-0.38748562,0.5602898,2.0072186,-0.24282195,-1.5895067,-0.17716259,-0.016016513,-0.24418652,1.107051,0.3850991
-0.2,0.10000000000000003,0.7,0.0,0.5235987755982988,0,-0.15051065,1.5893923,1.0012947,0.03529519,-0.3255826,0.57935697,1.9163226,-0.5398734,-1.4638315,-0.023217369,-0.1388968,-0.12209275,0.91585654,0.4899217
-0.2,0.10000000000000003,0.7,0.0,0.5235987755982988,0,-0.15871044,1.5924028,1.0110031,0.025446374,-0.37007758,0.57337564,1.9431697,-1.7906119,-1.8053186,0.03983192,-0.09846946,-0.19923249,0.8039594,0.45352572
-0.2,0.10000000000000003,0.7,0.0,0.5235987755982988,0,-0.16186087,1.597614,0.9939151,0.029296156,-0.4061568,0.59407485,2.0854657,-0.6599458,-1.389968,-0.10059661,-0.12800427,-0.0993828,1.3123685,-0.21141769
-0.2,0.10000000000000003,0.7,0.0,0.5235987755982988,0,-0.1605108,1.6011342,1.0082487,0.019997252,-0.35947683,0.561509,2.0065174,-1.6323094,-1.704689,-0.02530752,-0.081691764,-0.04514182,1.0494697,0.7055745
-0.2,0.10000000000000003,0.7,0.0,0.5235987755982988,0,-0.17191543,1.591147,0.98421854,0.02897513,-0.3717317,0.56262106,1.9653859,-1.2462035,-1.6596973,-0.112688065,-0.078286454,0.019776491,1.3316886,0.60808897
-0.2,0.10000000000000003,0.7,0.0,0.5235987755982988,0,-0.13928656,1.5860677,0.9997037,0.04026282,-0.3757694,0.56287014,1.9292355,-1.6411271,-1.6022952,-0.084788315,-0.123395234,-0.18665175,0.96464896,0.21143875
-0.2,0.10000000000000003,0.7,0.0,0.5235987755982988,0,-0.15419382,1.5924164,0.9986949,0.024946297,-0.34629282,0.6037741,1.9217861,-1.2672536,-1.6764065,0.10882701,-0.107982546,-0.09201867,0.9890351,0.19689752
-0.2,0.10000000000000003,0.7,0.0,0.5235987755982988,0,-0.16526048,1.5851334,0.9885497,0.033681426,-0.39257765,0.59095407,1.8939744,-1.9619596,-1.678713,0.011472279,-0.16145292,-0.17971192,1.1180228,0.24146423
-0.2,0.10000000000000003,0.7,0.0,0.5235987755982988,0,-0.13154262,1.593707,1.0062488,0.007302613,-0.37089694,0.57638216,1.9836552,-1.3065585,-1.565728,-0.14298815,-0.12529905,-0.17469247,1.2135985,0.57222205
-0.2,0.10000000000000003,0.7,0.0,0.5235987755982988,0,-0.17034864,1.595892,1.0002604,0.03890733,-0.3979647,0.58686733,1.8654232,-1.4327558,-1.6253746,-0.062411133,-0.09338226,-0.19992211,1.2415913,0.32631996
-0.2,0.10000000000000003,0.7,0.0,0.5235987755982988,0,-0.17491919,1.5855347,0.98658633,0.034541078,-0.36169153,0.57926387,1.8972558,-2.1124601,-1.5054842,0.074003644,-0.13777702,-0.13962644,1.2547708,0.47893244
-0.2,0.10000000000000003,0.7,0.0,0.5235987755982988,0,-0.15365988,1.5883312,0.98816246,0.040394343,-0.307918,0.560326,2.0156348,-0.8877671,-1.6779926,-0.039906383,-0.18414916,-0.058830433,0.9993944,1.0556504
-0.2,0.10000000000000003,0.7,0.0,0.5235987755982988,0,-0.13297996,1.5838697,0.9953194,0.011407705,-0.3437447,0.56763965,1.9307055,-1.600246,-1.6572835,-0.037859816,-0.13823512,-0.08215425,1.0513977,0.5880647
-0.2,0.10000000000000003,0.7,0.0,0.5235987755982988,0,-0.16827261,1.5991476,1.0114571,0.0333691,-0.352816,0.56733716,1.7671258,-1.2934183,-1.559756,0.0030753831,-0.05132303,0.027576348,0.99029297,0.27301142
-0.2,0.10000000000000003,0.7,0.0,0.5235987755982988,0,-0.15329662,1.5911961,1.0078722,0.021891607,-0.3951609,0.57682693,2.1576748,-1.0541434,-1.5371498,-0.085455924,-0.117795326,-0.16184022,0.8473456,0.37115183
-0.2,0.10000000000000003,0.7,0.0,0.5235987755982988,0,-0.16953792,1.5849577,0.99816895,0.050730854,-0.40330562,0.5678348,1.7073379,-1.31623,-1.3827894,-0.07220336,-0.083368726,-0.006586139,0.9927292,1.2515509
-0.2,0.10000000000000003,0.7,0.0,0.5235987755982988,0,-0.13990125,1.5867841,0.99691015,0.009073194,-0.39408767,0.59063655,1.9803243,-1.2377295,-1.6421393,0.20701514,-0.08835995,-0.09199118,1.0792887,0.2061982
-0.2,0.10000000000000003,0.7,0.0,0.5235987755982988,0,-0.19684823,1.5934681,0.9944307,0.05561801,-0.34657896,0.56551725,1.8882852,-1.4863696,-1.5383385,-0.040075753,-0.10538594,-0.1029714,1.0928662,0.87642103
-0.2,0.10000000000000003,0.7,0.0,0.5235987755982988,0,-0.15333672,1.5876129,0.9929842,0.018171767,-0.3901076,0.5659831,1.9278349,-1.1830447,-1.5587251,0.13321055,-0.104031794,-0.16481473,1.185552,-0.84979725
-0.2,0.10000000000000003,0.7,0.0,0.5235987755982988,0,-0.1739373,1.5836062,0.9851135,0.034274578,-0.36242017,0.5772807,2.1327534,-1.3357803,-1.5986826,0.17613818,-0.113217734,-0.11023355,0.9200408,0.4934695
-0.2,0.10000000000000003,0.7,0.0,0.5235987755982988,0,-0.13727653,1.590663,1.0135764,0.016327986,-0.35469145,0.5753861,1.8668557,-1.2606193,-1.6035677,-0.10532837,-0.14709406,-0.06278028,1.1617919,0.26109734
-0.2,0.10000000000000003,0.7,0.0,0.5235987755982988,0,-0.13165064,1.5917317,0.9993608,0.008070563,-0.3663686,0.5638244,1.9136764,-1.4338572,-1.6011423,-0.0021924267,-0.008529513,-0.17709722,1.0430745,0.31522757
-0.2,0.10000000000000003,0.7,0.0,0.5235987755982988,0,-0.16905075,1.5995519,0.99236715,0.022556838,-0.4069274,0.60737455,1.7479997,-1.4323429,-1.6761874,-0.21271017,-0.07660188,0.035598807,1.0674268,0.68676525
-0.2,0.10000000000000003,0.7,0.0,0.5235987755982988,0,-0.1503314,1.5847301,0.99560744,0.031673446,-0.36279684,0.5828276,2.1092575,-0.77480584,-1.6992761,-0.047510374,-0.13578467,-0.34501746,0.8800504,0.17537798
-0.2,0.10000000000000003,0.7,0.0,0.5235987755982988,0,-0.124639764,1.5777787,0.9879765,0.0053671566,-0.4004126,0.55925953,1.9763113,-1.4538985,-1.5303955,0.06169957,-0.07184674,-0.18761687,1.0433031,0.3906309
-0.2,0.10000000000000003,0.7,0.0,0.5235987755982988,0,-0.13995351,1.5876975,0.99273485,0.0083898,-0.4133351,0.56552005,1.9123358,-1.9828818,-1.6872878,0.0948883,-0.103883095,-0.010910412,1.140457,0.38329786
-0.2,0.10000000000000003,0.7,0.0,0.5235987755982988,0,-0.13516247,1.5768116,0.99060565,0.0156124765,-0.32482636,0.5843797,1.8885598,-1.4223677,-1.6852386,-0.11242627,-0.0020066558,-0.13308801,1.3007898,0.35521585
-0.2,0.10000000000000003,0.7,0.0,0.5235987755982988,0,-0.1485421,1.5839772,0.9862624,0.013735781,-0.39040673,0.60273594,2.1519034,-1.1960392,-1.695553,-0.09560471,-0.14657854,-0.059124663,1.1418129,0.8090198
-0.2,0.10000000000000003,0.7,0.0,0.5235987755982988,0,-0.15497269,1.5886986,1.0009894,0.033362515,-0.37203705,0.5714215,2.0683072,-0.7347976,-1.663479,-0.10389517,-0.12698315,-0.11650283,1.189199,0.75978124
-0.2,0.10000000000000003,0.7,0.0,0.5235987755982988,0,-0.1430841,1.57776,0.99578017,0.033572264,-0.38559434,0.5771588,2.1425235,-1.7354592,-1.6476005,-0.09602267,-0.0848787,-0.017918156,1.1043862,0.37856442
-0.2,0.10000000000000003,0.7,0.0,0.5235987755982988,0,-0.14344174,1.59782,1.0006561,0.02873057,-0.37945867,0.57977664,1.7295916,-1.1942887,-1.7524018,0.068669766,-0.08050086,-0.24386275,1.2936761,0.9273107
-0.2,0.10000000000000003,0.7,0.0,0.5235987755982988,0,-0.15165196,1.5975981,0.98984027,0.052979607,-0.32595852,0.581561,1.9952661,-1.8957106,-1.6791482,-0.10449295,-0.14497222,-0.14019176,0.9645605,0.26713678
-0.2,0.10000000000000003,0.7,0.0,0.5235987755982988,0,-0.17024125,1.5921022,1.0030838,0.041684706,-0.41970387,0.5942858,2.0051153,-1.1259439,-1.7306924,0.19766302,-0.100439884,-0.27799293,0.8159482,1.1495464
-0.2,0.10000000000000003,0.7,0.0,0.5235987755982988,0,-0.15162843,1.5806886,0.99624085,0.024282625,-0.4100027,0.5850307,1.7451985,-0.4651505,-1.5748645,-0.15660809,-0.13364023,-0.28782627,1.2477001,0.5875845
-0.2,0.10000000000000003,0.7,0.0,0.5235987755982988,0,-0.16823184,1.59543,0.9954955,0.027296303,-0.34723306,0.5980523,1.9051106,-1.5505853,-1.5093434,0.23383509,-0.10298963,-0.26935562,1.1463246,0.4707896
-0.2,0.10000000000000003,0.7,0.0,0.5235987755982988,0,-0.109075636,1.5912952,0.98851645,-0.0057693063,-0.38724604,0.5704553,2.0719752,-0.18896666,-1.5848268,-0.059221875,-0.09378751,-0.21110477,0.9918257,0.35577232
-0.2,0.10000000000000003,0.7,0.0,0.5235987755982988,0,-0.13429643,1.591005,0.9953847,0.012192194,-0.3904585,0.58173144,2.0130613,-1.857623,-1.6173351,-0.114879556,-0.03786976,-0.08390998,0.968237,-0.20290244
-0.2,0.10000000000000003,0.7,0.0,0.5235987755982988,0,-0.13410245,1.5868938,0.9978554,0.039370514,-0.3403839,0.5770773,1.988131,-1.6118983,-1.591482,-0.15187295,-0.15119663,-0.07888845,1.233826,0.46691817
-0.2,0.10000000000000003,0.7,0.0,0.5235987755982988,0,-0.16312759,1.5879806,1.0013174,0.026912889,-0.37461293,0.5697757,2.1417475,-0.7855001,-1.6464152,0.03119236,-0.16902639,-0.016498841,1.3042405,0.068595864
-0.2,0.10000000000000003,0.7,0.0,0.5235987755982988,0,-0.18278632,1.5885795,0.9873223,0.040362068,-0.3462277,0.55228496,2.0340075,-1.2125274,-1.6340481,0.005654666,-0.087617606,-0.10855168,1.1921728,0.2923777
-0.2,0.10000000000000003,0.7,0.0,0.5235987755982988,0,-0.15788557,1.5806295,1.0020832,0.031450905,-0.360278,0.5740222,1.8856875,-1.9676304,-1.6373285,-0.09818016,-0.20840876,-0.17819579,1.0888427,0.45042977
-0.2,0.10000000000000003,0.7,0.0,0.5235987755982988,0,-0.16569778,1.5930402,0.99580324,0.034635823,-0.3856206,0.5634861,1.9139036,-1.2740144,-1.7615799,-0.033470582,-0.07098439,-0.08824897,1.0039041,0.3984671
-0.2,0.10000000000000003,0.7,0.0,0.5235987755982988,0,-0.16402122,1.5929555,0.99172306,0.034569938,-0.35114813,0.5777578,2.0330732,-1.6515725,-1.6048253,0.070412174,-0.17292339,-0.19425426,0.9389151,0.7547698
-0.2,0.10000000000000003,0.7,0.0,0.5235987755982988,0,-0.15967408,1.598778,0.9768915,0.014801451,-0.36289957,0.5573171,1.8215761,-1.0373979,-1.5097537,-0.068141624,-0.113637425,-0.32898512,1.0833275,-0.16929537
-0.2,0.10000000000000003,0.7,0.0,0.5235987755982988,0,-0.1299178,1.5891353,1.0066181,0.006737781,-0.37053448,0.5833942,2.1317806,-1.1457278,-1.6906143,0.10525976,0.02572704,-0.077942535,1.1769345,0.4898119
-0.2,0.10000000000000003,0.7,0.0,0.5235987755982988,0,-0.16503204,1.5905236,0.984906,0.049871985,-0.36400187,0.58049506,1.9079034,-0.61520845,-1.5283462,-0.1729542,-0.021940708,-0.19450666,1.0219712,0.6081865
-0.2,0.10000000000000003,0.7,0.0,0.5235987755982988,0,-0.14525016,1.5918652,0.9884309,0.012702276,-0.36027834,0.56455153,1.7786156,-1.2049369,-1.6359396,-0.095533185,-0.13110527,0.06546773,1.2308748,0.3711764
-0.2,0.10000000000000003,0.7,0.0,0.5235987755982988,0,-0.16764602,1.5980198,0.9976993,0.022811098,-0.39209795,0.5935779,2.1325624,-2.1523323,-1.497764,0.047050625,-0.25074106,-0.11552868,1.0969543,1.003524
-0.2,0.10000000000000003,0.7,0.0,0.5235987755982988,0,-0.15208809,1.589123,0.99950135,0.019144505,-0.37726596,0.58684146,2.1024842,-0.8951895,-1.536299,-0.07766409,-0.12426937,-0.008123509,1.0299196,0.693426
-0.2,0.10000000000000003,0.7,0.0,0.5235987755982988,0,-0.14438798,1.5841864,1.0079089,0.022018982,-0.36740562,0.5781887,1.9837657,-0.59453946,-1.6174207,0.059070386,-0.17150621,-0.033116624,1.1110197,0.7538684
-0.2,0.10000000000000003,0.7,0.0,0.5235987755982988,0,-0.15639012,1.5919659,0.99302876,0.033426933,-0.38311177,0.5758045,2.160107,-2.0409665,-1.7147217,-0.17017324,-0.040394805,-0.06202354,1.2119046,0.9420173
-0.2,0.10000000000000003,0.7,0.0,0.5235987755982988,0,-0.14667003,1.5849022,1.0005234,0.027149137,-0.35874236,0.55714595,2.051938,-1.3704467,-1.6241605,-0.001142218,-0.013551928,0.09303866,1.0929805,0.16544089
-0.2,0.10000000000000003,0.7,0.0,0.5235987755982988,0,-0.1476405,1.5947578,0.9869788,0.038867686,-0.43025666,0.5883891,2.1087232,0.12247549,-1.6828351,0.022714373,-0.12607488,-0.037610803,1.0442028,-0.10070478
-0.2,0.10000000000000003,0.7,0.0,0.5235987755982988,0,-0.120001644,1.5818061,0.9966921,0.005624294,-0.34943026,0.58639425,1.8344928,-2.1245131,-1.7129064,-0.045622658,-0.030376952,0.01524494,0.99259067,0.51171124
-0.2,0.10000000000000003,0.7,0.0,0.5235987755982988,0,-0.15734737,1.5877736,0.99922013,0.037160832,-0.39712164,0.59109795,2.2463002,-1.1349412,-1.5006396,-0.035251822,-0.019048477,-0.09071133,1.0346491,-0.025322083
-0.2,0.10000000000000003,0.7,0.0,0.5235987755982988,0,-0.12183178,1.5833617,0.998463,0.011596202,-0.35555106,0.589872,2.2829592,-0.75717616,-1.5088661,-0.15500669,-0.144957,-0.2876446,1.0709902,0.55626553
-0.2,0.10000000000000003,0.7,0.0,0.5235987755982988,0,-0.19150344,1.5921227,0.9853566,0.064382166,-0.38891914,0.5614763,2.2244356,-2.322308,-1.5436567,-0.15375169,-0.15701248,-0.20952664,1.0507797,0.7263001
-0.2,0.10000000000000003,0.7,0.0,0.5235987755982988,0,-0.14571327,1.5933161,0.9989904,0.028641691,-0.399676,0.57676226,1.9911424,-1.2347529,-1.5531274,0.24981515,-0.13349496,-0.22875884,0.8149235,0.4367494
-0.2,0.10000000000000003,0.7,0.0,0.5235987755982988,0,-0.16668491,1.5904832,1.0049692,0.046542674,-0.42041448,0.5627577,1.98324,-0.6066469,-1.6273077,-0.025798287,-0.18474092,-0.23719022,1.1472535,0.5608913
-0.2,0.10000000000000003,0.7,0.0,0.5235987755982988,0,-0.1586533,1.6025119,0.99607885,0.018225096,-0.38857144,0.5948294,1.6052136,-1.5248122,-1.5731872,-0.28110403,-0.13529353,0.012799722,1.1035357,1.085296
-0.2,0.10000000000000003,0.7,0.0,0.5235987755982988,0,-0.13388862,1.5926232,0.9936361,0.025402134,-0.34667605,0.5627,2.076027,-1.0919819,-1.6330379,-0.051329266,-0.102031134,-0.15855688,1.1176307,0.75521946
-0.2,0.10000000000000003,0.7,0.0,0.5235987755982988,0,-0.16936074,1.5825127,0.98979217,0.022957299,-0.35341135,0.578116,2.1416202,-0.8813191,-1.5088699,0.040333495,-0.15961808,0.048164226,1.1837078,0.16876027
-0.2,0.10000000000000003,0.7,0.0,0.5235987755982988,0,-0.16670242,1.5896963,1.0021011,0.032451674,-0.35823548,0.56605476,1.6832837,-1.4305334,-1.53255,-0.047680452,-0.13517925,-0.3085484,1.1702607,0.68695533
-0.2,0.10000000000000003,0.7,0.0,0.5235987755982988,0,-0.15990104,1.5873033,0.99406075,0.046471637,-0.36442062,0.5805361,1.8437136,-2.5745285,-1.4706191,-0.06881167,0.0029659648,-0.12383284,1.0187848,-0.10170732
-0.2,0.10000000000000003,0.7,0.0,0.5235987755982988,0,-0.17044781,1.5886701,0.9965563,0.03880641,-0.38124746,0.567593,1.9463942,-1.8656287,-1.7029204,-0.061758056,-0.094123885,-0.1465932,1.219914,0.11052601
-0.2,0.10000000000000003,0.7,0.0,0.5235987755982988,0,-0.1576362,1.5932016,1.0075145,0.022745486,-0.39155695,0.5639885,1.9730365,-0.9317341,-1.7300123,-0.1706004,-0.0891182,0.18236636,1.1955858,0.88208234
-0.2,0.10000000000000003,0.7,0.0,0.5235987755982988,0,-0.13401681,1.5970384,1.0016174,0.003772641,-0.39285064,0.585826,2.352975,-1.88048,-1.6115637,-0.08676781,-0.10225046,-0.019653277,1.1355351,0.8184449
-0.2,0.10000000000000003,0.7,0.0,0.5235987755982988,0,-0.16386083,1.5938821,1.0089161,0.03830232,-0.41458237,0.5725211,1.9561068,-1.2701571,-1.5493039,0.12905577,-0.14370732,-0.16841663,1.0215284,0.68668336
-0.2,0.10000000000000003,0.7,0.0,0.5235987755982988,0,-0.16346103,1.5919569,0.9974346,0.033669606,-0.34965113,0.56171715,1.8565108,-1.4784243,-1.6085962,0.040513206,-0.07066054,-0.058795482,1.0383242,0.32740787
-0.2,0.10000000000000003,0.7,0.0,0.5235987755982988,0,-0.1625891,1.5838413,0.99132454,0.027943347,-0.3536472,0.5800388,2.0837064,-1.8640049,-1.7555445,-0.110574946,-0.04813185,0.020719213,1.0136483,-0.24533616
-0.2,0.10000000000000003,0.7,0.0,0.5235987755982988,0,-0.13745585,1.5944412,0.9925002,0.03021747,-0.3767152,0.56394875,2.1080992,-1.7447087,-1.6351359,0.06348876,-0.074472696,-0.09682479,1.0872355,0.30570868
-0.2,0.10000000000000003,0.7,0.0,0.5235987755982988,0,-0.13576531,1.5851184,0.9977867,0.01896656,-0.3530155,0.59869677,1.8949418,-1.3027785,-1.7692852,-0.0042635584,-0.10073592,-0.30621138,0.99234396,0.36915553
-0.2,0.10000000000000003,0.7,0.0,0.5235987755982988,0,-0.15463607,1.5826368,1.0104686,0.020160822,-0.42542088,0.5464529,2.06708,-1.4594369,-1.6800398,-0.12626171,-0.065475844,-0.0762619,1.26442,0.5339965
-0.2,0.10000000000000003,0.7,0.0,0.5235987755982988,0,-0.14811145,1.5820667,0.9955592,0.03895108,-0.3742594,0.5756812,2.095822,-1.0510705,-1.6235018,0.030374303,-0.06882377,-0.11596616,1.0941867,0.5248453
-0.2,0.10000000000000003,0.7,0.0,0.5235987755982988,0,-0.1554325,1.5817636,0.99540585,0.031029228,-0.38648435,0.5701511,2.1085966,-1.8146772,-1.6889013,-0.13585307,-0.19827549,-0.07079305,1.0544664,0.53385484
-0.2,0.10000000000000003,0.7,0.0,0.5235987755982988,0,-0.15631828,1.590689,1.0074693,0.032785278,-0.42385837,0.57706976,1.7769654,-0.8383073,-1.6580036,-0.09425418,-0.003406636,-0.07316407,1.035948,0.12546983
-0.2,0.10000000000000003,0.7,0.0,0.5235987755982988,0,-0.15675999,1.5900998,0.98906225,0.021122778,-0.38085172,0.5700967,1.845132,-1.4947196,-1.5942338,-0.040663365,-0.13396737,0.0125513775,0.98693997,0.35196584
-0.2,0.10000000000000003,0.7,0.0,0.5235987755982988,0,-0.12625447,1.5952846,0.99216515,0.020663178,-0.3853596,0.59029937,1.7036701,-0.81214637,-1.5560585,-0.10049753,-0.0506319,-0.062371157,1.2690645,0.930933
-0.2,0.10000000000000003,0.7,0.0,0.5235987755982988,0,-0.16782518,1.5926598,0.99658734,0.02725983,-0.3677692,0.59035414,2.118365,-0.6150076,-1.6631205,0.1938817,-0.1626846,-0.29895014,1.1094209,0.54547566
-0.2,0.10000000000000003,0.7,0.0,0.5235987755982988,0,-0.17375867,1.5876758,1.0037214,0.040182132,-0.3483086,0.59529966,2.0425148,-0.97971267,-1.6922597,0.26353776,-0.025254585,-0.43517837,1.0429082,0.510313
-0.2,0.10000000000000003,0.7,0.0,0.5235987755982988,0,-0.14653301,1.578166,0.99872833,0.042166557,-0.38670126,0.5799919,1.8555139,-0.48847446,-1.5491666,0.05896736,-0.0674141,-0.02435402,0.9490758,0.74600416
-0.2,0.10000000000000003,0.7,0.0,0.5235987755982988,0,-0.15259473,1.5730755,1.0031974,0.038465776,-0.3671911,0.5612108,2.0018945,-0.63738745,-1.6269368,0.1385245,-0.17915626,0.03880944,1.1338238,0.49170616
-0.2,0.10000000000000003,0.7,0.0,0.5235987755982988,0,-0.1652028,1.6010933,0.9948798,0.026743067,-0.35613897,0.5686781,1.8510605,-2.058346,-1.583588,0.10983749,-0.15180796,-0.20630577,1.099623,0.73694605
-0.2,0.10000000000000003,0.7,0.0,0.5235987755982988,0,-0.16226238,1.5858536,1.0050411,0.034776025,-0.39204583,0.56610036,1.9378082,-1.08929,-1.7352573,0.22814311,-0.021302398,-0.20265695,1.0785824,0.1543836
-0.2,0.10000000000000003,0.7,0.0,0.5235987755982988,0,-0.15791954,1.5777148,1.0004556,0.052258942,-0.38249108,0.5748406,2.2255445,-0.8036965,-1.5438573,0.10220032,-0.044705212,-0.113097094,1.0101587,0.40894735
-0.2,0.10000000000000003,0.7,0.0,0.5235987755982988,0,-0.15897708,1.5869256,0.99949044,0.028237214,-0.39539212,0.57208145,2.0165443,-2.6083953,-1.5839261,-0.082666926,-0.23028204,-0.010059939,1.0847311,0.5131945
-0.2,0.10000000000000003,0.7,0.0,0.5235987755982988,0,-0.13901743,1.5821196,0.9989275,0.026605256,-0.36513463,0.58644575,1.8103496,-1.1763556,-1.6306907,0.04024997,0.02912753,-0.1307341,1.1261865,0.8548787
-0.2,0.10000000000000003,0.7,0.0,0.5235987755982988,0,-0.14782356,1.5915107,0.9953658,0.0048435954,-0.40934062,0.5440952,1.9919851,-0.09822799,-1.541666,-0.1538051,-0.10113438,-0.1592083,1.3436671,0.95202607
-0.2,0.10000000000000003,0.7,0.0,0.5235987755982988,0,-0.16557075,1.5872936,0.99035275,0.033426348,-0.38629287,0.56046176,1.9214506,0.0951602,-1.561747,-0.12035606,-0.026251143,-0.08414078,1.1236299,0.8808393
-0.2,0.10000000000000003,0.7,0.0,0.5235987755982988,0,-0.14612079,1.5855285,0.99251723,0.03241708,-0.33677623,0.6216106,2.145436,-0.7996315,-1.5906568,0.15214431,-0.101233855,-0.16439024,1.0805194,0.40837002
-0.2,0.10000000000000003,0.7,0.0,0.5235987755982988,0,-0.15712562,1.5923328,1.0005037,0.04857184,-0.38535607,0.5789587,2.0191305,-1.3342093,-1.6262147,0.16062078,-0.1244838,-0.051391985,1.0461509,0.44256693
-0.2,0.10000000000000003,0.7,0.0,0.5235987755982988,0,-0.15126206,1.5838033,0.9942103,0.016817044,-0.3897105,0.55444956,1.9682249,-2.1093245,-1.6329484,-0.007295273,-0.1025727,-0.12379629,1.0598584,0.7130711
-0.2,0.10000000000000003,0.7,0.0,0.5235987755982988,0,-0.13992552,1.5763823,0.9885716,0.030111158,-0.38894245,0.6065227,1.8861856,-0.54619235,-1.6425812,-0.23322445,-0.10156369,0.001524992,1.1018441,0.4424109
-0.2,0.10000000000000003,0.7,0.0,0.5235987755982988,0,-0.17251523,1.589607,0.989203,0.04230603,-0.4012576,0.5867638,1.7007915,-0.8127911,-1.6950642,-0.041238055,-0.15992211,-0.1587708,1.0536917,0.835821
-0.2,0.10000000000000003,0.7,0.0,0.5235987755982988,0,-0.15278143,1.578708,0.99320346,0.031655796,-0.3721532,0.5973367,1.9972566,-0.72564864,-1.5308336,-0.09959126,-0.035665557,-0.024874182,1.223433,0.91290075
-0.2,0.10000000000000003,0.7,0.0,0.5235987755982988,0,-0.12666467,1.5836421,0.99293685,-0.0057671214,-0.37987873,0.5755845,2.3323097,-0.33844614,-1.5782443,-0.19753997,-0.1276886,-0.19004796,1.3878785,1.0920539
-0.2,0.10000000000000003,0.7,0.0,0.5235987755982988,0,-0.15189692,1.583966,1.004409,0.048151296,-0.39635798,0.59674305,1.9722315,-0.10761532,-1.4587193,-0.17134756,0.07954751,-0.16960968,1.330673,0.38098517
-0.2,0.10000000000000003,0.7,0.0,0.5235987755982988,0,-0.13527426,1.5936034,0.9901154,0.02073172,-0.3789667,0.5729672,2.1004512,-1.1996789,-1.6803439,-0.13811788,-0.16963708,-0.38266838,1.079649,0.45632952
-0.2,0.10000000000000003,0.7,0.0,0.5235987755982988,0,-0.11212493,1.5873445,0.99063945,0.0072691096,-0.36612648,0.5661164,1.962339,-0.23494072,-1.7607958,0.17384665,-0.106170766,-0.26482734,1.2269108,0.27135313
-0.2,0.10000000000000003,0.7,0.0,0.5235987755982988,0,-0.15326406,1.5868046,1.0022618,0.045906596,-0.37864962,0.60747665,2.2109191,-1.2809792,-1.477776,0.16069846,-0.0009128089,-0.17255636,1.021963,0.18541864
-0.2,0.10000000000000003,0.7,0.0,0.5235987755982988,0,-0.1362089,1.5882776,0.9947743,0.030525377,-0.37972686,0.5936209,1.8993994,-0.9653362,-1.6731575,-0.07328711,-0.13813443,-0.23989414,1.0230184,-0.61327374
-0.2,0.10000000000000003,0.7,0.0,0.5235987755982988,0,-0.18140373,1.5900248,1.0064602,0.065696545,-0.3534181,0.592355,2.0470493,-2.3706586,-1.6020068,0.13294864,-0.013212305,-0.25733557,1.3228327,0.3656243
-0.2,0.10000000000000003,0.7,0.0,0.5235987755982988,0,-0.14262289,1.5828481,0.99451476,0.048238724,-0.36797872,0.5795532,1.8472841,-1.9945607,-1.4110768,0.06181329,-0.029842999,-0.15729201,1.0912527,0.46547815
-0.2,0.10000000000000003,0.7,0.0,0.5235987755982988,0,-0.16314301,1.5901926,0.9961752,0.047434147,-0.40602225,0.56449175,2.0541382,-0.98730624,-1.5506536,-0.062617265,-0.12430469,-0.07452792,1.2109504,0.08641847
-0.2,0.10000000000000003,0.7,0.0,0.5235987755982988,0,-0.15263417,1.593102,1.0020318,0.044387847,-0.35498714,0.57504684,1.8169634,-0.4863593,-1.6378502,-0.08197016,-0.08756082,-0.24587844,1.1498036,0.62625337
-0.2,0.10000000000000003,0.7,0.0,0.5235987755982988,0,-0.13841571,1.6006535,0.99606574,0.03585382,-0.37645963,0.57245433,1.768409,-0.74634796,-1.5667534,0.0972694,-0.023062859,0.022037841,1.2124307,0.25412023
-0.2,0.10000000000000003,0.7,0.0,0.5235987755982988,0,-0.15004313,1.5959449,0.9889676,0.043220416,-0.40237963,0.57150584,1.9726413,-1.1737872,-1.7688226,0.031441156,-0.09446586,-0.22576916,0.96931547,0.71261764
-0.2,0.10000000000000003,0.7,0.0,0.5235987755982988,0,-0.14566092,1.5897572,1.0051244,0.033253822,-0.3604064,0.55583775,1.862768,-2.0866857,-1.699096,-0.16214263,-0.14540443,-0.25430498,1.1361806,0.733624
-0.2,0.10000000000000003,0.7,0.0,0.5235987755982988,0,-0.14476115,1.5875481,0.99905956,0.04791163,-0.33559182,0.5663195,2.0699763,-1.0408583,-1.5314175,-0.017598739,-0.04781044,-0.13344975,0.9605447,0.46372083
-0.2,0.10000000000000003,0.7,0.0,0.5235987755982988,0,-0.12465948,1.5872669,1.0007362,0.02958189,-0.356063,0.578365,1.8260324,-1.2125229,-1.6165642,0.2744634,-0.013692482,-0.14540538,1.0158081,0.29421225
-0.2,0.10000000000000003,0.7,0.0,0.5235987755982988,0,-0.16988955,1.5878241,1.0029685,0.05271392,-0.38548854,0.59034353,1.8987213,-0.5327236,-1.6301124,0.1012518,-0.12021026,-0.20960571,1.0256332,0.19972895
-0.2,0.10000000000000003,0.7,0.0,0.5235987755982988,0,-0.124372214,1.6005869,1.0058383,0.032811463,-0.40640175,0.56834966,1.8266872,-0.9755679,-1.7269074,0.074815296,0.009746145,-0.117277436,1.0000838,0.07849809
-0.2,0.10000000000000003,0.7,0.0,0.5235987755982988,0,-0.1574245,1.5933213,0.9887501,0.009578108,-0.37311697,0.5947301,1.8285384,-0.79777354,-1.4638697,-0.19660701,-0.19594415,-0.19119385,1.1264918,0.15543574
-0.2,0.10000000000000003,0.7,0.0,0.5235987755982988,0,-0.1461669,1.5918057,0.9964967,0.0489311,-0.39682546,0.59797305,2.0839255,-1.8066299,-1.450774,-0.19724569,-0.19935714,-0.13420326,1.1475184,0.7163749
-0.2,0.10000000000000003,0.7,0.0,0.5235987755982988,0,-0.16918367,1.5900437,0.98885524,0.052656796,-0.416124,0.5502416,1.8445196,-0.17763056,-1.4464687,-0.08666002,-0.16237892,0.0528645,1.1044859,0.86320925
-0.2,0.10000000000000003,0.7,0.0,0.5235987755982988,0,-0.1116732,1.58713,1.0000948,0.014796408,-0.35195163,0.57855093,1.9461638,-0.5777637,-1.6345431,-0.22748768,-0.263337,-0.03400197,1.0772957,0.07395107
-0.2,0.10000000000000003,0.7,0.0,0.5235987755982988,0,-0.1425749,1.5811138,0.9847268,0.04125722,-0.3873672,0.55732673,1.9039873,0.070740566,-1.5820003,0.14706329,-0.01746894,-0.018734582,1.1658123,0.95079345
-0.2,0.10000000000000003,0.7,0.0,0.5235987755982988,0,-0.14983286,1.5894679,0.9962537,0.052125487,-0.38296735,0.57705164,1.9868746,-1.8392663,-1.6993873,0.08401166,-0.1747575,-0.14256187,0.9557102,-0.38212895
-0.2,0.10000000000000003,0.7,0.0,0.5235987755982988,0,-0.15606663,1.5897819,0.98894644,0.038973168,-0.40843818,0.5919977,1.8408635,-2.6048837,-1.5881698,-0.08298862,-0.09316668,-0.08232737,1.1449289,0.14827292
-0.2,0.10000000000000003,0.7,0.0,0.5235987755982988,0,-0.17480916,1.5939258,0.9834125,0.035190105,-0.4042207,0.5748293,2.1901083,-0.9552114,-1.4243578,0.26141226,-0.12049249,-0.14093083,1.1609226,0.09375522
-0.2,0.10000000000000003,0.7,0.0,0.5235987755982988,0,-0.14371528,1.5976868,0.9873631,0.043924175,-0.32394907,0.55526197,1.8202238,-1.2611669,-1.5303528,0.034357484,-0.075099796,-0.10853025,1.3052232,0.28853485
-0.2,0.10000000000000003,0.7,0.0,0.5235987755982988,0,-0.17598422,1.5901172,0.9965883,0.054628514,-0.36389247,0.59670717,1.86219,-1.9294719,-1.6508114,-0.09132512,-0.133198,-0.23547131,1.0495752,0.22119759
-0.2,0.10000000000000003,0.7,0.0,0.5235987755982988,0,-0.18553214,1.5945963,0.9907476,0.041065272,-0.36607537,0.585201,1.8834512,-1.0079008,-1.6024737,0.16142525,-0.030981472,-0.11191775,1.0545237,0.07585408
-0.2,0.10000000000000003,0.7,0.0,0.5235987755982988,0,-0.16312176,1.5957818,0.9832174,0.04548926,-0.41570824,0.57062906,1.8301018,-1.9102836,-1.5467702,0.027429344,-0.048063327,-0.036843702,1.1318656,0.5012672
-0.2,0.10000000000000003,0.7,0.0,0.5235987755982988,0,-0.14247273,1.5965816,0.9859807,0.03475304,-0.38084945,0.55114204,1.9331211,-0.7428042,-1.543638,0.03885837,-0.049164,-0.26941803,1.1305826,0.04358542
-0.2,0.10000000000000003,0.7,0.0,0.5235987755982988,0,-0.14679179,1.5908712,0.98772955,0.04927859,-0.35694942,0.59104574,1.9224247,-1.272342,-1.7039216,0.15775141,0.033629492,-0.09656563,1.114472,0.26759067
-0.2,0.10000000000000003,0.7,0.0,0.5235987755982988,0,-0.13968168,1.5943108,1.015354,0.049588874,-0.34413278,0.5742124,1.9901476,-1.1733733,-1.4433343,-0.32725203,-0.060889136,-0.15417722,1.239224,0.8044814
-0.2,0.10000000000000003,0.7,0.0,0.5235987755982988,0,-0.15305603,1.5941588,1.0046556,0.04575016,-0.3655048,0.5785247,1.9860888,-1.4654373,-1.5390928,0.031429995,-0.10238452,-0.04541406,1.0747492,-0.17015652
-0.2,0.10000000000000003,0.7,0.0,0.5235987755982988,0,-0.14026453,1.5912287,0.9822683,0.038675543,-0.34172887,0.5816163,1.9866241,-1.2095784,-1.6036444,-0.04140908,-0.13244021,-0.06699253,1.0487192,0.25852913
-0.2,0.10000000000000003,0.7,0.0,0.5235987755982988,0,-0.15952693,1.5929041,0.98622215,0.06045348,-0.3664352,0.55923057,1.8527045,-1.1988604,-1.5748215,-0.10152143,-0.16695449,-0.19919814,1.4482814,0.9073355
-0.2,0.10000000000000003,0.7,0.0,0.5235987755982988,0,-0.13477644,1.5866665,1.0025669,0.044117775,-0.41044763,0.5707161,1.9603664,-0.1464264,-1.5915908,-0.0042983093,-0.123250075,-0.16183712,1.065173,1.2650524
-0.2,0.10000000000000003,0.7,0.0,0.5235987755982988,0,-0.13312177,1.583963,1.0022455,0.049228046,-0.38097417,0.55855,1.531438,-1.7580451,-1.519761,-0.030318646,-0.20170282,-0.22518614,0.9255391,0.7830798
-0.2,0.10000000000000003,0.7,0.0,0.5235987755982988,0,-0.15137607,1.5876788,1.0003364,0.061804064,-0.37157446,0.5501836,1.8076696,-1.8749875,-1.6859369,0.006075225,-0.14071597,-0.1297829,0.9170074,0.31745332
-0.2,0.10000000000000003,0.7,0.0,0.5235987755982988,0,-0.1384263,1.5934753,0.98876697,0.0013497755,-0.40318227,0.58656496,1.8877107,-0.5839855,-1.6087941,-0.21457763,-0.08903514,-0.044372108,0.86295384,0.133802
-0.2,0.10000000000000003,0.7,0.0,0.5235987755982988,0,-0.15325764,1.5957634,1.0022644,0.04403237,-0.40321016,0.57478184,2.0927043,-1.3104345,-1.7806412,0.16385679,-0.102582365,-0.0934096,1.2613932,0.21145134
-0.2,0.10000000000000003,0.7,0.0,0.5235987755982988,0,-0.11570569,1.5873784,0.9950233,0.041459475,-0.35236278,0.6075507,1.8497863,-0.40335366,-1.5789981,-0.006617661,-0.17921323,-0.2566935,1.2271086,1.2837052
-0.2,0.10000000000000003,0.7,0.0,0.5235987755982988,0,-0.14428537,1.5863075,0.9963835,0.057212364,-0.31623197,0.5620282,2.124462,-2.1319919,-1.48961,0.027696857,-0.086546496,-0.33099288,1.0518395,0.5705488
-0.2,0.10000000000000003,0.7,0.0,0.5235987755982988,0,-0.13604611,1.5891836,1.0087281,0.0395132,-0.3554662,0.58405614,2.0401154,-0.9362166,-1.5437013,-0.17772548,-0.07199871,0.062040415,1.2815044,1.0425776
-0.2,0.10000000000000003,0.7,0.0,0.5235987755982988,0,-0.15543397,1.5815523,0.9876347,0.053883713,-0.4179183,0.5825229,2.024548,-1.4556694,-1.5560533,0.17235851,-0.18730874,-0.14634019,1.0908138,0.11973693
-0.2,0.10000000000000003,0.7,0.0,0.5235987755982988,0,-0.14114049,1.5958062,0.9991174,0.048447765,-0.40121403,0.5830735,2.036562,-0.8358724,-1.6873915,-0.25098246,-0.0050336937,-0.24105632,1.1964056,0.19605537
-0.2,0.10000000000000003,0.7,0.0,0.5235987755982988,0,-0.16347004,1.5882105,0.9851144,0.030887028,-0.41057235,0.57295966,1.8464609,-1.5023718,-1.4624767,-0.008571267,-0.21323237,-0.078846104,1.215843,0.10643171
-0.2,0.10000000000000003,0.7,0.0,0.5235987755982988,0,-0.109776184,1.579038,1.0091757,0.03535547,-0.3521253,0.58695143,1.7017767,-0.5918809,-1.474424,-0.15279745,-0.044445112,-0.1111777,1.1037544,1.2917246
-0.2,0.10000000000000003,0.7,0.0,0.5235987755982988,0,-0.12896357,1.5933194,0.99516577,0.046241425,-0.39897624,0.58140796,1.9861981,-0.5512827,-1.6032411,0.15407267,-0.04494465,-0.12824841,1.0094954,0.47628662
-0.2,0.10000000000000003,0.7,0.0,0.5235987755982988,0,-0.13165669,1.5913393,0.99456275,0.04726335,-0.37957135,0.5769446,2.152171,-0.34297246,-1.6583568,0.10818478,-0.031396028,-0.13295054,0.9393401,0.34788638
-0.2,0.10000000000000003,0.7,0.0,0.5235987755982988,0,-0.16947486,1.5988615,0.9937758,0.046055768,-0.3828296,0.58333445,1.8345476,-1.0609496,-1.6576,0.09696369,-0.19554241,-0.19872525,1.226184,0.5942877
-0.2,0.10000000000000003,0.7,0.0,0.5235987755982988,0,-0.13170268,1.5844405,0.99732393,0.046636675,-0.40779275,0.5901973,2.1058292,-1.1974622,-1.740109,-0.14787972,-0.14012477,-0.17579684,1.0430793,0.25396526
-0.2,0.10000000000000003,0.7,0.0,0.5235987755982988,0,-0.13882177,1.5918984,0.991235,0.010890002,-0.33264524,0.5777962,1.5565093,-1.2437705,-1.6619939,0.012393578,-0.15882158,-0.031342596,0.88987243,0.62213624
-0.2,0.10000000000000003,0.7,0.0,0.5235987755982988,0,-0.17436413,1.5959946,1.0026256,0.054977965,-0.3919688,0.56271964,1.9858245,-1.4466026,-1.6425443,0.08332667,-0.16795082,-0.10231677,0.95152444,0.49431548
-0.2,0.10000000000000003,0.7,0.0,0.5235987755982988,0,-0.17543177,1.5889564,0.9922619,0.07861726,-0.4325462,0.55505013,2.0700493,-0.5985673,-1.5542754,-0.11870056,-0.12674132,0.16632575,1.1613215,-0.20208569
-0.2,0.10000000000000003,0.7,0.0,0.5235987755982988,0,-0.12810643,1.5969627,0.9932141,0.0063852845,-0.37471047,0.595061,2.0205781,-1.2109536,-1.5669295,-0.11418106,-0.10872108,-0.18283798,0.97606486,0.65069824
-0.2,0.10000000000000003,0.7,0.0,0.5235987755982988,0,-0.19310461,1.588924,0.9990366,0.056828756,-0.35890296,0.58654064,1.995919,-1.7617059,-1.5396502,-0.057017013,-0.111976326,-0.33098805,1.106407,0.9351503
-0.2,0.10000000000000003,0.7,0.0,0.5235987755982988,0,-0.12569243,1.593664,0.98083603,0.023160387,-0.37218735,0.5834796,1.8578305,-1.5040071,-1.5141773,0.08774779,-0.11456354,-0.2629849,1.1651255,0.4163315
-0.2,0.10000000000000003,0.7,0.0,0.5235987755982988,0,-0.12160358,1.5839766,0.99521565,0.048652228,-0.3608755,0.5674986,2.0379446,-0.64264464,-1.5547711,-0.020517193,-0.18233567,-0.09746167,1.009246,0.0012301706
-0.2,0.10000000000000003,0.7,0.0,0.5235987755982988,0,-0.18337725,1.5847207,0.9985305,0.08281615,-0.36073813,0.59239286,1.8481114,-1.2847201,-1.6705631,0.26343358,-0.15689495,-0.17070848,1.2145163,0.1967197
-0.2,0.10000000000000003,0.7,0.0,0.5235987755982988,0,-0.117709145,1.5863304,0.99738234,0.042951863,-0.37909028,0.5826273,1.9809083,-0.564136,-1.6708571,0.015262681,-0.18418857,0.015842572,1.1331604,0.9419208
-0.2,0.10000000000000003,0.7,0.0,0.5235987755982988,0,-0.10705262,1.5851855,1.0101619,0.0405105,-0.3749059,0.58022183,1.8940648,-1.2603465,-1.509044,0.15127096,-0.07600508,0.026079895,0.9955223,1.1991901
-0.2,0.10000000000000003,0.7,0.0,0.5235987755982988,0,-0.12884103,1.5939581,0.99790996,0.048631635,-0.36150345,0.5909284,2.0096123,-1.59166,-1.6732253,-0.024122722,-0.092014305,-0.127833,1.0682263,0.74732304
-0.2,0.10000000000000003,0.7,0.0,0.5235987755982988,0,-0.14099596,1.5940073,0.99448675,0.04222249,-0.34234494,0.5845055,2.1811767,-0.8893162,-1.6000507,-0.19756934,-0.12415298,-0.068314,1.0233805,0.5190207
-0.2,0.10000000000000003,0.7,0.0,0.5235987755982988,0,-0.12989803,1.5880553,1.0027746,0.014828319,-0.34908742,0.571482,1.8565634,-0.5479058,-1.4921272,0.034398098,-0.051688943,0.024334924,1.0154138,1.0004853
-0.2,0.10000000000000003,0.7,0.0,0.5235987755982988,0,-0.13942707,1.5903167,1.000499,0.04358818,-0.41385183,0.57510626,2.0115578,-1.5116435,-1.5824898,0.0038748975,-0.03215802,-0.15442316,1.1850014,0.84269
-0.2,0.10000000000000003,0.7,0.0,0.5235987755982988,0,-0.13509329,1.5915043,0.9959525,0.05206677,-0.42939818,0.5860469,1.8829437,-1.8068379,-1.612094,0.21065116,0.0061590574,-0.1474445,1.1582386,0.1645262
-0.2,0.10000000000000003,0.7,0.0,0.5235987755982988,0,-0.13764803,1.6049778,1.0060167,0.019647287,-0.37362695,0.5826463,1.9443837,-1.3232691,-1.6328541,0.09631463,-0.038515482,-0.1760978,1.2047967,-0.2548788
-0.2,0.10000000000000003,0.7,0.0,0.5235987755982988,0,-0.12600382,1.5882764,0.9959385,0.019002378,-0.43100733,0.53550494,2.0048246,-1.1789123,-1.7082008,0.02952364,-0.115711235,-0.1690798,0.9827914,1.0430143
-0.2,0.10000000000000003,0.7,0.0,0.5235987755982988,0,-0.13437934,1.59011,0.99894786,0.024068251,-0.3993349,0.58706367,2.0152037,-1.1636473,-1.7117022,-0.1051459,-0.13739994,-0.14267305,1.0899072,0.5854735
-0.2,0.10000000000000003,0.7,0.0,0.5235987755982988,0,-0.1376346,1.5796882,0.99357337,0.041341025,-0.40533525,0.56567407,2.0122917,-2.166482,-1.6569257,0.11440323,-0.25219098,0.019202152,1.1823883,0.7320067
-0.2,0.10000000000000003,0.7,0.0,0.5235987755982988,0,-0.16073139,1.5743698,0.99061364,0.050785556,-0.36318475,0.5903233,2.0732455,-1.8755616,-1.7003584,-0.013863214,-0.04801818,-0.09947166,1.0072992,0.32035145
-0.2,0.10000000000000003,0.7,0.0,0.5235987755982988,0,-0.14650734,1.5846306,0.9870226,0.0572933,-0.38356772,0.56320524,1.7381366,-1.5537202,-1.4882506,0.18104565,-0.011876165,-0.29728985,1.3745456,0.097423196
-0.2,0.10000000000000003,0.7,0.0,0.5235987755982988,0,-0.14232035,1.5922935,0.98726505,0.046912547,-0.4152686,0.585575,1.8943361,-0.8655883,-1.530247,0.19440606,-0.07378891,-0.18564673,1.237864,-0.1436234
-0.2,0.10000000000000003,0.7,0.0,0.5235987755982988,0,-0.12983465,1.5893779,0.9991813,0.04470895,-0.42151263,0.5870072,1.748916,-0.89348215,-1.6469679,0.082450084,-0.23639214,-0.14607234,0.9520602,-0.09554499
-0.2,0.10000000000000003,0.7,0.0,0.5235987755982988,0,-0.14379528,1.5801591,1.0001056,0.056911457,-0.3309938,0.56807524,1.7504817,-1.0801026,-1.5613157,0.13983814,-0.073623165,-0.12753843,1.108401,0.45644748
-0.2,0.10000000000000003,0.7,0.0,0.5235987755982988,0,-0.14025997,1.5814682,0.98575,0.055087306,-0.3528188,0.58685416,1.8516182,-1.0198646,-1.4949979,-0.07686174,-0.16337176,-0.17765106,1.1856118,0.24925354
-0.2,0.10000000000000003,0.7,0.0,0.5235987755982988,0,-0.12116704,1.5859387,0.9929483,0.036273398,-0.3939039,0.60432166,1.870323,-0.9854325,-1.4993602,0.19971527,0.04970074,-0.12039325,1.1150305,1.6117917
-0.2,0.10000000000000003,0.7,0.0,0.5235987755982988,0,-0.13451427,1.5890774,0.9781839,0.041476075,-0.41287634,0.5989386,1.5623142,-0.6806724,-1.6098179,0.089066364,-0.110483065,0.06476192,1.1527541,0.25088832
-0.2,0.10000000000000003,0.7,0.0,0.5235987755982988,0,-0.12759922,1.5879737,0.9897931,0.048828434,-0.40521827,0.5748052,1.8336126,-0.9688287,-1.5272101,-0.069915906,-0.073718734,-0.001724543,0.9780304,0.30762404
-0.2,0.10000000000000003,0.7,0.0,0.5235987755982988,0,-0.14500107,1.5925539,0.987138,0.047602717,-0.3816689,0.5754385,1.8480865,-0.89458627,-1.5619822,-0.16880983,-0.22181629,-0.17533413,0.981547,0.22767346
-0.2,0.10000000000000003,0.7,0.0,0.5235987755982988,0,-0.13933827,1.6022824,0.988688,0.042808812,-0.37221116,0.5786529,1.8048536,-0.79582345,-1.5506243,-0.17843786,-0.067284554,-0.40226597,1.0698357,0.63091403
-0.2,0.10000000000000003,0.7,0.0,0.5235987755982988,0,-0.1369715,1.5974245,1.0008632,0.045546755,-0.43651605,0.60226107,1.8657897,-1.5583392,-1.7888893,-0.10478556,-0.13086666,-0.096847594,1.2543547,0.25936094
-0.2,0.10000000000000003,0.7,0.0,0.5235987755982988,0,-0.1500181,1.5908427,0.98755234,-0.0025631192,-0.38477105,0.558385,1.7852131,-1.2134718,-1.5891864,0.073896006,-0.058090657,-0.021671891,1.0850997,0.72759235
-0.2,0.10000000000000003,0.7,0.0,0.5235987755982988,0,-0.15689565,1.5952129,0.9926356,0.00906264,-0.38490286,0.5904932,2.195555,-1.9663152,-1.6337587,0.26636893,-0.15482469,-0.24655926,1.0024745,0.3893923
-0.2,0.10000000000000003,0.7,0.0,0.5235987755982988,0,-0.16529559,1.5863545,0.9851647,0.027958587,-0.38447148,0.59578174,1.9070221,-0.4172096,-1.6508799,0.031048216,-0.1451999,0.10017134,1.0005685,0.9053803
-0.2,0.10000000000000003,0.7,0.0,0.5235987755982988,0,-0.14083192,1.6036378,1.002426,0.014558127,-0.3961991,0.57077175,1.9447904,-0.89333564,-1.5771841,0.010530383,-0.02541849,-0.43187094,1.0247762,0.4676258
-0.2,0.10000000000000003,0.7,0.0,0.5235987755982988,0,-0.20606886,1.6004426,0.99123716,0.06092914,-0.39785346,0.57206106,1.7539507,-1.5609548,-1.73384,-0.17948505,-0.1601014,-0.2658113,1.2749383,-0.11677455
-0.2,0.10000000000000003,0.7,0.0,0.5235987755982988,0,-0.17128327,1.5815381,0.99395204,0.057588555,-0.4036407,0.5825278,2.045754,-0.2153209,-1.6589711,0.09008598,-0.08299595,-0.20976172,1.1300708,0.49872267
-0.2,0.10000000000000003,0.7,0.0,0.5235987755982988,0,-0.146325,1.5862808,0.98982596,0.057366587,-0.39882118,0.5851383,1.8133878,-2.3272398,-1.6256038,0.17123497,-0.03775499,0.02115424,1.1042539,0.58561534
