sanky1234/BimanualDexCatch/isaacgymenvs/cem_results/football_pose_-0.2_-0.2_0.6_-0.5235987755982988_0.34906585039886606_0.1745329251994331.csv
x,y,z,roll,pitch,yaw,robot1/joint1,robot1/joint2,robot1/joint3,robot1/joint4,robot1/joint5,robot1/joint6,robot1/joint7,robot2/joint1,robot2/joint2,robot2/joint3,robot2/joint4,robot2/joint5,robot2/joint6,robot2/joint7
-0.2,-0.2,0.6,-0.5235987755982988,0.34906585039886606,0.1745329251994331,1.6971258,1.499288,0.26193258,0.056880135,0.059463926,0.9277103,0.66898054,-0.40812162,1.6488878,-0.30000883,-0.79360825,-0.15374906,1.5202718,1.206682
-0.2,-0.2,0.6,-0.5235987755982988,0.34906585039886606,0.1745329251994331,1.6788756,1.5086672,0.23095825,0.05070245,0.049679123,0.9332577,0.6544747,-0.42239147,1.637976,-0.36596355,-0.84635997,-0.22352818,1.462851,1.3682233
-0.2,-0.2,0.6,-0.5235987755982988,0.34906585039886606,0.1745329251994331,1.6874417,1.5089318,0.19988619,0.057025906,0.06593217,0.93120825,0.6317811,-0.38906837,1.6591506,-0.33780044,-0.80863404,-0.1033913,1.4521598,1.2227896
-0.2,-0.2,0.6,-0.5235987755982988,0.34906585039886606,0.1745329251994331,1.7048005,1.5083888,0.21173579,0.051357202,0.07778331,0.93147594,0.71309125,-0.40997118,1.6343862,-0.2957373,-0.7518886,-0.13862374,1.49008,1.148634
-0.2,-0.2,0.6,-0.5235987755982988,0.34906585039886606,0.1745329251994331,1.6856048,1.5233182,0.2128932,0.055907283,0.063136995,0.9314046,0.6806767,-0.41613245,1.6290705,-0.33157858,-0.8448332,-0.17592326,1.439776,1.1318142
-0.2,-0.2,0.6,-0.5235987755982988,0.34906585039886606,0.1745329251994331,1.7016782,1.5026376,0.1868038,0.042096138,0.039623175,0.9164685,0.70280546,-0.42231205,1.6328486,-0.3244239,-0.8098507,-0.14572346,1.3969066,1.328843
-0.2,-0.2,0.6,-0.5235987755982988,0.34906585039886606,0.1745329251994331,1.6921943,1.5030842,0.20933028,0.06491513,0.04682327,0.9141511,0.65901285,-0.41818848,1.6336209,-0.31839576,-0.8541931,-0.18135135,1.5168943,1.4244331
-0.2,-0.2,0.6,-0.5235987755982988,0.34906585039886606,0.1745329251994331,1.6974871,1.5016178,0.24410914,0.047982767,0.042947955,0.9595046,0.6143735,-0.40073797,1.6367427,-0.33835468,-0.8643035,-0.19457783,1.5149113,1.2655088
-0.2,-0.2,0.6,-0.5235987755982988,0.34906585039886606,0.1745329251994331,1.7062553,1.5102401,0.20647298,0.030544123,0.042816464,0.9506024,0.69437516,-0.408059,1.634594,-0.27355716,-0.9034193,-0.18450727,1.5029063,1.3483903
-0.2,-0.2,0.6,-0.5235987755982988,0.34906585039886606,0.1745329251994331,1.6888663,1.515376,0.21804693,0.040994238,0.053534616,0.9597646,0.663874,-0.41232535,1.6481417,-0.39127135,-0.77156407,-0.14716019,1.4308085,1.2281188
-0.2,-0.2,0.6,-0.5235987755982988,0.34906585039886606,0.1745329251994331,1.7079816,1.5096674,0.24982771,0.04565692,0.05835708,0.9115469,0.61053056,-0.40693375,1.6380345,-0.3276927,-0.83679897,-0.17377773,1.4384141,1.2484488
-0.2,-0.2,0.6,-0.5235987755982988,0.34906585039886606,0.1745329251994331,1.6879191,1.514701,0.22283131,0.0353169,0.058635212,0.930875,0.62767494,-0.41104636,1.6521202,-0.37339467,-0.8248984,-0.16012304,1.4288127,1.4358392
-0.2,-0.2,0.6,-0.5235987755982988,0.34906585039886606,0.1745329251994331,1.6651825,1.5125523,0.22599442,0.077459075,0.040129367,0.91728556,0.6660558,-0.39304996,1.6328655,-0.31885272,-0.8253627,-0.114291,1.4799347,1.0902909
-0.2,-0.2,0.6,-0.5235987755982988,0.34906585039886606,0.1745329251994331,1.7093188,1.5143403,0.21023986,0.06875722,0.038587138,0.9325633,0.6234469,-0.41101155,1.6223367,-0.31838593,-0.8386291,-0.15958542,1.4556482,1.1724398
-0.2,-0.2,0.6,-0.5235987755982988,0.34906585039886606,0.1745329251994331,1.6951977,1.5087217,0.20725672,0.05343334,0.044857413,0.93009764,0.709034,-0.4257587,1.6357163,-0.34396952,-0.86805236,-0.142385,1.4908907,1.0529054
-0.2,-0.2,0.6,-0.5235987755982988,0.34906585039886606,0.1745329251994331,1.7018311,1.5043705,0.22940357,0.050002504,0.0578775,0.93995607,0.63189775,-0.41150343,1.6469363,-0.33011442,-0.83950746,-0.1739237,1.4921005,1.2018309
-0.2,-0.2,0.6,-0.5235987755982988,0.34906585039886606,0.1745329251994331,1.6936796,1.5117742,0.20751695,0.04530838,0.03280844,0.9488701,0.6356185,-0.39990497,1.6579894,-0.29849628,-0.83224946,-0.18718623,1.4704297,1.1437411
-0.2,-0.2,0.6,-0.5235987755982988,0.34906585039886606,0.1745329251994331,1.6774884,1.5037673,0.23928648,0.051433098,0.042129304,0.93994683,0.5891933,-0.40311405,1.6380306,-0.32086164,-0.8354341,-0.1619436,1.4317896,1.2932769
-0.2,-0.2,0.6,-0.5235987755982988,0.34906585039886606,0.1745329251994331,1.6976233,1.4981921,0.22466241,0.0524881,0.045183122,0.9281023,0.6860759,-0.40629938,1.6242267,-0.30797824,-0.89953256,-0.16748717,1.5297718,1.2419654
-0.2,-0.2,0.6,-0.5235987755982988,0.34906585039886606,0.1745329251994331,1.687149,1.5099123,0.21329214,0.04303222,0.055156164,0.94842863,0.6887298,-0.42106807,1.6525235,-0.34602192,-0.8009816,-0.1784552,1.458841,1.1909972
-0.2,-0.2,0.6,-0.5235987755982988,0.34906585039886606,0.1745329251994331,1.6963234,1.4994924,0.23415723,0.050687682,0.054462656,0.94379866,0.6835747,-0.414148,1.6308771,-0.33357334,-0.7832268,-0.1970293,1.5137924,1.2975385
-0.2,-0.2,0.6,-0.5235987755982988,0.34906585039886606,0.1745329251994331,1.7052584,1.5169632,0.19461708,0.06313031,0.05662086,0.9582842,0.65150523,-0.42563093,1.6385667,-0.33874562,-0.91209537,-0.12843849,1.5252198,1.2651465
-0.2,-0.2,0.6,-0.5235987755982988,0.34906585039886606,0.1745329251994331,1.6859499,1.5112836,0.22580756,0.050323687,0.067544915,0.9498925,0.6747737,-0.39630687,1.6399773,-0.3677225,-0.8476291,-0.15935184,1.5011172,1.063004
-0.2,-0.2,0.6,-0.5235987755982988,0.34906585039886606,0.1745329251994331,1.6981604,1.5039861,0.19158942,0.08113972,0.07176694,0.9499278,0.63663137,-0.4146844,1.6287454,-0.3605755,-0.81176007,-0.15473065,1.4590968,1.4460977
-0.2,-0.2,0.6,-0.5235987755982988,0.34906585039886606,0.1745329251994331,1.6932454,1.5003844,0.26979405,0.048643623,0.068878844,0.9609966,0.56587964,-0.4100273,1.636543,-0.34325704,-0.817949,-0.15601005,1.5318905,1.1423205
-0.2,-0.2,0.6,-0.5235987755982988,0.34906585039886606,0.1745329251994331,1.700816,1.5040412,0.2224788,0.041966792,0.04142816,0.9201006,0.67885554,-0.39561722,1.6238513,-0.31947455,-0.84327924,-0.19979061,1.4379545,1.2342128
-0.2,-0.2,0.6,-0.5235987755982988,0.34906585039886606,0.1745329251994331,1.7020663,1.5060587,0.21755178,0.055269774,0.057742495,0.9192513,0.63843393,-0.40378788,1.6334003,-0.33753103,-0.77196664,-0.15358613,1.4268365,1.2847158
-0.2,-0.2,0.6,-0.5235987755982988,0.34906585039886606,0.1745329251994331,1.6933529,1.5032799,0.22723642,0.053740602,0.067404,0.94336474,0.70678264,-0.40222126,1.6304543,-0.32617527,-0.8137172,-0.13440605,1.5265691,1.2091602
-0.2,-0.2,0.6,-0.5235987755982988,0.34906585039886606,0.1745329251994331,1.6848887,1.5157712,0.24177754,0.05391924,0.052864067,0.9162483,0.66157055,-0.4058014,1.6487246,-0.34108242,-0.78724355,-0.17327905,1.4667128,1.3766931
-0.2,-0.2,0.6,-0.5235987755982988,0.34906585039886606,0.1745329251994331,1.6823554,1.502728,0.20909378,0.053970948,0.048383664,0.9350198,0.66762364,-0.39471045,1.6374979,-0.36575282,-0.84676194,-0.10561676,1.4743712,1.1448144
-0.2,-0.2,0.6,-0.5235987755982988,0.34906585039886606,0.1745329251994331,1.6943594,1.5187962,0.20492351,0.03935341,0.060452748,0.94617724,0.69658136,-0.4181791,1.6369027,-0.3217449,-0.8447427,-0.12169944,1.5125676,1.3703495
-0.2,-0.2,0.6,-0.5235987755982988,0.34906585039886606,0.1745329251994331,1.6894928,1.5115353,0.20994008,0.08103131,0.042282518,0.94399816,0.6471207,-0.42462164,1.6357578,-0.40233633,-0.8160175,-0.15474772,1.4672738,1.2286046
-0.2,-0.2,0.6,-0.5235987755982988,0.34906585039886606,0.1745329251994331,1.6839333,1.5039976,0.21319534,0.06286881,0.043121904,0.94330627,0.69732517,-0.40761614,1.6259869,-0.33760718,-0.8373878,-0.1362604,1.5256369,1.3728849
-0.2,-0.2,0.6,-0.5235987755982988,0.34906585039886606,0.1745329251994331,1.7042214,1.5030017,0.20700449,0.039533563,0.07517614,0.93662214,0.6231211,-0.40515003,1.6504158,-0.30767474,-0.8921024,-0.17732975,1.4863989,1.3400596
-0.2,-0.2,0.6,-0.5235987755982988,0.34906585039886606,0.1745329251994331,1.7024199,1.5038354,0.241862,0.057964988,0.04997837,0.93156785,0.65152663,-0.41994384,1.6369568,-0.2987304,-0.77341104,-0.19712362,1.4902697,1.0302125
-0.2,-0.2,0.6,-0.5235987755982988,0.34906585039886606,0.1745329251994331,1.6960076,1.5062599,0.23390697,0.051635377,0.04230281,0.932962,0.67520976,-0.40859735,1.6249461,-0.3410714,-0.8637933,-0.14830104,1.4865537,1.1273793
-0.2,-0.2,0.6,-0.5235987755982988,0.34906585039886606,0.1745329251994331,1.7013061,1.4984369,0.21609661,0.062029634,0.045230888,0.94237566,0.61130965,-0.40605205,1.6320868,-0.35385135,-0.89409286,-0.106599405,1.5272865,1.3497721
-0.2,-0.2,0.6,-0.5235987755982988,0.34906585039886606,0.1745329251994331,1.6846936,1.5065407,0.20041513,0.058778446,0.05102048,0.94855046,0.6777681,-0.41240713,1.6337708,-0.3289389,-0.844683,-0.10819191,1.4959527,1.3683589
-0.2,-0.2,0.6,-0.5235987755982988,0.34906585039886606,0.1745329251994331,1.708587,1.5049372,0.18500449,0.06891428,0.048120294,0.9279462,0.73734677,-0.40874186,1.648384,-0.30835047,-0.8071755,-0.21150732,1.4598964,1.4592185
-0.2,-0.2,0.6,-0.5235987755982988,0.34906585039886606,0.1745329251994331,1.6914473,1.5087562,0.22240831,0.053178433,0.04208709,0.9178429,0.62746507,-0.39858308,1.6383852,-0.31138355,-0.8753289,-0.17344394,1.4648397,1.3654771
-0.2,-0.2,0.6,-0.5235987755982988,0.34906585039886606,0.1745329251994331,1.6931074,1.5102973,0.22469756,0.07051207,0.076646306,0.937522,0.6896723,-0.40510345,1.6465577,-0.3170682,-0.8119378,-0.115155764,1.5212858,1.216973
-0.2,-0.2,0.6,-0.5235987755982988,0.34906585039886606,0.1745329251994331,1.6823099,1.4966681,0.18891473,0.048309654,0.06794053,0.9145125,0.67084354,-0.43103456,1.6379468,-0.33081988,-0.8095482,-0.17114021,1.4189392,1.3412975
-0.2,-0.2,0.6,-0.5235987755982988,0.34906585039886606,0.1745329251994331,1.696326,1.5123503,0.19858497,0.07796059,0.06318325,0.95042557,0.68541604,-0.42191383,1.6367247,-0.2991249,-0.7630496,-0.1360808,1.4880292,1.2200253
-0.2,-0.2,0.6,-0.5235987755982988,0.34906585039886606,0.1745329251994331,1.6994282,1.4994518,0.20706849,0.06672801,0.05353342,0.931689,0.6337066,-0.40353227,1.6443381,-0.34312603,-0.87943614,-0.15685639,1.5189964,1.4593568
-0.2,-0.2,0.6,-0.5235987755982988,0.34906585039886606,0.1745329251994331,1.6834892,1.5023775,0.22224031,0.05482955,0.050326075,0.9298376,0.63750535,-0.3954618,1.6374235,-0.3114001,-0.83620614,-0.16651566,1.457679,1.2024523
-0.2,-0.2,0.6,-0.5235987755982988,0.34906585039886606,0.1745329251994331,1.6825739,1.5048743,0.21831837,0.046333153,0.0420944,0.94227713,0.68148214,-0.40555453,1.6346852,-0.32906207,-0.86780244,-0.221199,1.4570037,1.2712516
-0.2,-0.2,0.6,-0.5235987755982988,0.34906585039886606,0.1745329251994331,1.7088618,1.5110765,0.22023994,0.040745646,0.069522426,0.95031,0.6982436,-0.40910685,1.6236463,-0.33487862,-0.8317915,-0.1589945,1.4947679,1.2440925
-0.2,-0.2,0.6,-0.5235987755982988,0.34906585039886606,0.1745329251994331,1.699894,1.5134126,0.24535052,0.04410131,0.042769164,0.94612706,0.65383065,-0.41789916,1.6537457,-0.30816215,-0.7931522,-0.19854815,1.4854834,1.4737861
-0.2,-0.2,0.6,-0.5235987755982988,0.34906585039886606,0.1745329251994331,1.7014563,1.5133866,0.21752976,0.05338487,0.0632655,0.92376935,0.6223739,-0.40606642,1.6387951,-0.3554701,-0.8572077,-0.1344931,1.4714729,1.2518556
-0.2,-0.2,0.6,-0.5235987755982988,0.34906585039886606,0.1745329251994331,1.7046214,1.5090767,0.18740393,0.055440474,0.0461249,0.9592151,0.70254886,-0.3909103,1.6319848,-0.36018112,-0.8315589,-0.1336184,1.4702479,1.2723367
-0.2,-0.2,0.6,-0.5235987755982988,0.34906585039886606,0.1745329251994331,1.6988707,1.5074649,0.2126003,0.052024044,0.0428849,0.91778827,0.6557763,-0.4180762,1.6306951,-0.35758922,-0.83112377,-0.21542981,1.4287219,1.3546531
-0.2,-0.2,0.6,-0.5235987755982988,0.34906585039886606,0.1745329251994331,1.7003073,1.5120848,0.2103325,0.06743455,0.056618586,0.9389596,0.62486744,-0.40079704,1.6494972,-0.33083424,-0.84308904,-0.18722977,1.465646,1.2940388
-0.2,-0.2,0.6,-0.5235987755982988,0.34906585039886606,0.1745329251994331,1.691966,1.513209,0.18750553,0.04132953,0.052470904,0.92685235,0.673658,-0.41131437,1.6233215,-0.30478838,-0.8625191,-0.18876274,1.4912708,1.2887212
-0.2,-0.2,0.6,-0.5235987755982988,0.34906585039886606,0.1745329251994331,1.684095,1.4952646,0.1851587,0.046159506,0.043030236,0.94194984,0.70574415,-0.4165178,1.6450264,-0.31841886,-0.8462698,-0.17255382,1.4583464,1.4326328
-0.2,-0.2,0.6,-0.5235987755982988,0.34906585039886606,0.1745329251994331,1.7107061,1.5185959,0.204559,0.055662498,0.05679464,0.92301303,0.65880114,-0.39295235,1.6344329,-0.3253836,-0.83666736,-0.16737562,1.4464476,1.2202529
-0.2,-0.2,0.6,-0.5235987755982988,0.34906585039886606,0.1745329251994331,1.7204118,1.5144659,0.1707332,0.070035405,0.061170388,0.94759154,0.6510596,-0.40765783,1.6353298,-0.32971865,-0.8569029,-0.12205146,1.4913814,1.1718246
-0.2,-0.2,0.6,-0.5235987755982988,0.34906585039886606,0.1745329251994331,1.6995836,1.503982,0.19178458,0.0657721,0.048123263,0.95478046,0.67027307,-0.4249059,1.6310818,-0.3277447,-0.8266499,-0.18223855,1.4910076,1.2220197
-0.2,-0.2,0.6,-0.5235987755982988,0.34906585039886606,0.1745329251994331,1.7135295,1.5100181,0.21970378,0.048046928,0.03757516,0.9172498,0.65866935,-0.39913324,1.642935,-0.29794383,-0.8858374,-0.1704697,1.487081,1.1381277
-0.2,-0.2,0.6,-0.5235987755982988,0.34906585039886606,0.1745329251994331,1.6873653,1.5041878,0.2257896,0.044348717,0.07215248,0.9715074,0.64076084,-0.39668092,1.6358812,-0.37055168,-0.8251705,-0.19154021,1.5432361,1.3344827
-0.2,-0.2,0.6,-0.5235987755982988,0.34906585039886606,0.1745329251994331,1.6726168,1.5072616,0.23448808,0.055312417,0.051355544,0.9172315,0.6500296,-0.40353808,1.6351708,-0.32560524,-0.83962995,-0.17675465,1.4807081,1.0140401
-0.2,-0.2,0.6,-0.5235987755982988,0.34906585039886606,0.1745329251994331,1.7068951,1.5151751,0.20801921,0.07283124,0.04780883,0.9307419,0.6558503,-0.40885484,1.6373131,-0.351183,-0.83959424,-0.11410546,1.5050883,1.1146356
-0.2,-0.2,0.6,-0.5235987755982988,0.34906585039886606,0.1745329251994331,1.6883103,1.5063379,0.18578783,0.04826587,0.06949006,0.9304414,0.6375339,-0.4165837,1.6479354,-0.3536778,-0.86768645,-0.18570569,1.4463611,1.2976389
-0.2,-0.2,0.6,-0.5235987755982988,0.34906585039886606,0.1745329251994331,1.7001765,1.5050508,0.18707938,0.057797417,0.01980691,0.97492087,0.6955016,-0.39558533,1.6285781,-0.32774237,-0.84089,-0.14874417,1.490181,1.3852965
-0.2,-0.2,0.6,-0.5235987755982988,0.34906585039886606,0.1745329251994331,1.6914071,1.5043353,0.20991082,0.072792314,0.03283065,0.9117877,0.63686997,-0.4186758,1.6269492,-0.30885568,-0.81248266,-0.19541661,1.4423276,1.1036879
-0.2,-0.2,0.6,-0.5235987755982988,0.34906585039886606,0.1745329251994331,1.6848456,1.5091316,0.19824521,0.039438196,0.04479077,0.93864226,0.647594,-0.40972638,1.6324937,-0.33179832,-0.77222407,-0.22721767,1.3881758,1.1304888
-0.2,-0.2,0.6,-0.5235987755982988,0.34906585039886606,0.1745329251994331,1.6962861,1.5123861,0.19013487,0.060809728,0.05181776,0.9195535,0.6444558,-0.399869,1.6575283,-0.31171268,-0.8297223,-0.20891456,1.4455441,1.55689
-0.2,-0.2,0.6,-0.5235987755982988,0.34906585039886606,0.1745329251994331,1.687282,1.4988371,0.21599293,0.06735635,0.058077734,0.93078446,0.6584903,-0.41468048,1.6259453,-0.32759807,-0.88027793,-0.12328042,1.5189859,1.3915812
-0.2,-0.2,0.6,-0.5235987755982988,0.34906585039886606,0.1745329251994331,1.6938181,1.5155134,0.18936291,0.04685236,0.08408636,0.95164245,0.6485569,-0.4058201,1.636639,-0.39949083,-0.906643,-0.121981636,1.502729,1.1834488
-0.2,-0.2,0.6,-0.5235987755982988,0.34906585039886606,0.1745329251994331,1.6878475,1.5001472,0.18979189,0.049992505,0.026151564,0.96664125,0.6229957,-0.4138909,1.6353763,-0.30979773,-0.8136764,-0.13067877,1.4485763,1.3186911
-0.2,-0.2,0.6,-0.5235987755982988,0.34906585039886606,0.1745329251994331,1.7031007,1.5163268,0.20088947,0.06363805,0.06833925,0.95852184,0.63327837,-0.4131106,1.6348267,-0.27953988,-0.8517939,-0.14028889,1.5087907,1.2434473
-0.2,-0.2,0.6,-0.5235987755982988,0.34906585039886606,0.1745329251994331,1.6907692,1.507337,0.17123464,0.06276444,0.05021571,0.9614145,0.7063357,-0.425115,1.6733675,-0.3419201,-0.9012726,-0.15562211,1.5178984,1.0043274
-0.2,-0.2,0.6,-0.5235987755982988,0.34906585039886606,0.1745329251994331,1.705674,1.5062926,0.2220494,0.044857338,0.059605766,0.9400181,0.6305786,-0.40633863,1.6564274,-0.32884052,-0.8666099,-0.1690906,1.5147325,1.2346637
-0.2,-0.2,0.6,-0.5235987755982988,0.34906585039886606,0.1745329251994331,1.6962209,1.5116346,0.2076396,0.036036782,0.058616895,0.92234755,0.6348854,-0.40013382,1.6524171,-0.31616142,-0.833094,-0.12568708,1.4518465,1.2139771
-0.2,-0.2,0.6,-0.5235987755982988,0.34906585039886606,0.1745329251994331,1.7068518,1.5078686,0.19968022,0.05836193,0.067454256,0.95989376,0.70728326,-0.40938583,1.6373508,-0.3279539,-0.8410725,-0.18205845,1.479156,1.3181003
-0.2,-0.2,0.6,-0.5235987755982988,0.34906585039886606,0.1745329251994331,1.6989422,1.5118532,0.18937735,0.052877743,0.058335774,0.92492,0.6088193,-0.41858894,1.636229,-0.27808034,-0.82085204,-0.11213724,1.4689772,1.2441002
-0.2,-0.2,0.6,-0.5235987755982988,0.34906585039886606,0.1745329251994331,1.6875845,1.5080427,0.20580073,0.049922794,0.05471609,0.94431424,0.6177027,-0.4228319,1.6271434,-0.35136798,-0.8870126,-0.17244199,1.4440385,1.1676186
-0.2,-0.2,0.6,-0.5235987755982988,0.34906585039886606,0.1745329251994331,1.6934909,1.51849,0.18469015,0.04028918,0.05748984,0.9245682,0.65810925,-0.3979024,1.642197,-0.33883512,-0.84128785,-0.19266617,1.4213315,1.128615
-0.2,-0.2,0.6,-0.5235987755982988,0.34906585039886606,0.1745329251994331,1.6912392,1.5141643,0.17766932,0.052524973,0.046701804,0.9362503,0.6972632,-0.4173256,1.6466006,-0.33571643,-0.78572977,-0.15551911,1.4155407,1.4023535
-0.2,-0.2,0.6,-0.5235987755982988,0.34906585039886606,0.1745329251994331,1.6981082,1.4998723,0.21633624,0.04963379,0.049740225,0.9463492,0.65571594,-0.4026797,1.6404841,-0.2797175,-0.8283377,-0.15029413,1.4868734,1.2978798
-0.2,-0.2,0.6,-0.5235987755982988,0.34906585039886606,0.1745329251994331,1.6818718,1.5089327,0.19931217,0.0471037,0.05682477,0.9426715,0.6424124,-0.4136454,1.6424481,-0.33274695,-0.8676075,-0.12668137,1.4656209,1.2641017
-0.2,-0.2,0.6,-0.5235987755982988,0.34906585039886606,0.1745329251994331,1.7136757,1.5145572,0.21759492,0.05601828,0.07168779,0.9209982,0.68963623,-0.3978652,1.6270224,-0.31358695,-0.8288002,-0.15254797,1.4944243,1.443072
-0.2,-0.2,0.6,-0.5235987755982988,0.34906585039886606,0.1745329251994331,1.690439,1.5205451,0.1910318,0.055654537,0.059531618,0.93511045,0.70222515,-0.4251349,1.6410196,-0.34514514,-0.8248303,-0.141042,1.4516658,1.2788026
-0.2,-0.2,0.6,-0.5235987755982988,0.34906585039886606,0.1745329251994331,1.6955713,1.5001402,0.26088196,0.041451946,0.03865356,0.9352843,0.6912484,-0.4172547,1.6353076,-0.3722403,-0.81532925,-0.2154797,1.5109721,1.2514943
-0.2,-0.2,0.6,-0.5235987755982988,0.34906585039886606,0.1745329251994331,1.6652591,1.5086328,0.21916859,0.063534014,0.040578958,0.9176923,0.6385622,-0.4157331,1.6544517,-0.30215472,-0.8715991,-0.20157674,1.5002136,1.1402789
-0.2,-0.2,0.6,-0.5235987755982988,0.34906585039886606,0.1745329251994331,1.7020144,1.5082471,0.21195571,0.039617367,0.03573515,0.9478035,0.6287863,-0.4033415,1.6404183,-0.30131677,-0.8793983,-0.17745021,1.4805944,1.1719115
-0.2,-0.2,0.6,-0.5235987755982988,0.34906585039886606,0.1745329251994331,1.7025865,1.5106364,0.2141127,0.04585201,0.06620497,0.9576464,0.6196722,-0.41283843,1.6304462,-0.32050574,-0.8600955,-0.1459381,1.5219519,1.3646734
-0.2,-0.2,0.6,-0.5235987755982988,0.34906585039886606,0.1745329251994331,1.6765606,1.5023332,0.2182681,0.0632522,0.064204186,0.9317488,0.6460218,-0.4158792,1.6417056,-0.3364459,-0.8065613,-0.19270813,1.4749982,1.3258702
-0.2,-0.2,0.6,-0.5235987755982988,0.34906585039886606,0.1745329251994331,1.6824385,1.5073369,0.2177021,0.05964117,0.034034234,0.9392672,0.70042086,-0.41601148,1.6465685,-0.3601278,-0.7809883,-0.22528812,1.4348183,1.3629353
-0.2,-0.2,0.6,-0.5235987755982988,0.34906585039886606,0.1745329251994331,1.6842183,1.5043274,0.20005795,0.06797236,0.053923387,0.93501765,0.6310691,-0.42344034,1.6413717,-0.31959084,-0.85298544,-0.16578467,1.4802766,1.254552
-0.2,-0.2,0.6,-0.5235987755982988,0.34906585039886606,0.1745329251994331,1.7187515,1.5122794,0.18495174,0.061218906,0.05816972,0.93093437,0.68902344,-0.39754784,1.6541474,-0.36861745,-0.83149695,-0.17157382,1.4639182,1.2197978
-0.2,-0.2,0.6,-0.5235987755982988,0.34906585039886606,0.1745329251994331,1.708237,1.5079913,0.18616213,0.064586125,0.045015264,0.9424288,0.6890387,-0.41644472,1.6516675,-0.31110328,-0.82186043,-0.17761554,1.4767879,1.3470787
-0.2,-0.2,0.6,-0.5235987755982988,0.34906585039886606,0.1745329251994331,1.683965,1.4898785,0.2422591,0.049685333,0.063690916,0.9258863,0.6346784,-0.41339114,1.6300399,-0.3004476,-0.79140794,-0.17628562,1.510262,1.4131062
-0.2,-0.2,0.6,-0.5235987755982988,0.34906585039886606,0.1745329251994331,1.6963761,1.5120701,0.22161698,0.059468422,0.04072494,0.9429958,0.631605,-0.4152353,1.6468811,-0.337868,-0.79701877,-0.10610105,1.4654181,1.2262335
-0.2,-0.2,0.6,-0.5235987755982988,0.34906585039886606,0.1745329251994331,1.6864846,1.5107977,0.20437045,0.06841136,0.05151989,0.9432652,0.6042762,-0.4218354,1.628507,-0.29117396,-0.85865504,-0.14614256,1.5058296,1.0872198
-0.2,-0.2,0.6,-0.5235987755982988,0.34906585039886606,0.1745329251994331,1.7013355,1.5142958,0.20135155,0.056711085,0.053333208,0.91212445,0.7061571,-0.40361378,1.6174128,-0.35189995,-0.81910306,-0.19432925,1.4279743,1.1855707
-0.2,-0.2,0.6,-0.5235987755982988,0.34906585039886606,0.1745329251994331,1.6826193,1.509842,0.21351899,0.065259404,0.076696225,0.9382886,0.67196786,-0.41329917,1.6413852,-0.37210375,-0.88841724,-0.18361321,1.5145313,1.3672774
-0.2,-0.2,0.6,-0.5235987755982988,0.34906585039886606,0.1745329251994331,1.6784837,1.5173713,0.20838931,0.044087652,0.05253746,0.9248318,0.6815563,-0.41580364,1.6403987,-0.34538695,-0.9059228,-0.22795142,1.4634482,1.0842674
-0.2,-0.2,0.6,-0.5235987755982988,0.34906585039886606,0.1745329251994331,1.6863256,1.5086472,0.20070028,0.08336168,0.04814659,0.92289114,0.6223005,-0.40554187,1.6319358,-0.31168148,-0.83845294,-0.16801177,1.5117896,1.1013806
-0.2,-0.2,0.6,-0.5235987755982988,0.34906585039886606,0.1745329251994331,1.703808,1.5150216,0.22655524,0.042615928,0.0397421,0.9471393,0.623819,-0.40882406,1.624368,-0.3248185,-0.7932384,-0.13758604,1.4607147,1.3889643
-0.2,-0.2,0.6,-0.5235987755982988,0.34906585039886606,0.1745329251994331,1.6877458,1.49681,0.24154611,0.04739255,0.0653987,0.9325577,0.6508953,-0.42219353,1.6355791,-0.28879443,-0.8347494,-0.12546344,1.474687,1.3010405
-0.2,-0.2,0.6,-0.5235987755982988,0.34906585039886606,0.1745329251994331,1.6953187,1.516478,0.21127257,0.056826044,0.04195699,0.93386954,0.61572886,-0.40980208,1.6326637,-0.30584282,-0.8226242,-0.2253577,1.466013,1.4168488
-0.2,-0.2,0.6,-0.5235987755982988,0.34906585039886606,0.1745329251994331,1.6728733,1.497403,0.22920206,0.05666415,0.046311636,0.9610367,0.6480142,-0.4147254,1.6334691,-0.35986853,-0.8412456,-0.09579014,1.5638366,1.2211118
-0.2,-0.2,0.6,-0.5235987755982988,0.34906585039886606,0.1745329251994331,1.701651,1.5166433,0.2177053,0.05321276,0.06710061,0.9611749,0.64645046,-0.40917268,1.6397548,-0.29710215,-0.7943734,-0.11153206,1.5101142,1.1508002
-0.2,-0.2,0.6,-0.5235987755982988,0.34906585039886606,0.1745329251994331,1.6953189,1.5061556,0.19219908,0.05382941,0.05192457,0.93566304,0.68355805,-0.41133276,1.6251637,-0.29779503,-0.86591214,-0.1374702,1.4678762,1.3800547
-0.2,-0.2,0.6,-0.5235987755982988,0.34906585039886606,0.1745329251994331,1.6954994,1.5059867,0.19128303,0.056092776,0.05596102,0.9482482,0.62536156,-0.3977754,1.6565566,-0.31756443,-0.8560089,-0.104935005,1.4987947,1.1876378
-0.2,-0.2,0.6,-0.5235987755982988,0.34906585039886606,0.1745329251994331,1.7037562,1.5075289,0.20763452,0.05167246,0.05219453,0.93653655,0.69493806,-0.3906535,1.6492888,-0.33117405,-0.89030236,-0.1521844,1.5010241,1.3369095
-0.2,-0.2,0.6,-0.5235987755982988,0.34906585039886606,0.1745329251994331,1.6907823,1.5035101,0.18580139,0.06625251,0.048937976,0.9420472,0.62692976,-0.40170124,1.6368427,-0.326518,-0.8081366,-0.13467543,1.4620432,1.2399999
-0.2,-0.2,0.6,-0.5235987755982988,0.34906585039886606,0.1745329251994331,1.69823,1.5033681,0.19271162,0.050001543,0.06939961,0.9604781,0.6763102,-0.40709552,1.6333233,-0.3322221,-0.83083576,-0.14809366,1.4975357,1.3679577
-0.2,-0.2,0.6,-0.5235987755982988,0.34906585039886606,0.1745329251994331,1.694274,1.5039749,0.20084119,0.04067093,0.04964672,0.9171268,0.7114207,-0.40976083,1.6474403,-0.31992227,-0.90142256,-0.10329193,1.4679652,1.264404
-0.2,-0.2,0.6,-0.5235987755982988,0.34906585039886606,0.1745329251994331,1.700492,1.5031743,0.21381134,0.04987717,0.036526598,0.94712234,0.6280668,-0.43613166,1.6341119,-0.36064154,-0.82229555,-0.14654349,1.4504952,1.3368214
-0.2,-0.2,0.6,-0.5235987755982988,0.34906585039886606,0.1745329251994331,1.6671259,1.5044333,0.18256311,0.071828574,0.048391465,0.95293224,0.6953209,-0.40168455,1.6455384,-0.33259955,-0.8479416,-0.17232281,1.447717,1.1812404
-0.2,-0.2,0.6,-0.5235987755982988,0.34906585039886606,0.1745329251994331,1.693096,1.5034497,0.20903246,0.055980977,0.062406883,0.95059276,0.70154744,-0.41868204,1.6276983,-0.3496336,-0.82544196,-0.14459127,1.4591166,1.0002335
-0.2,-0.2,0.6,-0.5235987755982988,0.34906585039886606,0.1745329251994331,1.7116759,1.5124928,0.24409693,0.044377998,0.046486802,0.9587691,0.6536099,-0.4106893,1.6330103,-0.3363157,-0.8491773,-0.14375745,1.5332508,1.2113177
-0.2,-0.2,0.6,-0.5235987755982988,0.34906585039886606,0.1745329251994331,1.6984751,1.5135927,0.18667632,0.06430815,0.06939133,0.90959746,0.6169785,-0.4191474,1.628689,-0.35550562,-0.8511415,-0.10808678,1.4476581,1.193738
-0.2,-0.2,0.6,-0.5235987755982988,0.34906585039886606,0.1745329251994331,1.6984918,1.5119764,0.22464927,0.060863372,0.047911484,0.94109523,0.6471977,-0.41051513,1.6465085,-0.36756277,-0.8512253,-0.15862462,1.5020458,1.2133981
-0.2,-0.2,0.6,-0.5235987755982988,0.34906585039886606,0.1745329251994331,1.6769617,1.5039135,0.23782213,0.041041963,0.06637335,0.9355598,0.67982036,-0.39451078,1.6333134,-0.27965257,-0.85722756,-0.14247951,1.5305326,1.1486824
-0.2,-0.2,0.6,-0.5235987755982988,0.34906585039886606,0.1745329251994331,1.7046323,1.5022188,0.23261113,0.041574597,0.066886134,0.965319,0.6589168,-0.43192834,1.6428541,-0.3393714,-0.8170437,-0.19577277,1.5278326,0.9994005
-0.2,-0.2,0.6,-0.5235987755982988,0.34906585039886606,0.1745329251994331,1.6799607,1.5021249,0.23113467,0.064396955,0.057905626,0.9464008,0.6320749,-0.41502213,1.6472181,-0.32550505,-0.82691014,-0.13548447,1.5191569,1.1602383
-0.2,-0.2,0.6,-0.5235987755982988,0.34906585039886606,0.1745329251994331,1.6907549,1.5059291,0.1977919,0.05325168,0.060139455,0.9524713,0.6443921,-0.3998144,1.6443529,-0.32720846,-0.8629175,-0.20303796,1.4939743,1.215499
-0.2,-0.2,0.6,-0.5235987755982988,0.34906585039886606,0.1745329251994331,1.6950605,1.5068274,0.1910329,0.051878184,0.057293948,0.94933003,0.68677837,-0.40128383,1.6405381,-0.33239603,-0.8259617,-0.15373337,1.4828297,1.1955984
-0.2,-0.2,0.6,-0.5235987755982988,0.34906585039886606,0.1745329251994331,1.6847326,1.5061789,0.25089628,0.051327128,0.035151795,0.9107336,0.63281053,-0.41995633,1.6349753,-0.31573918,-0.8012372,-0.118962556,1.5157806,1.3438672
-0.2,-0.2,0.6,-0.5235987755982988,0.34906585039886606,0.1745329251994331,1.686116,1.5037389,0.19941276,0.06149992,0.030432332,0.9385109,0.63407254,-0.4197555,1.6250534,-0.3313216,-0.84748715,-0.18338169,1.4637884,1.015375
-0.2,-0.2,0.6,-0.5235987755982988,0.34906585039886606,0.1745329251994331,1.6753196,1.5125386,0.18122113,0.06657394,0.06987515,0.95676464,0.663614,-0.4075944,1.642144,-0.2918119,-0.8829432,-0.19022332,1.5187929,1.2658215
-0.2,-0.2,0.6,-0.5235987755982988,0.34906585039886606,0.1745329251994331,1.6969745,1.5050803,0.22244482,0.042402636,0.04595884,0.93922853,0.63093626,-0.4293434,1.6297693,-0.29687282,-0.8425324,-0.1307359,1.4726306,1.3224576
-0.2,-0.2,0.6,-0.5235987755982988,0.34906585039886606,0.1745329251994331,1.6865522,1.5114753,0.24589905,0.047130506,0.053634908,0.9369179,0.7082031,-0.4170932,1.6304274,-0.30713847,-0.87067205,-0.20384257,1.5263661,1.3419449
-0.2,-0.2,0.6,-0.5235987755982988,0.34906585039886606,0.1745329251994331,1.6864305,1.5094022,0.23957816,0.051197197,0.05244759,0.94437754,0.69084144,-0.42445606,1.6308326,-0.33201808,-0.83684653,-0.21214107,1.5042887,1.0875609
-0.2,-0.2,0.6,-0.5235987755982988,0.34906585039886606,0.1745329251994331,1.685612,1.5131029,0.22944234,0.058476564,0.05141702,0.9315883,0.59571886,-0.41228214,1.6273212,-0.30456004,-0.8821088,-0.16794477,1.4869998,1.25326
-0.2,-0.2,0.6,-0.5235987755982988,0.34906585039886606,0.1745329251994331,1.6929765,1.5132691,0.20187601,0.058657352,0.07212309,0.9503047,0.6706257,-0.42368087,1.6288422,-0.3151271,-0.814721,-0.18574443,1.4828974,1.5520583
-0.2,-0.2,0.6,-0.5235987755982988,0.34906585039886606,0.1745329251994331,1.6990986,1.5041461,0.19874232,0.04813698,0.055435933,0.89601,0.6548591,-0.4080909,1.630784,-0.2842931,-0.8052423,-0.17385952,1.4263817,1.0357478
-0.2,-0.2,0.6,-0.5235987755982988,0.34906585039886606,0.1745329251994331,1.6903615,1.5167918,0.1865618,0.05445621,0.0514871,0.93146265,0.700645,-0.42076886,1.6465605,-0.3119705,-0.81054074,-0.20602173,1.4388785,1.3188837
-0.2,-0.2,0.6,-0.5235987755982988,0.34906585039886606,0.1745329251994331,1.6988791,1.5085096,0.18737249,0.04157985,0.063624956,0.94971615,0.6905219,-0.43067408,1.6376989,-0.3025777,-0.771372,-0.14864853,1.4170828,1.3912504
-0.2,-0.2,0.6,-0.5235987755982988,0.34906585039886606,0.1745329251994331,1.6951509,1.5081877,0.2223688,0.055862114,0.046413057,0.95385945,0.64532214,-0.4013843,1.6469163,-0.371331,-0.85339177,-0.15498097,1.5129893,1.2267685
-0.2,-0.2,0.6,-0.5235987755982988,0.34906585039886606,0.1745329251994331,1.6866243,1.5099757,0.20709427,0.052561887,0.052827857,0.95328647,0.65142965,-0.41930082,1.6485922,-0.3316476,-0.8006327,-0.22604845,1.4551588,1.4024457
-0.2,-0.2,0.6,-0.5235987755982988,0.34906585039886606,0.1745329251994331,1.7066187,1.506919,0.24446996,0.044760987,0.052516915,0.9190308,0.63229406,-0.4066564,1.645254,-0.2979059,-0.7686221,-0.17248726,1.4769137,1.0836676
-0.2,-0.2,0.6,-0.5235987755982988,0.34906585039886606,0.1745329251994331,1.7022307,1.52126,0.24084634,0.043702725,0.05269616,0.9280609,0.64149296,-0.39421794,1.6406202,-0.2968076,-0.86981875,-0.19381689,1.5056947,1.1686076
-0.2,-0.2,0.6,-0.5235987755982988,0.34906585039886606,0.1745329251994331,1.6942266,1.5071226,0.24012622,0.07028599,0.03823641,0.91581357,0.6606393,-0.40834793,1.6357567,-0.3214533,-0.8894303,-0.16409753,1.5251387,1.2178453
-0.2,-0.2,0.6,-0.5235987755982988,0.34906585039886606,0.1745329251994331,1.7040226,1.5054153,0.21299882,0.04336266,0.043706898,0.94826144,0.6429213,-0.3960951,1.6313393,-0.3202064,-0.8597566,-0.1313636,1.4632312,1.3359977
-0.2,-0.2,0.6,-0.5235987755982988,0.34906585039886606,0.1745329251994331,1.6926224,1.5043696,0.1902695,0.07315115,0.03769376,0.93949765,0.66769034,-0.40001258,1.6310337,-0.32174027,-0.79598296,-0.16452868,1.4398937,1.3123274
-0.2,-0.2,0.6,-0.5235987755982988,0.34906585039886606,0.1745329251994331,1.6701312,1.5115424,0.21541816,0.053905983,0.06424569,0.9398738,0.60668576,-0.41870904,1.6496165,-0.3180818,-0.7940081,-0.1548759,1.4481938,1.3175381
-0.2,-0.2,0.6,-0.5235987755982988,0.34906585039886606,0.1745329251994331,1.6857426,1.4948969,0.21496895,0.06715232,0.054852452,0.9448861,0.7042483,-0.41188285,1.6378847,-0.374617,-0.8042985,-0.18748337,1.5218557,0.9907201
-0.2,-0.2,0.6,-0.5235987755982988,0.34906585039886606,0.1745329251994331,1.6951289,1.5025266,0.21862055,0.060733877,0.05074811,0.93768686,0.71448994,-0.41710085,1.6327552,-0.29094285,-0.75133103,-0.11785141,1.4789125,1.2937531
-0.2,-0.2,0.6,-0.5235987755982988,0.34906585039886606,0.1745329251994331,1.6718603,1.5018916,0.19906643,0.053297576,0.052409343,0.93601155,0.68152565,-0.41458094,1.6377286,-0.34391373,-0.9044745,-0.18177111,1.4691879,1.3639396
-0.2,-0.2,0.6,-0.5235987755982988,0.34906585039886606,0.1745329251994331,1.7004124,1.5156546,0.20353459,0.028353995,0.080910616,0.936044,0.6291051,-0.4242048,1.6241461,-0.34282848,-0.81627905,-0.19426085,1.4094075,1.361938
-0.2,-0.2,0.6,-0.5235987755982988,0.34906585039886606,0.1745329251994331,1.7076814,1.4987799,0.20573062,0.042212464,0.06824605,0.91783273,0.66537595,-0.42967492,1.6452676,-0.29956168,-0.83942634,-0.2187294,1.4925442,1.1890827
-0.2,-0.2,0.6,-0.5235987755982988,0.34906585039886606,0.1745329251994331,1.6916691,1.5100396,0.21283068,0.058073707,0.057665173,0.9596913,0.642183,-0.40544495,1.6505255,-0.29772273,-0.9133717,-0.15557572,1.5593947,1.2912345
-0.2,-0.2,0.6,-0.5235987755982988,0.34906585039886606,0.1745329251994331,1.6934946,1.4999994,0.25482783,0.04884841,0.049401984,0.9400461,0.68059087,-0.4121876,1.6474639,-0.3456702,-0.77917403,-0.12385443,1.527195,1.1549909
-0.2,-0.2,0.6,-0.5235987755982988,0.34906585039886606,0.1745329251994331,1.6684699,1.5045524,0.19406591,0.064947404,0.06468666,0.9390996,0.6681601,-0.40928915,1.6403321,-0.2761395,-0.89192855,-0.11481674,1.5394795,1.1639305
-0.2,-0.2,0.6,-0.5235987755982988,0.34906585039886606,0.1745329251994331,1.680874,1.4995923,0.20563422,0.05661192,0.049320392,0.9336954,0.66486245,-0.40395397,1.6229683,-0.31583732,-0.8790319,-0.18732299,1.4676979,1.2955956
-0.2,-0.2,0.6,-0.5235987755982988,0.34906585039886606,0.1745329251994331,1.6956775,1.5098882,0.2053429,0.049808223,0.067407005,0.91505504,0.66628075,-0.41776714,1.6353512,-0.29873738,-0.8404749,-0.20802559,1.4865307,1.0350827
-0.2,-0.2,0.6,-0.5235987755982988,0.34906585039886606,0.1745329251994331,1.6804795,1.5092818,0.23885353,0.048627794,0.03252545,0.93895274,0.6896705,-0.41627732,1.6456292,-0.31713706,-0.8888096,-0.16114767,1.5375762,1.1317247
-0.2,-0.2,0.6,-0.5235987755982988,0.34906585039886606,0.1745329251994331,1.6884655,1.5035613,0.23575172,0.046955206,0.037721563,0.92165947,0.7135693,-0.41385767,1.6319505,-0.32776105,-0.78862774,-0.17011556,1.4545796,1.3032266
-0.2,-0.2,0.6,-0.5235987755982988,0.34906585039886606,0.1745329251994331,1.6981717,1.5058475,0.21625975,0.055053417,0.037412144,0.91782904,0.61642146,-0.41791704,1.6277382,-0.29573172,-0.8814277,-0.17242442,1.4668314,1.2582457
-0.2,-0.2,0.6,-0.5235987755982988,0.34906585039886606,0.1745329251994331,1.6962485,1.5083803,0.21207471,0.047855876,0.06323308,0.9275516,0.6620551,-0.41165137,1.6458827,-0.2978698,-0.8609381,-0.14202313,1.4961822,1.3771775
-0.2,-0.2,0.6,-0.5235987755982988,0.34906585039886606,0.1745329251994331,1.6858974,1.5061269,0.2308661,0.055054896,0.055339552,0.9599658,0.6372741,-0.42384654,1.6408046,-0.34481198,-0.79686147,-0.19957423,1.4879149,1.2528238
-0.2,-0.2,0.6,-0.5235987755982988,0.34906585039886606,0.1745329251994331,1.686518,1.5042697,0.19728568,0.05619199,0.062229734,0.9469101,0.68372065,-0.39970416,1.6301731,-0.3186137,-0.8461348,-0.124485046,1.4914331,1.1871809
-0.2,-0.2,0.6,-0.5235987755982988,0.34906585039886606,0.1745329251994331,1.6993812,1.513836,0.19975862,0.06380922,0.05888638,0.9530222,0.6603617,-0.41440177,1.6367843,-0.35298964,-0.7955686,-0.18220119,1.452369,1.488063
-0.2,-0.2,0.6,-0.5235987755982988,0.34906585039886606,0.1745329251994331,1.7092187,1.5076171,0.19639628,0.063092396,0.070555955,0.9476291,0.6352016,-0.4198415,1.6287625,-0.3109878,-0.84940964,-0.14694284,1.4854044,1.3425004
-0.2,-0.2,0.6,-0.5235987755982988,0.34906585039886606,0.1745329251994331,1.6906321,1.500931,0.20042828,0.050761368,0.054287095,0.9183179,0.6571533,-0.41891548,1.6167437,-0.30726096,-0.89905417,-0.17443281,1.4993128,1.2432901
-0.2,-0.2,0.6,-0.5235987755982988,0.34906585039886606,0.1745329251994331,1.709183,1.496366,0.20819065,0.034665883,0.06661301,0.94748986,0.6420608,-0.41200954,1.6375482,-0.3400668,-0.8724318,-0.22695233,1.4808252,1.4322865
-0.2,-0.2,0.6,-0.5235987755982988,0.34906585039886606,0.1745329251994331,1.6931497,1.5067984,0.19882713,0.07306895,0.040902052,0.94318575,0.6508091,-0.40817907,1.625907,-0.3572344,-0.85305744,-0.15924263,1.48578,1.1909117
-0.2,-0.2,0.6,-0.5235987755982988,0.34906585039886606,0.1745329251994331,1.7105362,1.5113974,0.1916081,0.055048726,0.056158785,0.9317654,0.66772145,-0.40715787,1.6321527,-0.3265303,-0.8960812,-0.10010448,1.4968965,1.0999206
-0.2,-0.2,0.6,-0.5235987755982988,0.34906585039886606,0.1745329251994331,1.7008374,1.5073229,0.21764918,0.05267889,0.05326257,0.9282952,0.6778214,-0.40974808,1.6347255,-0.31999353,-0.8286993,-0.12280298,1.5291767,1.3280815
-0.2,-0.2,0.6,-0.5235987755982988,0.34906585039886606,0.1745329251994331,1.6972774,1.5126495,0.24867122,0.058953717,0.054669812,0.921846,0.666637,-0.41669333,1.6275663,-0.30293214,-0.8437578,-0.17994814,1.5188389,1.2895935
-0.2,-0.2,0.6,-0.5235987755982988,0.34906585039886606,0.1745329251994331,1.668538,1.5000702,0.2061306,0.045838248,0.037195295,0.9584995,0.69942796,-0.41156027,1.6340277,-0.2936046,-0.83316416,-0.18474919,1.4738675,1.1422163
-0.2,-0.2,0.6,-0.5235987755982988,0.34906585039886606,0.1745329251994331,1.6871434,1.5051496,0.22458561,0.05877159,0.049629148,0.93114954,0.65911835,-0.41468197,1.6401297,-0.28299987,-0.772002,-0.22531658,1.4852309,1.1735002
-0.2,-0.2,0.6,-0.5235987755982988,0.34906585039886606,0.1745329251994331,1.6852493,1.5020565,0.19795883,0.072420925,0.06789024,0.9369961,0.5973431,-0.3959728,1.6484866,-0.33253068,-0.82879776,-0.16814098,1.478469,1.1601707
-0.2,-0.2,0.6,-0.5235987755982988,0.34906585039886606,0.1745329251994331,1.6897562,1.505834,0.20265579,0.047836605,0.05699904,0.94033694,0.6613548,-0.39668223,1.6525187,-0.33176455,-0.83861715,-0.17158093,1.5202075,1.3763659
-0.2,-0.2,0.6,-0.5235987755982988,0.34906585039886606,0.1745329251994331,1.70265,1.5061291,0.20285945,0.065305516,0.06670571,0.9204002,0.6428051,-0.40423837,1.6365119,-0.2965307,-0.8093084,-0.09847173,1.4841104,1.2303045
-0.2,-0.2,0.6,-0.5235987755982988,0.34906585039886606,0.1745329251994331,1.71119,1.4971092,0.2480937,0.04969684,0.043010525,0.91177636,0.69318265,-0.4263932,1.6368209,-0.33315036,-0.87349004,-0.25521335,1.5165368,1.1971716
-0.2,-0.2,0.6,-0.5235987755982988,0.34906585039886606,0.1745329251994331,1.6800078,1.497758,0.20049864,0.04470655,0.05194581,0.92429817,0.61844224,-0.4027897,1.6353911,-0.30781552,-0.786005,-0.18294352,1.4108422,1.2771217
-0.2,-0.2,0.6,-0.5235987755982988,0.34906585039886606,0.1745329251994331,1.6969547,1.5050985,0.24323894,0.07169766,0.06074265,0.93674666,0.67256814,-0.43142694,1.6402962,-0.32614198,-0.8215767,-0.16272028,1.5407933,1.1340067
-0.2,-0.2,0.6,-0.5235987755982988,0.34906585039886606,0.1745329251994331,1.6960429,1.498308,0.20615174,0.05325359,0.052906964,0.92745954,0.67399585,-0.4142531,1.6433934,-0.36946115,-0.8460229,-0.19508061,1.4857659,1.2018738
-0.2,-0.2,0.6,-0.5235987755982988,0.34906585039886606,0.1745329251994331,1.6739594,1.5094745,0.2102814,0.051568303,0.05360078,0.934588,0.6296107,-0.43394652,1.6264558,-0.30915207,-0.8580547,-0.12475948,1.4610953,1.2455316
-0.2,-0.2,0.6,-0.5235987755982988,0.34906585039886606,0.1745329251994331,1.7009099,1.5078136,0.22609006,0.052797325,0.045224726,0.90809476,0.67618614,-0.40511072,1.6403072,-0.3271651,-0.7949755,-0.13237819,1.4483566,1.1201974
-0.2,-0.2,0.6,-0.5235987755982988,0.34906585039886606,0.1745329251994331,1.7052327,1.5020919,0.20243044,0.06554413,0.052955065,0.94879496,0.61726123,-0.40650332,1.6268412,-0.32808572,-0.83157855,-0.14213978,1.4801016,1.3317219
-0.2,-0.2,0.6,-0.5235987755982988,0.34906585039886606,0.1745329251994331,1.6902012,1.5116197,0.18057819,0.0837447,0.02515247,0.934401,0.6768218,-0.41834512,1.6498019,-0.3836156,-0.7925407,-0.21056065,1.4254051,1.410381
-0.2,-0.2,0.6,-0.5235987755982988,0.34906585039886606,0.1745329251994331,1.6909125,1.5032431,0.23765399,0.047510456,0.05581003,0.9405254,0.64068466,-0.42289087,1.6462926,-0.3291026,-0.8134777,-0.09128746,1.515811,1.3266898
-0.2,-0.2,0.6,-0.5235987755982988,0.34906585039886606,0.1745329251994331,1.700274,1.5041564,0.2361749,0.049414042,0.05347727,0.9350504,0.6809686,-0.4050424,1.6463754,-0.3060764,-0.8355981,-0.16048838,1.5288684,1.0171809
-0.2,-0.2,0.6,-0.5235987755982988,0.34906585039886606,0.1745329251994331,1.6944371,1.499519,0.22108158,0.042800345,0.06729806,0.9473883,0.70690835,-0.41447124,1.6432427,-0.32436863,-0.8239696,-0.13979127,1.5156045,1.1712105
-0.2,-0.2,0.6,-0.5235987755982988,0.34906585039886606,0.1745329251994331,1.7059469,1.5106018,0.19283931,0.04059239,0.032035273,0.94892764,0.6881116,-0.41793203,1.6430784,-0.33530673,-0.9250139,-0.17580706,1.5015057,1.3515097
-0.2,-0.2,0.6,-0.5235987755982988,0.34906585039886606,0.1745329251994331,1.6840874,1.5103922,0.21097605,0.06494287,0.056050744,0.92862415,0.6433552,-0.40839845,1.6371382,-0.29766113,-0.8715176,-0.1744615,1.4903504,1.2528728
-0.2,-0.2,0.6,-0.5235987755982988,0.34906585039886606,0.1745329251994331,1.71145,1.5088377,0.22465026,0.03627975,0.03907696,0.9521356,0.61916286,-0.41075152,1.630073,-0.34310752,-0.79136217,-0.19719562,1.4758945,1.0970377
-0.2,-0.2,0.6,-0.5235987755982988,0.34906585039886606,0.1745329251994331,1.6976758,1.5072606,0.21559446,0.045809247,0.056027573,0.9403191,0.60256517,-0.40914446,1.6453462,-0.2907729,-0.87401134,-0.11273651,1.4773178,1.2357633
-0.2,-0.2,0.6,-0.5235987755982988,0.34906585039886606,0.1745329251994331,1.6751509,1.5104033,0.23031582,0.06422855,0.04774849,0.9219838,0.6805819,-0.40834534,1.6396779,-0.34717336,-0.85741657,-0.16798125,1.5067055,1.2473556
-0.2,-0.2,0.6,-0.5235987755982988,0.34906585039886606,0.1745329251994331,1.7044436,1.4969964,0.21256083,0.06911711,0.047503196,0.94448346,0.6903043,-0.43815672,1.6421249,-0.32931572,-0.83333933,-0.10959973,1.5256748,1.2662464
-0.2,-0.2,0.6,-0.5235987755982988,0.34906585039886606,0.1745329251994331,1.6823231,1.5147051,0.21983616,0.040142667,0.055837043,0.9422092,0.6632291,-0.40898994,1.635195,-0.3350621,-0.81603247,-0.11548555,1.4588109,1.3027464
-0.2,-0.2,0.6,-0.5235987755982988,0.34906585039886606,0.1745329251994331,1.6852391,1.5125546,0.20330615,0.056842096,0.050884802,0.9318089,0.7058234,-0.41520253,1.6457579,-0.3218952,-0.87354577,-0.1940506,1.4874296,1.1283513
-0.2,-0.2,0.6,-0.5235987755982988,0.34906585039886606,0.1745329251994331,1.6866415,1.5125139,0.20001468,0.045149423,0.048440594,0.94342136,0.65613705,-0.4176835,1.6394798,-0.34302378,-0.9281907,-0.19321866,1.4858267,1.3218235
-0.2,-0.2,0.6,-0.5235987755982988,0.34906585039886606,0.1745329251994331,1.6857746,1.5055327,0.22930248,0.053583123,0.06324984,0.9330495,0.67579234,-0.4233503,1.6376759,-0.34041226,-0.88915575,-0.14283364,1.5491844,1.261928
-0.2,-0.2,0.6,-0.5235987755982988,0.34906585039886606,0.1745329251994331,1.6728387,1.4981718,0.20438367,0.04793602,0.04398876,0.93868744,0.6938527,-0.4157487,1.6230485,-0.3483965,-0.88862807,-0.16467154,1.4571353,1.4561791
-0.2,-0.2,0.6,-0.5235987755982988,0.34906585039886606,0.1745329251994331,1.705557,1.5029178,0.2471325,0.04709039,0.039604362,0.9323188,0.5910172,-0.41879815,1.6396004,-0.3108396,-0.7748089,-0.20420146,1.4589505,1.2581118
-0.2,-0.2,0.6,-0.5235987755982988,0.34906585039886606,0.1745329251994331,1.7002223,1.5116291,0.2165129,0.043476563,0.0738384,0.93816876,0.64696586,-0.41535932,1.6451577,-0.3019266,-0.83887404,-0.16925421,1.492737,1.2584456
-0.2,-0.2,0.6,-0.5235987755982988,0.34906585039886606,0.1745329251994331,1.6986375,1.4983798,0.1897037,0.047018826,0.025801951,0.9377175,0.6212359,-0.41326287,1.639366,-0.33907226,-0.8696088,-0.18805206,1.4674451,1.3881543
-0.2,-0.2,0.6,-0.5235987755982988,0.34906585039886606,0.1745329251994331,1.6973348,1.5007027,0.24118924,0.0355407,0.053429652,0.9342422,0.65978426,-0.40287545,1.6484617,-0.3235571,-0.78301287,-0.15163045,1.4833907,1.2731922
-0.2,-0.2,0.6,-0.5235987755982988,0.34906585039886606,0.1745329251994331,1.712223,1.5079894,0.20091905,0.06130317,0.030399462,0.9630193,0.70751226,-0.4234563,1.6395302,-0.38569194,-0.8493295,-0.17935668,1.4960276,1.0832475
-0.2,-0.2,0.6,-0.5235987755982988,0.34906585039886606,0.1745329251994331,1.6775712,1.5005258,0.2308468,0.04591875,0.043549918,0.93899447,0.6809389,-0.40925744,1.6498787,-0.33284935,-0.7865683,-0.21966226,1.4794171,1.332556
-0.2,-0.2,0.6,-0.5235987755982988,0.34906585039886606,0.1745329251994331,1.6752174,1.5099841,0.20516345,0.045926627,0.016475732,0.9319286,0.65334564,-0.39868262,1.6416875,-0.34224254,-0.8622951,-0.17285341,1.4194205,1.2145336
-0.2,-0.2,0.6,-0.5235987755982988,0.34906585039886606,0.1745329251994331,1.6785618,1.5039116,0.16755316,0.06654966,0.06252647,0.9528394,0.6009964,-0.41722155,1.6377823,-0.29214934,-0.882949,-0.18708761,1.4782702,1.4657198
-0.2,-0.2,0.6,-0.5235987755982988,0.34906585039886606,0.1745329251994331,1.6907183,1.523929,0.21934465,0.055803847,0.0529071,0.9269716,0.6593864,-0.41325155,1.635424,-0.30579057,-0.86783034,-0.16476838,1.4996547,1.2890017
-0.2,-0.2,0.6,-0.5235987755982988,0.34906585039886606,0.1745329251994331,1.7074393,1.5222859,0.20892112,0.05581332,0.072811194,0.95664823,0.6869492,-0.39855194,1.6292424,-0.3691055,-0.778547,-0.19576925,1.4904479,1.2830317
-0.2,-0.2,0.6,-0.5235987755982988,0.34906585039886606,0.1745329251994331,1.6891848,1.5106819,0.20712934,0.06294069,0.04011444,0.9400943,0.63630056,-0.414416,1.6423725,-0.3390363,-0.82378626,-0.1555985,1.4831649,1.2997993
-0.2,-0.2,0.6,-0.5235987755982988,0.34906585039886606,0.1745329251994331,1.6858519,1.5149593,0.18742937,0.069348484,0.027994134,0.9580641,0.66864437,-0.39814502,1.6438574,-0.35017264,-0.84704053,-0.17657273,1.4942778,1.1526958
-0.2,-0.2,0.6,-0.5235987755982988,0.34906585039886606,0.1745329251994331,1.6881593,1.5133517,0.20203112,0.06765421,0.06099985,0.9530269,0.69874966,-0.4202408,1.6212231,-0.36526158,-0.86692786,-0.1561941,1.463405,1.4573076
-0.2,-0.2,0.6,-0.5235987755982988,0.34906585039886606,0.1745329251994331,1.6931778,1.5041959,0.20543742,0.0509604,0.05412967,0.9375503,0.6717873,-0.40982413,1.6470294,-0.31187454,-0.9075013,-0.1955279,1.5266442,1.184214
-0.2,-0.2,0.6,-0.5235987755982988,0.34906585039886606,0.1745329251994331,1.6872026,1.5072725,0.1936332,0.059026603,0.057433847,0.92649764,0.673339,-0.41044345,1.6424754,-0.31287885,-0.78670406,-0.16915916,1.4407189,1.3507599
-0.2,-0.2,0.6,-0.5235987755982988,0.34906585039886606,0.1745329251994331,1.6856518,1.503901,0.2187529,0.06628945,0.064879,0.9458818,0.6751811,-0.40425992,1.6400719,-0.322302,-0.82644415,-0.1771091,1.5078475,0.98799485
-0.2,-0.2,0.6,-0.5235987755982988,0.34906585039886606,0.1745329251994331,1.70123,1.5084628,0.18768705,0.045668695,0.033762448,0.9491669,0.6124169,-0.39130726,1.6366065,-0.34529284,-0.90033257,-0.11277817,1.4690768,1.403184
-0.2,-0.2,0.6,-0.5235987755982988,0.34906585039886606,0.1745329251994331,1.6900992,1.5026112,0.20348255,0.05361591,0.048514403,0.95137715,0.6592395,-0.4120394,1.6307868,-0.3240079,-0.8427359,-0.10718109,1.496322,1.2621208
-0.2,-0.2,0.6,-0.5235987755982988,0.34906585039886606,0.1745329251994331,1.6864009,1.5130539,0.22336137,0.054885022,0.04880032,0.939724,0.6484126,-0.3987049,1.6386877,-0.33898327,-0.799609,-0.18680784,1.4840231,1.0338054
-0.2,-0.2,0.6,-0.5235987755982988,0.34906585039886606,0.1745329251994331,1.6938044,1.5079153,0.18193243,0.068894714,0.06008783,0.9518368,0.6618274,-0.40871498,1.6425332,-0.37595537,-0.8401579,-0.17219254,1.4679464,1.3197639
-0.2,-0.2,0.6,-0.5235987755982988,0.34906585039886606,0.1745329251994331,1.7072794,1.5086709,0.20685722,0.07703839,0.037955243,0.9473357,0.67705494,-0.41313088,1.643594,-0.30985928,-0.78830373,-0.14476153,1.5104814,1.0515692
-0.2,-0.2,0.6,-0.5235987755982988,0.34906585039886606,0.1745329251994331,1.6817102,1.511198,0.19880567,0.042940326,0.046622675,0.933216,0.63610387,-0.41284564,1.6414056,-0.3467627,-0.7948877,-0.13090707,1.4145236,1.5544834
-0.2,-0.2,0.6,-0.5235987755982988,0.34906585039886606,0.1745329251994331,1.6882842,1.5069196,0.18816327,0.05389568,0.056262936,0.9640738,0.6839099,-0.38799137,1.6377363,-0.2986401,-0.94702566,-0.1691036,1.5682456,1.3171842
-0.2,-0.2,0.6,-0.5235987755982988,0.34906585039886606,0.1745329251994331,1.6956019,1.5095261,0.19822232,0.060101204,0.0385465,0.94235593,0.6839323,-0.4163818,1.6261181,-0.33695918,-0.865551,-0.19868892,1.4858792,1.2835832
-0.2,-0.2,0.6,-0.5235987755982988,0.34906585039886606,0.1745329251994331,1.6997975,1.501678,0.19757855,0.054142386,0.061880514,0.9452566,0.642738,-0.39737275,1.6309001,-0.32287377,-0.87861437,-0.16653205,1.4985327,1.2042158
-0.2,-0.2,0.6,-0.5235987755982988,0.34906585039886606,0.1745329251994331,1.7141446,1.5178071,0.21927102,0.050345432,0.052232582,0.9362818,0.67132974,-0.4175347,1.6405313,-0.358052,-0.8188899,-0.15492415,1.4948014,1.2115638
-0.2,-0.2,0.6,-0.5235987755982988,0.34906585039886606,0.1745329251994331,1.6863761,1.5132174,0.22731051,0.04416003,0.056166902,0.9463074,0.70719975,-0.41134897,1.631315,-0.36142716,-0.8254915,-0.11090913,1.5044638,1.0394702
-0.2,-0.2,0.6,-0.5235987755982988,0.34906585039886606,0.1745329251994331,1.6872818,1.5097469,0.20558469,0.04031513,0.036200795,0.9460943,0.6391078,-0.39460513,1.6208378,-0.3311126,-0.91533136,-0.122279555,1.4962786,1.1216452
-0.2,-0.2,0.6,-0.5235987755982988,0.34906585039886606,0.1745329251994331,1.7004737,1.5107476,0.22302383,0.07610137,0.045547355,0.93809485,0.6221081,-0.41342708,1.6327612,-0.32091734,-0.8553457,-0.20413311,1.524647,1.2915854
-0.2,-0.2,0.6,-0.5235987755982988,0.34906585039886606,0.1745329251994331,1.6919657,1.5043393,0.23578551,0.04350323,0.049159706,0.9169018,0.67250216,-0.40189695,1.6295106,-0.3330048,-0.8086737,-0.11731692,1.4946516,0.96858567
-0.2,-0.2,0.6,-0.5235987755982988,0.34906585039886606,0.1745329251994331,1.6954446,1.5110894,0.17214522,0.06463602,0.075883865,0.94249505,0.67712134,-0.41740173,1.6414248,-0.31637028,-0.8225412,-0.13715363,1.4782681,1.2357405
-0.2,-0.2,0.6,-0.5235987755982988,0.34906585039886606,0.1745329251994331,1.6790147,1.5092481,0.23493566,0.060422134,0.04475277,0.9551265,0.6770661,-0.41315225,1.627609,-0.34311557,-0.7733525,-0.1887144,1.4672089,1.450105
-0.2,-0.2,0.6,-0.5235987755982988,0.34906585039886606,0.1745329251994331,1.6902889,1.5184816,0.18198992,0.049752437,0.06917909,0.9171024,0.6102789,-0.42388687,1.6264313,-0.31968778,-0.81344646,-0.123401634,1.4082904,1.2651966
-0.2,-0.2,0.6,-0.5235987755982988,0.34906585039886606,0.1745329251994331,1.701086,1.5061291,0.17432626,0.056227446,0.03435389,0.94577485,0.66703516,-0.41579047,1.629038,-0.3346051,-0.8593662,-0.18642218,1.4459696,1.1918279
-0.2,-0.2,0.6,-0.5235987755982988,0.34906585039886606,0.1745329251994331,1.7054789,1.5107355,0.2047049,0.045582384,0.04925169,0.95765644,0.65807015,-0.40617886,1.6407455,-0.33840254,-0.88720024,-0.1464538,1.5259833,1.0592649
-0.2,-0.2,0.6,-0.5235987755982988,0.34906585039886606,0.1745329251994331,1.7130991,1.5063415,0.18197392,0.041369915,0.0511255,0.9328965,0.69734234,-0.40468222,1.646814,-0.3310768,-0.7992281,-0.1331038,1.4353546,1.4817696
-0.2,-0.2,0.6,-0.5235987755982988,0.34906585039886606,0.1745329251994331,1.693094,1.5185041,0.21095614,0.050563525,0.05579707,0.93871,0.6187627,-0.4130278,1.6459308,-0.3392341,-0.8603207,-0.17583683,1.4883231,1.3617377
-0.2,-0.2,0.6,-0.5235987755982988,0.34906585039886606,0.1745329251994331,1.6784272,1.516887,0.1827201,0.06194717,0.049404975,0.9678881,0.66651493,-0.41517934,1.6431836,-0.34475374,-0.8966304,-0.19980825,1.5141923,1.2829129
-0.2,-0.2,0.6,-0.5235987755982988,0.34906585039886606,0.1745329251994331,1.6842791,1.5033598,0.22208858,0.054813743,0.05348617,0.9452021,0.693932,-0.4057331,1.6408086,-0.31125078,-0.77637327,-0.21178286,1.4981571,1.3304366
-0.2,-0.2,0.6,-0.5235987755982988,0.34906585039886606,0.1745329251994331,1.6917355,1.5035875,0.19745573,0.040331848,0.057373792,0.9623341,0.677062,-0.4026509,1.6343229,-0.32633337,-0.85426736,-0.162735,1.4988533,1.1549731
-0.2,-0.2,0.6,-0.5235987755982988,0.34906585039886606,0.1745329251994331,1.7119031,1.506452,0.19056423,0.041388564,0.06122788,0.94745624,0.68949234,-0.41103896,1.6359318,-0.2881544,-0.84911054,-0.16153508,1.4786097,1.3172753
-0.2,-0.2,0.6,-0.5235987755982988,0.34906585039886606,0.1745329251994331,1.6995549,1.5142888,0.22999391,0.062456775,0.052713923,0.92593396,0.68039596,-0.41216177,1.6307006,-0.32581913,-0.8108027,-0.20804384,1.505597,1.2221551
-0.2,-0.2,0.6,-0.5235987755982988,0.34906585039886606,0.1745329251994331,1.6685613,1.5011125,0.2023008,0.05666173,0.061437294,0.9436725,0.6521991,-0.39864242,1.6515831,-0.32343835,-0.8811289,-0.17206736,1.5121456,1.1845442
-0.2,-0.2,0.6,-0.5235987755982988,0.34906585039886606,0.1745329251994331,1.6773087,1.5075762,0.2248191,0.046026908,0.044153422,0.9412633,0.62097406,-0.41102055,1.6444064,-0.3516004,-0.80922824,-0.1965991,1.4776597,1.1450399
-0.2,-0.2,0.6,-0.5235987755982988,0.34906585039886606,0.1745329251994331,1.69392,1.5084743,0.16031022,0.059394527,0.057620574,0.9512387,0.6333769,-0.4004327,1.636236,-0.3007074,-0.7818908,-0.14550607,1.4267014,1.2343915
-0.2,-0.2,0.6,-0.5235987755982988,0.34906585039886606,0.1745329251994331,1.6973493,1.5088887,0.20401612,0.05042664,0.058300167,0.95146257,0.5868668,-0.42052457,1.6330855,-0.3505576,-0.8383058,-0.17563103,1.4727648,1.2629999
-0.2,-0.2,0.6,-0.5235987755982988,0.34906585039886606,0.1745329251994331,1.6757107,1.5071771,0.22622861,0.03715354,0.04185708,0.94106144,0.68175936,-0.39533606,1.6298814,-0.3195508,-0.8727172,-0.17125256,1.4684277,1.3121542
-0.2,-0.2,0.6,-0.5235987755982988,0.34906585039886606,0.1745329251994331,1.6992215,1.5079553,0.21855675,0.05810431,0.024896162,0.9229626,0.66052526,-0.41065338,1.6405568,-0.34689456,-0.8371899,-0.17474784,1.4706355,1.49374
-0.2,-0.2,0.6,-0.5235987755982988,0.34906585039886606,0.1745329251994331,1.6795129,1.5058701,0.1944914,0.07354429,0.038292546,0.9561725,0.67636085,-0.41842622,1.6481965,-0.32474923,-0.8368217,-0.17031933,1.5154837,1.1543963
-0.2,-0.2,0.6,-0.5235987755982988,0.34906585039886606,0.1745329251994331,1.7044595,1.500346,0.19346936,0.059683096,0.051944,0.92778605,0.6574149,-0.418443,1.6244123,-0.31043264,-0.8403998,-0.13304819,1.4640574,1.2178781
-0.2,-0.2,0.6,-0.5235987755982988,0.34906585039886606,0.1745329251994331,1.698417,1.4975234,0.20355846,0.06161083,0.04073848,0.9450837,0.67386025,-0.41563585,1.6325034,-0.3339422,-0.8178159,-0.20786355,1.4865665,1.214689
-0.2,-0.2,0.6,-0.5235987755982988,0.34906585039886606,0.1745329251994331,1.6860152,1.5120221,0.18834719,0.05038004,0.044546127,0.94440114,0.7282664,-0.3964577,1.6563176,-0.34242532,-0.8469207,-0.15965421,1.4753004,1.5274891
-0.2,-0.2,0.6,-0.5235987755982988,0.34906585039886606,0.1745329251994331,1.7073156,1.5145036,0.22783744,0.056559857,0.04840807,0.92374474,0.6686516,-0.4028699,1.6523935,-0.3347341,-0.84023684,-0.16573492,1.5139402,1.1411263
-0.2,-0.2,0.6,-0.5235987755982988,0.34906585039886606,0.1745329251994331,1.6857195,1.4968063,0.18650892,0.057914898,0.061845466,0.9306985,0.6669783,-0.40618736,1.6439457,-0.31016064,-0.83670104,-0.1717712,1.4652059,1.3156503
-0.2,-0.2,0.6,-0.5235987755982988,0.34906585039886606,0.1745329251994331,1.7186502,1.5029746,0.20554431,0.052056376,0.05736841,0.93878883,0.6015782,-0.38924015,1.6497548,-0.30669114,-0.813006,-0.10175211,1.4922203,1.2316439
-0.2,-0.2,0.6,-0.5235987755982988,0.34906585039886606,0.1745329251994331,1.7118051,1.5183126,0.21543847,0.04798873,0.047002442,0.93201905,0.6393392,-0.38398585,1.6464134,-0.3467227,-0.8094634,-0.18462479,1.4561107,1.1585631
-0.2,-0.2,0.6,-0.5235987755982988,0.34906585039886606,0.1745329251994331,1.6887776,1.5053424,0.17895773,0.043775696,0.042691447,0.9491204,0.692774,-0.41217875,1.6322803,-0.3330692,-0.8807623,-0.20191635,1.4566574,1.149587
-0.2,-0.2,0.6,-0.5235987755982988,0.34906585039886606,0.1745329251994331,1.6933314,1.5150298,0.19753297,0.053397786,0.06282104,0.95209956,0.6638153,-0.42286387,1.6482943,-0.3456928,-0.8285142,-0.22276187,1.477212,1.4063498
-0.2,-0.2,0.6,-0.5235987755982988,0.34906585039886606,0.1745329251994331,1.6790833,1.5057255,0.22177555,0.055124395,0.033342015,0.9531852,0.6693684,-0.42890993,1.630945,-0.3738537,-0.8331422,-0.1609366,1.479404,1.1726243
-0.2,-0.2,0.6,-0.5235987755982988,0.34906585039886606,0.1745329251994331,1.6732397,1.5094521,0.20670317,0.045068998,0.050938804,0.95209557,0.6858044,-0.40908384,1.6387973,-0.3009465,-0.84212375,-0.18017699,1.4644637,1.127121
-0.2,-0.2,0.6,-0.5235987755982988,0.34906585039886606,0.1745329251994331,1.7007422,1.5072776,0.22742313,0.04139932,0.044887595,0.9471653,0.7290916,-0.40503076,1.6331239,-0.3305535,-0.8496225,-0.22681849,1.5066001,1.2740114
-0.2,-0.2,0.6,-0.5235987755982988,0.34906585039886606,0.1745329251994331,1.6874667,1.5022566,0.21074577,0.040867854,0.042432442,0.9219372,0.6781492,-0.4171332,1.6465763,-0.31176734,-0.8175439,-0.1735717,1.4576615,1.13005
-0.2,-0.2,0.6,-0.5235987755982988,0.34906585039886606,0.1745329251994331,1.714557,1.5076007,0.21007523,0.041146573,0.047462914,0.94939685,0.6926498,-0.41414642,1.628537,-0.3610228,-0.887153,-0.14897555,1.4854968,1.3465217
-0.2,-0.2,0.6,-0.5235987755982988,0.34906585039886606,0.1745329251994331,1.7065381,1.5064484,0.16439162,0.064449415,0.051837303,0.9174705,0.6403313,-0.42849368,1.6608374,-0.29581144,-0.8709794,-0.12217203,1.4816319,1.183167
-0.2,-0.2,0.6,-0.5235987755982988,0.34906585039886606,0.1745329251994331,1.6765288,1.4977815,0.20106877,0.053089496,0.053347215,0.9189976,0.6587447,-0.39624912,1.6499286,-0.35099605,-0.8710006,-0.19251236,1.4860171,1.2202058
-0.2,-0.2,0.6,-0.5235987755982988,0.34906585039886606,0.1745329251994331,1.6984873,1.4994086,0.2060758,0.07062515,0.050492268,0.950091,0.6204846,-0.40570772,1.6390755,-0.3325984,-0.88896173,-0.14977583,1.5335691,1.3087945
-0.2,-0.2,0.6,-0.5235987755982988,0.34906585039886606,0.1745329251994331,1.7080004,1.5094248,0.16865443,0.056136344,0.039289244,0.9607043,0.67534554,-0.42478135,1.6308107,-0.34366283,-0.91303563,-0.15355209,1.4984077,1.1545342
-0.2,-0.2,0.6,-0.5235987755982988,0.34906585039886606,0.1745329251994331,1.7052325,1.5124345,0.20313007,0.034520168,0.05321877,0.9403347,0.6931788,-0.4162689,1.638407,-0.3116916,-0.7926384,-0.1894424,1.445976,1.3564317
-0.2,-0.2,0.6,-0.5235987755982988,0.34906585039886606,0.1745329251994331,1.6965815,1.4901819,0.20368126,0.06420464,0.03550387,0.9324123,0.68305844,-0.39472255,1.6324086,-0.30373746,-0.8533483,-0.16307023,1.4948499,1.3176689
-0.2,-0.2,0.6,-0.5235987755982988,0.34906585039886606,0.1745329251994331,1.69879,1.5028706,0.20320147,0.057806253,0.054839835,0.9440414,0.6351863,-0.4061917,1.6266961,-0.34003913,-0.8257353,-0.12103555,1.5045518,0.9664726
-0.2,-0.2,0.6,-0.5235987755982988,0.34906585039886606,0.1745329251994331,1.6798227,1.5050685,0.22548483,0.04783682,0.0509003,0.94901234,0.66715086,-0.41842487,1.6444417,-0.3385493,-0.80682045,-0.17264354,1.4934903,1.3232673
-0.2,-0.2,0.6,-0.5235987755982988,0.34906585039886606,0.1745329251994331,1.6795044,1.506523,0.17840724,0.047173798,0.046081644,0.9471709,0.73513836,-0.4147138,1.6490885,-0.3601838,-0.90604407,-0.10867911,1.5049634,1.166138
-0.2,-0.2,0.6,-0.5235987755982988,0.34906585039886606,0.1745329251994331,1.701621,1.5072323,0.19943987,0.068231724,0.045856494,0.9212489,0.6566885,-0.42121077,1.6276764,-0.32464558,-0.8884924,-0.18053725,1.4994308,1.240728
-0.2,-0.2,0.6,-0.5235987755982988,0.34906585039886606,0.1745329251994331,1.698592,1.5011989,0.20739464,0.06637405,0.045518875,0.9506356,0.68867844,-0.40646747,1.6534321,-0.3458883,-0.7795349,-0.12916577,1.4645728,1.1875106
-0.2,-0.2,0.6,-0.5235987755982988,0.34906585039886606,0.1745329251994331,1.6915119,1.4965602,0.21064018,0.053482696,0.05822418,0.9569359,0.6600028,-0.40647098,1.6420045,-0.36069727,-0.82927644,-0.21195427,1.5213581,1.0868689
-0.2,-0.2,0.6,-0.5235987755982988,0.34906585039886606,0.1745329251994331,1.6948303,1.5158259,0.20355035,0.054537743,0.036713906,0.9289393,0.7015831,-0.41265437,1.6315827,-0.33514637,-0.86404127,-0.21035662,1.450233,1.3739958
-0.2,-0.2,0.6,-0.5235987755982988,0.34906585039886606,0.1745329251994331,1.6989759,1.4999483,0.2523669,0.070749536,0.07075722,0.9243721,0.685507,-0.4089696,1.6197901,-0.3010727,-0.8381941,-0.12321674,1.525302,1.3151922
-0.2,-0.2,0.6,-0.5235987755982988,0.34906585039886606,0.1745329251994331,1.694417,1.4994296,0.21346566,0.061723527,0.046042606,0.9238967,0.63399494,-0.42609867,1.6288645,-0.3323359,-0.8531187,-0.16452302,1.5150096,1.3362739
-0.2,-0.2,0.6,-0.5235987755982988,0.34906585039886606,0.1745329251994331,1.7089738,1.512051,0.20047194,0.06134298,0.049201094,0.93258,0.69376403,-0.4112725,1.6313349,-0.31529662,-0.841339,-0.14953682,1.4983151,1.1511288
-0.2,-0.2,0.6,-0.5235987755982988,0.34906585039886606,0.1745329251994331,1.6868883,1.5024407,0.21454455,0.044317573,0.041097037,0.92234695,0.6840462,-0.40873933,1.6466752,-0.27057636,-0.8852856,-0.11770908,1.5081753,1.2899306
-0.2,-0.2,0.6,-0.5235987755982988,0.34906585039886606,0.1745329251994331,1.6841133,1.5075399,0.22522748,0.05943323,0.06246221,0.94988686,0.6489421,-0.41666153,1.6357778,-0.34105104,-0.8089458,-0.2048296,1.5203564,1.407425
-0.2,-0.2,0.6,-0.5235987755982988,0.34906585039886606,0.1745329251994331,1.6934208,1.5015028,0.23720159,0.064276285,0.06326988,0.92502385,0.6760547,-0.41952607,1.6440457,-0.29569507,-0.8671624,-0.17809607,1.543778,1.1959713
-0.2,-0.2,0.6,-0.5235987755982988,0.34906585039886606,0.1745329251994331,1.6949054,1.4959079,0.17993005,0.054098405,0.042510927,0.9334952,0.6325547,-0.4072807,1.6322273,-0.34672666,-0.8382639,-0.1456943,1.4481201,1.4361147
-0.2,-0.2,0.6,-0.5235987755982988,0.34906585039886606,0.1745329251994331,1.7029852,1.5106066,0.23167562,0.05649218,0.027108999,0.9444621,0.65090203,-0.40251765,1.6206182,-0.3344765,-0.78302985,-0.14325394,1.4787333,1.1196672
-0.2,-0.2,0.6,-0.5235987755982988,0.34906585039886606,0.1745329251994331,1.7068338,1.5053365,0.18729492,0.059885256,0.054214697,0.9414448,0.61390275,-0.4013926,1.6324914,-0.28777012,-0.83157706,-0.12242289,1.4819882,1.1330247
-0.2,-0.2,0.6,-0.5235987755982988,0.34906585039886606,0.1745329251994331,1.6995974,1.5021027,0.24116091,0.049709458,0.05320942,0.94291943,0.6970691,-0.41855234,1.6209735,-0.3504235,-0.79636455,-0.15165389,1.5137328,1.3377153
-0.2,-0.2,0.6,-0.5235987755982988,0.34906585039886606,0.1745329251994331,1.6979656,1.5069292,0.21208964,0.0553075,0.06225068,0.93460953,0.61752474,-0.4173988,1.638063,-0.35430962,-0.89523536,-0.17160317,1.4940205,1.0856338
-0.2,-0.2,0.6,-0.5235987755982988,0.34906585039886606,0.1745329251994331,1.6788899,1.5097198,0.21755427,0.042681035,0.04523238,0.9416188,0.68959844,-0.42357734,1.6339785,-0.29448536,-0.87911767,-0.14102113,1.5008137,1.3334329
-0.2,-0.2,0.6,-0.5235987755982988,0.34906585039886606,0.1745329251994331,1.6953548,1.5128887,0.26853475,0.06141235,0.036626935,0.937526,0.64809453,-0.40230638,1.6315025,-0.31044197,-0.82130784,-0.11040873,1.5513382,1.3477147
-0.2,-0.2,0.6,-0.5235987755982988,0.34906585039886606,0.1745329251994331,1.6839402,1.5118382,0.19720922,0.048985876,0.027032278,0.91982704,0.6758672,-0.41406733,1.6274064,-0.30241472,-0.83113945,-0.14624907,1.4057943,1.1791242
-0.2,-0.2,0.6,-0.5235987755982988,0.34906585039886606,0.1745329251994331,1.6960541,1.518586,0.212997,0.05573613,0.043494046,0.9278513,0.63267577,-0.3956929,1.620716,-0.3096058,-0.8527864,-0.118884355,1.4761343,1.4044907
-0.2,-0.2,0.6,-0.5235987755982988,0.34906585039886606,0.1745329251994331,1.6853625,1.5113156,0.20701063,0.03963676,0.06619381,0.9683043,0.6418573,-0.41054556,1.6428854,-0.3304061,-0.9093442,-0.13145258,1.5354443,1.2444898
-0.2,-0.2,0.6,-0.5235987755982988,0.34906585039886606,0.1745329251994331,1.6853378,1.5071472,0.17480096,0.051740788,0.030317495,0.95749676,0.71646166,-0.4217709,1.6361617,-0.3353143,-0.8212938,-0.21322209,1.456141,1.2887925
-0.2,-0.2,0.6,-0.5235987755982988,0.34906585039886606,0.1745329251994331,1.6837714,1.4994661,0.20836294,0.0597265,0.058722924,0.90043694,0.69217205,-0.42331383,1.6474339,-0.3410093,-0.86784387,-0.18559644,1.5063683,1.0490735
-0.2,-0.2,0.6,-0.5235987755982988,0.34906585039886606,0.1745329251994331,1.7080845,1.5210223,0.19489165,0.0680336,0.06074841,0.93580955,0.6775764,-0.39255682,1.6311718,-0.32123068,-0.8526511,-0.18013906,1.5120419,1.494205
-0.2,-0.2,0.6,-0.5235987755982988,0.34906585039886606,0.1745329251994331,1.7053238,1.5090519,0.18620917,0.037312053,0.056110222,0.9183694,0.6646687,-0.39725143,1.6345421,-0.31894904,-0.84316564,-0.1414029,1.457582,1.0748835
-0.2,-0.2,0.6,-0.5235987755982988,0.34906585039886606,0.1745329251994331,1.6747845,1.5060747,0.22717538,0.058857195,0.051491614,0.93488127,0.6830928,-0.4174121,1.6322656,-0.34696507,-0.8200157,-0.18436763,1.4902499,1.312157
-0.2,-0.2,0.6,-0.5235987755982988,0.34906585039886606,0.1745329251994331,1.6943611,1.5002531,0.19041243,0.037887584,0.04202187,0.9680021,0.63229716,-0.39221695,1.6458938,-0.31043524,-0.8520592,-0.1472502,1.4855587,1.4204711
-0.2,-0.2,0.6,-0.5235987755982988,0.34906585039886606,0.1745329251994331,1.7078388,1.5058022,0.19262928,0.04457555,0.048719402,0.9386696,0.6547914,-0.4124079,1.6401691,-0.30598718,-0.8685942,-0.17731492,1.4847078,1.3024576
-0.2,-0.2,0.6,-0.5235987755982988,0.34906585039886606,0.1745329251994331,1.6945672,1.5184473,0.2128064,0.03398073,0.06296001,0.91855496,0.6272557,-0.3972667,1.6353714,-0.32495326,-0.85442644,-0.15998504,1.4466602,1.1800032
-0.2,-0.2,0.6,-0.5235987755982988,0.34906585039886606,0.1745329251994331,1.6801858,1.5118663,0.2286602,0.050537273,0.032596923,0.93525785,0.62599766,-0.40504947,1.6269004,-0.30299124,-0.80099463,-0.21364681,1.4402136,1.1190994
-0.2,-0.2,0.6,-0.5235987755982988,0.34906585039886606,0.1745329251994331,1.699143,1.505376,0.21701875,0.045332234,0.039044034,0.9210195,0.72368664,-0.4118784,1.6375755,-0.31644994,-0.88469464,-0.11428594,1.4915323,1.2988174
-0.2,-0.2,0.6,-0.5235987755982988,0.34906585039886606,0.1745329251994331,1.7194004,1.5059186,0.1673774,0.053800426,0.06338657,0.9430327,0.67653817,-0.4038292,1.6434174,-0.31963676,-0.85948235,-0.08281024,1.4935484,1.1112773
-0.2,-0.2,0.6,-0.5235987755982988,0.34906585039886606,0.1745329251994331,1.7061199,1.5101787,0.19235368,0.06427494,0.029965207,0.9423971,0.6815415,-0.43212342,1.6392689,-0.32620493,-0.82836336,-0.08286522,1.5006567,1.0979273
-0.2,-0.2,0.6,-0.5235987755982988,0.34906585039886606,0.1745329251994331,1.6894298,1.5130011,0.17202356,0.061638758,0.038623042,0.9546793,0.6697991,-0.41463336,1.64334,-0.30499744,-0.80788183,-0.17167124,1.4710838,1.3043332
-0.2,-0.2,0.6,-0.5235987755982988,0.34906585039886606,0.1745329251994331,1.7004819,1.5055763,0.19072379,0.04634804,0.0666624,0.945402,0.65760624,-0.4098624,1.6507058,-0.33272043,-0.8123723,-0.15715413,1.4703451,1.357248
-0.2,-0.2,0.6,-0.5235987755982988,0.34906585039886606,0.1745329251994331,1.688415,1.5056113,0.19364357,0.06309932,0.043371316,0.9512955,0.66030276,-0.39777312,1.6431493,-0.34187844,-0.7749095,-0.1519754,1.4570303,1.2944769
-0.2,-0.2,0.6,-0.5235987755982988,0.34906585039886606,0.1745329251994331,1.6983839,1.5155948,0.19151114,0.042203736,0.043517884,0.93669724,0.6754994,-0.4253054,1.6387365,-0.33439967,-0.81937927,-0.15302002,1.4424303,1.4126228
-0.2,-0.2,0.6,-0.5235987755982988,0.34906585039886606,0.1745329251994331,1.6751767,1.5172964,0.22584657,0.028512767,0.051520303,0.93367034,0.6442342,-0.38812503,1.6350533,-0.31741,-0.88286567,-0.1921297,1.4911128,1.2542597
-0.2,-0.2,0.6,-0.5235987755982988,0.34906585039886606,0.1745329251994331,1.6889236,1.5041162,0.19496976,0.05586163,0.04487806,0.9260956,0.6314928,-0.41008183,1.6396413,-0.30420834,-0.8217789,-0.12185217,1.4516201,1.2100126
-0.2,-0.2,0.6,-0.5235987755982988,0.34906585039886606,0.1745329251994331,1.6917362,1.5019499,0.22212256,0.039265443,0.060838386,0.9332577,0.669075,-0.4308055,1.6410353,-0.3076913,-0.8739155,-0.20845836,1.4949304,1.225499
-0.2,-0.2,0.6,-0.5235987755982988,0.34906585039886606,0.1745329251994331,1.7023218,1.5072886,0.20580478,0.043217275,0.03655529,0.9299994,0.6672464,-0.4030644,1.6355745,-0.27794018,-0.8502471,-0.14513469,1.4677436,1.5413318
-0.2,-0.2,0.6,-0.5235987755982988,0.34906585039886606,0.1745329251994331,1.6600976,1.508513,0.19990407,0.06846325,0.05615693,0.9427766,0.63691366,-0.42740944,1.6446621,-0.31763268,-0.83491886,-0.21399356,1.4862806,1.3966452
-0.2,-0.2,0.6,-0.5235987755982988,0.34906585039886606,0.1745329251994331,1.6983304,1.5108722,0.17180958,0.0833053,0.057593483,0.942191,0.68833613,-0.42551607,1.6447624,-0.3416073,-0.85780287,-0.17643227,1.488165,1.1742036
-0.2,-0.2,0.6,-0.5235987755982988,0.34906585039886606,0.1745329251994331,1.706505,1.5069448,0.20643164,0.03714468,0.030852064,0.9361983,0.6725624,-0.40547386,1.6432883,-0.3137653,-0.794508,-0.14310695,1.4527258,1.333112
-0.2,-0.2,0.6,-0.5235987755982988,0.34906585039886606,0.1745329251994331,1.7130389,1.5050589,0.22215773,0.036957026,0.03466679,0.9341017,0.6931494,-0.40009734,1.6364102,-0.3370298,-0.8033158,-0.10409012,1.4544407,1.2956138
-0.2,-0.2,0.6,-0.5235987755982988,0.34906585039886606,0.1745329251994331,1.6951385,1.5171736,0.20530802,0.05055397,0.05274475,0.93491924,0.688935,-0.39360696,1.6311446,-0.30892256,-0.837684,-0.2150508,1.4860486,1.1957123
-0.2,-0.2,0.6,-0.5235987755982988,0.34906585039886606,0.1745329251994331,1.693453,1.5085093,0.238997,0.059528213,0.04130885,0.92881876,0.64147705,-0.42225805,1.6315724,-0.3380778,-0.83451486,-0.16502057,1.5250624,1.1427703
-0.2,-0.2,0.6,-0.5235987755982988,0.34906585039886606,0.1745329251994331,1.6831341,1.5091871,0.17487708,0.055909403,0.05973461,0.95191604,0.65719175,-0.40558413,1.6483628,-0.29829174,-0.81467795,-0.17320405,1.4621614,1.0881447
-0.2,-0.2,0.6,-0.5235987755982988,0.34906585039886606,0.1745329251994331,1.6817256,1.5081704,0.2377699,0.06555142,0.048262995,0.9020294,0.6054306,-0.41821846,1.6491543,-0.30141774,-0.81156844,-0.19412386,1.4756114,1.4601655
-0.2,-0.2,0.6,-0.5235987755982988,0.34906585039886606,0.1745329251994331,1.7015541,1.5090463,0.18357784,0.045265082,0.04983358,0.9383687,0.6343851,-0.4314494,1.6198589,-0.3173184,-0.79281247,-0.1350743,1.4188917,1.2089003
-0.2,-0.2,0.6,-0.5235987755982988,0.34906585039886606,0.1745329251994331,1.6687832,1.5135585,0.20373063,0.06137831,0.038368452,0.9390257,0.6478951,-0.42285195,1.6251119,-0.32348698,-0.85182494,-0.1441587,1.4551483,1.0856158
-0.2,-0.2,0.6,-0.5235987755982988,0.34906585039886606,0.1745329251994331,1.6995473,1.5038536,0.18685025,0.050733898,0.06419617,0.939967,0.64232516,-0.41593647,1.6481279,-0.28098503,-0.8728625,-0.13375708,1.5034709,1.4281405
-0.2,-0.2,0.6,-0.5235987755982988,0.34906585039886606,0.1745329251994331,1.6934084,1.5068965,0.2180793,0.06271817,0.057575878,0.9452759,0.6578074,-0.40330634,1.6402549,-0.33232284,-0.85768384,-0.13765709,1.5405515,1.1885823
-0.2,-0.2,0.6,-0.5235987755982988,0.34906585039886606,0.1745329251994331,1.7072091,1.5001565,0.21213599,0.035093375,0.047091156,0.97853297,0.65093946,-0.39427727,1.6362672,-0.31852776,-0.79803544,-0.14207146,1.4999795,1.2881038
-0.2,-0.2,0.6,-0.5235987755982988,0.34906585039886606,0.1745329251994331,1.7053884,1.5138518,0.2086498,0.06494832,0.03822908,0.9536397,0.6416948,-0.41842145,1.6394385,-0.31258234,-0.8619339,-0.16326176,1.4839962,1.2334462
-0.2,-0.2,0.6,-0.5235987755982988,0.34906585039886606,0.1745329251994331,1.6951046,1.5030929,0.19490752,0.04356981,0.05722174,0.96564436,0.6509925,-0.40880698,1.6433882,-0.31238547,-0.8536672,-0.1348572,1.5164483,1.1922101
-0.2,-0.2,0.6,-0.5235987755982988,0.34906585039886606,0.1745329251994331,1.6913505,1.5109069,0.19920966,0.059606396,0.049931396,0.92958796,0.6111945,-0.41041458,1.6447817,-0.32199663,-0.8983065,-0.20113769,1.4813678,1.2333041
-0.2,-0.2,0.6,-0.5235987755982988,0.34906585039886606,0.1745329251994331,1.6849808,1.5058991,0.2005483,0.035322372,0.055604823,0.95682573,0.64149016,-0.40581262,1.6481761,-0.31763998,-0.8893622,-0.09791171,1.5150322,1.040456
-0.2,-0.2,0.6,-0.5235987755982988,0.34906585039886606,0.1745329251994331,1.6873151,1.508287,0.21625887,0.037217326,0.03640312,0.9385966,0.6766308,-0.406716,1.6471877,-0.3042401,-0.78980476,-0.115580685,1.4705156,1.0917761
-0.2,-0.2,0.6,-0.5235987755982988,0.34906585039886606,0.1745329251994331,1.6973736,1.505085,0.19653645,0.04744277,0.065474436,0.9556462,0.6362494,-0.4237567,1.6310874,-0.33664253,-0.8211655,-0.17583847,1.4709139,1.1989259
-0.2,-0.2,0.6,-0.5235987755982988,0.34906585039886606,0.1745329251994331,1.6928803,1.5100584,0.17597362,0.061732385,0.038975235,0.9446048,0.6836399,-0.4150046,1.6501259,-0.32541397,-0.8099439,-0.17220676,1.4374523,1.2666541
-0.2,-0.2,0.6,-0.5235987755982988,0.34906585039886606,0.1745329251994331,1.7010871,1.5134606,0.20372058,0.04245191,0.05659833,0.9314997,0.6308362,-0.416273,1.6221913,-0.30142525,-0.87685734,-0.12919202,1.4919847,1.2130741
-0.2,-0.2,0.6,-0.5235987755982988,0.34906585039886606,0.1745329251994331,1.7055935,1.5135986,0.2316947,0.050737765,0.045189656,0.9452893,0.6842866,-0.40246347,1.6297933,-0.3193681,-0.833857,-0.09862935,1.5050374,1.2604616
-0.2,-0.2,0.6,-0.5235987755982988,0.34906585039886606,0.1745329251994331,1.694817,1.5093963,0.1788621,0.054316472,0.04637418,0.92538667,0.63949776,-0.40518826,1.6362228,-0.31424746,-0.823702,-0.16656801,1.4325546,1.3027608
-0.2,-0.2,0.6,-0.5235987755982988,0.34906585039886606,0.1745329251994331,1.6860906,1.5060707,0.18228151,0.057563383,0.031976406,0.93014985,0.6355977,-0.39994785,1.6493096,-0.33816436,-0.82340807,-0.17496935,1.4329643,1.416658
-0.2,-0.2,0.6,-0.5235987755982988,0.34906585039886606,0.1745329251994331,1.7023664,1.5048752,0.21536106,0.042035293,0.060370933,0.9368407,0.6784492,-0.41496825,1.6404682,-0.32548866,-0.8152026,-0.13064352,1.49415,1.1373955
-0.2,-0.2,0.6,-0.5235987755982988,0.34906585039886606,0.1745329251994331,1.6903753,1.5069201,0.23485103,0.04581253,0.035661973,0.9250101,0.6998565,-0.41006497,1.6272585,-0.31463495,-0.8533158,-0.14020191,1.5002738,1.3170396
-0.2,-0.2,0.6,-0.5235987755982988,0.34906585039886606,0.1745329251994331,1.7164124,1.5102097,0.25068024,0.05212725,0.0441813,0.94632804,0.63729537,-0.38781983,1.6240028,-0.33426467,-0.8211021,-0.20909785,1.5312468,1.1415033
-0.2,-0.2,0.6,-0.5235987755982988,0.34906585039886606,0.1745329251994331,1.6981423,1.5144374,0.23565225,0.042547032,0.062195547,0.9445762,0.63893086,-0.38911793,1.6358522,-0.33293247,-0.8035006,-0.12339265,1.506045,1.282593
-0.2,-0.2,0.6,-0.5235987755982988,0.34906585039886606,0.1745329251994331,1.7073578,1.5025647,0.19740954,0.06922113,0.024197374,0.9369479,0.6601499,-0.41085905,1.6438885,-0.3273842,-0.8631964,-0.2082686,1.5274159,1.1647378
-0.2,-0.2,0.6,-0.5235987755982988,0.34906585039886606,0.1745329251994331,1.6927592,1.5143192,0.22132443,0.0650126,0.054728083,0.9414203,0.6850391,-0.41145894,1.6347493,-0.33311066,-0.79917073,-0.1567798,1.5209616,1.2000637
-0.2,-0.2,0.6,-0.5235987755982988,0.34906585039886606,0.1745329251994331,1.6959652,1.5104342,0.16977294,0.05711963,0.06289356,0.93861544,0.6416552,-0.4054999,1.6352634,-0.32972243,-0.8139484,-0.16228683,1.4459027,1.1318948
-0.2,-0.2,0.6,-0.5235987755982988,0.34906585039886606,0.1745329251994331,1.6925677,1.5069871,0.20869604,0.043255042,0.047362007,0.94295484,0.71232986,-0.40318382,1.6338463,-0.28141505,-0.8817575,-0.1813061,1.5100194,1.2406555
-0.2,-0.2,0.6,-0.5235987755982988,0.34906585039886606,0.1745329251994331,1.6930633,1.5110111,0.1854715,0.07330024,0.052787904,0.92936945,0.6073976,-0.42533225,1.6383071,-0.30920237,-0.8032771,-0.20231496,1.4726022,1.2312105
-0.2,-0.2,0.6,-0.5235987755982988,0.34906585039886606,0.1745329251994331,1.7065408,1.5153929,0.23553835,0.04224043,0.03602716,0.92675376,0.6646305,-0.4162637,1.6414456,-0.32202524,-0.8042399,-0.21151409,1.4858587,1.2137272
-0.2,-0.2,0.6,-0.5235987755982988,0.34906585039886606,0.1745329251994331,1.7065798,1.5030941,0.20986386,0.04756591,0.0732392,0.9197256,0.65476316,-0.4109542,1.6277075,-0.300369,-0.8572957,-0.14046746,1.5042735,1.3862838
-0.2,-0.2,0.6,-0.5235987755982988,0.34906585039886606,0.1745329251994331,1.7035666,1.504271,0.21728246,0.049292333,0.05271993,0.9256636,0.6746778,-0.41154623,1.6363037,-0.327829,-0.88720876,-0.1945512,1.5152599,1.2134461
-0.2,-0.2,0.6,-0.5235987755982988,0.34906585039886606,0.1745329251994331,1.6796303,1.5102834,0.21875066,0.05765259,0.049857467,0.9486334,0.6395225,-0.40800086,1.6382841,-0.30874953,-0.80767643,-0.13721201,1.4996164,1.2319343
-0.2,-0.2,0.6,-0.5235987755982988,0.34906585039886606,0.1745329251994331,1.7042167,1.5062395,0.22571221,0.054665685,0.048299793,0.9375031,0.6737387,-0.41639853,1.6243318,-0.36582392,-0.8909695,-0.15112737,1.5039076,1.367364
-0.2,-0.2,0.6,-0.5235987755982988,0.34906585039886606,0.1745329251994331,1.6815722,1.5030473,0.18591999,0.07399231,0.062300578,0.92141557,0.6898185,-0.41275874,1.6404564,-0.29809636,-0.82761633,-0.12364623,1.4797891,1.4259137
-0.2,-0.2,0.6,-0.5235987755982988,0.34906585039886606,0.1745329251994331,1.6874703,1.4989207,0.20246126,0.05504348,0.0649268,0.9290587,0.7165431,-0.42553335,1.6322907,-0.31920627,-0.8247556,-0.18353415,1.4777648,1.2588363
-0.2,-0.2,0.6,-0.5235987755982988,0.34906585039886606,0.1745329251994331,1.7018209,1.5028847,0.23948957,0.05833576,0.066840135,0.9241556,0.6289727,-0.40698534,1.6258346,-0.316982,-0.8170233,-0.1683676,1.5146765,1.2285568
-0.2,-0.2,0.6,-0.5235987755982988,0.34906585039886606,0.1745329251994331,1.689228,1.5110773,0.19800845,0.055705305,0.065754935,0.9160794,0.65646845,-0.41051698,1.630862,-0.36453894,-0.7971821,-0.15853027,1.4220276,1.420104
-0.2,-0.2,0.6,-0.5235987755982988,0.34906585039886606,0.1745329251994331,1.6803211,1.51714,0.22525345,0.079098925,0.041511513,0.93291533,0.625073,-0.4069472,1.6410708,-0.3285688,-0.81196654,-0.18057229,1.4935191,1.3988757
-0.2,-0.2,0.6,-0.5235987755982988,0.34906585039886606,0.1745329251994331,1.7035444,1.5008627,0.19951734,0.04937014,0.02837905,0.9431458,0.6674068,-0.4267593,1.634978,-0.34445927,-0.83359647,-0.13082388,1.4714911,1.2335992
-0.2,-0.2,0.6,-0.5235987755982988,0.34906585039886606,0.1745329251994331,1.6848775,1.5105497,0.19677375,0.048316736,0.018496465,0.94081414,0.66286343,-0.40902072,1.6457006,-0.34090912,-0.9169561,-0.15162346,1.4868938,1.2110637
-0.2,-0.2,0.6,-0.5235987755982988,0.34906585039886606,0.1745329251994331,1.6909003,1.4971975,0.18488915,0.055083044,0.049944222,0.9537265,0.5921649,-0.40879163,1.6461674,-0.3003612,-0.7956872,-0.20596182,1.4581058,1.3557544
-0.2,-0.2,0.6,-0.5235987755982988,0.34906585039886606,0.1745329251994331,1.6960534,1.5142514,0.18643056,0.067725666,0.03560099,0.9368997,0.6794417,-0.4204679,1.6453393,-0.2806259,-0.82097024,-0.16237088,1.4998356,1.2950366
-0.2,-0.2,0.6,-0.5235987755982988,0.34906585039886606,0.1745329251994331,1.6758579,1.5158107,0.19134016,0.05658437,0.06914257,0.94110847,0.6510825,-0.41113463,1.6304982,-0.309412,-0.80303156,-0.14778538,1.4630965,1.2631131
-0.2,-0.2,0.6,-0.5235987755982988,0.34906585039886606,0.1745329251994331,1.6946783,1.5145338,0.21191545,0.06442265,0.03193303,0.9169387,0.62752587,-0.42592895,1.6404079,-0.31001368,-0.90921354,-0.19386066,1.4935149,1.2211728
-0.2,-0.2,0.6,-0.5235987755982988,0.34906585039886606,0.1745329251994331,1.7061198,1.5050012,0.2149626,0.046829227,0.046679392,0.9209437,0.661089,-0.39768633,1.6431415,-0.33664805,-0.8709345,-0.11944816,1.4983872,1.3570681
-0.2,-0.2,0.6,-0.5235987755982988,0.34906585039886606,0.1745329251994331,1.6861006,1.5066049,0.19598708,0.06282811,0.048813567,0.9379108,0.690139,-0.4104511,1.6489766,-0.36374494,-0.81977385,-0.15082954,1.4896636,1.1591189
-0.2,-0.2,0.6,-0.5235987755982988,0.34906585039886606,0.1745329251994331,1.6882745,1.507468,0.22036004,0.049230743,0.02993502,0.92817587,0.65313935,-0.38536322,1.6331284,-0.3381912,-0.85431546,-0.15702973,1.4620179,1.2826605
-0.2,-0.2,0.6,-0.5235987755982988,0.34906585039886606,0.1745329251994331,1.6973308,1.4933544,0.22092834,0.043573588,0.038911708,0.95550257,0.56970084,-0.41575986,1.6309434,-0.3246421,-0.88143045,-0.16886735,1.4980175,1.267674
-0.2,-0.2,0.6,-0.5235987755982988,0.34906585039886606,0.1745329251994331,1.6978705,1.5111839,0.19139099,0.05433086,0.03367498,0.9421787,0.6462129,-0.4152534,1.6297436,-0.28625387,-0.8509848,-0.18159722,1.4752045,1.2333301
-0.2,-0.2,0.6,-0.5235987755982988,0.34906585039886606,0.1745329251994331,1.691885,1.508544,0.24569392,0.042851638,0.0393736,0.9329109,0.6963201,-0.40351522,1.6270627,-0.32865807,-0.80863315,-0.18459663,1.4993106,1.2394359
-0.2,-0.2,0.6,-0.5235987755982988,0.34906585039886606,0.1745329251994331,1.6939634,1.5092094,0.22135696,0.041838143,0.051280092,0.9333344,0.66539156,-0.42174459,1.6350957,-0.33958694,-0.82616085,-0.16126905,1.4652202,1.2345868
-0.2,-0.2,0.6,-0.5235987755982988,0.34906585039886606,0.1745329251994331,1.7057883,1.5025154,0.21912429,0.0477762,0.057425223,0.93632716,0.73691297,-0.3982447,1.6363745,-0.3427884,-0.82199544,-0.20106368,1.5419415,1.3042567
-0.2,-0.2,0.6,-0.5235987755982988,0.34906585039886606,0.1745329251994331,1.7130848,1.5095545,0.20397203,0.059705645,0.039497945,0.95018363,0.6113668,-0.3980273,1.636941,-0.27014294,-0.7856212,-0.20309457,1.46748,1.0039762
-0.2,-0.2,0.6,-0.5235987755982988,0.34906585039886606,0.1745329251994331,1.6812383,1.5107613,0.22608331,0.050584964,0.0152222095,0.9458773,0.6457955,-0.40685204,1.6491076,-0.30189133,-0.8485641,-0.15735766,1.5101901,1.125707
-0.2,-0.2,0.6,-0.5235987755982988,0.34906585039886606,0.1745329251994331,1.6836615,1.5021144,0.19565341,0.06285342,0.061516028,0.9588342,0.6581808,-0.4071633,1.6377094,-0.352239,-0.8162592,-0.14858086,1.5298178,1.2865733
-0.2,-0.2,0.6,-0.5235987755982988,0.34906585039886606,0.1745329251994331,1.6738648,1.5110596,0.19308643,0.02858032,0.04296705,0.9640379,0.6742012,-0.41535372,1.6478329,-0.3242816,-0.818631,-0.14261298,1.4662467,1.2833191
-0.2,-0.2,0.6,-0.5235987755982988,0.34906585039886606,0.1745329251994331,1.6812297,1.504614,0.23181634,0.053518265,0.05785937,0.9361639,0.670298,-0.40690547,1.6243451,-0.33976874,-0.82263505,-0.16311848,1.499222,1.1182524
-0.2,-0.2,0.6,-0.5235987755982988,0.34906585039886606,0.1745329251994331,1.6742808,1.508871,0.23090883,0.056068547,0.06935021,0.9333218,0.67065865,-0.4077638,1.6430933,-0.35721463,-0.84601843,-0.14732544,1.5463402,1.2945985
-0.2,-0.2,0.6,-0.5235987755982988,0.34906585039886606,0.1745329251994331,1.6914699,1.5116469,0.20061883,0.04045309,0.04706751,0.9321492,0.65683204,-0.4072102,1.6361789,-0.31168413,-0.8281414,-0.1811855,1.4819787,1.2633141
-0.2,-0.2,0.6,-0.5235987755982988,0.34906585039886606,0.1745329251994331,1.6791146,1.5139791,0.21273911,0.060086507,0.03579316,0.93131244,0.6637427,-0.40576887,1.6436403,-0.33356375,-0.8720014,-0.17976773,1.5034671,1.2387954
-0.2,-0.2,0.6,-0.5235987755982988,0.34906585039886606,0.1745329251994331,1.6909157,1.5092165,0.2224598,0.048749715,0.06346282,0.95688784,0.64630884,-0.40942082,1.6475381,-0.2998346,-0.845293,-0.14690018,1.5188472,1.2998724
-0.2,-0.2,0.6,-0.5235987755982988,0.34906585039886606,0.1745329251994331,1.694912,1.5025314,0.20933193,0.06583349,0.055557285,0.91529435,0.63568485,-0.41009632,1.6438268,-0.3385366,-0.9918301,-0.20660233,1.5595671,1.357366
-0.2,-0.2,0.6,-0.5235987755982988,0.34906585039886606,0.1745329251994331,1.6924874,1.5096121,0.19304357,0.08116648,0.05011494,0.92213964,0.5969026,-0.40996242,1.6322261,-0.30280653,-0.82633406,-0.15323807,1.4738044,1.4255718
-0.2,-0.2,0.6,-0.5235987755982988,0.34906585039886606,0.1745329251994331,1.7011821,1.5121807,0.20802967,0.04993925,0.049602613,0.94225866,0.63284844,-0.42102855,1.634673,-0.3308391,-0.89867526,-0.16396692,1.5163242,1.1758603
-0.2,-0.2,0.6,-0.5235987755982988,0.34906585039886606,0.1745329251994331,1.6801057,1.5022913,0.18980484,0.052973144,0.060495295,0.9510837,0.66281456,-0.41274142,1.6527834,-0.33024257,-0.88697284,-0.16137846,1.5233389,1.3018525
-0.2,-0.2,0.6,-0.5235987755982988,0.34906585039886606,0.1745329251994331,1.689093,1.5093772,0.19321887,0.0633175,0.049756583,0.93666464,0.66984546,-0.3907517,1.6322728,-0.3635013,-0.8684878,-0.19184569,1.4921678,1.1343381
-0.2,-0.2,0.6,-0.5235987755982988,0.34906585039886606,0.1745329251994331,1.6809839,1.5075445,0.20163712,0.048211847,0.046990402,0.9217978,0.6927166,-0.39936495,1.6350031,-0.28055167,-0.8599972,-0.161142,1.4676532,1.415794
-0.2,-0.2,0.6,-0.5235987755982988,0.34906585039886606,0.1745329251994331,1.683074,1.5046939,0.22818771,0.04916556,0.049336948,0.92750645,0.62701416,-0.41578236,1.6291233,-0.31297928,-0.7924475,-0.15949224,1.4667174,1.3065559
-0.2,-0.2,0.6,-0.5235987755982988,0.34906585039886606,0.1745329251994331,1.7005372,1.507602,0.21337366,0.054436587,0.019864107,0.92906255,0.6007074,-0.41667366,1.6460149,-0.33249405,-0.84590226,-0.16564862,1.4826367,1.1321132
-0.2,-0.2,0.6,-0.5235987755982988,0.34906585039886606,0.1745329251994331,1.6821309,1.5105883,0.19821873,0.042860117,0.046601266,0.9242147,0.64592934,-0.41748822,1.6351959,-0.29976887,-0.8306693,-0.16594031,1.4399905,1.3863515
-0.2,-0.2,0.6,-0.5235987755982988,0.34906585039886606,0.1745329251994331,1.6736891,1.4964087,0.17615652,0.072120324,0.048734073,0.92151153,0.6566299,-0.4177363,1.6389507,-0.34738836,-0.87108636,-0.1475579,1.4881655,1.433937
-0.2,-0.2,0.6,-0.5235987755982988,0.34906585039886606,0.1745329251994331,1.6984818,1.4976499,0.22029383,0.056680903,0.04703083,0.9175014,0.6531748,-0.42212987,1.6341206,-0.293691,-0.86618733,-0.18074185,1.5030549,1.2741716
-0.2,-0.2,0.6,-0.5235987755982988,0.34906585039886606,0.1745329251994331,1.6918832,1.5012614,0.21294288,0.04280574,0.045793977,0.9455342,0.66685104,-0.41174337,1.6421723,-0.32139635,-0.87753826,-0.15679342,1.5303961,1.31097
-0.2,-0.2,0.6,-0.5235987755982988,0.34906585039886606,0.1745329251994331,1.6978165,1.50479,0.18732838,0.06885393,0.045573384,0.9424681,0.6464335,-0.41418904,1.6489924,-0.31726456,-0.8415513,-0.16570312,1.5136986,1.1579527
-0.2,-0.2,0.6,-0.5235987755982988,0.34906585039886606,0.1745329251994331,1.7212336,1.5104215,0.19886349,0.052172527,0.028349282,0.93842316,0.6227454,-0.4121786,1.6442733,-0.35747746,-0.8227945,-0.16521943,1.4672842,1.3536173
-0.2,-0.2,0.6,-0.5235987755982988,0.34906585039886606,0.1745329251994331,1.7193655,1.5090748,0.19796506,0.035471227,0.054047752,0.9643484,0.6050372,-0.39496282,1.6465867,-0.34509018,-0.78918636,-0.2067656,1.4108253,0.98593223
-0.2,-0.2,0.6,-0.5235987755982988,0.34906585039886606,0.1745329251994331,1.695215,1.5126598,0.17306949,0.044314567,0.062293787,0.9311132,0.6981542,-0.38752365,1.6443094,-0.32096592,-0.8615855,-0.12596548,1.4740975,1.139774
-0.2,-0.2,0.6,-0.5235987755982988,0.34906585039886606,0.1745329251994331,1.6785102,1.5060992,0.21448499,0.047561675,0.048950914,0.9453353,0.6499253,-0.40451247,1.6420482,-0.35040164,-0.9034734,-0.13119681,1.5180336,1.2334222
-0.2,-0.2,0.6,-0.5235987755982988,0.34906585039886606,0.1745329251994331,1.7082855,1.5108873,0.20319805,0.0646899,0.04875085,0.9143459,0.68841684,-0.39931262,1.6336669,-0.30166674,-0.8637459,-0.1860223,1.4680697,1.1670456
-0.2,-0.2,0.6,-0.5235987755982988,0.34906585039886606,0.1745329251994331,1.7029731,1.5103364,0.221659,0.040631328,0.05188088,0.93850356,0.6663824,-0.4058662,1.6384777,-0.34819502,-0.7918002,-0.1799978,1.4674258,1.2472084
-0.2,-0.2,0.6,-0.5235987755982988,0.34906585039886606,0.1745329251994331,1.6987004,1.5088536,0.17824079,0.05156731,0.058573827,0.9502676,0.6554458,-0.41910627,1.6281188,-0.32572657,-0.8510058,-0.14902687,1.4605827,1.235349
-0.2,-0.2,0.6,-0.5235987755982988,0.34906585039886606,0.1745329251994331,1.7066926,1.5025058,0.1749182,0.06868816,0.07441621,0.92126626,0.68369585,-0.4119985,1.6412802,-0.3566141,-0.83111095,-0.14499915,1.4861251,1.568023
-0.2,-0.2,0.6,-0.5235987755982988,0.34906585039886606,0.1745329251994331,1.7027606,1.5179628,0.22082107,0.04258788,0.051284287,0.93361104,0.61233944,-0.39796266,1.6345748,-0.32033843,-0.83630526,-0.1106949,1.5080146,1.1346569
-0.2,-0.2,0.6,-0.5235987755982988,0.34906585039886606,0.1745329251994331,1.7064797,1.5171177,0.20018204,0.050099522,0.04365921,0.9431476,0.65782976,-0.40030736,1.6325183,-0.31453332,-0.8345126,-0.19236606,1.4722545,1.156116
-0.2,-0.2,0.6,-0.5235987755982988,0.34906585039886606,0.1745329251994331,1.7072432,1.5060169,0.20123515,0.04606629,0.053381514,0.9415309,0.61409754,-0.41845906,1.6343017,-0.35112727,-0.8148195,-0.13336374,1.4801664,1.128923
-0.2,-0.2,0.6,-0.5235987755982988,0.34906585039886606,0.1745329251994331,1.7006569,1.5041921,0.20111716,0.061948378,0.048514646,0.9274296,0.6610117,-0.40212888,1.6483046,-0.3416851,-0.83734393,-0.1333555,1.505258,1.1543728
-0.2,-0.2,0.6,-0.5235987755982988,0.34906585039886606,0.1745329251994331,1.6996087,1.508028,0.17062725,0.051356625,0.032989595,0.93100005,0.6309936,-0.43723795,1.6459239,-0.3379327,-0.87265277,-0.13384873,1.4554528,1.2986041
-0.2,-0.2,0.6,-0.5235987755982988,0.34906585039886606,0.1745329251994331,1.6894237,1.5105165,0.21627763,0.045337617,0.06829705,0.94497377,0.615794,-0.39835727,1.6368965,-0.34433234,-0.8677752,-0.102462076,1.5136139,1.3475646
-0.2,-0.2,0.6,-0.5235987755982988,0.34906585039886606,0.1745329251994331,1.6924112,1.514037,0.20538361,0.045337617,0.04392408,0.953555,0.6895576,-0.4081022,1.6313316,-0.29446584,-0.7713634,-0.19475198,1.4809695,1.0553683
-0.2,-0.2,0.6,-0.5235987755982988,0.34906585039886606,0.1745329251994331,1.7023593,1.5111804,0.2078837,0.068963885,0.07106438,0.94528455,0.6533908,-0.4103134,1.6449946,-0.26753038,-0.83130926,-0.22790705,1.5230566,1.2494812
-0.2,-0.2,0.6,-0.5235987755982988,0.34906585039886606,0.1745329251994331,1.7090251,1.5097259,0.19376822,0.046502795,0.063964166,0.9344509,0.6773492,-0.40545696,1.6480054,-0.31435892,-0.9119076,-0.2188447,1.5299127,1.2687932
-0.2,-0.2,0.6,-0.5235987755982988,0.34906585039886606,0.1745329251994331,1.6892297,1.5086405,0.22346692,0.05429755,0.041855764,0.9306007,0.63927245,-0.40865433,1.6287353,-0.34579453,-0.79792947,-0.16246632,1.4605684,1.1749746
-0.2,-0.2,0.6,-0.5235987755982988,0.34906585039886606,0.1745329251994331,1.6939726,1.515529,0.21823643,0.030758122,0.0453328,0.94498277,0.66059935,-0.40566856,1.651411,-0.35790804,-0.8274213,-0.19679645,1.479206,1.3046278
-0.2,-0.2,0.6,-0.5235987755982988,0.34906585039886606,0.1745329251994331,1.6874527,1.5004575,0.2021912,0.057069276,0.059069417,0.935954,0.6236274,-0.4090226,1.6245279,-0.290749,-0.86649865,-0.14653112,1.5027719,1.1916962
-0.2,-0.2,0.6,-0.5235987755982988,0.34906585039886606,0.1745329251994331,1.6979506,1.5122731,0.19301774,0.05370021,0.04188803,0.95200986,0.67927784,-0.40007642,1.615127,-0.3039037,-0.83605117,-0.1716492,1.4695323,1.1705797
-0.2,-0.2,0.6,-0.5235987755982988,0.34906585039886606,0.1745329251994331,1.7027205,1.5064346,0.20020886,0.04086803,0.048404526,0.92283094,0.62590104,-0.41125023,1.62125,-0.34695858,-0.796666,-0.1248454,1.4160867,1.3229619
-0.2,-0.2,0.6,-0.5235987755982988,0.34906585039886606,0.1745329251994331,1.6720928,1.5090829,0.21433774,0.04301891,0.06080818,0.93197256,0.6738343,-0.38348854,1.6300409,-0.34357625,-0.8139042,-0.15805386,1.4763539,1.2608937
-0.2,-0.2,0.6,-0.5235987755982988,0.34906585039886606,0.1745329251994331,1.6953247,1.5091952,0.2656154,0.057060827,0.05807848,0.9235357,0.69668746,-0.41102576,1.637274,-0.32046232,-0.76507014,-0.15306206,1.5162078,0.94839835
-0.2,-0.2,0.6,-0.5235987755982988,0.34906585039886606,0.1745329251994331,1.6727451,1.5117863,0.19178139,0.039482087,0.05187538,0.96601,0.6320933,-0.4193251,1.6340175,-0.33152682,-0.8152664,-0.17070404,1.4503618,1.2508677
-0.2,-0.2,0.6,-0.5235987755982988,0.34906585039886606,0.1745329251994331,1.6866703,1.5004536,0.22676177,0.036050417,0.040550005,0.933714,0.6369211,-0.4015359,1.6456863,-0.33216164,-0.8865999,-0.15441592,1.518573,1.2321962
-0.2,-0.2,0.6,-0.5235987755982988,0.34906585039886606,0.1745329251994331,1.7066197,1.5092103,0.21438903,0.053806394,0.046516255,0.9297622,0.64159036,-0.41886368,1.6276478,-0.3263936,-0.85377574,-0.20924897,1.4975199,1.1801263
-0.2,-0.2,0.6,-0.5235987755982988,0.34906585039886606,0.1745329251994331,1.7015561,1.5046399,0.21602997,0.061381392,0.0350659,0.9314524,0.65295464,-0.4042756,1.6388744,-0.31784695,-0.8178275,-0.24305317,1.478881,1.1006571
-0.2,-0.2,0.6,-0.5235987755982988,0.34906585039886606,0.1745329251994331,1.70777,1.5268059,0.18480887,0.070773765,0.05513198,0.9409869,0.65037864,-0.3826108,1.6334724,-0.35505006,-0.85783035,-0.17055458,1.4700961,1.1979964
-0.2,-0.2,0.6,-0.5235987755982988,0.34906585039886606,0.1745329251994331,1.6972696,1.500138,0.20441246,0.04398887,0.0415045,0.9248043,0.6775742,-0.4285979,1.6238475,-0.32749254,-0.8585025,-0.19419134,1.4838117,1.2061648
-0.2,-0.2,0.6,-0.5235987755982988,0.34906585039886606,0.1745329251994331,1.6996491,1.521721,0.23066695,0.058203537,0.04243312,0.9288849,0.6154649,-0.4049326,1.6358087,-0.33432293,-0.8340589,-0.16667455,1.4770095,1.1893663
-0.2,-0.2,0.6,-0.5235987755982988,0.34906585039886606,0.1745329251994331,1.7173758,1.5059476,0.18557508,0.053814948,0.053531695,0.92922693,0.68663937,-0.4100519,1.6353476,-0.29296672,-0.8350515,-0.14366417,1.4874485,1.4067552
-0.2,-0.2,0.6,-0.5235987755982988,0.34906585039886606,0.1745329251994331,1.6783329,1.5014963,0.20224603,0.0662313,0.04557284,0.94526565,0.6351603,-0.41391203,1.6371356,-0.3290307,-0.85718834,-0.19926475,1.5127145,1.2643725
-0.2,-0.2,0.6,-0.5235987755982988,0.34906585039886606,0.1745329251994331,1.6949892,1.5076153,0.22401203,0.06662728,0.04568813,0.9303684,0.6394379,-0.40677977,1.64055,-0.3082514,-0.8348626,-0.17315549,1.4951421,1.3313516
-0.2,-0.2,0.6,-0.5235987755982988,0.34906585039886606,0.1745329251994331,1.7127206,1.515168,0.22185583,0.048224982,0.057197537,0.91593146,0.63461345,-0.42200685,1.6415911,-0.33226204,-0.84744954,-0.121229455,1.4940689,1.4965842
-0.2,-0.2,0.6,-0.5235987755982988,0.34906585039886606,0.1745329251994331,1.702808,1.5103596,0.21357673,0.04974294,0.034000784,0.93714267,0.7100001,-0.41216248,1.6464691,-0.30577034,-0.7973197,-0.16328597,1.4840963,1.2688453
-0.2,-0.2,0.6,-0.5235987755982988,0.34906585039886606,0.1745329251994331,1.6965967,1.5126535,0.17777841,0.056805946,0.05486292,0.94849545,0.6197805,-0.4151334,1.6417569,-0.32655767,-0.834644,-0.20292762,1.4777852,1.532706
-0.2,-0.2,0.6,-0.5235987755982988,0.34906585039886606,0.1745329251994331,1.7033867,1.5100478,0.23845373,0.034054283,0.014166735,0.932538,0.6533329,-0.43077204,1.6416223,-0.34800938,-0.8663877,-0.15006012,1.4912876,1.0876724
-0.2,-0.2,0.6,-0.5235987755982988,0.34906585039886606,0.1745329251994331,1.6834806,1.5112743,0.19025916,0.037185885,0.07654013,0.9455329,0.6697574,-0.41250148,1.6392156,-0.33699265,-0.8559028,-0.14194046,1.4912351,1.1476351
-0.2,-0.2,0.6,-0.5235987755982988,0.34906585039886606,0.1745329251994331,1.6841229,1.5099022,0.19638889,0.04531728,0.037107915,0.94471115,0.6363978,-0.42741013,1.6355944,-0.30543682,-0.8744448,-0.14318216,1.4877197,1.21788
-0.2,-0.2,0.6,-0.5235987755982988,0.34906585039886606,0.1745329251994331,1.7114042,1.5122453,0.19588019,0.06521966,0.07407266,0.9417735,0.6654306,-0.4126094,1.640901,-0.33256543,-0.81258374,-0.17550892,1.4893037,1.3643497
-0.2,-0.2,0.6,-0.5235987755982988,0.34906585039886606,0.1745329251994331,1.7146446,1.5133345,0.23197283,0.052984953,0.051453516,0.9302061,0.6606948,-0.40075266,1.639337,-0.30958188,-0.81096166,-0.17859583,1.5313311,1.2281694
-0.2,-0.2,0.6,-0.5235987755982988,0.34906585039886606,0.1745329251994331,1.6980559,1.5027949,0.18966013,0.05783743,0.06610325,0.9492461,0.63505995,-0.3945998,1.6370981,-0.32750282,-0.7962424,-0.15152149,1.4745942,1.2838072
-0.2,-0.2,0.6,-0.5235987755982988,0.34906585039886606,0.1745329251994331,1.7023263,1.5052743,0.20211942,0.053150345,0.049242396,0.9307506,0.61575234,-0.39525428,1.6440443,-0.33324903,-0.87051344,-0.15380365,1.5257858,1.2647871
-0.2,-0.2,0.6,-0.5235987755982988,0.34906585039886606,0.1745329251994331,1.6962341,1.5073545,0.17529415,0.039252322,0.04816043,0.9352877,0.65981656,-0.4048849,1.6430668,-0.340916,-0.8530175,-0.13397956,1.428123,1.1621912
-0.2,-0.2,0.6,-0.5235987755982988,0.34906585039886606,0.1745329251994331,1.7108103,1.5100222,0.21708597,0.030692365,0.029269187,0.94321555,0.61541855,-0.3927291,1.6401614,-0.32468015,-0.86924446,-0.1020101,1.5167863,1.1987609
-0.2,-0.2,0.6,-0.5235987755982988,0.34906585039886606,0.1745329251994331,1.6929178,1.5112318,0.20497817,0.06236523,0.06826823,0.9196259,0.674278,-0.42017606,1.6376336,-0.31613427,-0.84250605,-0.1590646,1.4716728,1.3232416
-0.2,-0.2,0.6,-0.5235987755982988,0.34906585039886606,0.1745329251994331,1.7035323,1.5123596,0.18529716,0.06175626,0.05192557,0.9632114,0.6535452,-0.39546573,1.6268815,-0.35389742,-0.76508254,-0.13807687,1.4626579,1.2573435
-0.2,-0.2,0.6,-0.5235987755982988,0.34906585039886606,0.1745329251994331,1.6853597,1.5037737,0.2003677,0.048390713,0.03657501,0.9590904,0.64593476,-0.40891907,1.642129,-0.34646606,-0.89174134,-0.20402192,1.5150461,1.2706414
-0.2,-0.2,0.6,-0.5235987755982988,0.34906585039886606,0.1745329251994331,1.6867038,1.5075613,0.1849731,0.050865166,0.049167246,0.92985785,0.6291701,-0.4244681,1.6475619,-0.34667686,-0.89947146,-0.21439293,1.4733921,1.3012904
-0.2,-0.2,0.6,-0.5235987755982988,0.34906585039886606,0.1745329251994331,1.6775877,1.5171013,0.22012155,0.058908343,0.059205275,0.92996436,0.6792503,-0.38474205,1.6393108,-0.32959303,-0.8211286,-0.16712482,1.5288993,1.1608223
-0.2,-0.2,0.6,-0.5235987755982988,0.34906585039886606,0.1745329251994331,1.6981573,1.5093479,0.20798783,0.045867797,0.052984785,0.9272008,0.66532654,-0.40986472,1.6369638,-0.3541879,-0.8837756,-0.1563572,1.4938723,1.3368629
-0.2,-0.2,0.6,-0.5235987755982988,0.34906585039886606,0.1745329251994331,1.6884527,1.5069913,0.18380463,0.06877636,0.029607246,0.94276685,0.65282327,-0.40954307,1.6382396,-0.33568704,-0.8153753,-0.18739867,1.4880109,0.99749297
-0.2,-0.2,0.6,-0.5235987755982988,0.34906585039886606,0.1745329251994331,1.695654,1.5024813,0.20437378,0.051465787,0.032599032,0.93191487,0.6480266,-0.3935606,1.6446296,-0.30663413,-0.83803576,-0.20514321,1.5289434,1.302719
-0.2,-0.2,0.6,-0.5235987755982988,0.34906585039886606,0.1745329251994331,1.6871386,1.5099037,0.2127093,0.044653982,0.044384927,0.9399027,0.6077114,-0.41660035,1.6334879,-0.34522736,-0.87898606,-0.14635602,1.4882003,1.4041418
-0.2,-0.2,0.6,-0.5235987755982988,0.34906585039886606,0.1745329251994331,1.6883831,1.5099043,0.1806605,0.05135688,0.06226129,0.9133102,0.71634185,-0.41237545,1.6289247,-0.3332777,-0.8626371,-0.17078716,1.4606725,1.3214152
-0.2,-0.2,0.6,-0.5235987755982988,0.34906585039886606,0.1745329251994331,1.6848156,1.5190011,0.21711195,0.035261888,0.044145,0.9494063,0.63875514,-0.393827,1.642958,-0.33632335,-0.8555734,-0.19008389,1.50498,1.1307784
-0.2,-0.2,0.6,-0.5235987755982988,0.34906585039886606,0.1745329251994331,1.6973103,1.5088379,0.19083245,0.06867427,0.060248658,0.91887397,0.6605179,-0.4084825,1.6408435,-0.36224735,-0.8968759,-0.13008413,1.5127752,1.0986322
-0.2,-0.2,0.6,-0.5235987755982988,0.34906585039886606,0.1745329251994331,1.702118,1.5139896,0.18886557,0.05369904,0.081744336,0.966802,0.68179005,-0.40251058,1.6267205,-0.3711041,-0.8327346,-0.13820429,1.537245,1.2221295
-0.2,-0.2,0.6,-0.5235987755982988,0.34906585039886606,0.1745329251994331,1.6952323,1.5072309,0.2184353,0.04845826,0.04358511,0.9460625,0.6531532,-0.4040386,1.6398102,-0.3150815,-0.8349037,-0.14788689,1.5390816,1.1958191
-0.2,-0.2,0.6,-0.5235987755982988,0.34906585039886606,0.1745329251994331,1.7266135,1.5040598,0.21275581,0.03378982,0.049536794,0.9314222,0.699483,-0.40826333,1.6342828,-0.33468255,-0.8878192,-0.18251605,1.5229964,1.2436947
-0.2,-0.2,0.6,-0.5235987755982988,0.34906585039886606,0.1745329251994331,1.6705283,1.5073165,0.1992306,0.055289403,0.041960385,0.9165054,0.6044788,-0.40780374,1.6306094,-0.30552313,-0.8032114,-0.17387834,1.434656,1.3445456
-0.2,-0.2,0.6,-0.5235987755982988,0.34906585039886606,0.1745329251994331,1.6948321,1.5121349,0.18640773,0.055820223,0.064399906,0.92177844,0.65696704,-0.4024668,1.6271496,-0.3212376,-0.8442753,-0.14165811,1.468581,1.2743584
-0.2,-0.2,0.6,-0.5235987755982988,0.34906585039886606,0.1745329251994331,1.6864951,1.5056534,0.1948127,0.05469619,0.05627687,0.92380226,0.6932684,-0.41197145,1.624508,-0.32814926,-0.8335825,-0.16350129,1.4834936,1.250566
-0.2,-0.2,0.6,-0.5235987755982988,0.34906585039886606,0.1745329251994331,1.6777008,1.5133886,0.20328328,0.093295045,0.050444767,0.9352397,0.6395156,-0.40441257,1.6032304,-0.33197224,-0.8031765,-0.1875413,1.510203,1.2036614
