sanky1234/BimanualDexCatch/isaacgymenvs/cem_results/football_pose_0.0_0.1_1.2999999999999998_-0.5235987755982988_0.5235987755982988_0_2025-05-26.csv
x,y,z,roll,pitch,yaw,robot1/joint1,robot1/joint2,robot1/joint3,robot1/joint4,robot1/joint5,robot1/joint6,robot1/joint7,robot2/joint1,robot2/joint2,robot2/joint3,robot2/joint4,robot2/joint5,robot2/joint6,robot2/joint7
0.0,0.1,1.2999999999999998,-0.5235987755982988,0.5235987755982988,0,0.07697274,-0.5630489,0.47449583,0.08189091,0.013402504,1.1748731,-0.36803642,0.7726427,-1.8525566,0.30606893,-0.09911408,0.14948653,1.2471656,0.04689183
0.0,0.1,1.2999999999999998,-0.5235987755982988,0.5235987755982988,0,0.07631692,-0.5634293,0.4737063,0.067961834,-0.0071140737,1.233883,-0.6260473,0.77273893,-1.8364177,0.29150766,-0.09082685,0.1463409,1.2098019,0.8650427
0.0,0.1,1.2999999999999998,-0.5235987755982988,0.5235987755982988,0,0.07681822,-0.5634554,0.4723718,0.09232128,0.021617265,1.1736389,-0.2626816,0.77182007,-1.8362463,0.2931513,-0.10224299,0.007899622,1.2325889,0.49171317
0.0,0.1,1.2999999999999998,-0.5235987755982988,0.5235987755982988,0,0.076420955,-0.5634827,0.47364318,0.08528059,0.09355237,1.2491039,0.65699637,0.77370757,-1.8389443,0.2990709,-0.094055906,0.14886256,1.2327173,0.48034516
0.0,0.1,1.2999999999999998,-0.5235987755982988,0.5235987755982988,0,0.076404296,-0.5633494,0.47271323,0.09696884,0.0009795538,1.214102,0.4839855,0.77416474,-1.845061,0.29617086,-0.09973886,0.20772716,1.1902435,0.15418662
0.0,0.1,1.2999999999999998,-0.5235987755982988,0.5235987755982988,0,0.07709224,-0.5635537,0.47289377,0.08351892,0.062443767,1.2420149,-0.07006657,0.7725743,-1.8403456,0.29525796,-0.09625695,-0.015244094,1.2515769,0.31118253
0.0,0.1,1.2999999999999998,-0.5235987755982988,0.5235987755982988,0,0.07708196,-0.5632908,0.47284368,0.086841725,0.084624805,1.2020689,-1.1089274,0.7747585,-1.8456854,0.30210978,-0.09852277,-0.059282955,1.2686608,0.51885337
0.0,0.1,1.2999999999999998,-0.5235987755982988,0.5235987755982988,0,0.07720017,-0.5635627,0.47290498,0.0942959,-0.002793817,1.2048678,0.5794208,0.7718429,-1.8391516,0.2928277,-0.10040087,0.07020812,1.2465316,0.0993449
0.0,0.1,1.2999999999999998,-0.5235987755982988,0.5235987755982988,0,0.07614845,-0.5630495,0.47456402,0.08595699,0.05629996,1.165161,-0.16292444,0.77248824,-1.8421121,0.29168332,-0.08141414,0.055776533,1.2571754,0.36771244
0.0,0.1,1.2999999999999998,-0.5235987755982988,0.5235987755982988,0,0.07765166,-0.56332624,0.4720577,0.09573972,0.104241505,1.2390333,-0.056686986,0.773722,-1.8529918,0.30715874,-0.08016203,0.045034822,1.1912686,0.30964866
0.0,0.1,1.2999999999999998,-0.5235987755982988,0.5235987755982988,0,0.07680414,-0.5635028,0.47297916,0.08976156,0.10960472,1.2065452,0.06758991,0.7731021,-1.84559,0.29858008,-0.096209176,-0.06671301,1.2327187,0.74437034
0.0,0.1,1.2999999999999998,-0.5235987755982988,0.5235987755982988,0,0.07649865,-0.5634409,0.4734621,0.08107035,0.013581939,1.1846775,-0.22876696,0.7715961,-1.8377823,0.29014727,-0.08487073,0.05656912,1.2399154,0.5561922
0.0,0.1,1.2999999999999998,-0.5235987755982988,0.5235987755982988,0,0.076686986,-0.5635711,0.47216654,0.09680202,0.039372794,1.2622911,-1.1138853,0.7747802,-1.8427284,0.30374247,-0.09027378,-0.014800054,1.2708381,0.4998803
0.0,0.1,1.2999999999999998,-0.5235987755982988,0.5235987755982988,0,0.07663625,-0.5632334,0.47379756,0.09816622,0.031853948,1.161385,-2.327417,0.77123064,-1.838482,0.29685032,-0.1076412,0.16522218,1.1923803,0.43503135
0.0,0.1,1.2999999999999998,-0.5235987755982988,0.5235987755982988,0,0.07577759,-0.5636934,0.47258705,0.076616436,0.109005615,1.1982211,-0.935512,0.77259415,-1.8463422,0.29881564,-0.0981022,0.16861843,1.2130494,1.349428
0.0,0.1,1.2999999999999998,-0.5235987755982988,0.5235987755982988,0,0.07719764,-0.56292784,0.4730901,0.08362727,0.020490458,1.1893948,0.5119343,0.77286756,-1.8386297,0.31189185,-0.094739705,0.11057133,1.2100745,-0.041270837
0.0,0.1,1.2999999999999998,-0.5235987755982988,0.5235987755982988,0,0.076761596,-0.56314254,0.4736025,0.07812517,0.038339246,1.1912047,-1.115854,0.77321434,-1.8380896,0.29273885,-0.098695114,0.04330769,1.2243054,0.93723
0.0,0.1,1.2999999999999998,-0.5235987755982988,0.5235987755982988,0,0.07718363,-0.5633167,0.47126466,0.081628956,0.05956886,1.2448028,0.54207903,0.7728202,-1.8502264,0.2909083,-0.07895636,0.17986748,1.2546264,0.830576
0.0,0.1,1.2999999999999998,-0.5235987755982988,0.5235987755982988,0,0.076454215,-0.5634632,0.47333586,0.094765775,0.003799147,1.3363987,-0.42889738,0.7714138,-1.8397942,0.28748846,-0.09318656,-0.023523288,1.2154441,0.85772663
0.0,0.1,1.2999999999999998,-0.5235987755982988,0.5235987755982988,0,0.07758868,-0.5630686,0.47212783,0.071946755,0.070100516,1.1957893,0.35079348,0.7710234,-1.8472666,0.30900443,-0.08593316,0.048228163,1.239215,0.44582996
0.0,0.1,1.2999999999999998,-0.5235987755982988,0.5235987755982988,0,0.07693042,-0.56344175,0.47147146,0.08731167,-0.011749284,1.2239119,-1.0970067,0.7729924,-1.839826,0.29068324,-0.08542326,0.17515828,1.1922517,0.67479783
0.0,0.1,1.2999999999999998,-0.5235987755982988,0.5235987755982988,0,0.07649488,-0.56328624,0.4728858,0.09391504,0.043439038,1.1550417,-1.8090917,0.77426004,-1.8457732,0.29450202,-0.07229921,-0.14187817,1.2745391,0.6019618
0.0,0.1,1.2999999999999998,-0.5235987755982988,0.5235987755982988,0,0.07709391,-0.5638669,0.47262144,0.08964735,0.091015056,1.1553994,-0.37467194,0.7720325,-1.833504,0.2945805,-0.09829474,-0.05848781,1.2161664,0.5119257
0.0,0.1,1.2999999999999998,-0.5235987755982988,0.5235987755982988,0,0.076948136,-0.56345993,0.4737866,0.08470018,0.037164133,1.1211736,-1.7706517,0.7728398,-1.8319291,0.29406172,-0.104786105,0.0045840587,1.2525338,-0.119757436
0.0,0.1,1.2999999999999998,-0.5235987755982988,0.5235987755982988,0,0.077065304,-0.5632736,0.4735793,0.08056673,0.026133602,1.2520429,-1.4074898,0.77562284,-1.8377855,0.29448405,-0.09851415,-0.054135162,1.2578034,0.054576203
0.0,0.1,1.2999999999999998,-0.5235987755982988,0.5235987755982988,0,0.076222815,-0.56332535,0.47342083,0.08007192,0.07583587,1.17097,0.42523736,0.77386856,-1.8402138,0.29455787,-0.09104761,0.011063625,1.2298098,0.3257054
0.0,0.1,1.2999999999999998,-0.5235987755982988,0.5235987755982988,0,0.07723491,-0.56301624,0.47440213,0.06963323,0.06199463,1.2280253,-0.38610718,0.77313817,-1.8416061,0.29027584,-0.09408947,-0.0413432,1.2242478,0.65785
0.0,0.1,1.2999999999999998,-0.5235987755982988,0.5235987755982988,0,0.07681176,-0.56341326,0.47256845,0.07227649,0.03872442,1.1255035,-0.9048366,0.77298886,-1.8425105,0.29741415,-0.09527253,0.0250966,1.1796795,0.6100157
0.0,0.1,1.2999999999999998,-0.5235987755982988,0.5235987755982988,0,0.076726936,-0.56355935,0.47241098,0.09557734,0.0031902904,1.3073654,0.5796034,0.7700582,-1.8393009,0.28942427,-0.09020115,0.22806652,1.2308216,0.31601587
0.0,0.1,1.2999999999999998,-0.5235987755982988,0.5235987755982988,0,0.076692596,-0.56318337,0.47311684,0.08985033,0.044587716,1.2382164,-1.4085952,0.7732054,-1.8433559,0.2931935,-0.08615459,0.22873943,1.2401986,-0.14293252
0.0,0.1,1.2999999999999998,-0.5235987755982988,0.5235987755982988,0,0.07673172,-0.56341994,0.47266972,0.10037711,0.025710832,1.2238841,0.10105307,0.77182287,-1.8351884,0.29252508,-0.09683234,0.046699554,1.1677238,-0.041690134
0.0,0.1,1.2999999999999998,-0.5235987755982988,0.5235987755982988,0,0.07622822,-0.5631579,0.47403932,0.081518605,0.17487122,1.2411008,-0.19727303,0.77245533,-1.8411096,0.29284,-0.07775742,-0.06894196,1.2209951,0.16711134
0.0,0.1,1.2999999999999998,-0.5235987755982988,0.5235987755982988,0,0.076314755,-0.56352735,0.47290254,0.0900411,0.17090243,1.198526,-1.0591956,0.77327436,-1.8369511,0.2959366,-0.097730026,0.08933582,1.2232184,0.22549641
0.0,0.1,1.2999999999999998,-0.5235987755982988,0.5235987755982988,0,0.076580465,-0.56343865,0.47255537,0.08631805,0.052616183,1.1833181,-0.597475,0.77290004,-1.839011,0.2955912,-0.091210224,0.18754745,1.2112383,0.109941795
0.0,0.1,1.2999999999999998,-0.5235987755982988,0.5235987755982988,0,0.07663973,-0.5633744,0.47311684,0.09347247,0.07606362,1.1798092,-1.7204398,0.77349323,-1.8393172,0.2970862,-0.08920174,0.052276332,1.1923894,1.0318986
0.0,0.1,1.2999999999999998,-0.5235987755982988,0.5235987755982988,0,0.07682904,-0.56317365,0.47274032,0.076365076,-0.010341411,1.1353223,0.7178294,0.77009493,-1.8356305,0.30967402,-0.09953434,0.010476912,1.1688911,0.084241614
0.0,0.1,1.2999999999999998,-0.5235987755982988,0.5235987755982988,0,0.07604739,-0.5635377,0.47279316,0.08025867,0.12039874,1.2620908,-1.2768627,0.7741627,-1.8402501,0.30253932,-0.09101544,0.2253387,1.22974,-0.38087678
0.0,0.1,1.2999999999999998,-0.5235987755982988,0.5235987755982988,0,0.07611004,-0.56330395,0.47358623,0.084663786,0.052965425,1.3040569,-0.61827487,0.7711427,-1.8486383,0.29225114,-0.08933049,0.039843407,1.2223408,1.2552164
0.0,0.1,1.2999999999999998,-0.5235987755982988,0.5235987755982988,0,0.07672161,-0.563578,0.47358078,0.07699462,0.14075664,1.2193856,-0.31450886,0.7727742,-1.843019,0.29391685,-0.09533196,0.19944648,1.2378223,0.26861015
0.0,0.1,1.2999999999999998,-0.5235987755982988,0.5235987755982988,0,0.07639479,-0.56369644,0.47203505,0.092732206,0.081781484,1.1821052,-1.207495,0.7726817,-1.8375022,0.29738632,-0.08150806,0.014075627,1.250199,1.094681
0.0,0.1,1.2999999999999998,-0.5235987755982988,0.5235987755982988,0,0.07650573,-0.5636848,0.47190896,0.094847836,0.085176006,1.1257589,-0.32611966,0.772306,-1.8376602,0.29384562,-0.100783296,-0.043908082,1.2282286,0.88358146
0.0,0.1,1.2999999999999998,-0.5235987755982988,0.5235987755982988,0,0.07547601,-0.56351346,0.47404948,0.080444045,0.10257705,1.2880421,-0.5549148,0.77498126,-1.8465011,0.29348487,-0.08047833,-0.031037644,1.2450302,-0.25917882
0.0,0.1,1.2999999999999998,-0.5235987755982988,0.5235987755982988,0,0.07691411,-0.5631814,0.47312808,0.08272146,-0.011391577,1.1934978,0.2661516,0.77375835,-1.846997,0.29577,-0.09882213,0.28321812,1.2402432,0.70660686
0.0,0.1,1.2999999999999998,-0.5235987755982988,0.5235987755982988,0,0.07655735,-0.56360894,0.47275415,0.0984807,0.024047628,1.3283545,1.0730878,0.7745939,-1.8423551,0.29995188,-0.09097495,0.24393266,1.222254,0.2028065
0.0,0.1,1.2999999999999998,-0.5235987755982988,0.5235987755982988,0,0.077111766,-0.56330425,0.472134,0.08849683,0.066252075,1.2048199,0.15477909,0.7713331,-1.8449295,0.31241307,-0.10118562,0.12874588,1.2154212,0.46559057
0.0,0.1,1.2999999999999998,-0.5235987755982988,0.5235987755982988,0,0.0765531,-0.5633461,0.4729503,0.09429987,0.04677261,1.2592082,0.47222072,0.77201813,-1.8385774,0.29147968,-0.07246251,-0.0014263391,1.2455128,0.39005104
0.0,0.1,1.2999999999999998,-0.5235987755982988,0.5235987755982988,0,0.07625386,-0.5635146,0.47322235,0.07940888,0.098866954,1.2413121,0.2745502,0.77143764,-1.8417877,0.28964496,-0.09254138,0.16627343,1.2149999,0.87340826
0.0,0.1,1.2999999999999998,-0.5235987755982988,0.5235987755982988,0,0.07730717,-0.56308866,0.47370678,0.10873967,0.12634802,1.1365016,-0.85940784,0.77368283,-1.8422433,0.29549772,-0.101056576,-0.010292092,1.2105614,0.77959186
0.0,0.1,1.2999999999999998,-0.5235987755982988,0.5235987755982988,0,0.07694522,-0.56337,0.47335842,0.07416159,0.20632109,1.2576278,-0.52613705,0.7743145,-1.8331833,0.28681746,-0.09469544,0.11782373,1.222191,1.4862092
0.0,0.1,1.2999999999999998,-0.5235987755982988,0.5235987755982988,0,0.07656764,-0.5633901,0.47389308,0.0842672,0.040261816,1.2150475,0.77729905,0.7737483,-1.838275,0.2980216,-0.089171,-0.086056225,1.20915,1.4642806
0.0,0.1,1.2999999999999998,-0.5235987755982988,0.5235987755982988,0,0.07658715,-0.563658,0.4728557,0.08260332,0.098789744,1.2031004,-0.327973,0.77405894,-1.8390366,0.3013531,-0.087419026,-0.038587295,1.2315865,0.9000259
0.0,0.1,1.2999999999999998,-0.5235987755982988,0.5235987755982988,0,0.07691125,-0.56349015,0.4713654,0.08305498,0.074122764,1.2746736,-0.04727685,0.77274925,-1.8362088,0.29592404,-0.08569817,0.10700178,1.250848,0.20591229
0.0,0.1,1.2999999999999998,-0.5235987755982988,0.5235987755982988,0,0.07655508,-0.5633996,0.47245246,0.07929628,0.083910726,1.2018946,0.031093575,0.77342343,-1.836768,0.29409057,-0.09690297,0.093925685,1.2035819,-0.3877327
0.0,0.1,1.2999999999999998,-0.5235987755982988,0.5235987755982988,0,0.077397645,-0.5635285,0.47350642,0.10393954,0.07350642,1.2126389,-0.81741893,0.7701984,-1.859193,0.30384922,-0.091636725,0.06979038,1.2413008,0.9826427
0.0,0.1,1.2999999999999998,-0.5235987755982988,0.5235987755982988,0,0.07721034,-0.56339717,0.472177,0.07011732,0.076085545,1.2380638,0.90307367,0.76989263,-1.8412968,0.30202532,-0.09986058,0.13727921,1.259206,0.30456734
0.0,0.1,1.2999999999999998,-0.5235987755982988,0.5235987755982988,0,0.07685306,-0.56344765,0.4727629,0.07225177,0.018487955,1.1577061,-0.102249846,0.7744108,-1.8428471,0.29690874,-0.08164349,0.013616821,1.2472299,0.7866581
0.0,0.1,1.2999999999999998,-0.5235987755982988,0.5235987755982988,0,0.07730379,-0.5632944,0.47168994,0.09007873,0.09766644,1.2390579,-0.8990542,0.77555245,-1.8406996,0.29733607,-0.10029167,0.007231695,1.2159333,0.90118736
0.0,0.1,1.2999999999999998,-0.5235987755982988,0.5235987755982988,0,0.07659801,-0.5633938,0.47246593,0.092939936,0.03177641,1.2689468,-0.6473178,0.77299565,-1.8441337,0.29701933,-0.08789056,0.2401724,1.1897173,0.2989028
0.0,0.1,1.2999999999999998,-0.5235987755982988,0.5235987755982988,0,0.07692472,-0.56348884,0.4712536,0.097548604,0.16418636,1.246946,0.050684728,0.7719815,-1.8376923,0.29372603,-0.09239567,0.2426887,1.2278041,0.73775464
0.0,0.1,1.2999999999999998,-0.5235987755982988,0.5235987755982988,0,0.07618259,-0.56334424,0.4738586,0.08321063,0.051996123,1.2200413,-1.4701834,0.77579474,-1.8466804,0.29654786,-0.097075075,-0.0724365,1.2373115,0.49041015
0.0,0.1,1.2999999999999998,-0.5235987755982988,0.5235987755982988,0,0.07687883,-0.563456,0.47243097,0.086424045,0.02250718,1.1641667,-0.2036844,0.7736998,-1.8430429,0.29712903,-0.083628654,0.129305,1.2137684,0.07002953
0.0,0.1,1.2999999999999998,-0.5235987755982988,0.5235987755982988,0,0.076498985,-0.5634285,0.47336203,0.09316451,0.059195906,1.2439132,-1.9943002,0.7741086,-1.8419615,0.29796657,-0.083153926,0.0054309582,1.2665001,0.32933795
0.0,0.1,1.2999999999999998,-0.5235987755982988,0.5235987755982988,0,0.07695216,-0.563694,0.47173536,0.08657677,0.033848234,1.1547533,-1.1553241,0.77277607,-1.84211,0.2974388,-0.10920998,-0.03984061,1.2406769,0.037523434
0.0,0.1,1.2999999999999998,-0.5235987755982988,0.5235987755982988,0,0.07637578,-0.56335974,0.47275153,0.07648034,-0.038161665,1.2288227,0.8415112,0.77043176,-1.8466055,0.30531597,-0.10121917,0.15038471,1.1972643,0.91109
0.0,0.1,1.2999999999999998,-0.5235987755982988,0.5235987755982988,0,0.076701045,-0.56321067,0.47401184,0.099608086,0.051277336,1.2479348,-1.3372971,0.7722797,-1.8364098,0.2945867,-0.10007869,0.064510874,1.2480147,-0.01136655
0.0,0.1,1.2999999999999998,-0.5235987755982988,0.5235987755982988,0,0.0769083,-0.5635061,0.4720547,0.08193529,0.045334063,1.2009264,-0.5967163,0.7715064,-1.842271,0.29305002,-0.11194882,0.04933184,1.2096252,0.29850462
0.0,0.1,1.2999999999999998,-0.5235987755982988,0.5235987755982988,0,0.07710282,-0.56333387,0.47200793,0.08474586,0.07619035,1.1766279,0.69219977,0.7721486,-1.8446894,0.2912996,-0.0860106,0.11683302,1.2309284,0.32050896
0.0,0.1,1.2999999999999998,-0.5235987755982988,0.5235987755982988,0,0.07683027,-0.56325054,0.47224298,0.08560252,0.060164362,1.1701307,1.0357088,0.7765984,-1.8421347,0.30108058,-0.107333824,0.09461899,1.2009197,0.8979994
0.0,0.1,1.2999999999999998,-0.5235987755982988,0.5235987755982988,0,0.07628064,-0.5633395,0.47334617,0.08596716,0.06159499,1.2016011,-0.2116245,0.7718393,-1.841367,0.28992763,-0.083293654,0.006975918,1.2061127,0.47683543
0.0,0.1,1.2999999999999998,-0.5235987755982988,0.5235987755982988,0,0.076136105,-0.5638608,0.47160035,0.0825907,0.09162128,1.2429038,-0.83000493,0.7740819,-1.8372828,0.2948028,-0.09355979,0.03140073,1.2584461,1.920113
0.0,0.1,1.2999999999999998,-0.5235987755982988,0.5235987755982988,0,0.076388165,-0.56343186,0.47228533,0.07766456,0.025234701,1.2026973,-1.0069283,0.77080804,-1.8389771,0.29506615,-0.104301065,-0.012139818,1.2808727,0.34693867
0.0,0.1,1.2999999999999998,-0.5235987755982988,0.5235987755982988,0,0.07654141,-0.56344265,0.4734177,0.07326268,0.049574368,1.265141,-1.4763896,0.7728404,-1.8397537,0.29849777,-0.09477754,0.09167636,1.2327044,0.14544474
0.0,0.1,1.2999999999999998,-0.5235987755982988,0.5235987755982988,0,0.07632642,-0.5635487,0.47276273,0.06903956,0.099652834,1.2800039,0.89645904,0.7704046,-1.8494724,0.2998604,-0.099555664,0.10934256,1.2161369,0.047831085
0.0,0.1,1.2999999999999998,-0.5235987755982988,0.5235987755982988,0,0.076642096,-0.5633595,0.4726211,0.07131645,0.0761963,1.2269275,-0.36095306,0.7720908,-1.850802,0.28907818,-0.09710707,0.095543995,1.2033069,0.2688907
0.0,0.1,1.2999999999999998,-0.5235987755982988,0.5235987755982988,0,0.07665475,-0.56351227,0.4725316,0.0998711,0.07240469,1.3161508,0.7938042,0.77561635,-1.8387195,0.3050033,-0.09421734,0.21503408,1.19706,0.8091685
0.0,0.1,1.2999999999999998,-0.5235987755982988,0.5235987755982988,0,0.076729625,-0.5636808,0.47342604,0.08699588,0.014560726,1.2126392,0.28377804,0.7742342,-1.8390305,0.29699853,-0.096815124,0.0063579897,1.2071629,0.07344788
0.0,0.1,1.2999999999999998,-0.5235987755982988,0.5235987755982988,0,0.07634629,-0.5633678,0.47330233,0.06485865,0.07298952,1.2066603,-0.8475311,0.7739871,-1.8483597,0.29380685,-0.07962721,0.14789937,1.2313633,0.30804643
0.0,0.1,1.2999999999999998,-0.5235987755982988,0.5235987755982988,0,0.076795936,-0.5633938,0.47301924,0.08177575,0.13150312,1.258819,-0.1170544,0.77191263,-1.8472925,0.31119046,-0.097783044,-0.03347893,1.2346336,0.07383518
0.0,0.1,1.2999999999999998,-0.5235987755982988,0.5235987755982988,0,0.07652051,-0.56335557,0.4728593,0.07940972,0.040476535,1.16234,-1.6214364,0.7716475,-1.8391957,0.29446498,-0.105244756,0.04152757,1.2114542,0.2136278
0.0,0.1,1.2999999999999998,-0.5235987755982988,0.5235987755982988,0,0.07671044,-0.5633371,0.47228098,0.094936386,0.023532607,1.1884196,-0.16708432,0.7736006,-1.850775,0.29625726,-0.098396786,0.09076618,1.1890112,0.93780804
0.0,0.1,1.2999999999999998,-0.5235987755982988,0.5235987755982988,0,0.076100476,-0.56345844,0.473806,0.07398326,0.048316576,1.2776352,-0.937059,0.7700253,-1.8421645,0.3110896,-0.08966766,-0.030626424,1.2090992,0.53160864
0.0,0.1,1.2999999999999998,-0.5235987755982988,0.5235987755982988,0,0.07743529,-0.56394684,0.47411388,0.07122041,0.085572705,1.1855615,-0.9446998,0.7710734,-1.8407679,0.28657997,-0.08720411,0.21716984,1.2388732,0.29056185
0.0,0.1,1.2999999999999998,-0.5235987755982988,0.5235987755982988,0,0.07686478,-0.5631315,0.4730413,0.07809615,0.08188804,1.1707556,-0.70551854,0.77059627,-1.8389229,0.28692418,-0.09917184,0.22625932,1.243748,-0.26317897
0.0,0.1,1.2999999999999998,-0.5235987755982988,0.5235987755982988,0,0.076762654,-0.5635743,0.4731232,0.07210901,-0.04544918,1.2889259,-1.9301566,0.77618885,-1.839931,0.30228582,-0.0952427,-0.068603925,1.2918271,0.83200717
0.0,0.1,1.2999999999999998,-0.5235987755982988,0.5235987755982988,0,0.076821335,-0.56392676,0.47305438,0.08703085,0.08820791,1.1668109,-0.76455665,0.77396184,-1.8442223,0.29536894,-0.0974937,0.19512013,1.204199,0.55334294
0.0,0.1,1.2999999999999998,-0.5235987755982988,0.5235987755982988,0,0.07747699,-0.5630674,0.47325376,0.08143175,-0.0150067415,1.2336807,-0.1071761,0.7747051,-1.8382567,0.29263857,-0.09562662,0.20918241,1.2120229,0.3138259
0.0,0.1,1.2999999999999998,-0.5235987755982988,0.5235987755982988,0,0.076348536,-0.56358993,0.47334808,0.079544485,0.034857076,1.2365412,-0.93250656,0.76803124,-1.8439867,0.29928446,-0.107615314,0.12157343,1.2249769,0.44691914
0.0,0.1,1.2999999999999998,-0.5235987755982988,0.5235987755982988,0,0.076493815,-0.5633893,0.4727577,0.08314434,0.10007743,1.2486726,-1.0530119,0.77194315,-1.8427652,0.2880947,-0.09531085,0.026572179,1.2455367,0.79282504
0.0,0.1,1.2999999999999998,-0.5235987755982988,0.5235987755982988,0,0.07666524,-0.56369257,0.47155812,0.080802456,0.07373913,1.203626,-0.49792397,0.77000785,-1.8384625,0.28831133,-0.0903407,0.06512632,1.2387218,0.03826931
0.0,0.1,1.2999999999999998,-0.5235987755982988,0.5235987755982988,0,0.07537125,-0.564036,0.47238377,0.08647142,0.11749542,1.2342798,-0.38897535,0.77397317,-1.838454,0.3047125,-0.10606581,-0.002632257,1.2699057,0.98604727
0.0,0.1,1.2999999999999998,-0.5235987755982988,0.5235987755982988,0,0.0767416,-0.56369025,0.47359926,0.07905916,0.16235062,1.2198896,-1.5294085,0.77376074,-1.8358153,0.29183426,-0.083968654,0.14499043,1.2266318,0.6636567
0.0,0.1,1.2999999999999998,-0.5235987755982988,0.5235987755982988,0,0.076822564,-0.56373143,0.47256383,0.09653251,0.06972049,1.1689388,0.6224976,0.7736166,-1.844815,0.29129776,-0.093535654,0.18930903,1.1739316,0.96297956
0.0,0.1,1.2999999999999998,-0.5235987755982988,0.5235987755982988,0,0.07708473,-0.5633213,0.4731891,0.08908068,0.0618439,1.1564666,-0.1776921,0.7716375,-1.8316084,0.29152745,-0.10209813,0.16100958,1.1935536,0.540473
0.0,0.1,1.2999999999999998,-0.5235987755982988,0.5235987755982988,0,0.07606421,-0.56359154,0.47260797,0.078192025,0.14925572,1.2804718,-0.78362316,0.7727087,-1.8474041,0.29697064,-0.088328436,0.19632559,1.2074559,0.6419863
0.0,0.1,1.2999999999999998,-0.5235987755982988,0.5235987755982988,0,0.0762235,-0.5636809,0.47292626,0.0701684,0.08029015,1.2297009,-0.36852777,0.77458435,-1.8399237,0.29142323,-0.07454336,0.026353864,1.2591945,0.10818086
0.0,0.1,1.2999999999999998,-0.5235987755982988,0.5235987755982988,0,0.07726249,-0.56412333,0.47281918,0.093120046,0.021294504,1.255926,-1.4071287,0.76995355,-1.8421544,0.29105026,-0.09870946,0.11100414,1.1831056,0.9327843
0.0,0.1,1.2999999999999998,-0.5235987755982988,0.5235987755982988,0,0.07735555,-0.5632601,0.4726327,0.070236765,0.1169861,1.2763809,0.35255837,0.7747699,-1.8436491,0.29914513,-0.10048379,-0.017400242,1.2210147,0.41773194
0.0,0.1,1.2999999999999998,-0.5235987755982988,0.5235987755982988,0,0.07676002,-0.56321657,0.47348288,0.07985778,0.06944263,1.2537823,-0.8345599,0.7736095,-1.8473524,0.2935772,-0.09080921,0.012227472,1.2446527,0.7593952
0.0,0.1,1.2999999999999998,-0.5235987755982988,0.5235987755982988,0,0.07638852,-0.5633437,0.47386488,0.08128856,0.09956754,1.271912,0.4475608,0.77231467,-1.8333447,0.28806177,-0.09220627,0.027783725,1.25065,0.7563271
0.0,0.1,1.2999999999999998,-0.5235987755982988,0.5235987755982988,0,0.07644778,-0.56329614,0.47329363,0.085571215,-0.007864486,1.2724546,-1.5310749,0.77357596,-1.8364276,0.29249743,-0.0922168,0.18287,1.2826313,-0.043865293
0.0,0.1,1.2999999999999998,-0.5235987755982988,0.5235987755982988,0,0.07715122,-0.5634113,0.47399747,0.0924326,0.08064861,1.1724815,-0.49004233,0.7730305,-1.8384273,0.29570395,-0.1036105,-0.12816839,1.2328413,0.26345772
0.0,0.1,1.2999999999999998,-0.5235987755982988,0.5235987755982988,0,0.07761872,-0.5633017,0.4731412,0.09986694,0.0870315,1.1975458,-0.45772696,0.77230257,-1.8520073,0.2910699,-0.09074788,-0.021678194,1.2305217,-0.04304665
0.0,0.1,1.2999999999999998,-0.5235987755982988,0.5235987755982988,0,0.0760682,-0.5632808,0.47182584,0.076556675,0.087311335,1.1812404,-0.6942336,0.77018476,-1.8425164,0.2941151,-0.10209169,0.022504583,1.214869,0.07919173
0.0,0.1,1.2999999999999998,-0.5235987755982988,0.5235987755982988,0,0.07619645,-0.56322205,0.47316748,0.07797793,0.11431008,1.2328902,0.54956603,0.77167624,-1.8455336,0.29806855,-0.08241657,0.047018033,1.244357,0.9491982
0.0,0.1,1.2999999999999998,-0.5235987755982988,0.5235987755982988,0,0.076535046,-0.5634988,0.47225466,0.07251185,0.04211962,1.191948,-1.055238,0.7677586,-1.8410602,0.29757392,-0.10133292,0.11609681,1.2411181,-0.4361847
0.0,0.1,1.2999999999999998,-0.5235987755982988,0.5235987755982988,0,0.07635481,-0.5637322,0.47356465,0.071914636,0.06433579,1.1846107,-0.22354753,0.7742109,-1.8328302,0.2888193,-0.09371532,0.028641082,1.1902326,0.58214796
0.0,0.1,1.2999999999999998,-0.5235987755982988,0.5235987755982988,0,0.07612601,-0.5635678,0.47284973,0.08573891,0.07275524,1.1787772,-1.3565923,0.7728862,-1.838327,0.29781863,-0.08460497,0.23689753,1.2084935,0.5184509
0.0,0.1,1.2999999999999998,-0.5235987755982988,0.5235987755982988,0,0.07662341,-0.5635036,0.47182584,0.10478822,0.026044553,1.2461252,-1.4191233,0.77246827,-1.8456811,0.30364537,-0.09740813,0.1288632,1.2077891,0.23950149
0.0,0.1,1.2999999999999998,-0.5235987755982988,0.5235987755982988,0,0.07644191,-0.5631339,0.47236034,0.09224279,0.046117496,1.2223326,0.20535217,0.7742929,-1.8450503,0.30098608,-0.09465909,0.098462395,1.2087135,0.70895565
0.0,0.1,1.2999999999999998,-0.5235987755982988,0.5235987755982988,0,0.07643149,-0.56356645,0.47199586,0.09237875,0.04762217,1.154301,0.95320106,0.77335894,-1.83812,0.29449946,-0.089354746,-0.1223153,1.2243625,0.3382185
0.0,0.1,1.2999999999999998,-0.5235987755982988,0.5235987755982988,0,0.07636483,-0.5632545,0.47420868,0.08732413,0.14599714,1.1931792,-1.4660951,0.77301174,-1.8445557,0.29778787,-0.09780273,0.16464682,1.1709806,0.28222376
0.0,0.1,1.2999999999999998,-0.5235987755982988,0.5235987755982988,0,0.0763454,-0.56341696,0.47367153,0.09274252,0.05642486,1.1768055,0.9956048,0.77436155,-1.837186,0.29897782,-0.07610378,0.27450246,1.2449368,0.54184073
0.0,0.1,1.2999999999999998,-0.5235987755982988,0.5235987755982988,0,0.07653919,-0.56293833,0.4732716,0.09210176,0.08964237,1.1680734,-0.9814574,0.7705141,-1.8481817,0.2904087,-0.08031692,0.026473265,1.2118143,0.4115321
0.0,0.1,1.2999999999999998,-0.5235987755982988,0.5235987755982988,0,0.07602448,-0.56302905,0.47304782,0.09985876,0.07012008,1.2727582,-0.904102,0.7727539,-1.8431367,0.29846743,-0.097222686,0.13130367,1.2380888,0.7208864
0.0,0.1,1.2999999999999998,-0.5235987755982988,0.5235987755982988,0,0.076916344,-0.5633108,0.47153652,0.086376496,0.05095936,1.2296565,-0.8556103,0.7754436,-1.836022,0.30267423,-0.093363635,0.02381434,1.2340741,0.4313463
0.0,0.1,1.2999999999999998,-0.5235987755982988,0.5235987755982988,0,0.07638305,-0.56332177,0.47242722,0.08715403,0.04742139,1.2722565,-1.7826552,0.7712908,-1.8435326,0.29611042,-0.09914122,0.013039989,1.189978,0.6268564
0.0,0.1,1.2999999999999998,-0.5235987755982988,0.5235987755982988,0,0.07732567,-0.56352234,0.4728604,0.09025567,-0.007873996,1.1549186,0.12895449,0.7713725,-1.8423451,0.30329996,-0.09854087,0.21933252,1.2375635,2.183024
0.0,0.1,1.2999999999999998,-0.5235987755982988,0.5235987755982988,0,0.076518476,-0.56339985,0.4729356,0.08460454,0.031611215,1.2489951,0.9183917,0.77147263,-1.8427007,0.29838604,-0.0896223,0.13548297,1.2596723,0.7655132
0.0,0.1,1.2999999999999998,-0.5235987755982988,0.5235987755982988,0,0.0767569,-0.56367695,0.4741686,0.08912679,0.1575675,1.1656121,-1.2033767,0.7718546,-1.8513445,0.29989734,-0.082268834,-0.15020241,1.186122,0.8086979
0.0,0.1,1.2999999999999998,-0.5235987755982988,0.5235987755982988,0,0.07695603,-0.5631718,0.4734369,0.08831452,0.08967431,1.2799397,-0.072167374,0.7687219,-1.8396842,0.3016293,-0.087367795,0.19412008,1.2162268,0.94949514
0.0,0.1,1.2999999999999998,-0.5235987755982988,0.5235987755982988,0,0.076425046,-0.56343293,0.47340006,0.07747088,0.059320938,1.1720262,1.1223567,0.77361584,-1.82935,0.2971601,-0.077313535,0.014725244,1.2264795,0.80177134
0.0,0.1,1.2999999999999998,-0.5235987755982988,0.5235987755982988,0,0.07676196,-0.5634749,0.47247893,0.08645613,0.12505981,1.1807169,0.6342533,0.77282196,-1.8393852,0.30012503,-0.08565698,-0.003441875,1.2875909,0.684029
0.0,0.1,1.2999999999999998,-0.5235987755982988,0.5235987755982988,0,0.07655404,-0.5633443,0.4731759,0.08821071,0.09269677,1.2876008,-0.10243581,0.7719379,-1.8517221,0.29389098,-0.090927884,0.102498285,1.2002903,0.34799546
0.0,0.1,1.2999999999999998,-0.5235987755982988,0.5235987755982988,0,0.076274894,-0.5634473,0.4727134,0.085656196,0.07139449,1.1997566,0.022165673,0.7708366,-1.8335317,0.29025528,-0.07820762,-0.20877387,1.2865973,0.46529007
0.0,0.1,1.2999999999999998,-0.5235987755982988,0.5235987755982988,0,0.07749252,-0.56315595,0.47138402,0.08363041,0.08531587,1.2328849,-0.6958149,0.77122444,-1.8425766,0.3055065,-0.10161598,0.11651065,1.2543454,0.7859315
0.0,0.1,1.2999999999999998,-0.5235987755982988,0.5235987755982988,0,0.07691879,-0.5630377,0.47188908,0.099392176,0.08814637,1.2020911,-1.0120101,0.775407,-1.8433617,0.29938456,-0.09357729,-0.05734265,1.1919752,0.8827317
0.0,0.1,1.2999999999999998,-0.5235987755982988,0.5235987755982988,0,0.07682824,-0.5631304,0.47275466,0.095387064,0.09989228,1.1966785,-0.8963835,0.77284133,-1.843562,0.29176766,-0.088558786,0.21977507,1.2523681,1.0027755
0.0,0.1,1.2999999999999998,-0.5235987755982988,0.5235987755982988,0,0.07659597,-0.5630741,0.4714939,0.09222222,0.09244665,1.2293733,0.03148287,0.77066714,-1.8409822,0.28974316,-0.08831785,0.23963179,1.1886896,0.47584552
0.0,0.1,1.2999999999999998,-0.5235987755982988,0.5235987755982988,0,0.07552842,-0.5631265,0.47339964,0.09545149,0.10446698,1.1343294,-0.06594107,0.7728376,-1.8370355,0.29898405,-0.08159837,0.15637806,1.2735766,0.36503097
0.0,0.1,1.2999999999999998,-0.5235987755982988,0.5235987755982988,0,0.076954,-0.5629903,0.47284302,0.095536396,0.074984536,1.1447334,-0.91374373,0.77484435,-1.8373518,0.29910198,-0.07665806,0.12940353,1.2175603,0.3446375
0.0,0.1,1.2999999999999998,-0.5235987755982988,0.5235987755982988,0,0.07603521,-0.56340045,0.47188464,0.076083176,0.001064433,1.1714653,-1.3620039,0.77308154,-1.840521,0.29200247,-0.09389175,-0.08921248,1.2419713,0.82706326
0.0,0.1,1.2999999999999998,-0.5235987755982988,0.5235987755982988,0,0.07589197,-0.5631351,0.47389424,0.075297356,0.07154751,1.2712339,-0.9428435,0.7710128,-1.8483024,0.29041764,-0.07989621,0.05429977,1.2771165,1.010794
0.0,0.1,1.2999999999999998,-0.5235987755982988,0.5235987755982988,0,0.07663522,-0.5634874,0.47112626,0.08606384,0.07371401,1.2717159,-0.4338982,0.7746565,-1.841875,0.30093384,-0.08907991,0.026588269,1.2056444,0.796561
0.0,0.1,1.2999999999999998,-0.5235987755982988,0.5235987755982988,0,0.07564022,-0.5631028,0.47330835,0.074794084,0.12759645,1.1933066,-0.71321326,0.77186084,-1.8386313,0.29512593,-0.08606751,0.15853849,1.2381138,0.44474545
0.0,0.1,1.2999999999999998,-0.5235987755982988,0.5235987755982988,0,0.07662153,-0.563252,0.4724764,0.08995694,0.10033417,1.255415,-0.036993943,0.7717508,-1.841379,0.29483327,-0.09560343,0.0037383838,1.2400353,0.4285234
0.0,0.1,1.2999999999999998,-0.5235987755982988,0.5235987755982988,0,0.07650635,-0.563149,0.4725716,0.09026299,0.11266009,1.2401317,0.3538062,0.77122766,-1.8448071,0.29178882,-0.07896041,0.18758419,1.228366,0.88735455
0.0,0.1,1.2999999999999998,-0.5235987755982988,0.5235987755982988,0,0.076576784,-0.56281865,0.4725012,0.09290299,-0.0054011075,1.2095658,-0.55665225,0.7704806,-1.8291045,0.29861477,-0.09284153,0.10183593,1.2070543,0.45414716
0.0,0.1,1.2999999999999998,-0.5235987755982988,0.5235987755982988,0,0.076454565,-0.5632087,0.47222435,0.09983022,0.06461742,1.2015193,-0.15686888,0.77412844,-1.8410292,0.30492508,-0.09936283,-0.11353396,1.1826447,-0.32511905
0.0,0.1,1.2999999999999998,-0.5235987755982988,0.5235987755982988,0,0.07615659,-0.5632125,0.47228673,0.088870704,0.024762012,1.1797347,-0.8206987,0.77289957,-1.8431877,0.30198345,-0.084494844,-0.052606825,1.2360531,0.90517336
0.0,0.1,1.2999999999999998,-0.5235987755982988,0.5235987755982988,0,0.07612861,-0.563446,0.47265762,0.08765044,0.04780337,1.2739367,-2.1769555,0.7716277,-1.8410156,0.29582077,-0.085193686,0.20784865,1.2102327,0.6438659
0.0,0.1,1.2999999999999998,-0.5235987755982988,0.5235987755982988,0,0.07628903,-0.563441,0.47197905,0.09151993,0.019195633,1.1979536,-0.6346728,0.7723859,-1.8422036,0.29813233,-0.10097276,0.05462869,1.2473202,-0.04577291
0.0,0.1,1.2999999999999998,-0.5235987755982988,0.5235987755982988,0,0.07651634,-0.56318665,0.4724652,0.08359323,0.07711183,1.2103643,-0.7567794,0.7731785,-1.8458961,0.30262867,-0.090029545,-0.070837654,1.2452022,0.14056197
0.0,0.1,1.2999999999999998,-0.5235987755982988,0.5235987755982988,0,0.07600567,-0.56321204,0.47247767,0.08994385,-0.0032969066,1.2189909,1.0120622,0.7730412,-1.8422781,0.29357973,-0.09807991,0.0681207,1.2461653,-0.11369552
0.0,0.1,1.2999999999999998,-0.5235987755982988,0.5235987755982988,0,0.07583224,-0.5634445,0.4720902,0.090022884,0.09253933,1.2067897,-1.425085,0.7744374,-1.8422366,0.30716074,-0.09016209,0.015170674,1.2613273,0.54062843
0.0,0.1,1.2999999999999998,-0.5235987755982988,0.5235987755982988,0,0.07600445,-0.5631978,0.4730386,0.10206942,0.064675435,1.1436999,-0.2655326,0.77472836,-1.8423887,0.29804367,-0.076425284,-0.03749244,1.2374426,0.46895012
0.0,0.1,1.2999999999999998,-0.5235987755982988,0.5235987755982988,0,0.07556524,-0.5634965,0.47198203,0.09041926,0.08214816,1.3224691,1.7266533,0.77423215,-1.840992,0.30627936,-0.08313648,0.016175423,1.2180507,0.35374722
0.0,0.1,1.2999999999999998,-0.5235987755982988,0.5235987755982988,0,0.07624408,-0.5632664,0.470684,0.083831675,0.042779796,1.0846857,0.23094068,0.77418816,-1.8433532,0.29731742,-0.07603074,0.034542836,1.2146269,0.5286922
0.0,0.1,1.2999999999999998,-0.5235987755982988,0.5235987755982988,0,0.07662945,-0.563236,0.47240466,0.07760725,0.048792206,1.2412695,0.7335787,0.77461034,-1.8393368,0.28805593,-0.08351368,0.009164493,1.2167423,0.21812448
0.0,0.1,1.2999999999999998,-0.5235987755982988,0.5235987755982988,0,0.076968454,-0.5627516,0.4725951,0.081402175,0.087262966,1.3311173,-0.29847348,0.7710407,-1.8428675,0.2951346,-0.092637084,-0.05408013,1.2173302,0.03272178
0.0,0.1,1.2999999999999998,-0.5235987755982988,0.5235987755982988,0,0.0760983,-0.5633224,0.471448,0.09725122,0.053944923,1.1462443,-0.74536145,0.77457905,-1.8385906,0.29608124,-0.085682556,-0.009480277,1.2046959,0.3297261
0.0,0.1,1.2999999999999998,-0.5235987755982988,0.5235987755982988,0,0.07580975,-0.56312454,0.47354773,0.076717675,0.04412469,1.2220213,0.5535041,0.77354014,-1.8436685,0.29324815,-0.08691336,0.03155981,1.2322369,0.8629687
0.0,0.1,1.2999999999999998,-0.5235987755982988,0.5235987755982988,0,0.0769225,-0.56308204,0.47260743,0.09757641,0.07026805,1.2168219,-1.3324496,0.77080345,-1.8422732,0.30467325,-0.09343482,-0.08784692,1.2415016,0.49305618
0.0,0.1,1.2999999999999998,-0.5235987755982988,0.5235987755982988,0,0.07599872,-0.5631167,0.47370344,0.09029893,0.03783989,1.240728,-0.057759035,0.7722952,-1.8475814,0.30760506,-0.09410389,0.104768336,1.2277287,0.51044667
0.0,0.1,1.2999999999999998,-0.5235987755982988,0.5235987755982988,0,0.076189205,-0.5635963,0.47203636,0.08016534,0.08996593,1.2816764,-0.20334503,0.7700074,-1.8384062,0.29704496,-0.07908906,0.057095487,1.2234838,1.0076904
0.0,0.1,1.2999999999999998,-0.5235987755982988,0.5235987755982988,0,0.07677909,-0.56325316,0.4710239,0.0880865,0.06102422,1.2729361,0.28179082,0.7707567,-1.8425246,0.30665946,-0.09765109,0.09683145,1.2648259,0.47801417
0.0,0.1,1.2999999999999998,-0.5235987755982988,0.5235987755982988,0,0.07731186,-0.56286997,0.47151208,0.08951442,0.11398429,1.2476665,-1.6464629,0.7691262,-1.8432164,0.29538953,-0.083550006,-0.07249142,1.2242438,-0.073116675
0.0,0.1,1.2999999999999998,-0.5235987755982988,0.5235987755982988,0,0.07672101,-0.5631507,0.4715493,0.084270954,0.068739355,1.2025639,-0.79352516,0.7732083,-1.8351003,0.29561195,-0.07886094,0.02205233,1.2018821,0.29007065
0.0,0.1,1.2999999999999998,-0.5235987755982988,0.5235987755982988,0,0.076730266,-0.56314135,0.4717142,0.0770876,0.063629135,1.26782,-1.0982316,0.7725967,-1.8453991,0.29954436,-0.07762858,0.01878899,1.2821221,0.21278082
0.0,0.1,1.2999999999999998,-0.5235987755982988,0.5235987755982988,0,0.075838,-0.56382376,0.4742853,0.078817666,0.023947177,1.2129258,-0.64564824,0.77015585,-1.8470834,0.3018449,-0.10536325,0.06395079,1.1616151,0.5565908
0.0,0.1,1.2999999999999998,-0.5235987755982988,0.5235987755982988,0,0.0763836,-0.5637575,0.47280034,0.09918338,0.08997489,1.1813934,-0.79446054,0.76977795,-1.841411,0.29629725,-0.08270999,0.17219748,1.2263455,0.5219593
0.0,0.1,1.2999999999999998,-0.5235987755982988,0.5235987755982988,0,0.07644823,-0.56349266,0.47261637,0.10131573,-0.0070878323,1.1398622,0.42146322,0.771304,-1.8436224,0.308359,-0.09447082,-0.14160629,1.2532746,0.6949711
0.0,0.1,1.2999999999999998,-0.5235987755982988,0.5235987755982988,0,0.0770116,-0.5631298,0.47284052,0.09252562,0.015312016,1.2364924,-0.43222377,0.77294105,-1.8272059,0.29816473,-0.09271861,0.12801965,1.1962801,0.65513307
0.0,0.1,1.2999999999999998,-0.5235987755982988,0.5235987755982988,0,0.07645822,-0.5633717,0.4719975,0.09184414,0.0967637,1.159831,-0.36320356,0.7723599,-1.8414637,0.29673585,-0.0806302,0.2397626,1.2103779,0.78643316
0.0,0.1,1.2999999999999998,-0.5235987755982988,0.5235987755982988,0,0.07636724,-0.5629241,0.47257665,0.09070415,0.09109822,1.2310625,-1.3328906,0.7706187,-1.8549736,0.29982692,-0.084096916,0.10498892,1.2380958,1.0457004
0.0,0.1,1.2999999999999998,-0.5235987755982988,0.5235987755982988,0,0.07632768,-0.56367224,0.47313485,0.09581718,0.048769712,1.1623763,0.1919749,0.77245384,-1.8428352,0.2976919,-0.08815861,0.10462157,1.2341655,0.3811604
0.0,0.1,1.2999999999999998,-0.5235987755982988,0.5235987755982988,0,0.07621189,-0.5635576,0.47310534,0.09090144,0.019985441,1.207072,-1.5519439,0.77088904,-1.840544,0.2915021,-0.10079361,0.09977445,1.2579628,0.23800145
0.0,0.1,1.2999999999999998,-0.5235987755982988,0.5235987755982988,0,0.076301865,-0.5631395,0.47413614,0.07018754,-0.030786777,1.2308545,-0.015545567,0.76911664,-1.8385272,0.2993087,-0.08041832,0.001981471,1.1950918,-0.36105627
0.0,0.1,1.2999999999999998,-0.5235987755982988,0.5235987755982988,0,0.07686518,-0.56335354,0.4723921,0.08246557,0.049026314,1.3143336,-1.0284796,0.77409726,-1.8343421,0.29009777,-0.09453184,0.12935668,1.2446905,0.33111033
0.0,0.1,1.2999999999999998,-0.5235987755982988,0.5235987755982988,0,0.07721836,-0.5630525,0.4728073,0.0814296,0.05432452,1.2655046,-0.46972102,0.7747639,-1.8385189,0.29581442,-0.09004971,0.022800084,1.2414228,-0.0010609842
0.0,0.1,1.2999999999999998,-0.5235987755982988,0.5235987755982988,0,0.07698482,-0.5629253,0.47242397,0.0887512,-0.02395911,1.154899,0.031194441,0.7768968,-1.8425283,0.30006227,-0.09832768,-0.094550885,1.1758702,0.6284912
0.0,0.1,1.2999999999999998,-0.5235987755982988,0.5235987755982988,0,0.076560795,-0.5632114,0.4732424,0.09329872,0.025458382,1.2312664,0.67897904,0.77081597,-1.8363782,0.3056113,-0.09986191,-0.05410266,1.2248887,-0.1967822
0.0,0.1,1.2999999999999998,-0.5235987755982988,0.5235987755982988,0,0.07636353,-0.56320965,0.47517765,0.08511062,-0.002824491,1.2671624,0.34976342,0.768978,-1.8400247,0.30004296,-0.10520365,0.119028516,1.153446,-0.49880835
0.0,0.1,1.2999999999999998,-0.5235987755982988,0.5235987755982988,0,0.07701349,-0.5633704,0.47181964,0.08649483,-0.023573855,1.1888366,-1.776097,0.7745673,-1.8438559,0.2926667,-0.09398966,0.022124015,1.3188753,0.6047029
0.0,0.1,1.2999999999999998,-0.5235987755982988,0.5235987755982988,0,0.07616474,-0.5629729,0.47421384,0.0953377,0.035241645,1.2128149,0.038750652,0.7757927,-1.8411196,0.2905255,-0.11230208,0.1460264,1.2306353,0.8973877
0.0,0.1,1.2999999999999998,-0.5235987755982988,0.5235987755982988,0,0.0768452,-0.56354547,0.47290224,0.08596158,0.032592773,1.2880371,0.43945113,0.7717263,-1.8410451,0.30099115,-0.08905983,0.3217796,1.2349186,0.44755176
0.0,0.1,1.2999999999999998,-0.5235987755982988,0.5235987755982988,0,0.076452106,-0.5631193,0.47525775,0.09627703,0.0149121545,1.2454479,-0.5973172,0.7708442,-1.8334645,0.29984313,-0.09189713,-0.0051503666,1.2373486,0.6386283
0.0,0.1,1.2999999999999998,-0.5235987755982988,0.5235987755982988,0,0.0768596,-0.5632968,0.47199327,0.09936137,0.08567133,1.2457011,0.11652619,0.7707248,-1.8284628,0.29765642,-0.09931844,-0.14759998,1.2465079,0.28082123
0.0,0.1,1.2999999999999998,-0.5235987755982988,0.5235987755982988,0,0.0766461,-0.56393445,0.47021067,0.08702561,0.07337103,1.2414008,-0.13523123,0.7698658,-1.839346,0.29679823,-0.09047695,0.064263076,1.2527844,0.25582632
0.0,0.1,1.2999999999999998,-0.5235987755982988,0.5235987755982988,0,0.07665875,-0.56321615,0.47326574,0.10604648,0.02396898,1.1700566,-0.19402577,0.77205944,-1.8339093,0.30464134,-0.11001743,0.16595317,1.2022666,-0.31102473
0.0,0.1,1.2999999999999998,-0.5235987755982988,0.5235987755982988,0,0.07675286,-0.56322193,0.47228646,0.0983969,0.052242815,1.2105674,0.46025446,0.7734483,-1.8444505,0.31267342,-0.08677591,0.112109266,1.223034,0.033793386
0.0,0.1,1.2999999999999998,-0.5235987755982988,0.5235987755982988,0,0.07677725,-0.5635453,0.4725036,0.08160708,0.11010163,1.1562549,-1.4637913,0.7730648,-1.8452554,0.3080997,-0.07706224,0.068489395,1.2482146,0.36579332
0.0,0.1,1.2999999999999998,-0.5235987755982988,0.5235987755982988,0,0.077219225,-0.56308687,0.47311097,0.09472225,0.039718814,1.3183768,-0.11916007,0.7723918,-1.8335141,0.29965693,-0.10250671,0.1024337,1.2049475,0.013606023
0.0,0.1,1.2999999999999998,-0.5235987755982988,0.5235987755982988,0,0.07715519,-0.5633318,0.4726601,0.08558702,0.078913145,1.2330425,-1.0612651,0.7700633,-1.8399466,0.2940806,-0.08706886,0.04054407,1.2056012,0.81965375
0.0,0.1,1.2999999999999998,-0.5235987755982988,0.5235987755982988,0,0.07676026,-0.5633264,0.47245926,0.08735238,0.03848426,1.1574478,-0.7943946,0.77303773,-1.8332311,0.30338585,-0.09246263,0.0043106982,1.2019892,0.6245141
0.0,0.1,1.2999999999999998,-0.5235987755982988,0.5235987755982988,0,0.07617527,-0.5635445,0.47325566,0.0845303,0.086683616,1.1855403,-0.36323252,0.7763912,-1.8352689,0.297136,-0.09106951,-0.07911158,1.173877,0.82709026
0.0,0.1,1.2999999999999998,-0.5235987755982988,0.5235987755982988,0,0.07651005,-0.5632806,0.47311196,0.065025486,0.11403072,1.2409779,1.1798484,0.773766,-1.8403476,0.3085299,-0.08715813,0.13097177,1.2568895,0.5504397
0.0,0.1,1.2999999999999998,-0.5235987755982988,0.5235987755982988,0,0.07690507,-0.5632362,0.47397953,0.0855771,0.06935132,1.2537732,-0.9852605,0.7704635,-1.8362164,0.3001414,-0.092360586,-0.052952733,1.155401,0.2627873
0.0,0.1,1.2999999999999998,-0.5235987755982988,0.5235987755982988,0,0.076878116,-0.56307495,0.4738556,0.07558499,0.08612821,1.1745303,-0.9654802,0.76962245,-1.8336593,0.29552743,-0.099566184,-0.0067093535,1.2177113,0.42021695
0.0,0.1,1.2999999999999998,-0.5235987755982988,0.5235987755982988,0,0.07681072,-0.5636067,0.47206828,0.100699015,0.093142234,1.1848614,-0.4067576,0.77281255,-1.8325071,0.29766384,-0.08039631,0.28411168,1.1973416,0.47631213
0.0,0.1,1.2999999999999998,-0.5235987755982988,0.5235987755982988,0,0.077143505,-0.56332105,0.47284463,0.080601975,0.10508165,1.2799673,-0.92146045,0.77249724,-1.8486456,0.29812744,-0.09322935,-0.094390176,1.2315335,0.7721872
0.0,0.1,1.2999999999999998,-0.5235987755982988,0.5235987755982988,0,0.076177485,-0.5635739,0.47293785,0.08060822,0.09838463,1.2082546,-0.10767376,0.77503705,-1.8385063,0.3100686,-0.084059305,-0.024204692,1.2482841,0.56630635
0.0,0.1,1.2999999999999998,-0.5235987755982988,0.5235987755982988,0,0.07739108,-0.5632577,0.47294942,0.07882806,-0.025367934,1.2989131,-0.23906752,0.7724487,-1.8572648,0.30034962,-0.09493052,-0.062163435,1.1935562,0.23094559
0.0,0.1,1.2999999999999998,-0.5235987755982988,0.5235987755982988,0,0.07632197,-0.56347317,0.4723482,0.09223126,0.019990101,1.141055,-1.2279925,0.77324045,-1.8457123,0.30718547,-0.10467901,-0.032346833,1.2462684,0.37041804
0.0,0.1,1.2999999999999998,-0.5235987755982988,0.5235987755982988,0,0.07641054,-0.563286,0.47295466,0.093852706,0.07883633,1.1788113,-0.074907206,0.76941437,-1.840343,0.3043627,-0.08425073,0.08029902,1.2155186,0.59092575
0.0,0.1,1.2999999999999998,-0.5235987755982988,0.5235987755982988,0,0.07757644,-0.56359017,0.47287092,0.091838196,0.07880493,1.281869,-0.37644154,0.7719689,-1.8450997,0.30278027,-0.09548811,0.25422817,1.199586,-0.0930981
0.0,0.1,1.2999999999999998,-0.5235987755982988,0.5235987755982988,0,0.07692786,-0.563253,0.47209197,0.09582297,0.04623903,1.1930486,0.00581367,0.77397066,-1.8358144,0.30273545,-0.097435184,0.014976814,1.2528462,-0.032473106
0.0,0.1,1.2999999999999998,-0.5235987755982988,0.5235987755982988,0,0.07663707,-0.56349933,0.47234532,0.08815316,0.14168148,1.146712,0.32381567,0.77417505,-1.8431045,0.30342934,-0.083953775,0.11748203,1.223837,0.6684159
0.0,0.1,1.2999999999999998,-0.5235987755982988,0.5235987755982988,0,0.07677784,-0.56330955,0.4728672,0.106135644,0.013100717,1.1612791,-0.7167101,0.7732756,-1.8339684,0.3049627,-0.07919157,-0.030345054,1.2320718,0.5045657
0.0,0.1,1.2999999999999998,-0.5235987755982988,0.5235987755982988,0,0.076251276,-0.56363237,0.47392297,0.089096576,-0.064799875,1.1238587,0.21571344,0.7716887,-1.8415267,0.30041614,-0.085737154,0.21631064,1.2217551,0.5467459
0.0,0.1,1.2999999999999998,-0.5235987755982988,0.5235987755982988,0,0.07606126,-0.5637817,0.4735269,0.09401212,0.03445093,1.2284397,1.1229603,0.77229476,-1.8310723,0.29233226,-0.10164393,0.22052315,1.2299469,0.4127303
0.0,0.1,1.2999999999999998,-0.5235987755982988,0.5235987755982988,0,0.07727094,-0.5634345,0.47443298,0.09838277,-0.02181435,1.2262962,0.6394192,0.77254903,-1.8343868,0.2969653,-0.09711043,0.07812775,1.2337323,-0.3555345
0.0,0.1,1.2999999999999998,-0.5235987755982988,0.5235987755982988,0,0.07713562,-0.5631671,0.47210294,0.109498166,0.0053490703,1.2421582,0.22852512,0.772011,-1.8437798,0.3016355,-0.08965177,0.15947571,1.2097322,-0.17969309
0.0,0.1,1.2999999999999998,-0.5235987755982988,0.5235987755982988,0,0.077533536,-0.56328154,0.47352818,0.06784913,0.023617862,1.1251762,-0.37044927,0.77318615,-1.844231,0.2972787,-0.095645405,-0.10973137,1.2252672,0.40787405
0.0,0.1,1.2999999999999998,-0.5235987755982988,0.5235987755982988,0,0.076275334,-0.5633405,0.4739203,0.08931086,0.019875897,1.2739854,0.47570866,0.77429473,-1.8382123,0.29826707,-0.083969206,0.046628848,1.2468035,0.4374887
0.0,0.1,1.2999999999999998,-0.5235987755982988,0.5235987755982988,0,0.07707109,-0.56366986,0.4724133,0.08920564,0.10670718,1.1573141,0.06413902,0.7721747,-1.8452355,0.2961121,-0.081494905,0.122729816,1.1901745,0.8594758
0.0,0.1,1.2999999999999998,-0.5235987755982988,0.5235987755982988,0,0.07633154,-0.5637549,0.47247097,0.08087683,0.0010332545,1.311263,-0.5853182,0.77156806,-1.8363029,0.29372817,-0.08348011,-0.027035078,1.2169784,0.5167377
0.0,0.1,1.2999999999999998,-0.5235987755982988,0.5235987755982988,0,0.07723943,-0.5635177,0.47384977,0.078979425,0.1004323,1.2422899,-0.30935898,0.7724808,-1.8341261,0.29505005,-0.08247903,0.036040146,1.2651609,0.34975466
0.0,0.1,1.2999999999999998,-0.5235987755982988,0.5235987755982988,0,0.07593102,-0.56367296,0.47278288,0.091291614,0.055219702,1.1722484,-0.4217033,0.7714646,-1.8333532,0.30392855,-0.09316657,0.096987456,1.2328322,0.19316609
0.0,0.1,1.2999999999999998,-0.5235987755982988,0.5235987755982988,0,0.07639002,-0.5635067,0.47473,0.09735328,0.065514624,1.249673,-0.033084676,0.7707987,-1.8397892,0.30631852,-0.09876727,0.15096155,1.1658967,0.39166224
0.0,0.1,1.2999999999999998,-0.5235987755982988,0.5235987755982988,0,0.07719603,-0.563532,0.4728163,0.096790016,0.034029216,1.2023212,-0.555484,0.77523834,-1.8346537,0.30454063,-0.11323121,0.14413287,1.2552832,0.8980772
0.0,0.1,1.2999999999999998,-0.5235987755982988,0.5235987755982988,0,0.076972015,-0.56320727,0.4734505,0.088625215,0.0332394,1.2168446,1.0224049,0.7751349,-1.8350433,0.29678467,-0.07982216,0.165279,1.1791606,0.30357903
0.0,0.1,1.2999999999999998,-0.5235987755982988,0.5235987755982988,0,0.07671628,-0.56345594,0.4730522,0.095285386,0.043910604,1.128951,-0.28797838,0.77172226,-1.8393686,0.29063487,-0.095133185,0.053442657,1.2125437,0.15397775
0.0,0.1,1.2999999999999998,-0.5235987755982988,0.5235987755982988,0,0.07696528,-0.56351775,0.47412816,0.108927384,0.018236231,1.1977842,-1.1184908,0.7726189,-1.8394011,0.2980179,-0.098241776,0.1711094,1.2178594,0.5935051
0.0,0.1,1.2999999999999998,-0.5235987755982988,0.5235987755982988,0,0.07697331,-0.5632852,0.47342306,0.08207807,0.111861415,1.14606,-1.3562306,0.7727491,-1.835466,0.29680213,-0.10489702,-0.03201853,1.2577425,0.40528804
0.0,0.1,1.2999999999999998,-0.5235987755982988,0.5235987755982988,0,0.07670706,-0.56324905,0.47331902,0.09691521,0.013402484,1.2556362,-1.0459242,0.77102184,-1.8423715,0.30575848,-0.08523271,0.2433754,1.1745535,-0.1407624
0.0,0.1,1.2999999999999998,-0.5235987755982988,0.5235987755982988,0,0.0760559,-0.56338125,0.47292674,0.097543396,0.11679533,1.2450813,0.23604019,0.77110875,-1.8321193,0.2884377,-0.07987902,0.16149463,1.2322469,0.5126355
0.0,0.1,1.2999999999999998,-0.5235987755982988,0.5235987755982988,0,0.077196464,-0.5631535,0.47238106,0.09256907,0.02590399,1.2206099,-1.0872102,0.7737081,-1.8365614,0.29521185,-0.09002629,0.14464985,1.2349199,0.511716
0.0,0.1,1.2999999999999998,-0.5235987755982988,0.5235987755982988,0,0.07689704,-0.56329846,0.47188565,0.09532607,0.08089745,1.2439554,-0.15901214,0.77486765,-1.8439026,0.29442275,-0.08667734,0.30552676,1.2276279,0.30738863
0.0,0.1,1.2999999999999998,-0.5235987755982988,0.5235987755982988,0,0.07719758,-0.56329554,0.47223896,0.09054796,-0.051457595,1.2143943,-0.63669074,0.77335465,-1.8443301,0.30005425,-0.0961154,0.107506566,1.2318003,0.28170514
0.0,0.1,1.2999999999999998,-0.5235987755982988,0.5235987755982988,0,0.076526836,-0.5635812,0.4727293,0.07543994,0.08934972,1.1801158,-0.048412602,0.771288,-1.8341011,0.28876004,-0.08611235,-0.05738319,1.2383964,0.0010248264
0.0,0.1,1.2999999999999998,-0.5235987755982988,0.5235987755982988,0,0.076538526,-0.5637918,0.47292802,0.0849114,0.040855657,1.293895,-0.28551334,0.7760131,-1.8392953,0.2975728,-0.10064167,0.075032584,1.2343285,-0.1363528
0.0,0.1,1.2999999999999998,-0.5235987755982988,0.5235987755982988,0,0.07701764,-0.5641451,0.4709218,0.08716974,0.08665585,1.2552423,-1.0753546,0.7725637,-1.8413416,0.29491442,-0.080510184,-0.05351525,1.2449231,-0.23095837
0.0,0.1,1.2999999999999998,-0.5235987755982988,0.5235987755982988,0,0.07740305,-0.56345195,0.47216165,0.080977686,0.11180068,1.1790433,0.6000184,0.77303946,-1.8415421,0.31143826,-0.09765285,0.04603146,1.212415,-0.18507336
0.0,0.1,1.2999999999999998,-0.5235987755982988,0.5235987755982988,0,0.076579034,-0.56365716,0.47318614,0.093160085,0.09024287,1.2512106,-0.21484074,0.773079,-1.8332044,0.29163113,-0.089127555,0.31400654,1.2370791,0.3558756
0.0,0.1,1.2999999999999998,-0.5235987755982988,0.5235987755982988,0,0.07755931,-0.56302494,0.47279328,0.08106441,0.04712154,1.27913,-0.60890985,0.77433306,-1.841143,0.3148476,-0.09487321,-0.035687428,1.1627162,0.8896834
0.0,0.1,1.2999999999999998,-0.5235987755982988,0.5235987755982988,0,0.07733321,-0.5632686,0.4719818,0.09104087,0.09515709,1.2511927,-1.035662,0.7713174,-1.851555,0.3022907,-0.10168565,0.07717719,1.2988695,-0.010476581
0.0,0.1,1.2999999999999998,-0.5235987755982988,0.5235987755982988,0,0.07695728,-0.5637446,0.47298744,0.079780646,0.06366399,1.2437937,-0.8031715,0.7742247,-1.8452823,0.29588175,-0.10709793,-0.019257661,1.2268457,1.2030566
0.0,0.1,1.2999999999999998,-0.5235987755982988,0.5235987755982988,0,0.07698607,-0.5634505,0.47156093,0.087696195,0.015447485,1.2207705,-0.17418182,0.7701922,-1.8503438,0.2989788,-0.070006564,-0.0081368815,1.201081,0.8769663
0.0,0.1,1.2999999999999998,-0.5235987755982988,0.5235987755982988,0,0.07629888,-0.5634025,0.47258362,0.09171886,0.06688608,1.3434067,-1.5583198,0.77161604,-1.8386984,0.30956286,-0.08007672,0.24264598,1.154218,0.6996562
0.0,0.1,1.2999999999999998,-0.5235987755982988,0.5235987755982988,0,0.076359585,-0.5634368,0.4734042,0.09689609,0.014039283,1.3258114,-1.1561487,0.77659386,-1.8505965,0.30688837,-0.091933005,0.055747896,1.1786693,1.0103163
0.0,0.1,1.2999999999999998,-0.5235987755982988,0.5235987755982988,0,0.07719231,-0.5633674,0.47310555,0.09886181,0.05632417,1.248481,0.1545922,0.7725338,-1.8459034,0.29583117,-0.09610063,0.0414431,1.2578557,0.41287127
0.0,0.1,1.2999999999999998,-0.5235987755982988,0.5235987755982988,0,0.07660356,-0.5632231,0.47308162,0.08397015,0.11246173,1.2321541,-0.43728328,0.7735005,-1.8418605,0.29791692,-0.082204945,0.008556587,1.2484734,0.3130288
0.0,0.1,1.2999999999999998,-0.5235987755982988,0.5235987755982988,0,0.077221476,-0.56326824,0.4720461,0.08871483,0.09046413,1.114176,-0.036276862,0.77239645,-1.8497862,0.29356334,-0.09830533,-0.015212728,1.2699621,0.46084616
0.0,0.1,1.2999999999999998,-0.5235987755982988,0.5235987755982988,0,0.077324666,-0.5633488,0.47156766,0.10175062,0.10264627,1.2116382,-1.1441221,0.77283806,-1.8405812,0.29441333,-0.09697019,0.1183955,1.204223,-0.26462686
0.0,0.1,1.2999999999999998,-0.5235987755982988,0.5235987755982988,0,0.07682568,-0.5634584,0.47255972,0.08776203,-0.060650006,1.1174115,0.49671742,0.7733142,-1.8444949,0.29491514,-0.097786106,-0.008082623,1.183526,0.88831455
0.0,0.1,1.2999999999999998,-0.5235987755982988,0.5235987755982988,0,0.07693391,-0.56336427,0.47278914,0.09537962,0.091614924,1.2339298,-0.14576693,0.76824725,-1.8422152,0.29655445,-0.08964819,-0.008179272,1.2039878,0.5159834
0.0,0.1,1.2999999999999998,-0.5235987755982988,0.5235987755982988,0,0.076426126,-0.56335694,0.47268078,0.09597163,0.050849922,1.2787191,0.0943577,0.76942986,-1.8463783,0.30335802,-0.09484097,0.10794891,1.2644966,0.8377913
0.0,0.1,1.2999999999999998,-0.5235987755982988,0.5235987755982988,0,0.07623888,-0.56348825,0.47257492,0.083776,0.037228722,1.2383332,0.7767851,0.7732795,-1.836628,0.30035594,-0.09834517,0.009759334,1.1952156,-0.021420442
0.0,0.1,1.2999999999999998,-0.5235987755982988,0.5235987755982988,0,0.07611859,-0.5634372,0.473296,0.06481042,0.03387261,1.2051321,-0.44771802,0.77253133,-1.8449711,0.29576042,-0.098473795,-0.003779188,1.2253487,0.8685352
0.0,0.1,1.2999999999999998,-0.5235987755982988,0.5235987755982988,0,0.077271104,-0.5631853,0.47323912,0.08136475,0.15828234,1.2476627,-0.92557657,0.7760237,-1.8399162,0.29429135,-0.09491134,-0.061497405,1.2559649,0.699577
0.0,0.1,1.2999999999999998,-0.5235987755982988,0.5235987755982988,0,0.07667245,-0.5633147,0.47334334,0.082739905,0.05989054,1.1995851,-0.06907689,0.76838475,-1.843927,0.30080557,-0.097666085,-0.005038941,1.2882867,0.10255944
0.0,0.1,1.2999999999999998,-0.5235987755982988,0.5235987755982988,0,0.07603616,-0.56337506,0.4737406,0.1132789,0.15480384,1.2793823,-0.1890841,0.7761524,-1.8436135,0.30670276,-0.10739412,0.14849173,1.2179815,0.49351215
0.0,0.1,1.2999999999999998,-0.5235987755982988,0.5235987755982988,0,0.07617939,-0.5633443,0.47358206,0.07529632,0.087960124,1.1687737,-0.98212296,0.7735488,-1.8447254,0.29979664,-0.09748525,-0.081178404,1.2445942,0.53675944
0.0,0.1,1.2999999999999998,-0.5235987755982988,0.5235987755982988,0,0.076673746,-0.5631306,0.47296798,0.09265789,0.076216504,1.2843697,-0.68231064,0.7715583,-1.8354487,0.30729756,-0.09786061,-0.08074816,1.2852691,0.49948156
0.0,0.1,1.2999999999999998,-0.5235987755982988,0.5235987755982988,0,0.076353185,-0.56329334,0.472851,0.07516136,0.1142457,1.2058958,-1.5083612,0.77561325,-1.8423184,0.29181254,-0.09689379,-0.11189523,1.248624,1.1580247
0.0,0.1,1.2999999999999998,-0.5235987755982988,0.5235987755982988,0,0.07641271,-0.5628491,0.4724497,0.07653186,0.03691868,1.2593584,0.0024601058,0.7727832,-1.8308655,0.29720694,-0.07766139,0.10575249,1.2703518,0.69138277
0.0,0.1,1.2999999999999998,-0.5235987755982988,0.5235987755982988,0,0.076721676,-0.5631291,0.47160888,0.08980927,0.074768536,1.276167,0.2865044,0.77278864,-1.8399687,0.29820827,-0.07697829,0.0012302118,1.1946354,0.992941
0.0,0.1,1.2999999999999998,-0.5235987755982988,0.5235987755982988,0,0.07574046,-0.5633695,0.47213855,0.07340131,0.057071026,1.2150359,-0.23327015,0.7712488,-1.8347744,0.29743713,-0.08953264,0.0009344934,1.2097754,1.2650582
0.0,0.1,1.2999999999999998,-0.5235987755982988,0.5235987755982988,0,0.07676668,-0.56334966,0.4712456,0.09494011,0.053713504,1.2404255,1.3996761,0.77477586,-1.8398827,0.29839495,-0.096545435,0.045981456,1.2881359,0.5395112
0.0,0.1,1.2999999999999998,-0.5235987755982988,0.5235987755982988,0,0.07682433,-0.5633087,0.4727388,0.06763983,0.054765515,1.2663301,-0.37976673,0.7722945,-1.8409498,0.30208102,-0.10619132,0.2242964,1.2449207,-0.48246738
0.0,0.1,1.2999999999999998,-0.5235987755982988,0.5235987755982988,0,0.07595519,-0.5639553,0.4725354,0.064119115,0.09657545,1.1733122,-0.19918406,0.7696849,-1.8359551,0.29606503,-0.09665744,0.06484893,1.2240466,0.6872058
0.0,0.1,1.2999999999999998,-0.5235987755982988,0.5235987755982988,0,0.076245345,-0.56355953,0.47366205,0.077832796,0.111422576,1.255152,0.58427525,0.7709132,-1.8422276,0.2937233,-0.0935354,0.06909144,1.2413536,0.5787616
0.0,0.1,1.2999999999999998,-0.5235987755982988,0.5235987755982988,0,0.07705022,-0.56336004,0.4729723,0.09710356,0.088712215,1.2113875,-1.265206,0.7719692,-1.8502557,0.3084456,-0.09436586,0.065721564,1.2192848,0.7557442
0.0,0.1,1.2999999999999998,-0.5235987755982988,0.5235987755982988,0,0.075749345,-0.5638832,0.47295907,0.07184585,0.076234244,1.2761707,-0.7254752,0.773764,-1.8431835,0.291035,-0.096334144,0.22208391,1.2358271,0.17885932
0.0,0.1,1.2999999999999998,-0.5235987755982988,0.5235987755982988,0,0.07632683,-0.563492,0.47276175,0.08546564,0.09346159,1.1885334,0.7476441,0.7733853,-1.8411503,0.29589882,-0.076448694,0.20684241,1.1998639,0.24387415
0.0,0.1,1.2999999999999998,-0.5235987755982988,0.5235987755982988,0,0.07695106,-0.5631742,0.47286212,0.08645452,0.06926698,1.1922269,-0.99789655,0.77048033,-1.8381764,0.29466447,-0.08427432,-0.030950183,1.2837428,1.4105605
