sanky1234/BimanualDexCatch/isaacgymenvs/cem_results/football_pose_-0.2_-0.2_0.6_-0.5235987755982988_-0.5235987755982988_1.1102230246251565e-16.csv
x,y,z,roll,pitch,yaw,robot1/joint1,robot1/joint2,robot1/joint3,robot1/joint4,robot1/joint5,robot1/joint6,robot1/joint7,robot2/joint1,robot2/joint2,robot2/joint3,robot2/joint4,robot2/joint5,robot2/joint6,robot2/joint7
-0.2,-0.2,0.6,-0.5235987755982988,-0.5235987755982988,1.1102230246251565e-16,1.1705291,1.6705419,0.4443131,0.15074392,0.3888965,0.6947452,0.60972863,-0.53873295,1.584131,-0.115808755,-0.8295925,-0.13537098,1.4024007,1.5383855
-0.2,-0.2,0.6,-0.5235987755982988,-0.5235987755982988,1.1102230246251565e-16,1.1779764,1.6601269,0.406464,0.1551684,0.38886544,0.7215858,0.6220342,-0.5363142,1.573631,-0.13018961,-0.8363267,-0.12988095,1.3562946,1.4131324
-0.2,-0.2,0.6,-0.5235987755982988,-0.5235987755982988,1.1102230246251565e-16,1.1783643,1.6569933,0.40582383,0.18829866,0.36682442,0.70760953,0.6068356,-0.53619105,1.5745249,-0.12042445,-0.85567176,-0.12906988,1.372875,1.5762006
-0.2,-0.2,0.6,-0.5235987755982988,-0.5235987755982988,1.1102230246251565e-16,1.1664636,1.6628816,0.39891297,0.17816308,0.35022527,0.69976413,0.6096862,-0.5427359,1.580594,-0.12933753,-0.8573134,-0.13299757,1.3705549,1.507247
-0.2,-0.2,0.6,-0.5235987755982988,-0.5235987755982988,1.1102230246251565e-16,1.1764857,1.6628203,0.41255313,0.1544655,0.3747068,0.722024,0.6208058,-0.5407342,1.5708408,-0.1246327,-0.82794017,-0.12402357,1.3560827,1.524779
-0.2,-0.2,0.6,-0.5235987755982988,-0.5235987755982988,1.1102230246251565e-16,1.1688687,1.6602755,0.40788764,0.12503117,0.37413037,0.7061996,0.6305841,-0.54533476,1.5684334,-0.13762641,-0.8520427,-0.14421088,1.328583,1.4788934
-0.2,-0.2,0.6,-0.5235987755982988,-0.5235987755982988,1.1102230246251565e-16,1.1585969,1.6689684,0.42745236,0.13151006,0.35576102,0.7096098,0.600854,-0.5357389,1.5760207,-0.104965985,-0.8584064,-0.12789555,1.3890533,1.5861112
-0.2,-0.2,0.6,-0.5235987755982988,-0.5235987755982988,1.1102230246251565e-16,1.1856725,1.6532578,0.4146929,0.13965794,0.39262742,0.71082634,0.62662214,-0.5462225,1.5810529,-0.14303024,-0.81880254,-0.11339873,1.3745005,1.504715
-0.2,-0.2,0.6,-0.5235987755982988,-0.5235987755982988,1.1102230246251565e-16,1.17545,1.6563971,0.38835457,0.1804773,0.4116125,0.71258724,0.63323545,-0.5378853,1.578247,-0.12324469,-0.8217572,-0.12852469,1.3700521,1.5685977
-0.2,-0.2,0.6,-0.5235987755982988,-0.5235987755982988,1.1102230246251565e-16,1.1625075,1.6710072,0.40012723,0.15110156,0.38023883,0.70580506,0.63174444,-0.53624165,1.5781604,-0.109203085,-0.8287122,-0.09942646,1.3586979,1.4588646
-0.2,-0.2,0.6,-0.5235987755982988,-0.5235987755982988,1.1102230246251565e-16,1.1813645,1.6586053,0.4068079,0.15788011,0.36775503,0.7309209,0.5874875,-0.5466877,1.5770334,-0.12734285,-0.8717944,-0.1297588,1.3964995,1.5762165
-0.2,-0.2,0.6,-0.5235987755982988,-0.5235987755982988,1.1102230246251565e-16,1.1565187,1.6439352,0.40196186,0.18487929,0.383649,0.705999,0.61964446,-0.5511126,1.578402,-0.1501068,-0.8873034,-0.1333742,1.3925625,1.4899807
-0.2,-0.2,0.6,-0.5235987755982988,-0.5235987755982988,1.1102230246251565e-16,1.1511476,1.6567291,0.4000409,0.17765033,0.36268303,0.6913838,0.6029206,-0.5346048,1.5783417,-0.13437939,-0.8490836,-0.12587917,1.3467634,1.4330295
-0.2,-0.2,0.6,-0.5235987755982988,-0.5235987755982988,1.1102230246251565e-16,1.1833017,1.6643991,0.38569686,0.1649018,0.36929023,0.71111363,0.63116455,-0.5434419,1.5764714,-0.116697386,-0.86004984,-0.14315853,1.3458421,1.4243283
-0.2,-0.2,0.6,-0.5235987755982988,-0.5235987755982988,1.1102230246251565e-16,1.1525066,1.6594177,0.41311,0.15576375,0.3550928,0.70997137,0.62711173,-0.54007417,1.5834476,-0.13626406,-0.8675572,-0.12463545,1.3780545,1.5577326
-0.2,-0.2,0.6,-0.5235987755982988,-0.5235987755982988,1.1102230246251565e-16,1.1657172,1.6461552,0.40160367,0.1515364,0.38435665,0.69316065,0.68377185,-0.5492443,1.5782026,-0.13973218,-0.82564265,-0.1269292,1.3424907,1.5629929
-0.2,-0.2,0.6,-0.5235987755982988,-0.5235987755982988,1.1102230246251565e-16,1.1461484,1.6656203,0.40855417,0.15683024,0.3805208,0.7176174,0.62226164,-0.5420566,1.5783858,-0.13788539,-0.8706845,-0.13217494,1.3602345,1.6107626
-0.2,-0.2,0.6,-0.5235987755982988,-0.5235987755982988,1.1102230246251565e-16,1.159772,1.6655377,0.39988703,0.18099153,0.36346,0.70303166,0.63440573,-0.547236,1.5762408,-0.123025425,-0.8512042,-0.11273551,1.3633422,1.5578415
-0.2,-0.2,0.6,-0.5235987755982988,-0.5235987755982988,1.1102230246251565e-16,1.1671139,1.6638688,0.40091246,0.14248827,0.36678013,0.6952977,0.6252733,-0.5469379,1.5759896,-0.11434952,-0.8269951,-0.12636667,1.3191041,1.557386
-0.2,-0.2,0.6,-0.5235987755982988,-0.5235987755982988,1.1102230246251565e-16,1.1811439,1.6454484,0.41037282,0.13793159,0.3630006,0.70761716,0.6172647,-0.532734,1.5766239,-0.13009228,-0.84937966,-0.14162108,1.3661984,1.5469728
-0.2,-0.2,0.6,-0.5235987755982988,-0.5235987755982988,1.1102230246251565e-16,1.165914,1.6728772,0.3999252,0.1543284,0.3541835,0.71973014,0.6101906,-0.552122,1.5778364,-0.123114005,-0.866001,-0.12987942,1.3784789,1.6194941
-0.2,-0.2,0.6,-0.5235987755982988,-0.5235987755982988,1.1102230246251565e-16,1.1346346,1.6510129,0.41407338,0.17004183,0.38447407,0.71648955,0.5878721,-0.53716284,1.5745746,-0.12695442,-0.83865565,-0.12748761,1.3689734,1.4326352
-0.2,-0.2,0.6,-0.5235987755982988,-0.5235987755982988,1.1102230246251565e-16,1.1464177,1.6767293,0.39055976,0.1457432,0.39090186,0.7154533,0.6387033,-0.5481199,1.58038,-0.15032576,-0.85341966,-0.13258249,1.2983671,1.5476121
-0.2,-0.2,0.6,-0.5235987755982988,-0.5235987755982988,1.1102230246251565e-16,1.1581539,1.656013,0.390816,0.13317084,0.38217568,0.7247542,0.6179382,-0.5392545,1.5712478,-0.112940125,-0.8038866,-0.11021237,1.3161976,1.5617487
-0.2,-0.2,0.6,-0.5235987755982988,-0.5235987755982988,1.1102230246251565e-16,1.1768268,1.6534226,0.3981755,0.1670927,0.39800662,0.69538146,0.6259335,-0.54699576,1.5795503,-0.14072296,-0.841961,-0.12661967,1.3594847,1.5918732
-0.2,-0.2,0.6,-0.5235987755982988,-0.5235987755982988,1.1102230246251565e-16,1.196634,1.6574289,0.3912717,0.16608876,0.35261685,0.7212256,0.60000104,-0.5421642,1.5773109,-0.1380536,-0.89497685,-0.16488378,1.3640516,1.5070326
-0.2,-0.2,0.6,-0.5235987755982988,-0.5235987755982988,1.1102230246251565e-16,1.1691436,1.6608857,0.36889172,0.17609249,0.37471828,0.7039554,0.666818,-0.54951376,1.5795473,-0.12296457,-0.8433863,-0.1278172,1.2955691,1.5144037
-0.2,-0.2,0.6,-0.5235987755982988,-0.5235987755982988,1.1102230246251565e-16,1.1853623,1.657493,0.40282226,0.16813546,0.37412128,0.70237327,0.623901,-0.5480135,1.575073,-0.108146384,-0.8466881,-0.12284318,1.3599048,1.4589374
-0.2,-0.2,0.6,-0.5235987755982988,-0.5235987755982988,1.1102230246251565e-16,1.1591675,1.6766869,0.4177155,0.1506699,0.35788676,0.7104562,0.64933974,-0.5554726,1.5786363,-0.13877256,-0.8865065,-0.14143126,1.3610195,1.5417076
-0.2,-0.2,0.6,-0.5235987755982988,-0.5235987755982988,1.1102230246251565e-16,1.1648883,1.6798252,0.4024659,0.14946342,0.3890884,0.70427036,0.6316514,-0.5538681,1.5752524,-0.13503806,-0.84446555,-0.11356721,1.3738052,1.5515212
-0.2,-0.2,0.6,-0.5235987755982988,-0.5235987755982988,1.1102230246251565e-16,1.1676534,1.6507075,0.40452537,0.14795642,0.38180855,0.69791865,0.58970106,-0.5480585,1.5839618,-0.1553385,-0.8448881,-0.112020046,1.3658439,1.6065581
-0.2,-0.2,0.6,-0.5235987755982988,-0.5235987755982988,1.1102230246251565e-16,1.167646,1.6496245,0.3936804,0.16299617,0.39041883,0.70572263,0.62442,-0.538558,1.5816061,-0.13198392,-0.8597702,-0.11810537,1.3633317,1.4672736
-0.2,-0.2,0.6,-0.5235987755982988,-0.5235987755982988,1.1102230246251565e-16,1.1663343,1.6521037,0.41288403,0.14045891,0.39720732,0.695489,0.5764203,-0.54668033,1.5760738,-0.12081431,-0.8073516,-0.13334095,1.3700811,1.411186
-0.2,-0.2,0.6,-0.5235987755982988,-0.5235987755982988,1.1102230246251565e-16,1.1624024,1.6466284,0.38315246,0.14012761,0.38593817,0.7020753,0.5922296,-0.54898053,1.580311,-0.12803796,-0.7977177,-0.11589078,1.2985969,1.5117888
-0.2,-0.2,0.6,-0.5235987755982988,-0.5235987755982988,1.1102230246251565e-16,1.1567482,1.6727587,0.40792522,0.16254418,0.40634775,0.701236,0.63366246,-0.54643524,1.583871,-0.14360078,-0.82475775,-0.13930087,1.3290644,1.5702828
-0.2,-0.2,0.6,-0.5235987755982988,-0.5235987755982988,1.1102230246251565e-16,1.1680093,1.6595361,0.41251728,0.17392504,0.3698984,0.698591,0.573406,-0.532472,1.5816065,-0.13884127,-0.8303381,-0.13908795,1.3544927,1.4575045
-0.2,-0.2,0.6,-0.5235987755982988,-0.5235987755982988,1.1102230246251565e-16,1.1555955,1.6539104,0.36721995,0.17781216,0.35819972,0.70717126,0.57070696,-0.5528577,1.58167,-0.12650469,-0.8232691,-0.12289107,1.3127173,1.6438401
-0.2,-0.2,0.6,-0.5235987755982988,-0.5235987755982988,1.1102230246251565e-16,1.1677436,1.6618061,0.40261889,0.1429057,0.3968766,0.7126084,0.6257365,-0.53472954,1.5793439,-0.14303376,-0.8317517,-0.13305587,1.3267844,1.5334107
-0.2,-0.2,0.6,-0.5235987755982988,-0.5235987755982988,1.1102230246251565e-16,1.168063,1.6483812,0.3716732,0.14886022,0.38701108,0.68386984,0.6093195,-0.55126864,1.5788977,-0.1218201,-0.86175907,-0.10949709,1.3174756,1.5207773
-0.2,-0.2,0.6,-0.5235987755982988,-0.5235987755982988,1.1102230246251565e-16,1.1777959,1.6738747,0.39993814,0.1487555,0.35480562,0.7011014,0.6587189,-0.5249232,1.5810006,-0.1337183,-0.8343534,-0.11807872,1.3853279,1.4871804
-0.2,-0.2,0.6,-0.5235987755982988,-0.5235987755982988,1.1102230246251565e-16,1.190584,1.6620244,0.4009321,0.15489165,0.3450323,0.7024558,0.59698445,-0.55028826,1.5804024,-0.12712534,-0.8454382,-0.1131563,1.3392993,1.5299641
-0.2,-0.2,0.6,-0.5235987755982988,-0.5235987755982988,1.1102230246251565e-16,1.159937,1.657408,0.38647363,0.134401,0.385804,0.7350822,0.63526744,-0.53221846,1.5820065,-0.12302345,-0.83322275,-0.14301494,1.3279335,1.5460538
-0.2,-0.2,0.6,-0.5235987755982988,-0.5235987755982988,1.1102230246251565e-16,1.1897572,1.6604658,0.43168104,0.1424791,0.38423276,0.713177,0.600382,-0.54947907,1.5792949,-0.12911078,-0.8496609,-0.12578136,1.3936093,1.5451667
-0.2,-0.2,0.6,-0.5235987755982988,-0.5235987755982988,1.1102230246251565e-16,1.1508514,1.661305,0.40807244,0.17329638,0.39848354,0.7155271,0.6087082,-0.5374152,1.5710827,-0.12174417,-0.8914773,-0.15075906,1.4060743,1.5345775
-0.2,-0.2,0.6,-0.5235987755982988,-0.5235987755982988,1.1102230246251565e-16,1.1691699,1.6515143,0.3999867,0.1389098,0.3647573,0.71110374,0.6563114,-0.5501532,1.5781693,-0.13584723,-0.80776376,-0.13220334,1.3388699,1.4263647
-0.2,-0.2,0.6,-0.5235987755982988,-0.5235987755982988,1.1102230246251565e-16,1.1629105,1.6548235,0.38094378,0.13760266,0.36388996,0.7094229,0.657274,-0.5465606,1.5848386,-0.14512064,-0.85439736,-0.16084795,1.3635919,1.583408
-0.2,-0.2,0.6,-0.5235987755982988,-0.5235987755982988,1.1102230246251565e-16,1.1598628,1.6687016,0.40203544,0.14752153,0.38329962,0.7016426,0.60414994,-0.5450634,1.5799311,-0.12519479,-0.86048645,-0.15125984,1.3376096,1.5136915
-0.2,-0.2,0.6,-0.5235987755982988,-0.5235987755982988,1.1102230246251565e-16,1.1770631,1.657359,0.41621804,0.140397,0.3675516,0.70239884,0.6119002,-0.5511722,1.5809492,-0.14261729,-0.8879804,-0.12085993,1.3853662,1.5993735
-0.2,-0.2,0.6,-0.5235987755982988,-0.5235987755982988,1.1102230246251565e-16,1.1736948,1.6663178,0.40704012,0.1741157,0.38439736,0.71710944,0.5887837,-0.54835457,1.5835631,-0.14020579,-0.8810104,-0.158441,1.4138956,1.5101525
-0.2,-0.2,0.6,-0.5235987755982988,-0.5235987755982988,1.1102230246251565e-16,1.168836,1.6626737,0.4136051,0.14808916,0.40173417,0.7028768,0.5654861,-0.55913264,1.5796069,-0.13189209,-0.82862484,-0.1307807,1.35561,1.5443709
-0.2,-0.2,0.6,-0.5235987755982988,-0.5235987755982988,1.1102230246251565e-16,1.179096,1.6526954,0.38989806,0.16417752,0.35849777,0.7116731,0.60407686,-0.5547638,1.5830574,-0.14335357,-0.8387864,-0.13749924,1.3309023,1.5605032
-0.2,-0.2,0.6,-0.5235987755982988,-0.5235987755982988,1.1102230246251565e-16,1.1681328,1.6695441,0.3931773,0.16838808,0.40120822,0.7290277,0.5930968,-0.5409713,1.5757041,-0.12303557,-0.8566491,-0.12894475,1.3535657,1.5865645
-0.2,-0.2,0.6,-0.5235987755982988,-0.5235987755982988,1.1102230246251565e-16,1.1601613,1.6648724,0.37542993,0.16105461,0.36991176,0.7180874,0.5852179,-0.54387087,1.581377,-0.11642412,-0.8118456,-0.14266922,1.3579644,1.6001253
-0.2,-0.2,0.6,-0.5235987755982988,-0.5235987755982988,1.1102230246251565e-16,1.1658928,1.6546886,0.41549352,0.123773485,0.38115185,0.70973814,0.6124118,-0.54823744,1.5793244,-0.13482177,-0.8528851,-0.11830268,1.3552992,1.4866302
-0.2,-0.2,0.6,-0.5235987755982988,-0.5235987755982988,1.1102230246251565e-16,1.1534735,1.6537753,0.4010187,0.13777019,0.35026047,0.71761197,0.62401444,-0.5478158,1.5830965,-0.14293629,-0.85354507,-0.106155485,1.3190839,1.4842832
-0.2,-0.2,0.6,-0.5235987755982988,-0.5235987755982988,1.1102230246251565e-16,1.1739715,1.680866,0.41080248,0.13801214,0.34688088,0.70538944,0.61265737,-0.5567845,1.5811219,-0.119428165,-0.85979354,-0.12312918,1.3284847,1.5166622
-0.2,-0.2,0.6,-0.5235987755982988,-0.5235987755982988,1.1102230246251565e-16,1.1701893,1.6678678,0.41478732,0.12187729,0.38898253,0.7088917,0.6030044,-0.55003643,1.5808169,-0.12660946,-0.8382701,-0.16335668,1.383542,1.6022594
-0.2,-0.2,0.6,-0.5235987755982988,-0.5235987755982988,1.1102230246251565e-16,1.1501153,1.6628661,0.38982755,0.17048243,0.37870392,0.7082029,0.58575106,-0.5570494,1.583901,-0.1383381,-0.84069204,-0.12187789,1.336431,1.5436578
-0.2,-0.2,0.6,-0.5235987755982988,-0.5235987755982988,1.1102230246251565e-16,1.1665114,1.6479042,0.38652048,0.15338778,0.3897974,0.6896862,0.6119893,-0.5403008,1.5759842,-0.13192284,-0.79609525,-0.1322805,1.3235835,1.5337962
-0.2,-0.2,0.6,-0.5235987755982988,-0.5235987755982988,1.1102230246251565e-16,1.1525048,1.6687434,0.3959504,0.13210568,0.399589,0.7116259,0.6315868,-0.5531464,1.5813134,-0.12835805,-0.8245615,-0.13117082,1.3546933,1.4007572
-0.2,-0.2,0.6,-0.5235987755982988,-0.5235987755982988,1.1102230246251565e-16,1.1551528,1.6451612,0.3941758,0.15788794,0.3944737,0.6956205,0.57200104,-0.5437177,1.5726427,-0.1282712,-0.81446356,-0.085415505,1.3363212,1.5570713
-0.2,-0.2,0.6,-0.5235987755982988,-0.5235987755982988,1.1102230246251565e-16,1.1835726,1.6688317,0.41531026,0.12798597,0.38820526,0.7082778,0.5666351,-0.5519158,1.5784587,-0.12793036,-0.87855774,-0.0960326,1.3649347,1.5830638
-0.2,-0.2,0.6,-0.5235987755982988,-0.5235987755982988,1.1102230246251565e-16,1.1773686,1.6609999,0.3901372,0.14157864,0.3810859,0.6868616,0.6352293,-0.5609394,1.5778614,-0.12207139,-0.8649011,-0.13728121,1.3177189,1.5494684
-0.2,-0.2,0.6,-0.5235987755982988,-0.5235987755982988,1.1102230246251565e-16,1.1738487,1.6583538,0.39072156,0.1541445,0.37487185,0.7211975,0.5995712,-0.5496752,1.5789962,-0.14089434,-0.82397205,-0.11846198,1.3485924,1.6126959
-0.2,-0.2,0.6,-0.5235987755982988,-0.5235987755982988,1.1102230246251565e-16,1.1672664,1.6564023,0.44498318,0.15407221,0.36231974,0.68595177,0.65010315,-0.5398862,1.5761842,-0.13308312,-0.8337486,-0.12473939,1.4114897,1.527128
-0.2,-0.2,0.6,-0.5235987755982988,-0.5235987755982988,1.1102230246251565e-16,1.1727331,1.6550928,0.3939492,0.14076325,0.37115473,0.69286776,0.6603074,-0.5487008,1.5878885,-0.12474994,-0.82840735,-0.13380131,1.3186657,1.5213661
-0.2,-0.2,0.6,-0.5235987755982988,-0.5235987755982988,1.1102230246251565e-16,1.1661965,1.6561816,0.38511676,0.13900289,0.3834533,0.7114381,0.6438183,-0.54590803,1.5792812,-0.118149936,-0.841206,-0.13360159,1.3113998,1.5254632
-0.2,-0.2,0.6,-0.5235987755982988,-0.5235987755982988,1.1102230246251565e-16,1.166317,1.6636622,0.3946182,0.17243072,0.34410274,0.6899751,0.63507783,-0.5450505,1.5791894,-0.12387862,-0.8395503,-0.12804896,1.3183105,1.5289204
-0.2,-0.2,0.6,-0.5235987755982988,-0.5235987755982988,1.1102230246251565e-16,1.1799003,1.663605,0.38907227,0.1710649,0.39745852,0.7269966,0.6186708,-0.54082584,1.5765594,-0.12123038,-0.855796,-0.13845728,1.3594412,1.536761
-0.2,-0.2,0.6,-0.5235987755982988,-0.5235987755982988,1.1102230246251565e-16,1.1557468,1.6651025,0.43679893,0.1584094,0.38739723,0.68506765,0.6598092,-0.53551924,1.5802929,-0.14910291,-0.84117067,-0.123715825,1.3735971,1.4994155
-0.2,-0.2,0.6,-0.5235987755982988,-0.5235987755982988,1.1102230246251565e-16,1.1865568,1.6573623,0.38737562,0.14726584,0.3682296,0.7232918,0.5894968,-0.544116,1.576628,-0.12582682,-0.8409487,-0.103316635,1.3386492,1.5078307
-0.2,-0.2,0.6,-0.5235987755982988,-0.5235987755982988,1.1102230246251565e-16,1.1879306,1.6723083,0.3934096,0.12105505,0.35490593,0.6961039,0.59068793,-0.5489755,1.5811108,-0.116735406,-0.8501833,-0.13202402,1.3160517,1.5459553
-0.2,-0.2,0.6,-0.5235987755982988,-0.5235987755982988,1.1102230246251565e-16,1.167039,1.6528043,0.39790815,0.15402876,0.3712621,0.7161192,0.6666538,-0.54559904,1.5788403,-0.13885574,-0.8028436,-0.11129676,1.3185098,1.4687678
-0.2,-0.2,0.6,-0.5235987755982988,-0.5235987755982988,1.1102230246251565e-16,1.1590147,1.6553057,0.38663536,0.17092125,0.36007515,0.72638863,0.62183154,-0.5498979,1.5799476,-0.12193966,-0.8119076,-0.13996924,1.3150872,1.4734265
-0.2,-0.2,0.6,-0.5235987755982988,-0.5235987755982988,1.1102230246251565e-16,1.1717373,1.6590841,0.39731425,0.15520686,0.3848926,0.68948984,0.6140477,-0.5490476,1.579566,-0.13004008,-0.88725084,-0.11698654,1.378045,1.6094427
-0.2,-0.2,0.6,-0.5235987755982988,-0.5235987755982988,1.1102230246251565e-16,1.1625199,1.664425,0.3959548,0.14870158,0.3800116,0.712922,0.6148255,-0.5537569,1.5785613,-0.12332702,-0.8199953,-0.10344153,1.3580002,1.5546268
-0.2,-0.2,0.6,-0.5235987755982988,-0.5235987755982988,1.1102230246251565e-16,1.1758157,1.6596808,0.39993528,0.17352125,0.33456418,0.7160419,0.6062881,-0.5333872,1.5793889,-0.14267945,-0.80825615,-0.11794752,1.3388147,1.5845797
-0.2,-0.2,0.6,-0.5235987755982988,-0.5235987755982988,1.1102230246251565e-16,1.1543692,1.6646599,0.39439303,0.16931392,0.35832575,0.6909089,0.6402145,-0.5409243,1.5782471,-0.14104536,-0.8453343,-0.113848165,1.3164502,1.49071
-0.2,-0.2,0.6,-0.5235987755982988,-0.5235987755982988,1.1102230246251565e-16,1.146881,1.6543347,0.38227206,0.17561127,0.3698547,0.7058324,0.6594064,-0.55808234,1.5775918,-0.11715907,-0.88212115,-0.13478613,1.3633163,1.5737991
-0.2,-0.2,0.6,-0.5235987755982988,-0.5235987755982988,1.1102230246251565e-16,1.1730883,1.6602001,0.4034569,0.17376633,0.35812426,0.69810665,0.6143247,-0.5525422,1.582732,-0.13545965,-0.8359279,-0.122501224,1.3804094,1.5218838
-0.2,-0.2,0.6,-0.5235987755982988,-0.5235987755982988,1.1102230246251565e-16,1.1431118,1.6622926,0.38568386,0.1730751,0.39528307,0.7133156,0.6425053,-0.55573994,1.5739621,-0.12323674,-0.8382283,-0.13885017,1.3559297,1.5626549
-0.2,-0.2,0.6,-0.5235987755982988,-0.5235987755982988,1.1102230246251565e-16,1.1640832,1.6673214,0.40276614,0.14508061,0.38995162,0.677968,0.64480436,-0.54663104,1.5784528,-0.14678761,-0.8540606,-0.13719353,1.3155786,1.5341728
-0.2,-0.2,0.6,-0.5235987755982988,-0.5235987755982988,1.1102230246251565e-16,1.1783876,1.679476,0.39700916,0.18296541,0.39465567,0.6949234,0.62197775,-0.5386448,1.5814083,-0.1289137,-0.81674033,-0.13435341,1.3593453,1.5869036
-0.2,-0.2,0.6,-0.5235987755982988,-0.5235987755982988,1.1102230246251565e-16,1.1436939,1.6366748,0.38979882,0.1599339,0.37063515,0.69048905,0.6444736,-0.5504854,1.5862465,-0.12959205,-0.83693767,-0.1458641,1.3472834,1.4975435
-0.2,-0.2,0.6,-0.5235987755982988,-0.5235987755982988,1.1102230246251565e-16,1.1732891,1.656848,0.3870511,0.1662292,0.35789937,0.72220325,0.6125803,-0.5471775,1.5774784,-0.10967729,-0.8340311,-0.1126315,1.3544251,1.5645404
-0.2,-0.2,0.6,-0.5235987755982988,-0.5235987755982988,1.1102230246251565e-16,1.1797562,1.6569313,0.42423147,0.14781457,0.36320448,0.69776076,0.63884085,-0.5348335,1.5768514,-0.12894508,-0.8033362,-0.13888977,1.3536773,1.5486635
-0.2,-0.2,0.6,-0.5235987755982988,-0.5235987755982988,1.1102230246251565e-16,1.169637,1.654065,0.40774465,0.14731222,0.3354549,0.69116575,0.63000464,-0.54822385,1.58421,-0.12831923,-0.85931027,-0.108628824,1.3478107,1.4711113
-0.2,-0.2,0.6,-0.5235987755982988,-0.5235987755982988,1.1102230246251565e-16,1.1618496,1.6723152,0.39069453,0.16898566,0.40175122,0.7111807,0.6282341,-0.53087264,1.5759082,-0.12717614,-0.8247821,-0.11884327,1.3355286,1.5275944
-0.2,-0.2,0.6,-0.5235987755982988,-0.5235987755982988,1.1102230246251565e-16,1.1539083,1.6617787,0.40653628,0.15689099,0.3542564,0.7189734,0.66780984,-0.53290606,1.5803415,-0.12539107,-0.8049837,-0.12537517,1.3397323,1.5791618
-0.2,-0.2,0.6,-0.5235987755982988,-0.5235987755982988,1.1102230246251565e-16,1.2062157,1.6804448,0.38005072,0.1861495,0.35213548,0.6997132,0.6048106,-0.5329912,1.5821046,-0.1165803,-0.8371588,-0.13351104,1.3341851,1.5584835
-0.2,-0.2,0.6,-0.5235987755982988,-0.5235987755982988,1.1102230246251565e-16,1.1644235,1.6680489,0.38835514,0.17056192,0.37736067,0.71221405,0.569143,-0.55288005,1.5726779,-0.12271363,-0.8267069,-0.1435652,1.3277643,1.6567333
-0.2,-0.2,0.6,-0.5235987755982988,-0.5235987755982988,1.1102230246251565e-16,1.1741186,1.6420851,0.39829105,0.15182652,0.36186972,0.69511116,0.568373,-0.5374382,1.5817636,-0.14931338,-0.82897764,-0.10282507,1.3431257,1.6053299
-0.2,-0.2,0.6,-0.5235987755982988,-0.5235987755982988,1.1102230246251565e-16,1.1774576,1.6560979,0.38082537,0.14729731,0.40226918,0.69432914,0.6369638,-0.5390936,1.5838274,-0.11458047,-0.83991504,-0.10383468,1.3362063,1.5208875
-0.2,-0.2,0.6,-0.5235987755982988,-0.5235987755982988,1.1102230246251565e-16,1.1819495,1.6734308,0.40292242,0.15794155,0.37491918,0.68918943,0.6036302,-0.53589094,1.5838928,-0.1093768,-0.8409005,-0.15750143,1.3379174,1.4178287
-0.2,-0.2,0.6,-0.5235987755982988,-0.5235987755982988,1.1102230246251565e-16,1.1665143,1.6500821,0.40194723,0.15909204,0.35621768,0.70343137,0.5628916,-0.5451792,1.576363,-0.12557067,-0.8416126,-0.12731634,1.3363975,1.4358375
-0.2,-0.2,0.6,-0.5235987755982988,-0.5235987755982988,1.1102230246251565e-16,1.1610261,1.6749494,0.41204643,0.15982372,0.3771906,0.7095787,0.59856004,-0.53911984,1.5711737,-0.1394728,-0.8785631,-0.12941481,1.3801112,1.486699
-0.2,-0.2,0.6,-0.5235987755982988,-0.5235987755982988,1.1102230246251565e-16,1.1711763,1.6557645,0.40513185,0.15125434,0.39416552,0.70660806,0.6626498,-0.534291,1.578406,-0.11690523,-0.82026184,-0.15269305,1.3625817,1.5833951
-0.2,-0.2,0.6,-0.5235987755982988,-0.5235987755982988,1.1102230246251565e-16,1.163326,1.6533763,0.38985813,0.17225689,0.36835077,0.69453466,0.636209,-0.547792,1.5736874,-0.15027878,-0.8556295,-0.11921488,1.3261831,1.4840634
-0.2,-0.2,0.6,-0.5235987755982988,-0.5235987755982988,1.1102230246251565e-16,1.150173,1.6387419,0.39423954,0.14177331,0.36936632,0.6961429,0.5808128,-0.55819553,1.5784736,-0.1231448,-0.8456813,-0.12853435,1.3183737,1.4756768
-0.2,-0.2,0.6,-0.5235987755982988,-0.5235987755982988,1.1102230246251565e-16,1.1663176,1.670577,0.38845974,0.18344271,0.37305912,0.7243222,0.6161086,-0.56423336,1.5716121,-0.13085623,-0.8324922,-0.153616,1.3291739,1.6146275
-0.2,-0.2,0.6,-0.5235987755982988,-0.5235987755982988,1.1102230246251565e-16,1.1616807,1.6563635,0.40040863,0.14716591,0.38813594,0.7009062,0.640659,-0.53545874,1.5837816,-0.118846476,-0.85468173,-0.13147198,1.3788805,1.6805159
-0.2,-0.2,0.6,-0.5235987755982988,-0.5235987755982988,1.1102230246251565e-16,1.1706916,1.6608112,0.38527918,0.16975608,0.35989684,0.7137117,0.6403458,-0.54424864,1.5822171,-0.11729425,-0.8506976,-0.12554662,1.3441768,1.5545344
-0.2,-0.2,0.6,-0.5235987755982988,-0.5235987755982988,1.1102230246251565e-16,1.1596158,1.6660944,0.39880398,0.14481165,0.36931494,0.71864784,0.61272997,-0.5497831,1.5818235,-0.1214523,-0.83211833,-0.1114537,1.3343611,1.5742342
-0.2,-0.2,0.6,-0.5235987755982988,-0.5235987755982988,1.1102230246251565e-16,1.1465023,1.6737164,0.40110263,0.136656,0.37400347,0.69132364,0.6383125,-0.5355054,1.5792522,-0.14274698,-0.85922277,-0.1562971,1.3565481,1.6265785
-0.2,-0.2,0.6,-0.5235987755982988,-0.5235987755982988,1.1102230246251565e-16,1.1619494,1.6389276,0.3905766,0.14964515,0.37831432,0.69603664,0.6553308,-0.55075145,1.5752807,-0.12333244,-0.8392742,-0.12040049,1.3332074,1.5155762
-0.2,-0.2,0.6,-0.5235987755982988,-0.5235987755982988,1.1102230246251565e-16,1.1902976,1.6729931,0.39973047,0.16694057,0.38484272,0.7030682,0.5678126,-0.5416069,1.5765369,-0.12232907,-0.8608667,-0.14437775,1.3507501,1.5641067
-0.2,-0.2,0.6,-0.5235987755982988,-0.5235987755982988,1.1102230246251565e-16,1.1360021,1.6687385,0.40362683,0.1388912,0.368328,0.7035201,0.63720083,-0.54403436,1.5760881,-0.1318973,-0.8364271,-0.10831366,1.317922,1.5547101
-0.2,-0.2,0.6,-0.5235987755982988,-0.5235987755982988,1.1102230246251565e-16,1.1524369,1.6600938,0.44427896,0.14355257,0.37174293,0.690454,0.6292057,-0.55622953,1.5809681,-0.13904814,-0.87175596,-0.1256928,1.4080708,1.5416826
-0.2,-0.2,0.6,-0.5235987755982988,-0.5235987755982988,1.1102230246251565e-16,1.1762434,1.6619786,0.40569898,0.15029259,0.37890345,0.704499,0.5699216,-0.5357977,1.5793495,-0.124869905,-0.80539477,-0.1305205,1.3540833,1.5894535
-0.2,-0.2,0.6,-0.5235987755982988,-0.5235987755982988,1.1102230246251565e-16,1.178956,1.6597193,0.37868235,0.15204453,0.3722004,0.71484715,0.62444615,-0.55265224,1.5787915,-0.1469942,-0.8751185,-0.12771721,1.3648623,1.5113388
-0.2,-0.2,0.6,-0.5235987755982988,-0.5235987755982988,1.1102230246251565e-16,1.1713704,1.6690555,0.43260744,0.12635885,0.3600937,0.71703047,0.58974934,-0.5442114,1.5806192,-0.12316624,-0.8248348,-0.112940766,1.3741939,1.5138241
-0.2,-0.2,0.6,-0.5235987755982988,-0.5235987755982988,1.1102230246251565e-16,1.1711065,1.6683803,0.39061925,0.16105035,0.40096438,0.7054719,0.6404148,-0.54750973,1.5805589,-0.12557532,-0.8606393,-0.16412875,1.3403699,1.5363518
-0.2,-0.2,0.6,-0.5235987755982988,-0.5235987755982988,1.1102230246251565e-16,1.1500543,1.6566755,0.4051937,0.18154655,0.36846617,0.703704,0.6029331,-0.54718554,1.580351,-0.12816149,-0.8528402,-0.16264933,1.3780947,1.4912492
-0.2,-0.2,0.6,-0.5235987755982988,-0.5235987755982988,1.1102230246251565e-16,1.1831727,1.6610049,0.39807037,0.12570685,0.3686052,0.706371,0.59696317,-0.54548615,1.5834734,-0.1289978,-0.84868383,-0.13878644,1.3499755,1.628015
-0.2,-0.2,0.6,-0.5235987755982988,-0.5235987755982988,1.1102230246251565e-16,1.1863371,1.6593522,0.3912615,0.14136417,0.3740046,0.72519773,0.6177681,-0.53819424,1.579884,-0.11995143,-0.84124225,-0.13817668,1.3445239,1.547243
-0.2,-0.2,0.6,-0.5235987755982988,-0.5235987755982988,1.1102230246251565e-16,1.1612889,1.6635724,0.39286786,0.16238843,0.3644172,0.74053866,0.59191066,-0.5292339,1.578284,-0.13284677,-0.7944679,-0.14314549,1.3356173,1.5598996
-0.2,-0.2,0.6,-0.5235987755982988,-0.5235987755982988,1.1102230246251565e-16,1.1734216,1.6698569,0.4065985,0.1615063,0.37752092,0.7218556,0.6775207,-0.55108833,1.5689864,-0.1505072,-0.80354416,-0.13195924,1.3253188,1.6425041
-0.2,-0.2,0.6,-0.5235987755982988,-0.5235987755982988,1.1102230246251565e-16,1.1846162,1.6566607,0.3940814,0.13928364,0.38654986,0.70138717,0.6327278,-0.54567164,1.5780755,-0.12102924,-0.8440008,-0.14962511,1.32441,1.4976672
-0.2,-0.2,0.6,-0.5235987755982988,-0.5235987755982988,1.1102230246251565e-16,1.1534703,1.6442674,0.40068984,0.15892632,0.38043073,0.7161912,0.6324531,-0.55934495,1.5750103,-0.12841158,-0.8339107,-0.13254538,1.3806989,1.5406866
-0.2,-0.2,0.6,-0.5235987755982988,-0.5235987755982988,1.1102230246251565e-16,1.17211,1.6561509,0.38183,0.14394033,0.3910189,0.68393826,0.65679127,-0.54724276,1.5781226,-0.11077605,-0.8490705,-0.12906744,1.3304992,1.5581092
-0.2,-0.2,0.6,-0.5235987755982988,-0.5235987755982988,1.1102230246251565e-16,1.1727437,1.6624904,0.3965793,0.16040465,0.3430169,0.719692,0.5986088,-0.5468735,1.5800666,-0.094946735,-0.8229995,-0.1586765,1.3436958,1.5977075
-0.2,-0.2,0.6,-0.5235987755982988,-0.5235987755982988,1.1102230246251565e-16,1.1551906,1.6541201,0.40609932,0.14105643,0.36572343,0.71019304,0.5905191,-0.5395739,1.5808105,-0.12498921,-0.8374147,-0.13449307,1.329242,1.4230933
-0.2,-0.2,0.6,-0.5235987755982988,-0.5235987755982988,1.1102230246251565e-16,1.1758224,1.6697816,0.44383788,0.12803711,0.3827502,0.7020578,0.61788934,-0.5440329,1.5735759,-0.12794574,-0.81776786,-0.11609047,1.3893565,1.5243038
-0.2,-0.2,0.6,-0.5235987755982988,-0.5235987755982988,1.1102230246251565e-16,1.1572877,1.6636225,0.38938892,0.15736647,0.36495394,0.7004561,0.6251465,-0.5263133,1.57784,-0.13028026,-0.80538625,-0.10349857,1.3232119,1.6279079
-0.2,-0.2,0.6,-0.5235987755982988,-0.5235987755982988,1.1102230246251565e-16,1.1582426,1.6578966,0.39433515,0.14565706,0.36486086,0.7001932,0.66254133,-0.5489682,1.5795691,-0.122693695,-0.814395,-0.1249547,1.3499022,1.4304568
-0.2,-0.2,0.6,-0.5235987755982988,-0.5235987755982988,1.1102230246251565e-16,1.1953365,1.6570655,0.37884447,0.14540999,0.36696362,0.7028268,0.66177,-0.55358434,1.5778292,-0.11671514,-0.8491847,-0.14492504,1.3183393,1.6465138
-0.2,-0.2,0.6,-0.5235987755982988,-0.5235987755982988,1.1102230246251565e-16,1.1897392,1.6594206,0.40736145,0.16740711,0.38399038,0.68285197,0.5850868,-0.5516773,1.5688461,-0.115608715,-0.8366114,-0.13999636,1.3679872,1.5472796
-0.2,-0.2,0.6,-0.5235987755982988,-0.5235987755982988,1.1102230246251565e-16,1.1789671,1.664515,0.40055156,0.13698187,0.37907794,0.7195,0.6289933,-0.5420379,1.572973,-0.1296692,-0.8469038,-0.12784043,1.3391554,1.5490235
-0.2,-0.2,0.6,-0.5235987755982988,-0.5235987755982988,1.1102230246251565e-16,1.1764889,1.6685115,0.399769,0.15650932,0.38711977,0.7131269,0.62447333,-0.53798926,1.5765663,-0.11671754,-0.84842086,-0.15249912,1.3468472,1.5186896
-0.2,-0.2,0.6,-0.5235987755982988,-0.5235987755982988,1.1102230246251565e-16,1.1573727,1.6699345,0.39567098,0.19934775,0.35306668,0.68251806,0.5714445,-0.5384103,1.5706255,-0.11016003,-0.81262153,-0.16280012,1.3788902,1.4544601
-0.2,-0.2,0.6,-0.5235987755982988,-0.5235987755982988,1.1102230246251565e-16,1.1671642,1.6610532,0.42561218,0.12999628,0.37268668,0.7170079,0.611611,-0.5343797,1.5698205,-0.115079485,-0.8464266,-0.12661517,1.4154303,1.5409595
-0.2,-0.2,0.6,-0.5235987755982988,-0.5235987755982988,1.1102230246251565e-16,1.1652477,1.661922,0.39972275,0.14554814,0.37891716,0.69499797,0.63666934,-0.5681476,1.5699116,-0.14446518,-0.8328726,-0.1241703,1.3485032,1.5487804
-0.2,-0.2,0.6,-0.5235987755982988,-0.5235987755982988,1.1102230246251565e-16,1.1726238,1.6658541,0.413683,0.14357863,0.38096043,0.7135842,0.5998126,-0.5467929,1.585482,-0.1282659,-0.8694037,-0.10420416,1.3795251,1.4713298
-0.2,-0.2,0.6,-0.5235987755982988,-0.5235987755982988,1.1102230246251565e-16,1.1567512,1.652195,0.38919863,0.15359308,0.35491237,0.7090321,0.63772833,-0.5504648,1.5799664,-0.13935956,-0.894253,-0.14696538,1.3507986,1.5280167
-0.2,-0.2,0.6,-0.5235987755982988,-0.5235987755982988,1.1102230246251565e-16,1.1688871,1.6641922,0.41157907,0.15142249,0.3801534,0.68914324,0.5538382,-0.52844197,1.5746846,-0.12176521,-0.83219945,-0.11392871,1.3684397,1.4276645
-0.2,-0.2,0.6,-0.5235987755982988,-0.5235987755982988,1.1102230246251565e-16,1.1631076,1.6783763,0.40406302,0.17481941,0.333153,0.71191615,0.5729466,-0.5537796,1.5795771,-0.1221191,-0.8373642,-0.116283365,1.3606945,1.6428077
-0.2,-0.2,0.6,-0.5235987755982988,-0.5235987755982988,1.1102230246251565e-16,1.1589667,1.6700612,0.39637056,0.1693702,0.37913468,0.7004626,0.61036384,-0.53170747,1.5721579,-0.151112,-0.8550835,-0.14213723,1.3736243,1.542692
-0.2,-0.2,0.6,-0.5235987755982988,-0.5235987755982988,1.1102230246251565e-16,1.151864,1.6484061,0.40041396,0.15572713,0.37509048,0.7086145,0.5880267,-0.5453245,1.5758231,-0.1378804,-0.81709534,-0.12665606,1.3608837,1.541544
-0.2,-0.2,0.6,-0.5235987755982988,-0.5235987755982988,1.1102230246251565e-16,1.168448,1.6618745,0.4140919,0.15378565,0.37298426,0.7003506,0.6291042,-0.55061257,1.5752093,-0.13303727,-0.8173876,-0.1261018,1.3524696,1.5982319
-0.2,-0.2,0.6,-0.5235987755982988,-0.5235987755982988,1.1102230246251565e-16,1.1878725,1.6446266,0.37034088,0.17719269,0.38179618,0.70860773,0.6324625,-0.55753094,1.5822343,-0.13305464,-0.8700831,-0.11442011,1.367508,1.5363014
-0.2,-0.2,0.6,-0.5235987755982988,-0.5235987755982988,1.1102230246251565e-16,1.1641194,1.6756155,0.38415506,0.16170263,0.36941007,0.7038108,0.6280827,-0.540052,1.5739386,-0.11476213,-0.8370693,-0.1328921,1.3199921,1.5038551
-0.2,-0.2,0.6,-0.5235987755982988,-0.5235987755982988,1.1102230246251565e-16,1.1815201,1.6651229,0.4066778,0.15077099,0.3835751,0.69156265,0.5952037,-0.53507954,1.5837014,-0.14346956,-0.822983,-0.14954238,1.340524,1.5161579
-0.2,-0.2,0.6,-0.5235987755982988,-0.5235987755982988,1.1102230246251565e-16,1.1566077,1.659957,0.39390624,0.15144978,0.40130407,0.71689695,0.59748936,-0.5336529,1.5714602,-0.13133706,-0.82847744,-0.119732134,1.3388513,1.5079292
-0.2,-0.2,0.6,-0.5235987755982988,-0.5235987755982988,1.1102230246251565e-16,1.1589756,1.6621314,0.40272248,0.15762632,0.368893,0.71689606,0.60855633,-0.54576993,1.5793887,-0.14059712,-0.8554609,-0.12691562,1.342921,1.4914391
-0.2,-0.2,0.6,-0.5235987755982988,-0.5235987755982988,1.1102230246251565e-16,1.1878432,1.6713371,0.38037008,0.16439182,0.3755583,0.71862763,0.6018668,-0.54073167,1.5757132,-0.12577155,-0.88273346,-0.15503873,1.3541822,1.4501985
-0.2,-0.2,0.6,-0.5235987755982988,-0.5235987755982988,1.1102230246251565e-16,1.1663312,1.6592062,0.38135913,0.20571548,0.38546208,0.6896043,0.6013779,-0.56612,1.5785279,-0.12652436,-0.83500487,-0.13011493,1.3877817,1.5790337
-0.2,-0.2,0.6,-0.5235987755982988,-0.5235987755982988,1.1102230246251565e-16,1.1645238,1.6668109,0.38804045,0.16372679,0.38849798,0.71402484,0.595266,-0.5358339,1.5671024,-0.12569389,-0.80763364,-0.10758915,1.3184701,1.4848402
-0.2,-0.2,0.6,-0.5235987755982988,-0.5235987755982988,1.1102230246251565e-16,1.1565619,1.6755785,0.37121868,0.17076746,0.3533117,0.72055686,0.5785857,-0.5653043,1.5789901,-0.11562281,-0.8451753,-0.12963358,1.3566157,1.5703739
-0.2,-0.2,0.6,-0.5235987755982988,-0.5235987755982988,1.1102230246251565e-16,1.1633948,1.640748,0.39039353,0.14394458,0.37448442,0.6895058,0.59024686,-0.5440212,1.5762854,-0.12037627,-0.8405117,-0.13884705,1.3281518,1.522018
-0.2,-0.2,0.6,-0.5235987755982988,-0.5235987755982988,1.1102230246251565e-16,1.1719409,1.6555852,0.38713226,0.14711729,0.38998616,0.71696544,0.6047867,-0.5457568,1.5800972,-0.12673981,-0.8408951,-0.1384797,1.3525604,1.5860374
-0.2,-0.2,0.6,-0.5235987755982988,-0.5235987755982988,1.1102230246251565e-16,1.1532791,1.6537553,0.3976611,0.1706686,0.37256148,0.6911715,0.5883948,-0.5422972,1.5825075,-0.1367334,-0.8505232,-0.12706421,1.3396423,1.5074692
-0.2,-0.2,0.6,-0.5235987755982988,-0.5235987755982988,1.1102230246251565e-16,1.1621603,1.6634179,0.39004096,0.16664544,0.3618673,0.7008579,0.6405565,-0.5624202,1.5779548,-0.13872191,-0.847376,-0.14042808,1.3654644,1.4756378
-0.2,-0.2,0.6,-0.5235987755982988,-0.5235987755982988,1.1102230246251565e-16,1.1524494,1.6673162,0.40099376,0.15285195,0.3766178,0.7011292,0.62815887,-0.5379724,1.5796295,-0.1356162,-0.8463569,-0.14069298,1.323919,1.5111691
-0.2,-0.2,0.6,-0.5235987755982988,-0.5235987755982988,1.1102230246251565e-16,1.167822,1.6494424,0.38885003,0.14138305,0.36883098,0.70702857,0.6251917,-0.5446244,1.5766745,-0.124858595,-0.8369715,-0.13196932,1.3307438,1.645876
-0.2,-0.2,0.6,-0.5235987755982988,-0.5235987755982988,1.1102230246251565e-16,1.1834276,1.6552862,0.40427727,0.1617359,0.38872796,0.7111104,0.5871755,-0.5358672,1.5734841,-0.13064134,-0.8249518,-0.11706356,1.3588912,1.473683
-0.2,-0.2,0.6,-0.5235987755982988,-0.5235987755982988,1.1102230246251565e-16,1.1506195,1.6610626,0.41835222,0.13352172,0.38386393,0.71087664,0.5861684,-0.54355544,1.5771275,-0.12335233,-0.8103287,-0.13735364,1.3400332,1.5281986
-0.2,-0.2,0.6,-0.5235987755982988,-0.5235987755982988,1.1102230246251565e-16,1.1491429,1.6579291,0.4150007,0.1451187,0.33462277,0.70380294,0.65572894,-0.5459808,1.58441,-0.11596386,-0.8335163,-0.11595971,1.3520699,1.5689515
-0.2,-0.2,0.6,-0.5235987755982988,-0.5235987755982988,1.1102230246251565e-16,1.1876712,1.6672974,0.42562863,0.14671426,0.36277527,0.69211614,0.63855773,-0.53831697,1.5843053,-0.12454805,-0.8351198,-0.14400086,1.3631089,1.4629972
-0.2,-0.2,0.6,-0.5235987755982988,-0.5235987755982988,1.1102230246251565e-16,1.1519574,1.6732577,0.40405163,0.16415577,0.36709127,0.7031156,0.5956959,-0.5368943,1.5791851,-0.1198512,-0.8355135,-0.16751088,1.3390747,1.5538125
-0.2,-0.2,0.6,-0.5235987755982988,-0.5235987755982988,1.1102230246251565e-16,1.1661246,1.655579,0.36963868,0.23137261,0.39570048,0.6886871,0.6096866,-0.5449731,1.5762249,-0.13828973,-0.8228093,-0.14612219,1.4079942,1.685352
-0.2,-0.2,0.6,-0.5235987755982988,-0.5235987755982988,1.1102230246251565e-16,1.1851622,1.6633812,0.4043923,0.1581813,0.38723814,0.68997073,0.58726776,-0.55002534,1.5812378,-0.09947814,-0.87527657,-0.1556092,1.3975674,1.4593495
-0.2,-0.2,0.6,-0.5235987755982988,-0.5235987755982988,1.1102230246251565e-16,1.1615688,1.6635096,0.39648476,0.1692436,0.3536162,0.6857964,0.5858298,-0.54525554,1.5809609,-0.11477527,-0.8585306,-0.13726693,1.348728,1.5185802
-0.2,-0.2,0.6,-0.5235987755982988,-0.5235987755982988,1.1102230246251565e-16,1.1994394,1.6545305,0.38752678,0.1423499,0.38008502,0.7143384,0.6095541,-0.53733265,1.575588,-0.12686689,-0.82450783,-0.12813586,1.3244613,1.5421121
-0.2,-0.2,0.6,-0.5235987755982988,-0.5235987755982988,1.1102230246251565e-16,1.16112,1.6579995,0.3972696,0.14503883,0.3962324,0.70937407,0.65183383,-0.55103743,1.5792259,-0.13060589,-0.8236999,-0.15150616,1.3201673,1.5314122
-0.2,-0.2,0.6,-0.5235987755982988,-0.5235987755982988,1.1102230246251565e-16,1.1894771,1.6427454,0.391422,0.13415381,0.37025678,0.6986185,0.64370656,-0.5392162,1.5793228,-0.11908214,-0.84496355,-0.14947598,1.3466613,1.5402153
-0.2,-0.2,0.6,-0.5235987755982988,-0.5235987755982988,1.1102230246251565e-16,1.1628531,1.6652596,0.39561424,0.14444692,0.35723066,0.72627777,0.61368436,-0.5389336,1.5716298,-0.13662654,-0.84217185,-0.1303134,1.3312227,1.5355082
-0.2,-0.2,0.6,-0.5235987755982988,-0.5235987755982988,1.1102230246251565e-16,1.1768788,1.6748599,0.40348676,0.15890408,0.38276815,0.68485206,0.63916504,-0.55153656,1.5761402,-0.11530989,-0.8534097,-0.1070839,1.3489434,1.4761575
-0.2,-0.2,0.6,-0.5235987755982988,-0.5235987755982988,1.1102230246251565e-16,1.1546482,1.661696,0.40645158,0.13555522,0.33515242,0.7107904,0.60508156,-0.5531448,1.5809622,-0.12818421,-0.85125023,-0.11565915,1.349578,1.5122992
-0.2,-0.2,0.6,-0.5235987755982988,-0.5235987755982988,1.1102230246251565e-16,1.1665336,1.6494465,0.39949718,0.15728897,0.36138391,0.70039743,0.65127563,-0.552088,1.5758296,-0.13775924,-0.84109676,-0.10730704,1.3416497,1.5541897
-0.2,-0.2,0.6,-0.5235987755982988,-0.5235987755982988,1.1102230246251565e-16,1.1737456,1.6706,0.40883142,0.15795863,0.3837408,0.72229314,0.6461847,-0.5356119,1.5729034,-0.12802133,-0.80071783,-0.11892079,1.3692205,1.5760977
-0.2,-0.2,0.6,-0.5235987755982988,-0.5235987755982988,1.1102230246251565e-16,1.1800146,1.6643747,0.41220823,0.112121485,0.36053625,0.693446,0.67607474,-0.5580809,1.5786704,-0.13148873,-0.85587895,-0.090650275,1.3440143,1.566981
-0.2,-0.2,0.6,-0.5235987755982988,-0.5235987755982988,1.1102230246251565e-16,1.1706433,1.674556,0.40191212,0.15661474,0.38657728,0.70276,0.6487201,-0.55007774,1.5777924,-0.13046253,-0.87756234,-0.13562454,1.3600873,1.4521154
-0.2,-0.2,0.6,-0.5235987755982988,-0.5235987755982988,1.1102230246251565e-16,1.1910063,1.6565017,0.3801883,0.14728296,0.37831303,0.6951544,0.5888384,-0.5496884,1.5843521,-0.13704556,-0.9338413,-0.14481807,1.4103613,1.578759
-0.2,-0.2,0.6,-0.5235987755982988,-0.5235987755982988,1.1102230246251565e-16,1.1678426,1.6684687,0.41171557,0.14096199,0.36596844,0.72175753,0.6607838,-0.56010723,1.572698,-0.1290642,-0.82609737,-0.12808138,1.3557062,1.4721812
-0.2,-0.2,0.6,-0.5235987755982988,-0.5235987755982988,1.1102230246251565e-16,1.1795931,1.653472,0.38854426,0.14875935,0.35929558,0.7192665,0.6684276,-0.5482854,1.5787718,-0.11567514,-0.8398939,-0.13226965,1.3299428,1.4712665
-0.2,-0.2,0.6,-0.5235987755982988,-0.5235987755982988,1.1102230246251565e-16,1.1670588,1.6545393,0.40960735,0.13606347,0.36274973,0.7060737,0.6332194,-0.5410974,1.5713427,-0.12784094,-0.85428315,-0.12311548,1.3583444,1.5777386
-0.2,-0.2,0.6,-0.5235987755982988,-0.5235987755982988,1.1102230246251565e-16,1.1768235,1.668219,0.3898351,0.15245615,0.38609242,0.6987325,0.63463306,-0.5576066,1.5757611,-0.10918873,-0.8341245,-0.13295591,1.3587373,1.6167321
-0.2,-0.2,0.6,-0.5235987755982988,-0.5235987755982988,1.1102230246251565e-16,1.1721058,1.6611104,0.39389428,0.1757437,0.39036936,0.7074952,0.5964568,-0.54419523,1.5724692,-0.12025185,-0.8261183,-0.13744342,1.3728735,1.4472144
-0.2,-0.2,0.6,-0.5235987755982988,-0.5235987755982988,1.1102230246251565e-16,1.1853751,1.6493304,0.39559284,0.17968632,0.3869745,0.6901484,0.6341823,-0.546074,1.5802919,-0.14084442,-0.8595646,-0.13842303,1.3657378,1.5407104
-0.2,-0.2,0.6,-0.5235987755982988,-0.5235987755982988,1.1102230246251565e-16,1.146851,1.6615127,0.39205432,0.15826425,0.34307227,0.70105034,0.6335736,-0.55241,1.5828966,-0.12429825,-0.8423256,-0.13212255,1.3223172,1.5439131
-0.2,-0.2,0.6,-0.5235987755982988,-0.5235987755982988,1.1102230246251565e-16,1.1739863,1.6886175,0.38837388,0.15289535,0.3944389,0.7182245,0.6383181,-0.5476375,1.57422,-0.13381398,-0.8527761,-0.1511115,1.300936,1.5407991
-0.2,-0.2,0.6,-0.5235987755982988,-0.5235987755982988,1.1102230246251565e-16,1.1653477,1.6539075,0.39350685,0.18257818,0.35786742,0.6913878,0.5990201,-0.5364617,1.5812465,-0.12322632,-0.8452331,-0.11628392,1.3971558,1.588212
-0.2,-0.2,0.6,-0.5235987755982988,-0.5235987755982988,1.1102230246251565e-16,1.1550058,1.6623974,0.37579417,0.19919918,0.36408257,0.7142916,0.5911998,-0.5529136,1.5774887,-0.12292032,-0.8351263,-0.12249566,1.400574,1.6081867
-0.2,-0.2,0.6,-0.5235987755982988,-0.5235987755982988,1.1102230246251565e-16,1.173085,1.665864,0.42244318,0.1410441,0.40820247,0.70700634,0.6232948,-0.54563934,1.5766928,-0.1486417,-0.83144176,-0.12204868,1.3862084,1.5053854
-0.2,-0.2,0.6,-0.5235987755982988,-0.5235987755982988,1.1102230246251565e-16,1.1719035,1.6652637,0.43592295,0.13561401,0.37516046,0.7040226,0.64714926,-0.5397088,1.5782993,-0.13623695,-0.8461157,-0.13590616,1.3936102,1.5439066
-0.2,-0.2,0.6,-0.5235987755982988,-0.5235987755982988,1.1102230246251565e-16,1.165308,1.6515583,0.38424236,0.17042889,0.38435438,0.71182257,0.60870063,-0.5505518,1.5770215,-0.11183316,-0.85367167,-0.12391405,1.3565423,1.490967
-0.2,-0.2,0.6,-0.5235987755982988,-0.5235987755982988,1.1102230246251565e-16,1.1773286,1.665961,0.37178808,0.15114084,0.3945072,0.7173967,0.60109204,-0.54103166,1.5739305,-0.120989844,-0.8063305,-0.14601123,1.288055,1.5638106
-0.2,-0.2,0.6,-0.5235987755982988,-0.5235987755982988,1.1102230246251565e-16,1.1609495,1.6556952,0.38614857,0.15256497,0.3862354,0.72045934,0.6793126,-0.5533318,1.5770503,-0.12935682,-0.8634017,-0.1255798,1.3822901,1.5723201
-0.2,-0.2,0.6,-0.5235987755982988,-0.5235987755982988,1.1102230246251565e-16,1.1796703,1.6560175,0.4017995,0.13042322,0.386615,0.7254933,0.666917,-0.54991615,1.5798349,-0.111878105,-0.83125234,-0.1339376,1.3709177,1.6075906
-0.2,-0.2,0.6,-0.5235987755982988,-0.5235987755982988,1.1102230246251565e-16,1.1373761,1.6732327,0.3837079,0.20103142,0.3956842,0.71706635,0.63828063,-0.550908,1.5800743,-0.12263868,-0.8346535,-0.13546433,1.3633825,1.4808265
-0.2,-0.2,0.6,-0.5235987755982988,-0.5235987755982988,1.1102230246251565e-16,1.1770463,1.6600677,0.38941026,0.15511055,0.39455757,0.7211686,0.6402188,-0.5415717,1.5821657,-0.17150964,-0.8863805,-0.15925354,1.3430575,1.5242332
-0.2,-0.2,0.6,-0.5235987755982988,-0.5235987755982988,1.1102230246251565e-16,1.1588894,1.6625466,0.40856776,0.14850567,0.36081678,0.7085352,0.593546,-0.5316424,1.5781944,-0.12435787,-0.854344,-0.14747238,1.3521851,1.5945251
-0.2,-0.2,0.6,-0.5235987755982988,-0.5235987755982988,1.1102230246251565e-16,1.1765931,1.6636895,0.40030903,0.14494026,0.36833492,0.72444314,0.606651,-0.545334,1.5813155,-0.15639676,-0.8321503,-0.12677675,1.3502809,1.5706664
-0.2,-0.2,0.6,-0.5235987755982988,-0.5235987755982988,1.1102230246251565e-16,1.1761299,1.6578224,0.4054871,0.14091958,0.37655225,0.7045618,0.61923206,-0.52094793,1.578325,-0.14192262,-0.81663984,-0.09138329,1.3451453,1.4722396
-0.2,-0.2,0.6,-0.5235987755982988,-0.5235987755982988,1.1102230246251565e-16,1.1503832,1.6586459,0.36835206,0.17339498,0.34451777,0.70166296,0.6373714,-0.5402797,1.5776979,-0.14137998,-0.8474352,-0.14668055,1.3322252,1.5404685
-0.2,-0.2,0.6,-0.5235987755982988,-0.5235987755982988,1.1102230246251565e-16,1.1759403,1.6653934,0.38695976,0.15854853,0.373452,0.70094323,0.5967961,-0.5469417,1.5782201,-0.12501878,-0.85277766,-0.1492711,1.3072716,1.4704139
-0.2,-0.2,0.6,-0.5235987755982988,-0.5235987755982988,1.1102230246251565e-16,1.1613134,1.6626713,0.38511986,0.15894866,0.38434908,0.69704175,0.6657404,-0.53422296,1.5697628,-0.13140358,-0.82967144,-0.13670608,1.3454723,1.6351337
-0.2,-0.2,0.6,-0.5235987755982988,-0.5235987755982988,1.1102230246251565e-16,1.167987,1.6503409,0.42414457,0.111870594,0.35878587,0.70322883,0.61575365,-0.5438974,1.5815071,-0.13317448,-0.8340432,-0.15062107,1.3740422,1.5797113
-0.2,-0.2,0.6,-0.5235987755982988,-0.5235987755982988,1.1102230246251565e-16,1.1653464,1.6569438,0.4116593,0.13961874,0.36855382,0.6974512,0.6334441,-0.5429492,1.5829763,-0.12124349,-0.86738735,-0.1480347,1.3823631,1.5160097
-0.2,-0.2,0.6,-0.5235987755982988,-0.5235987755982988,1.1102230246251565e-16,1.1755964,1.6639048,0.39275607,0.13381082,0.36340505,0.7167457,0.6393684,-0.53732157,1.5754244,-0.141037,-0.83761644,-0.09054493,1.3243347,1.5079869
-0.2,-0.2,0.6,-0.5235987755982988,-0.5235987755982988,1.1102230246251565e-16,1.167874,1.6711291,0.4009166,0.12756981,0.36528748,0.70287144,0.58318114,-0.555178,1.5797462,-0.13348271,-0.83562034,-0.13033509,1.3349061,1.6635622
-0.2,-0.2,0.6,-0.5235987755982988,-0.5235987755982988,1.1102230246251565e-16,1.1702011,1.6649141,0.3976157,0.13975233,0.38013178,0.70102257,0.6718874,-0.53024405,1.5837456,-0.14686036,-0.8579569,-0.1310643,1.3342707,1.5067904
-0.2,-0.2,0.6,-0.5235987755982988,-0.5235987755982988,1.1102230246251565e-16,1.1688265,1.6563361,0.40135628,0.15640447,0.36263278,0.70946366,0.60291207,-0.5559539,1.5779327,-0.13222829,-0.82612264,-0.11312916,1.3402051,1.4559591
-0.2,-0.2,0.6,-0.5235987755982988,-0.5235987755982988,1.1102230246251565e-16,1.1588054,1.6554921,0.3991588,0.15319873,0.35350224,0.70896786,0.57822883,-0.5452222,1.576392,-0.13375248,-0.83124346,-0.1169358,1.350634,1.588186
-0.2,-0.2,0.6,-0.5235987755982988,-0.5235987755982988,1.1102230246251565e-16,1.15811,1.6592776,0.38786247,0.175017,0.36824736,0.6921831,0.61448765,-0.5487494,1.5868475,-0.1259507,-0.85279167,-0.13719507,1.332375,1.5428399
-0.2,-0.2,0.6,-0.5235987755982988,-0.5235987755982988,1.1102230246251565e-16,1.1589065,1.656759,0.40005586,0.15123367,0.39715993,0.68893236,0.5861884,-0.54537153,1.5742835,-0.13567752,-0.86632,-0.0973697,1.3622601,1.5724247
-0.2,-0.2,0.6,-0.5235987755982988,-0.5235987755982988,1.1102230246251565e-16,1.1658025,1.6667578,0.40363535,0.14724386,0.37661913,0.71949977,0.5725355,-0.54004025,1.576906,-0.118034884,-0.8215451,-0.12030855,1.3456236,1.5775552
-0.2,-0.2,0.6,-0.5235987755982988,-0.5235987755982988,1.1102230246251565e-16,1.1892003,1.6691374,0.41171902,0.16089506,0.3752915,0.69453233,0.6373762,-0.56517315,1.5839256,-0.1339183,-0.8804228,-0.12567866,1.3843621,1.5370831
-0.2,-0.2,0.6,-0.5235987755982988,-0.5235987755982988,1.1102230246251565e-16,1.1411312,1.6612041,0.38083875,0.19028984,0.35362336,0.7135775,0.62065774,-0.5651756,1.5747063,-0.13556372,-0.8446495,-0.13198389,1.3936489,1.5145102
-0.2,-0.2,0.6,-0.5235987755982988,-0.5235987755982988,1.1102230246251565e-16,1.1515715,1.6603221,0.3877564,0.15469918,0.34106025,0.712553,0.6321319,-0.55386406,1.5795715,-0.1537669,-0.8812579,-0.10193088,1.3538483,1.5691171
-0.2,-0.2,0.6,-0.5235987755982988,-0.5235987755982988,1.1102230246251565e-16,1.1516238,1.675757,0.40112463,0.14109223,0.38336182,0.71762925,0.5904922,-0.53958225,1.5797756,-0.122826464,-0.8203676,-0.13847868,1.3333931,1.5893276
-0.2,-0.2,0.6,-0.5235987755982988,-0.5235987755982988,1.1102230246251565e-16,1.1740421,1.6552997,0.42260405,0.13881609,0.36423787,0.72214603,0.6824105,-0.5516582,1.5786783,-0.104441375,-0.8522131,-0.12886707,1.4042555,1.4982433
-0.2,-0.2,0.6,-0.5235987755982988,-0.5235987755982988,1.1102230246251565e-16,1.1611363,1.6818366,0.3876254,0.15621993,0.37195683,0.72477955,0.6786556,-0.53797585,1.5808747,-0.118882075,-0.82073164,-0.1347332,1.3164287,1.4286135
-0.2,-0.2,0.6,-0.5235987755982988,-0.5235987755982988,1.1102230246251565e-16,1.1505866,1.6688756,0.39674747,0.15643245,0.37805277,0.7046077,0.63160396,-0.5520977,1.5782304,-0.1225689,-0.86273825,-0.14899284,1.365876,1.5846816
-0.2,-0.2,0.6,-0.5235987755982988,-0.5235987755982988,1.1102230246251565e-16,1.1734557,1.6540275,0.41160828,0.13987622,0.35561746,0.70139575,0.61338115,-0.55411595,1.5792648,-0.13553262,-0.83475685,-0.13825527,1.345885,1.5603878
-0.2,-0.2,0.6,-0.5235987755982988,-0.5235987755982988,1.1102230246251565e-16,1.1771,1.6624279,0.38998067,0.16078845,0.37365326,0.69241244,0.61892056,-0.5483828,1.5823585,-0.1325939,-0.9068895,-0.12700513,1.372072,1.5117624
-0.2,-0.2,0.6,-0.5235987755982988,-0.5235987755982988,1.1102230246251565e-16,1.171672,1.6446506,0.41719863,0.13842545,0.38186106,0.70571834,0.589414,-0.5325253,1.5751481,-0.12970439,-0.827175,-0.17046411,1.387356,1.6250385
-0.2,-0.2,0.6,-0.5235987755982988,-0.5235987755982988,1.1102230246251565e-16,1.1753412,1.6728969,0.43072113,0.14130677,0.3777172,0.707872,0.6404973,-0.54691625,1.571722,-0.10399937,-0.82954156,-0.13956107,1.3887571,1.540375
-0.2,-0.2,0.6,-0.5235987755982988,-0.5235987755982988,1.1102230246251565e-16,1.1684607,1.671189,0.40248343,0.17461452,0.383891,0.7101658,0.5429778,-0.5388122,1.5753953,-0.13310288,-0.873014,-0.13386868,1.3930547,1.5742091
-0.2,-0.2,0.6,-0.5235987755982988,-0.5235987755982988,1.1102230246251565e-16,1.1694235,1.6546712,0.39833853,0.14919765,0.38190502,0.7058017,0.6147047,-0.54774797,1.5823907,-0.13351329,-0.8660153,-0.09614336,1.3749312,1.5969564
-0.2,-0.2,0.6,-0.5235987755982988,-0.5235987755982988,1.1102230246251565e-16,1.1585131,1.6570728,0.41153374,0.1528974,0.37347016,0.70362914,0.66340166,-0.5316527,1.5767245,-0.120198525,-0.8083127,-0.12461051,1.3582494,1.5818282
-0.2,-0.2,0.6,-0.5235987755982988,-0.5235987755982988,1.1102230246251565e-16,1.1680393,1.6644418,0.37632582,0.15000495,0.3800923,0.70162445,0.57608575,-0.547591,1.5779783,-0.12694633,-0.82200915,-0.13187377,1.290588,1.5687861
-0.2,-0.2,0.6,-0.5235987755982988,-0.5235987755982988,1.1102230246251565e-16,1.1478579,1.6486709,0.39764914,0.1274195,0.39131573,0.7131703,0.62429297,-0.54680187,1.5810577,-0.13330957,-0.8351835,-0.110689335,1.3175601,1.479494
-0.2,-0.2,0.6,-0.5235987755982988,-0.5235987755982988,1.1102230246251565e-16,1.1844058,1.6687149,0.39161608,0.16644008,0.36977234,0.69228727,0.6203515,-0.5471744,1.5725931,-0.1304672,-0.8418375,-0.12054678,1.3326125,1.5036324
-0.2,-0.2,0.6,-0.5235987755982988,-0.5235987755982988,1.1102230246251565e-16,1.1548837,1.6641303,0.39152962,0.13575387,0.37902647,0.7026059,0.60776275,-0.54018104,1.5856643,-0.12887396,-0.8431736,-0.09974071,1.3362529,1.471813
-0.2,-0.2,0.6,-0.5235987755982988,-0.5235987755982988,1.1102230246251565e-16,1.1798074,1.6520578,0.39451972,0.17195666,0.35951853,0.6984942,0.68188477,-0.539658,1.5746576,-0.12979579,-0.84728694,-0.14347896,1.3676844,1.5718768
-0.2,-0.2,0.6,-0.5235987755982988,-0.5235987755982988,1.1102230246251565e-16,1.1616246,1.6605492,0.4156316,0.1342702,0.36404145,0.6893047,0.58634084,-0.5486033,1.5805454,-0.114533745,-0.87745833,-0.13985577,1.363295,1.5740956
-0.2,-0.2,0.6,-0.5235987755982988,-0.5235987755982988,1.1102230246251565e-16,1.1681675,1.6654637,0.38680485,0.14676835,0.3777435,0.6946144,0.58270687,-0.5495298,1.5797876,-0.13785556,-0.87278086,-0.13908295,1.3599312,1.5639011
-0.2,-0.2,0.6,-0.5235987755982988,-0.5235987755982988,1.1102230246251565e-16,1.1685982,1.6731067,0.38271847,0.14462356,0.38216278,0.7062045,0.6144665,-0.5555233,1.5830578,-0.11894876,-0.8399335,-0.109312005,1.3310597,1.5292215
-0.2,-0.2,0.6,-0.5235987755982988,-0.5235987755982988,1.1102230246251565e-16,1.1734583,1.6666487,0.40312156,0.14452676,0.3407837,0.69462895,0.6384403,-0.5591567,1.5690309,-0.13819367,-0.87116456,-0.14476909,1.3652105,1.6217439
-0.2,-0.2,0.6,-0.5235987755982988,-0.5235987755982988,1.1102230246251565e-16,1.1709119,1.6508783,0.38732645,0.1630402,0.3669535,0.68688715,0.5977115,-0.54970264,1.5757753,-0.1576329,-0.8413419,-0.10863772,1.3110237,1.5222646
-0.2,-0.2,0.6,-0.5235987755982988,-0.5235987755982988,1.1102230246251565e-16,1.1624333,1.6685041,0.4090346,0.14632313,0.36949772,0.7088037,0.63603246,-0.5463302,1.5795943,-0.1439115,-0.83920896,-0.132734,1.3483274,1.6073829
-0.2,-0.2,0.6,-0.5235987755982988,-0.5235987755982988,1.1102230246251565e-16,1.1535097,1.6661589,0.39614227,0.20116882,0.37506798,0.6910269,0.5940213,-0.5459351,1.5716076,-0.1439216,-0.8312012,-0.11132961,1.3575009,1.6163946
-0.2,-0.2,0.6,-0.5235987755982988,-0.5235987755982988,1.1102230246251565e-16,1.1989374,1.6695098,0.39387396,0.14781372,0.3869176,0.72478884,0.55742776,-0.5302973,1.5836518,-0.14760335,-0.85802215,-0.14958847,1.3637779,1.6674193
-0.2,-0.2,0.6,-0.5235987755982988,-0.5235987755982988,1.1102230246251565e-16,1.1447487,1.6687778,0.39627698,0.14691286,0.3763458,0.691028,0.65493786,-0.54875034,1.5828563,-0.13719968,-0.87507045,-0.14670616,1.311197,1.4805386
-0.2,-0.2,0.6,-0.5235987755982988,-0.5235987755982988,1.1102230246251565e-16,1.1975783,1.6647465,0.3940575,0.1570529,0.37719268,0.7033038,0.6097745,-0.5482405,1.5802394,-0.11987066,-0.8572642,-0.13671649,1.3518611,1.448341
-0.2,-0.2,0.6,-0.5235987755982988,-0.5235987755982988,1.1102230246251565e-16,1.1736387,1.6668663,0.39683273,0.13512622,0.42481843,0.6978694,0.6258114,-0.5437664,1.5755581,-0.13241708,-0.8630965,-0.12777959,1.3488368,1.5781026
-0.2,-0.2,0.6,-0.5235987755982988,-0.5235987755982988,1.1102230246251565e-16,1.1455287,1.6639613,0.40510422,0.18574375,0.37365526,0.6990334,0.6201573,-0.5538926,1.5711519,-0.1361803,-0.82671833,-0.10456836,1.3738077,1.4646289
-0.2,-0.2,0.6,-0.5235987755982988,-0.5235987755982988,1.1102230246251565e-16,1.1722839,1.6625957,0.38878414,0.14163643,0.38150147,0.70967525,0.6174917,-0.54529756,1.576775,-0.10584797,-0.8367307,-0.13208106,1.3413976,1.6436893
-0.2,-0.2,0.6,-0.5235987755982988,-0.5235987755982988,1.1102230246251565e-16,1.1619483,1.668147,0.39874873,0.13929391,0.35078788,0.69195825,0.6078524,-0.5707019,1.5794569,-0.11640599,-0.8856364,-0.12622344,1.3408889,1.5647051
-0.2,-0.2,0.6,-0.5235987755982988,-0.5235987755982988,1.1102230246251565e-16,1.1604115,1.6731654,0.4052484,0.14074744,0.39818162,0.7212367,0.6075736,-0.5439879,1.5796627,-0.127897,-0.83859396,-0.12294532,1.3390185,1.5573275
-0.2,-0.2,0.6,-0.5235987755982988,-0.5235987755982988,1.1102230246251565e-16,1.1775298,1.6740917,0.39542034,0.13884531,0.35723943,0.72005814,0.6311168,-0.53863436,1.5818697,-0.14065284,-0.8346518,-0.1599853,1.3067816,1.5509263
-0.2,-0.2,0.6,-0.5235987755982988,-0.5235987755982988,1.1102230246251565e-16,1.1666324,1.652015,0.41008,0.11411556,0.39622104,0.7084447,0.653789,-0.5439105,1.5747873,-0.12374947,-0.8557878,-0.11421472,1.3717681,1.6088736
-0.2,-0.2,0.6,-0.5235987755982988,-0.5235987755982988,1.1102230246251565e-16,1.1382163,1.6678233,0.40556723,0.14971359,0.37967944,0.69862676,0.6074849,-0.5487777,1.5713434,-0.123799436,-0.81078404,-0.13995236,1.3110158,1.5430349
-0.2,-0.2,0.6,-0.5235987755982988,-0.5235987755982988,1.1102230246251565e-16,1.1593579,1.6601512,0.38584813,0.15532431,0.36788926,0.7144626,0.6427125,-0.5454657,1.5793751,-0.14475122,-0.848566,-0.13340302,1.3042219,1.5550241
-0.2,-0.2,0.6,-0.5235987755982988,-0.5235987755982988,1.1102230246251565e-16,1.1748868,1.6683879,0.379968,0.17090678,0.3887492,0.7206434,0.60161,-0.55971754,1.5804034,-0.11496944,-0.8853434,-0.13184631,1.3935587,1.5750027
-0.2,-0.2,0.6,-0.5235987755982988,-0.5235987755982988,1.1102230246251565e-16,1.1442246,1.6593026,0.3972215,0.15262371,0.36351553,0.6848426,0.66179025,-0.5341198,1.5717894,-0.13443863,-0.79965806,-0.13109799,1.3125628,1.567159
-0.2,-0.2,0.6,-0.5235987755982988,-0.5235987755982988,1.1102230246251565e-16,1.151035,1.6541286,0.40059444,0.16118069,0.34670016,0.7200876,0.6385609,-0.5467545,1.5799156,-0.14587933,-0.83977276,-0.13721423,1.3594632,1.6216987
-0.2,-0.2,0.6,-0.5235987755982988,-0.5235987755982988,1.1102230246251565e-16,1.1722313,1.6615419,0.39264628,0.15811652,0.37439203,0.7065632,0.6319773,-0.54930234,1.5731221,-0.12351321,-0.8390046,-0.13470197,1.3168185,1.4496764
-0.2,-0.2,0.6,-0.5235987755982988,-0.5235987755982988,1.1102230246251565e-16,1.1530923,1.6632895,0.40924302,0.13113831,0.3989408,0.7080113,0.6241322,-0.5472193,1.580021,-0.13195251,-0.83807874,-0.14047302,1.3316087,1.5624868
-0.2,-0.2,0.6,-0.5235987755982988,-0.5235987755982988,1.1102230246251565e-16,1.1757573,1.6496292,0.3919962,0.16986075,0.38194007,0.71699286,0.59806067,-0.559389,1.5733852,-0.14344136,-0.82480925,-0.113255695,1.3273772,1.4899045
-0.2,-0.2,0.6,-0.5235987755982988,-0.5235987755982988,1.1102230246251565e-16,1.1546972,1.6666822,0.39866492,0.15304749,0.37493694,0.70888764,0.5932866,-0.5417842,1.579552,-0.1158573,-0.8315793,-0.13860571,1.3549367,1.6740142
-0.2,-0.2,0.6,-0.5235987755982988,-0.5235987755982988,1.1102230246251565e-16,1.1475941,1.6515578,0.39962,0.12844798,0.37214226,0.7200292,0.5742667,-0.5465078,1.5791231,-0.12910165,-0.84352326,-0.11778357,1.3350997,1.5646964
-0.2,-0.2,0.6,-0.5235987755982988,-0.5235987755982988,1.1102230246251565e-16,1.1684078,1.6556374,0.4036746,0.1652977,0.3657651,0.7103278,0.6184558,-0.5422571,1.5798765,-0.10508344,-0.8826147,-0.14161772,1.4131515,1.574991
-0.2,-0.2,0.6,-0.5235987755982988,-0.5235987755982988,1.1102230246251565e-16,1.1833305,1.6768012,0.38922426,0.15096518,0.38947198,0.69099575,0.61297715,-0.53827447,1.5805134,-0.10395361,-0.8403662,-0.12231291,1.3504337,1.5232794
-0.2,-0.2,0.6,-0.5235987755982988,-0.5235987755982988,1.1102230246251565e-16,1.1647931,1.6745661,0.417196,0.15514098,0.38941318,0.7103095,0.5936895,-0.54143745,1.5727582,-0.13747765,-0.8171152,-0.101314455,1.3709861,1.5245006
-0.2,-0.2,0.6,-0.5235987755982988,-0.5235987755982988,1.1102230246251565e-16,1.1625482,1.6640114,0.38901997,0.15842101,0.3656709,0.7177723,0.59008396,-0.548236,1.5752707,-0.12904987,-0.83565843,-0.117831945,1.3325305,1.5644792
-0.2,-0.2,0.6,-0.5235987755982988,-0.5235987755982988,1.1102230246251565e-16,1.1577444,1.6531726,0.3787808,0.14531071,0.38674423,0.6973735,0.61499697,-0.5400989,1.5797719,-0.15084103,-0.8339375,-0.11725848,1.3185556,1.4914988
-0.2,-0.2,0.6,-0.5235987755982988,-0.5235987755982988,1.1102230246251565e-16,1.1876757,1.6727742,0.38818157,0.1644985,0.37256095,0.7101395,0.59994453,-0.55120003,1.5757998,-0.13805684,-0.8452904,-0.12576164,1.3475516,1.628061
-0.2,-0.2,0.6,-0.5235987755982988,-0.5235987755982988,1.1102230246251565e-16,1.1585904,1.6746058,0.43043885,0.14475207,0.360705,0.69859684,0.6348663,-0.54926205,1.5784538,-0.1308311,-0.8405584,-0.1389405,1.377533,1.6413888
-0.2,-0.2,0.6,-0.5235987755982988,-0.5235987755982988,1.1102230246251565e-16,1.1624005,1.6718161,0.3896754,0.1669645,0.36989582,0.70480114,0.554673,-0.5351116,1.5838029,-0.14959165,-0.86621577,-0.15915024,1.3241204,1.5054142
-0.2,-0.2,0.6,-0.5235987755982988,-0.5235987755982988,1.1102230246251565e-16,1.1703418,1.6661373,0.38888952,0.14612336,0.39710408,0.71032727,0.5983965,-0.55869174,1.582882,-0.1440583,-0.87539166,-0.12776761,1.3993254,1.6849754
-0.2,-0.2,0.6,-0.5235987755982988,-0.5235987755982988,1.1102230246251565e-16,1.1572316,1.6467845,0.394423,0.14557552,0.39202327,0.7015271,0.572781,-0.55042756,1.5792195,-0.12133226,-0.83733726,-0.14295088,1.3519808,1.5803351
-0.2,-0.2,0.6,-0.5235987755982988,-0.5235987755982988,1.1102230246251565e-16,1.1915587,1.6630837,0.38188845,0.14529946,0.3675583,0.6984425,0.6180826,-0.5471353,1.5780511,-0.12888588,-0.8559651,-0.13021527,1.311272,1.5188527
-0.2,-0.2,0.6,-0.5235987755982988,-0.5235987755982988,1.1102230246251565e-16,1.1691464,1.652725,0.40235534,0.13772038,0.38720363,0.70926225,0.6342657,-0.53404367,1.582045,-0.14042492,-0.8418441,-0.11475627,1.3426244,1.4359881
-0.2,-0.2,0.6,-0.5235987755982988,-0.5235987755982988,1.1102230246251565e-16,1.175628,1.6709763,0.404512,0.14882466,0.37701565,0.71736443,0.647329,-0.52673846,1.5803503,-0.13573498,-0.83667433,-0.11134538,1.377412,1.6613967
-0.2,-0.2,0.6,-0.5235987755982988,-0.5235987755982988,1.1102230246251565e-16,1.1618212,1.6650552,0.39320448,0.15928146,0.37065476,0.687289,0.5838576,-0.5483927,1.577572,-0.13369894,-0.8411054,-0.111966334,1.3342083,1.6145715
-0.2,-0.2,0.6,-0.5235987755982988,-0.5235987755982988,1.1102230246251565e-16,1.1822864,1.6676065,0.42229897,0.14867932,0.38323402,0.69431883,0.6518952,-0.54978883,1.575909,-0.11702751,-0.869153,-0.11554079,1.4210924,1.5274556
-0.2,-0.2,0.6,-0.5235987755982988,-0.5235987755982988,1.1102230246251565e-16,1.1418102,1.6786741,0.4178826,0.15745571,0.37823832,0.7154347,0.58895075,-0.55726117,1.5754749,-0.13150464,-0.90075827,-0.14184092,1.3919908,1.5079007
-0.2,-0.2,0.6,-0.5235987755982988,-0.5235987755982988,1.1102230246251565e-16,1.1717036,1.653678,0.38046739,0.18702789,0.36117202,0.7043602,0.61634743,-0.53792095,1.5788593,-0.12586683,-0.837146,-0.12757583,1.3558756,1.6000229
-0.2,-0.2,0.6,-0.5235987755982988,-0.5235987755982988,1.1102230246251565e-16,1.1909934,1.6662298,0.38907585,0.16709152,0.38471538,0.7130332,0.6068399,-0.54445434,1.58012,-0.13912205,-0.842183,-0.13940799,1.358266,1.592624
-0.2,-0.2,0.6,-0.5235987755982988,-0.5235987755982988,1.1102230246251565e-16,1.1868341,1.6660228,0.38323262,0.16902103,0.396021,0.7171187,0.5944366,-0.54231256,1.580274,-0.13885461,-0.8332079,-0.12578793,1.3570322,1.4901155
-0.2,-0.2,0.6,-0.5235987755982988,-0.5235987755982988,1.1102230246251565e-16,1.1873605,1.6740181,0.4202545,0.13109721,0.34228492,0.71462077,0.63905835,-0.5429206,1.5810479,-0.13920467,-0.8312894,-0.12761123,1.3895481,1.5123624
-0.2,-0.2,0.6,-0.5235987755982988,-0.5235987755982988,1.1102230246251565e-16,1.1518105,1.6650426,0.4015965,0.15082425,0.39008263,0.6927136,0.6271449,-0.5489065,1.5752946,-0.14354669,-0.86057186,-0.13217522,1.3265358,1.5003045
-0.2,-0.2,0.6,-0.5235987755982988,-0.5235987755982988,1.1102230246251565e-16,1.1605412,1.649747,0.38877216,0.1395037,0.35596588,0.73443025,0.61979246,-0.5448637,1.5851861,-0.13237733,-0.8731482,-0.104516715,1.367769,1.6082386
-0.2,-0.2,0.6,-0.5235987755982988,-0.5235987755982988,1.1102230246251565e-16,1.1628686,1.6656495,0.40779218,0.1768829,0.36347124,0.7188017,0.6248873,-0.56010604,1.574686,-0.1281929,-0.84009933,-0.1040364,1.3700552,1.4609652
-0.2,-0.2,0.6,-0.5235987755982988,-0.5235987755982988,1.1102230246251565e-16,1.1890322,1.662362,0.38399842,0.13141473,0.37862888,0.71690017,0.6403599,-0.5594267,1.5845724,-0.13083749,-0.8586895,-0.12222842,1.3176597,1.5391289
-0.2,-0.2,0.6,-0.5235987755982988,-0.5235987755982988,1.1102230246251565e-16,1.1692604,1.6715306,0.40538087,0.15101883,0.3896732,0.70515084,0.63569725,-0.5449024,1.5744442,-0.124404594,-0.8252,-0.14476949,1.3520907,1.5535666
-0.2,-0.2,0.6,-0.5235987755982988,-0.5235987755982988,1.1102230246251565e-16,1.1689659,1.6549168,0.39904404,0.15005788,0.38468724,0.68785244,0.6155646,-0.54231876,1.5789282,-0.123265594,-0.8295606,-0.15069075,1.3488946,1.4541038
-0.2,-0.2,0.6,-0.5235987755982988,-0.5235987755982988,1.1102230246251565e-16,1.1579144,1.6653148,0.3970216,0.16422743,0.37559158,0.7153667,0.6686342,-0.5418871,1.5808508,-0.13006441,-0.84154785,-0.10962478,1.3608031,1.621449
-0.2,-0.2,0.6,-0.5235987755982988,-0.5235987755982988,1.1102230246251565e-16,1.1949849,1.6807513,0.39079362,0.13676715,0.37360993,0.70623827,0.6314749,-0.5472507,1.5829731,-0.12700234,-0.84431493,-0.13208985,1.3297698,1.4191935
-0.2,-0.2,0.6,-0.5235987755982988,-0.5235987755982988,1.1102230246251565e-16,1.1755927,1.669092,0.39870432,0.16149889,0.37725276,0.7014146,0.59186333,-0.53956664,1.5793688,-0.1415089,-0.83304447,-0.1347998,1.3601124,1.5243824
-0.2,-0.2,0.6,-0.5235987755982988,-0.5235987755982988,1.1102230246251565e-16,1.1491067,1.6549257,0.39511093,0.14745452,0.38326395,0.70904744,0.6099074,-0.5476646,1.5796958,-0.1430459,-0.85056436,-0.14536883,1.3370178,1.621113
-0.2,-0.2,0.6,-0.5235987755982988,-0.5235987755982988,1.1102230246251565e-16,1.1947227,1.6652771,0.39749232,0.13715827,0.3620525,0.7229537,0.6371688,-0.54126334,1.5701952,-0.14262542,-0.85430646,-0.14840855,1.3429098,1.6355593
-0.2,-0.2,0.6,-0.5235987755982988,-0.5235987755982988,1.1102230246251565e-16,1.1776518,1.6673896,0.39366645,0.15490794,0.37753913,0.7101004,0.6245876,-0.5306897,1.583537,-0.1324246,-0.8628336,-0.13726047,1.38438,1.4979464
-0.2,-0.2,0.6,-0.5235987755982988,-0.5235987755982988,1.1102230246251565e-16,1.1938456,1.666111,0.39108074,0.1620159,0.3539748,0.6981729,0.62675655,-0.5441671,1.5765245,-0.12821795,-0.8504865,-0.14607118,1.3410553,1.5381266
-0.2,-0.2,0.6,-0.5235987755982988,-0.5235987755982988,1.1102230246251565e-16,1.1631905,1.6743418,0.40051353,0.14620295,0.38819548,0.6950525,0.5863721,-0.5377686,1.576376,-0.14684969,-0.8362116,-0.11998082,1.3167055,1.5782491
-0.2,-0.2,0.6,-0.5235987755982988,-0.5235987755982988,1.1102230246251565e-16,1.149441,1.6570138,0.38206956,0.17545336,0.3925294,0.7029805,0.58020884,-0.55334383,1.5826298,-0.15252878,-0.85625577,-0.16882837,1.3557159,1.5712285
-0.2,-0.2,0.6,-0.5235987755982988,-0.5235987755982988,1.1102230246251565e-16,1.1737995,1.6736752,0.39163077,0.17076883,0.39268526,0.6980476,0.5776464,-0.54903007,1.5797148,-0.11361046,-0.85059017,-0.14517759,1.3731271,1.6508437
-0.2,-0.2,0.6,-0.5235987755982988,-0.5235987755982988,1.1102230246251565e-16,1.1633799,1.6481172,0.38951433,0.16772291,0.3929513,0.71540433,0.5994745,-0.53108966,1.5774734,-0.15866111,-0.8394286,-0.12359801,1.3590022,1.589884
-0.2,-0.2,0.6,-0.5235987755982988,-0.5235987755982988,1.1102230246251565e-16,1.1765789,1.6665345,0.39067003,0.12810992,0.37168282,0.6941741,0.6617133,-0.5541684,1.5744941,-0.1356664,-0.88349646,-0.13179857,1.3440355,1.589843
-0.2,-0.2,0.6,-0.5235987755982988,-0.5235987755982988,1.1102230246251565e-16,1.1783944,1.6563363,0.37851623,0.13367319,0.3604932,0.72820985,0.58870506,-0.5458428,1.5761988,-0.13501672,-0.82287395,-0.14109893,1.310336,1.5532888
-0.2,-0.2,0.6,-0.5235987755982988,-0.5235987755982988,1.1102230246251565e-16,1.1630832,1.6673734,0.39046296,0.1508091,0.35989422,0.69403446,0.6548543,-0.5488429,1.5809928,-0.12333747,-0.86171246,-0.08971318,1.3306037,1.4662781
-0.2,-0.2,0.6,-0.5235987755982988,-0.5235987755982988,1.1102230246251565e-16,1.1724465,1.6658708,0.40139094,0.15681899,0.34991252,0.6944265,0.63332665,-0.5585276,1.5889308,-0.11792159,-0.87570924,-0.16584082,1.3673372,1.5644271
-0.2,-0.2,0.6,-0.5235987755982988,-0.5235987755982988,1.1102230246251565e-16,1.1649654,1.667035,0.3957213,0.1668065,0.38112855,0.69569635,0.58419955,-0.5521737,1.5757203,-0.1273732,-0.835344,-0.11852817,1.3392493,1.4355829
-0.2,-0.2,0.6,-0.5235987755982988,-0.5235987755982988,1.1102230246251565e-16,1.1923653,1.6598771,0.39401418,0.14535804,0.3849028,0.7188307,0.6194175,-0.5408235,1.5757338,-0.1130312,-0.84453213,-0.13652991,1.3669153,1.5622057
-0.2,-0.2,0.6,-0.5235987755982988,-0.5235987755982988,1.1102230246251565e-16,1.1572034,1.6574466,0.41951612,0.11948353,0.3570192,0.7168362,0.59603703,-0.5576848,1.5782679,-0.13001834,-0.8450699,-0.11721053,1.3709828,1.621892
-0.2,-0.2,0.6,-0.5235987755982988,-0.5235987755982988,1.1102230246251565e-16,1.1531616,1.6663038,0.40943086,0.13344027,0.38973886,0.6938809,0.6354326,-0.5541025,1.5797203,-0.12740682,-0.8579454,-0.096340664,1.342876,1.581622
-0.2,-0.2,0.6,-0.5235987755982988,-0.5235987755982988,1.1102230246251565e-16,1.1781354,1.6698732,0.38226247,0.15239875,0.39063808,0.6893674,0.6106443,-0.5438043,1.5764713,-0.13328859,-0.8402736,-0.13065472,1.2965741,1.4533018
-0.2,-0.2,0.6,-0.5235987755982988,-0.5235987755982988,1.1102230246251565e-16,1.1702474,1.6622341,0.39394566,0.13130137,0.38439026,0.7286197,0.59574574,-0.53737235,1.5747414,-0.13566831,-0.84821546,-0.12422062,1.3412412,1.518465
-0.2,-0.2,0.6,-0.5235987755982988,-0.5235987755982988,1.1102230246251565e-16,1.1675861,1.6696917,0.4047655,0.13695885,0.37108585,0.7069569,0.6291372,-0.547886,1.578526,-0.12691626,-0.84850454,-0.118722305,1.3548224,1.6406473
-0.2,-0.2,0.6,-0.5235987755982988,-0.5235987755982988,1.1102230246251565e-16,1.1892896,1.6605531,0.383948,0.16513018,0.35655332,0.69474554,0.64686,-0.55518055,1.577918,-0.1477269,-0.8451441,-0.10251826,1.3353373,1.6096525
-0.2,-0.2,0.6,-0.5235987755982988,-0.5235987755982988,1.1102230246251565e-16,1.1511998,1.6795288,0.41346195,0.13266975,0.35628465,0.7133244,0.60350496,-0.56233054,1.5699202,-0.12285185,-0.8239489,-0.14441217,1.3143377,1.5672295
-0.2,-0.2,0.6,-0.5235987755982988,-0.5235987755982988,1.1102230246251565e-16,1.1530366,1.6558678,0.39113662,0.13077474,0.36561278,0.7011488,0.61299634,-0.54178345,1.5835266,-0.14183204,-0.881814,-0.15119326,1.3258011,1.5447516
-0.2,-0.2,0.6,-0.5235987755982988,-0.5235987755982988,1.1102230246251565e-16,1.173938,1.6698236,0.39337626,0.14507258,0.41982916,0.6995549,0.60806566,-0.53129655,1.5705379,-0.103477016,-0.81482446,-0.13910769,1.3506812,1.644789
-0.2,-0.2,0.6,-0.5235987755982988,-0.5235987755982988,1.1102230246251565e-16,1.1789172,1.6521081,0.39340597,0.15490082,0.3433971,0.69824535,0.6460856,-0.54512584,1.5750955,-0.13023241,-0.82973987,-0.1564033,1.3187779,1.5400319
-0.2,-0.2,0.6,-0.5235987755982988,-0.5235987755982988,1.1102230246251565e-16,1.1657289,1.6600537,0.37718722,0.14860941,0.40262386,0.69631654,0.636246,-0.5622065,1.5810524,-0.12335891,-0.8776515,-0.12913285,1.3184823,1.5802016
-0.2,-0.2,0.6,-0.5235987755982988,-0.5235987755982988,1.1102230246251565e-16,1.1685677,1.6420687,0.4004867,0.14938606,0.34115267,0.69970006,0.61778307,-0.5544491,1.57119,-0.13830024,-0.8904036,-0.105071075,1.3816985,1.4624655
-0.2,-0.2,0.6,-0.5235987755982988,-0.5235987755982988,1.1102230246251565e-16,1.1711304,1.6599783,0.39684612,0.15977807,0.37845743,0.6966881,0.63363624,-0.5499313,1.5755084,-0.13849284,-0.8454327,-0.1267725,1.3719512,1.5682939
-0.2,-0.2,0.6,-0.5235987755982988,-0.5235987755982988,1.1102230246251565e-16,1.1844122,1.6557901,0.38383052,0.17361625,0.34793988,0.70006907,0.62993246,-0.5282207,1.574812,-0.13249159,-0.8232468,-0.14117984,1.3369411,1.593835
-0.2,-0.2,0.6,-0.5235987755982988,-0.5235987755982988,1.1102230246251565e-16,1.1583856,1.6581141,0.40902388,0.14146614,0.3531065,0.7173976,0.6111944,-0.549769,1.5754219,-0.12541348,-0.85342264,-0.15143019,1.3668624,1.6351708
-0.2,-0.2,0.6,-0.5235987755982988,-0.5235987755982988,1.1102230246251565e-16,1.1937511,1.6663432,0.38169056,0.13951513,0.3899739,0.7052972,0.62658423,-0.55243856,1.5772085,-0.117342874,-0.84074366,-0.104268506,1.321723,1.516641
-0.2,-0.2,0.6,-0.5235987755982988,-0.5235987755982988,1.1102230246251565e-16,1.1637164,1.674098,0.43989745,0.12763788,0.38042885,0.70803773,0.64008456,-0.5466269,1.5736874,-0.1404771,-0.84561545,-0.12298242,1.3925117,1.5776206
-0.2,-0.2,0.6,-0.5235987755982988,-0.5235987755982988,1.1102230246251565e-16,1.1733183,1.654265,0.39393243,0.15619706,0.3851077,0.7044108,0.63009024,-0.5538505,1.5756108,-0.13156113,-0.8410111,-0.11942337,1.318312,1.4887624
-0.2,-0.2,0.6,-0.5235987755982988,-0.5235987755982988,1.1102230246251565e-16,1.1823047,1.6601539,0.39393044,0.13968922,0.36432928,0.71992457,0.60298824,-0.54978096,1.579467,-0.120797426,-0.842166,-0.13996997,1.3589456,1.5487267
-0.2,-0.2,0.6,-0.5235987755982988,-0.5235987755982988,1.1102230246251565e-16,1.1635402,1.6527189,0.40422365,0.13740507,0.3603231,0.7009777,0.60643077,-0.5416988,1.578698,-0.14464594,-0.83462006,-0.12796825,1.3355286,1.5312974
-0.2,-0.2,0.6,-0.5235987755982988,-0.5235987755982988,1.1102230246251565e-16,1.1618301,1.6541045,0.40091562,0.14610949,0.37675297,0.7199386,0.6106451,-0.53882974,1.5781454,-0.15389828,-0.8328155,-0.103072315,1.3436642,1.4454602
-0.2,-0.2,0.6,-0.5235987755982988,-0.5235987755982988,1.1102230246251565e-16,1.154106,1.6522852,0.39302856,0.16025811,0.37926516,0.7085123,0.6092927,-0.5522398,1.5801736,-0.12654847,-0.851022,-0.14394075,1.3364046,1.5204109
-0.2,-0.2,0.6,-0.5235987755982988,-0.5235987755982988,1.1102230246251565e-16,1.1868461,1.6685182,0.40434402,0.13755046,0.3686566,0.71170515,0.6634768,-0.5476579,1.5773523,-0.12504259,-0.841081,-0.13026123,1.3783891,1.5780706
-0.2,-0.2,0.6,-0.5235987755982988,-0.5235987755982988,1.1102230246251565e-16,1.1425838,1.6387748,0.37730345,0.14273004,0.373275,0.7068265,0.6175592,-0.55017954,1.5775656,-0.1309008,-0.8589787,-0.14666203,1.3423793,1.5731772
-0.2,-0.2,0.6,-0.5235987755982988,-0.5235987755982988,1.1102230246251565e-16,1.168615,1.6585892,0.40132496,0.14224595,0.3767576,0.6975075,0.60422826,-0.52844316,1.5776445,-0.15667668,-0.8301477,-0.1559548,1.3203803,1.5941694
-0.2,-0.2,0.6,-0.5235987755982988,-0.5235987755982988,1.1102230246251565e-16,1.1375632,1.6672565,0.39977288,0.17742592,0.39647475,0.7232768,0.6223119,-0.5338102,1.5768948,-0.12926443,-0.85784286,-0.12109029,1.3954622,1.6082935
-0.2,-0.2,0.6,-0.5235987755982988,-0.5235987755982988,1.1102230246251565e-16,1.1665238,1.6448333,0.398968,0.13528575,0.3640255,0.7025227,0.60000217,-0.5433642,1.5814083,-0.116762966,-0.8587646,-0.15137076,1.3607965,1.646791
-0.2,-0.2,0.6,-0.5235987755982988,-0.5235987755982988,1.1102230246251565e-16,1.1746206,1.6632838,0.39533785,0.14039119,0.38772875,0.71326196,0.6304954,-0.55144167,1.5716691,-0.122601114,-0.8221358,-0.16284214,1.3343574,1.4965075
-0.2,-0.2,0.6,-0.5235987755982988,-0.5235987755982988,1.1102230246251565e-16,1.185685,1.6556832,0.39106932,0.10885006,0.37697157,0.7222506,0.6245489,-0.54479516,1.5731041,-0.12434733,-0.86706,-0.13774137,1.3518071,1.5534354
-0.2,-0.2,0.6,-0.5235987755982988,-0.5235987755982988,1.1102230246251565e-16,1.1696392,1.6712136,0.40457132,0.13924646,0.3726743,0.7004115,0.58613306,-0.5461462,1.5732149,-0.1332746,-0.86066675,-0.14748983,1.3375163,1.5364226
-0.2,-0.2,0.6,-0.5235987755982988,-0.5235987755982988,1.1102230246251565e-16,1.1465807,1.6516693,0.3989174,0.16773304,0.3803857,0.7207537,0.63342625,-0.5474224,1.5784681,-0.122108854,-0.9029802,-0.15410167,1.3979058,1.5438191
-0.2,-0.2,0.6,-0.5235987755982988,-0.5235987755982988,1.1102230246251565e-16,1.1475106,1.6590315,0.40110698,0.16308662,0.35884935,0.69692147,0.6021506,-0.54103434,1.5775626,-0.13902259,-0.8515784,-0.12898432,1.3493901,1.5966595
-0.2,-0.2,0.6,-0.5235987755982988,-0.5235987755982988,1.1102230246251565e-16,1.1598697,1.6445868,0.39572117,0.13073485,0.38743836,0.71459424,0.61802673,-0.54505086,1.5731547,-0.12839037,-0.8239395,-0.11441014,1.347873,1.5569366
-0.2,-0.2,0.6,-0.5235987755982988,-0.5235987755982988,1.1102230246251565e-16,1.1635482,1.6564722,0.3943739,0.16135287,0.39614847,0.73132634,0.6128679,-0.55457896,1.5705853,-0.14937916,-0.8404365,-0.110608235,1.3639843,1.5894796
-0.2,-0.2,0.6,-0.5235987755982988,-0.5235987755982988,1.1102230246251565e-16,1.1462089,1.6495448,0.39458793,0.14516266,0.37328586,0.71755135,0.57569546,-0.55814075,1.5714366,-0.118377574,-0.8238837,-0.119889304,1.3522356,1.6110721
-0.2,-0.2,0.6,-0.5235987755982988,-0.5235987755982988,1.1102230246251565e-16,1.1536566,1.6769872,0.38428783,0.16063923,0.35344306,0.7158328,0.62400204,-0.53619623,1.5820503,-0.12568612,-0.88893425,-0.13150552,1.3578717,1.5629014
-0.2,-0.2,0.6,-0.5235987755982988,-0.5235987755982988,1.1102230246251565e-16,1.1846828,1.6775675,0.4097054,0.143884,0.3695836,0.706026,0.6146095,-0.55237013,1.5757254,-0.14544308,-0.8395799,-0.098028846,1.3439829,1.5492276
-0.2,-0.2,0.6,-0.5235987755982988,-0.5235987755982988,1.1102230246251565e-16,1.1690415,1.6530441,0.41172573,0.14990678,0.37597692,0.715096,0.6447877,-0.53963923,1.5715259,-0.13123144,-0.8204299,-0.1640579,1.361363,1.5363231
-0.2,-0.2,0.6,-0.5235987755982988,-0.5235987755982988,1.1102230246251565e-16,1.1649015,1.6539291,0.399478,0.14426775,0.3875466,0.704128,0.59716684,-0.5375521,1.5829206,-0.14246026,-0.8581391,-0.13020654,1.3549939,1.3968366
-0.2,-0.2,0.6,-0.5235987755982988,-0.5235987755982988,1.1102230246251565e-16,1.1771615,1.6626369,0.39438212,0.15647562,0.35166124,0.7028036,0.6044602,-0.54507387,1.5761086,-0.13934626,-0.85646236,-0.13577679,1.3331915,1.4935752
-0.2,-0.2,0.6,-0.5235987755982988,-0.5235987755982988,1.1102230246251565e-16,1.1586175,1.6476794,0.39921626,0.14838803,0.38156176,0.70940655,0.61451,-0.54538393,1.577531,-0.12709346,-0.8447269,-0.11803703,1.3702893,1.5647095
-0.2,-0.2,0.6,-0.5235987755982988,-0.5235987755982988,1.1102230246251565e-16,1.170631,1.6637393,0.38739172,0.17820187,0.35669836,0.7059272,0.6420414,-0.5539475,1.5803208,-0.13545617,-0.8485069,-0.13739654,1.3429283,1.5299971
-0.2,-0.2,0.6,-0.5235987755982988,-0.5235987755982988,1.1102230246251565e-16,1.17983,1.6615518,0.3802259,0.13925458,0.4084801,0.705835,0.62825555,-0.5615766,1.57622,-0.12348257,-0.8622032,-0.12879585,1.329275,1.6086713
-0.2,-0.2,0.6,-0.5235987755982988,-0.5235987755982988,1.1102230246251565e-16,1.1682272,1.6632717,0.39621705,0.16081165,0.34551376,0.7022155,0.6269331,-0.54886395,1.5727522,-0.14102721,-0.8350384,-0.15010795,1.3311032,1.6467404
-0.2,-0.2,0.6,-0.5235987755982988,-0.5235987755982988,1.1102230246251565e-16,1.1556852,1.652031,0.40719298,0.13953248,0.39694604,0.70883125,0.62061,-0.5485459,1.5769247,-0.13372865,-0.8434248,-0.12022206,1.3658565,1.5738658
-0.2,-0.2,0.6,-0.5235987755982988,-0.5235987755982988,1.1102230246251565e-16,1.1740326,1.6626427,0.38572806,0.14153539,0.37487194,0.7186347,0.6376782,-0.55996734,1.5832925,-0.13519697,-0.8841838,-0.11837866,1.3405457,1.5818076
-0.2,-0.2,0.6,-0.5235987755982988,-0.5235987755982988,1.1102230246251565e-16,1.1491995,1.654361,0.43021187,0.1368442,0.39031252,0.6739158,0.6271281,-0.56412345,1.5711806,-0.13187784,-0.8451858,-0.11810227,1.3450108,1.4386898
-0.2,-0.2,0.6,-0.5235987755982988,-0.5235987755982988,1.1102230246251565e-16,1.1887385,1.6639153,0.400304,0.14541936,0.36181724,0.7168123,0.6320334,-0.55385864,1.5784255,-0.11102241,-0.8706278,-0.10783869,1.3819848,1.4028813
-0.2,-0.2,0.6,-0.5235987755982988,-0.5235987755982988,1.1102230246251565e-16,1.1615387,1.6582403,0.40232292,0.12566449,0.37873322,0.7273792,0.5796248,-0.5414015,1.577338,-0.1292277,-0.8561215,-0.15116423,1.34786,1.5032674
-0.2,-0.2,0.6,-0.5235987755982988,-0.5235987755982988,1.1102230246251565e-16,1.180025,1.6699808,0.38907722,0.17695314,0.3502573,0.6831315,0.64357746,-0.5560921,1.5743103,-0.114764966,-0.83524555,-0.11637282,1.3260467,1.4361569
-0.2,-0.2,0.6,-0.5235987755982988,-0.5235987755982988,1.1102230246251565e-16,1.1718048,1.672033,0.39366326,0.1452367,0.40239725,0.6984416,0.6453268,-0.5583961,1.5705076,-0.13088611,-0.8618876,-0.12771887,1.3766788,1.5614612
-0.2,-0.2,0.6,-0.5235987755982988,-0.5235987755982988,1.1102230246251565e-16,1.169029,1.6706265,0.38811904,0.14862862,0.3809173,0.71326494,0.6158921,-0.5209902,1.5768167,-0.123383805,-0.8256383,-0.14049332,1.3388231,1.5899342
-0.2,-0.2,0.6,-0.5235987755982988,-0.5235987755982988,1.1102230246251565e-16,1.1489675,1.6636199,0.38889602,0.16719913,0.37148857,0.710163,0.5975088,-0.5410053,1.5788958,-0.1230372,-0.8448824,-0.15220013,1.3392903,1.5854712
-0.2,-0.2,0.6,-0.5235987755982988,-0.5235987755982988,1.1102230246251565e-16,1.1704818,1.6655777,0.40087515,0.12865084,0.368854,0.67218703,0.66176,-0.5523083,1.5768349,-0.13038215,-0.8881355,-0.09925848,1.3570687,1.5307541
-0.2,-0.2,0.6,-0.5235987755982988,-0.5235987755982988,1.1102230246251565e-16,1.157898,1.6689267,0.4049094,0.14754806,0.3954583,0.70843875,0.65517205,-0.53723836,1.5703381,-0.13773789,-0.81747305,-0.14446361,1.3582788,1.6000056
-0.2,-0.2,0.6,-0.5235987755982988,-0.5235987755982988,1.1102230246251565e-16,1.1782287,1.640474,0.38565832,0.15528695,0.35344437,0.7056249,0.61678106,-0.5396768,1.5830638,-0.13289805,-0.8627716,-0.13008662,1.3612465,1.5646358
-0.2,-0.2,0.6,-0.5235987755982988,-0.5235987755982988,1.1102230246251565e-16,1.178466,1.655341,0.38497123,0.16212867,0.3615424,0.7045061,0.6331959,-0.53825456,1.5786878,-0.15096898,-0.83420104,-0.134901,1.3313626,1.5391794
-0.2,-0.2,0.6,-0.5235987755982988,-0.5235987755982988,1.1102230246251565e-16,1.161751,1.6688259,0.40530536,0.12382585,0.3896218,0.7003501,0.62397647,-0.5461844,1.5727303,-0.13085504,-0.8214429,-0.107769236,1.3465242,1.6534036
-0.2,-0.2,0.6,-0.5235987755982988,-0.5235987755982988,1.1102230246251565e-16,1.1786854,1.6650136,0.4013073,0.12856048,0.35430938,0.7310238,0.5781047,-0.55373675,1.5803784,-0.13228746,-0.85931444,-0.08200202,1.365539,1.5295435
-0.2,-0.2,0.6,-0.5235987755982988,-0.5235987755982988,1.1102230246251565e-16,1.1563705,1.6630944,0.40442553,0.13740502,0.3621823,0.69590795,0.6556533,-0.5488483,1.5743737,-0.12784877,-0.8448831,-0.11217995,1.3376199,1.586185
-0.2,-0.2,0.6,-0.5235987755982988,-0.5235987755982988,1.1102230246251565e-16,1.1720772,1.6645297,0.3893749,0.14801258,0.36912906,0.727743,0.6593954,-0.5600144,1.5781369,-0.12573762,-0.8516105,-0.13947038,1.3290725,1.4741752
-0.2,-0.2,0.6,-0.5235987755982988,-0.5235987755982988,1.1102230246251565e-16,1.1647034,1.6601169,0.38696504,0.11888635,0.3909243,0.6960662,0.6235629,-0.54140764,1.576638,-0.14126797,-0.8389846,-0.12972085,1.2762462,1.4435135
-0.2,-0.2,0.6,-0.5235987755982988,-0.5235987755982988,1.1102230246251565e-16,1.1422116,1.6615735,0.382722,0.16910577,0.3732387,0.7082421,0.6937155,-0.5492062,1.5768769,-0.13376473,-0.84145087,-0.1379095,1.3503875,1.4981449
-0.2,-0.2,0.6,-0.5235987755982988,-0.5235987755982988,1.1102230246251565e-16,1.1572433,1.659891,0.39072466,0.16642609,0.37345064,0.685879,0.6088585,-0.53313917,1.5764233,-0.14416116,-0.8343755,-0.12580359,1.3326114,1.6438429
-0.2,-0.2,0.6,-0.5235987755982988,-0.5235987755982988,1.1102230246251565e-16,1.1662968,1.6484863,0.3906115,0.14381415,0.34966695,0.6924735,0.6080771,-0.5398628,1.5719728,-0.11825573,-0.87317556,-0.10635614,1.3886832,1.5818008
-0.2,-0.2,0.6,-0.5235987755982988,-0.5235987755982988,1.1102230246251565e-16,1.1600864,1.648505,0.36661792,0.14504784,0.3678191,0.6965091,0.6068068,-0.5410804,1.5792062,-0.12998098,-0.89921117,-0.12698871,1.3698598,1.5638096
-0.2,-0.2,0.6,-0.5235987755982988,-0.5235987755982988,1.1102230246251565e-16,1.1740524,1.6539495,0.3781485,0.14448571,0.39900982,0.7072964,0.6154058,-0.53885853,1.5804632,-0.12793557,-0.85464066,-0.14786004,1.3418567,1.6770914
-0.2,-0.2,0.6,-0.5235987755982988,-0.5235987755982988,1.1102230246251565e-16,1.1720127,1.6666433,0.39422587,0.1482133,0.36925882,0.6944492,0.5865895,-0.5412632,1.5762205,-0.12759405,-0.8325261,-0.16540845,1.3283783,1.5835824
-0.2,-0.2,0.6,-0.5235987755982988,-0.5235987755982988,1.1102230246251565e-16,1.1711979,1.6603682,0.39013723,0.15595876,0.38091773,0.7041423,0.6019159,-0.54422224,1.5818917,-0.13899295,-0.85713834,-0.16173649,1.3352884,1.565785
-0.2,-0.2,0.6,-0.5235987755982988,-0.5235987755982988,1.1102230246251565e-16,1.1660519,1.6708375,0.3978953,0.13899195,0.3535455,0.71444464,0.6368947,-0.5426143,1.5769441,-0.13051647,-0.8333239,-0.14458951,1.3309412,1.5663636
-0.2,-0.2,0.6,-0.5235987755982988,-0.5235987755982988,1.1102230246251565e-16,1.1620817,1.6565504,0.41667315,0.15172775,0.3682577,0.68577677,0.6467905,-0.55462825,1.5724097,-0.1301695,-0.8376112,-0.12689975,1.3593619,1.6234512
-0.2,-0.2,0.6,-0.5235987755982988,-0.5235987755982988,1.1102230246251565e-16,1.1712385,1.6597282,0.37699783,0.16838913,0.38921648,0.6963756,0.6088905,-0.54801095,1.5744904,-0.13474517,-0.8503106,-0.1346263,1.3211956,1.5542821
-0.2,-0.2,0.6,-0.5235987755982988,-0.5235987755982988,1.1102230246251565e-16,1.1761874,1.6654325,0.37684345,0.17447342,0.35292447,0.70515025,0.6371087,-0.5475575,1.5828724,-0.12994516,-0.8606152,-0.12824713,1.3274418,1.5910625
-0.2,-0.2,0.6,-0.5235987755982988,-0.5235987755982988,1.1102230246251565e-16,1.1749476,1.6574403,0.39692664,0.13132289,0.40553096,0.700754,0.60980195,-0.5382435,1.5757517,-0.13281886,-0.8377801,-0.118097745,1.3252776,1.4761903
-0.2,-0.2,0.6,-0.5235987755982988,-0.5235987755982988,1.1102230246251565e-16,1.1736753,1.6559378,0.3761413,0.12883806,0.39883024,0.7143007,0.63525176,-0.546007,1.5836997,-0.13887857,-0.856031,-0.14839107,1.3365291,1.473345
-0.2,-0.2,0.6,-0.5235987755982988,-0.5235987755982988,1.1102230246251565e-16,1.1810501,1.6533409,0.41982284,0.14776833,0.35503167,0.70184845,0.6245243,-0.5504863,1.5758141,-0.14293277,-0.8552174,-0.13862312,1.3786165,1.3502803
-0.2,-0.2,0.6,-0.5235987755982988,-0.5235987755982988,1.1102230246251565e-16,1.1495113,1.6804333,0.3930693,0.15748377,0.37473872,0.71635485,0.64262813,-0.54708004,1.5734423,-0.123708166,-0.8515092,-0.12279592,1.3424554,1.6257849
-0.2,-0.2,0.6,-0.5235987755982988,-0.5235987755982988,1.1102230246251565e-16,1.1621008,1.647288,0.3757617,0.1618003,0.39320278,0.6922788,0.58743566,-0.55175364,1.5781152,-0.1285089,-0.8502634,-0.11557985,1.3314366,1.5799978
-0.2,-0.2,0.6,-0.5235987755982988,-0.5235987755982988,1.1102230246251565e-16,1.1824341,1.6729351,0.40350282,0.14381786,0.39528129,0.6950817,0.61763877,-0.54221195,1.580333,-0.14561853,-0.84923875,-0.16737185,1.3400543,1.6349229
-0.2,-0.2,0.6,-0.5235987755982988,-0.5235987755982988,1.1102230246251565e-16,1.1794326,1.6650736,0.38313878,0.1456115,0.3476086,0.71022296,0.6164804,-0.5467241,1.5771966,-0.12085731,-0.8625889,-0.11118778,1.3286233,1.4594747
-0.2,-0.2,0.6,-0.5235987755982988,-0.5235987755982988,1.1102230246251565e-16,1.1603054,1.6604639,0.40737528,0.13180238,0.38068548,0.6829427,0.61675286,-0.5295893,1.5794854,-0.13102233,-0.8363336,-0.13021792,1.3583235,1.6654445
-0.2,-0.2,0.6,-0.5235987755982988,-0.5235987755982988,1.1102230246251565e-16,1.167095,1.6630336,0.3913233,0.13520847,0.34938458,0.7052336,0.5947787,-0.5584162,1.5759819,-0.12048782,-0.851233,-0.09328775,1.3622735,1.6025778
-0.2,-0.2,0.6,-0.5235987755982988,-0.5235987755982988,1.1102230246251565e-16,1.1790638,1.640719,0.38541266,0.13987409,0.363103,0.7143731,0.581666,-0.5265538,1.572333,-0.1197648,-0.8581689,-0.12113641,1.3751774,1.4291534
-0.2,-0.2,0.6,-0.5235987755982988,-0.5235987755982988,1.1102230246251565e-16,1.1806028,1.6646441,0.3767209,0.1587704,0.38545167,0.7052455,0.6068625,-0.5522399,1.5749884,-0.1263158,-0.8428343,-0.16937108,1.3085829,1.5726792
-0.2,-0.2,0.6,-0.5235987755982988,-0.5235987755982988,1.1102230246251565e-16,1.1587915,1.6624776,0.3941458,0.12562807,0.3929971,0.7173456,0.6649228,-0.55590314,1.5779359,-0.11229002,-0.86001146,-0.11853,1.3560029,1.621146
-0.2,-0.2,0.6,-0.5235987755982988,-0.5235987755982988,1.1102230246251565e-16,1.1468648,1.6664624,0.3810737,0.17290223,0.37572438,0.704611,0.56969887,-0.54538554,1.572858,-0.12974906,-0.8324629,-0.14595632,1.3733969,1.5166717
-0.2,-0.2,0.6,-0.5235987755982988,-0.5235987755982988,1.1102230246251565e-16,1.1753762,1.6543115,0.39880735,0.13570596,0.38584286,0.7330665,0.6014378,-0.5566393,1.5735304,-0.13952525,-0.87932545,-0.1438616,1.3681682,1.5643404
-0.2,-0.2,0.6,-0.5235987755982988,-0.5235987755982988,1.1102230246251565e-16,1.1676713,1.6665542,0.38981205,0.14146332,0.38294363,0.7031938,0.6618324,-0.5263361,1.581479,-0.13050476,-0.84924966,-0.11109235,1.3486009,1.5630739
-0.2,-0.2,0.6,-0.5235987755982988,-0.5235987755982988,1.1102230246251565e-16,1.146845,1.6610333,0.38296038,0.16197696,0.38187963,0.7063142,0.6502762,-0.55283433,1.5768993,-0.12858574,-0.85155547,-0.1379718,1.3116848,1.5148913
-0.2,-0.2,0.6,-0.5235987755982988,-0.5235987755982988,1.1102230246251565e-16,1.1621877,1.6629239,0.39035228,0.16514426,0.37589565,0.6999627,0.6239977,-0.5450698,1.5763849,-0.14136793,-0.8447914,-0.14575157,1.3212785,1.5029423
-0.2,-0.2,0.6,-0.5235987755982988,-0.5235987755982988,1.1102230246251565e-16,1.1812963,1.6610123,0.38507092,0.14626996,0.35425717,0.7188718,0.6094849,-0.54572093,1.5763022,-0.1247763,-0.84237915,-0.13515635,1.3442098,1.5561603
-0.2,-0.2,0.6,-0.5235987755982988,-0.5235987755982988,1.1102230246251565e-16,1.1644392,1.6438644,0.40328017,0.1506462,0.3724434,0.67156744,0.63980305,-0.5614648,1.5788283,-0.13323537,-0.8712217,-0.15111357,1.3824604,1.6317582
-0.2,-0.2,0.6,-0.5235987755982988,-0.5235987755982988,1.1102230246251565e-16,1.169803,1.6647377,0.3946833,0.16014968,0.37371394,0.68447125,0.634721,-0.5355677,1.5796167,-0.12568133,-0.85385597,-0.13497242,1.3584108,1.62968
-0.2,-0.2,0.6,-0.5235987755982988,-0.5235987755982988,1.1102230246251565e-16,1.1582972,1.6617386,0.39379427,0.14996135,0.3740427,0.7060779,0.6023605,-0.56358993,1.5812119,-0.12564372,-0.863217,-0.13592453,1.3498002,1.565239
-0.2,-0.2,0.6,-0.5235987755982988,-0.5235987755982988,1.1102230246251565e-16,1.1679692,1.6638467,0.3996627,0.15169282,0.36651212,0.69022053,0.6290712,-0.5544559,1.5710249,-0.12038367,-0.848424,-0.12734994,1.32294,1.4098002
-0.2,-0.2,0.6,-0.5235987755982988,-0.5235987755982988,1.1102230246251565e-16,1.1605428,1.6571796,0.39131024,0.15593913,0.36342946,0.72215265,0.6161337,-0.5582096,1.575293,-0.12595522,-0.84559613,-0.15345708,1.348457,1.5180737
-0.2,-0.2,0.6,-0.5235987755982988,-0.5235987755982988,1.1102230246251565e-16,1.187444,1.6567887,0.38017514,0.15295067,0.374585,0.7169568,0.61055905,-0.5627588,1.5730577,-0.12231024,-0.8736608,-0.12968494,1.345088,1.5143049
-0.2,-0.2,0.6,-0.5235987755982988,-0.5235987755982988,1.1102230246251565e-16,1.1752505,1.6668109,0.3953601,0.16994645,0.3906451,0.7109494,0.67552614,-0.5367649,1.572802,-0.14980662,-0.8441464,-0.11111117,1.3829738,1.6676047
-0.2,-0.2,0.6,-0.5235987755982988,-0.5235987755982988,1.1102230246251565e-16,1.171976,1.6557543,0.38332525,0.14283814,0.38665262,0.6953702,0.64377135,-0.5351589,1.5780724,-0.1284813,-0.8570082,-0.13984597,1.3423412,1.5667162
-0.2,-0.2,0.6,-0.5235987755982988,-0.5235987755982988,1.1102230246251565e-16,1.1752882,1.6685505,0.41295317,0.13022219,0.36677966,0.7090765,0.646473,-0.5629009,1.5782312,-0.14960034,-0.8818789,-0.1272192,1.407954,1.5773107
-0.2,-0.2,0.6,-0.5235987755982988,-0.5235987755982988,1.1102230246251565e-16,1.188208,1.6563451,0.38924375,0.11933164,0.39489895,0.69919467,0.63896894,-0.55291337,1.5725428,-0.15283315,-0.8701845,-0.10087664,1.3348554,1.4872842
-0.2,-0.2,0.6,-0.5235987755982988,-0.5235987755982988,1.1102230246251565e-16,1.1690097,1.6659936,0.39593744,0.1514319,0.37023073,0.72188675,0.62278765,-0.5394446,1.5840526,-0.15489799,-0.9297844,-0.15454143,1.3940773,1.5380111
-0.2,-0.2,0.6,-0.5235987755982988,-0.5235987755982988,1.1102230246251565e-16,1.1597134,1.6559337,0.3908021,0.16661993,0.35786876,0.68976253,0.62217367,-0.55476654,1.5846952,-0.13653016,-0.86938226,-0.11376327,1.3463842,1.4640741
-0.2,-0.2,0.6,-0.5235987755982988,-0.5235987755982988,1.1102230246251565e-16,1.1632137,1.6528908,0.39267868,0.14779171,0.37433293,0.6901283,0.6491596,-0.53741926,1.5751725,-0.14037809,-0.8620005,-0.11630578,1.362781,1.5696801
-0.2,-0.2,0.6,-0.5235987755982988,-0.5235987755982988,1.1102230246251565e-16,1.1742798,1.6731734,0.38901573,0.1281553,0.371843,0.7133982,0.62242997,-0.54092425,1.5820984,-0.13423158,-0.8943622,-0.1424666,1.3509414,1.4931377
-0.2,-0.2,0.6,-0.5235987755982988,-0.5235987755982988,1.1102230246251565e-16,1.1879334,1.6622219,0.39529845,0.13035575,0.35853815,0.7019063,0.6685411,-0.5489345,1.5715575,-0.13692623,-0.8371575,-0.10805954,1.3276317,1.5790459
-0.2,-0.2,0.6,-0.5235987755982988,-0.5235987755982988,1.1102230246251565e-16,1.1704695,1.6656746,0.37434858,0.16058901,0.3850373,0.6991832,0.5822659,-0.5584528,1.5812756,-0.130324,-0.8982012,-0.1649451,1.3442404,1.5451473
-0.2,-0.2,0.6,-0.5235987755982988,-0.5235987755982988,1.1102230246251565e-16,1.1715374,1.673852,0.36979103,0.16658942,0.3644972,0.70776254,0.5941168,-0.53860176,1.5817665,-0.12349509,-0.89311993,-0.10315941,1.3677855,1.5789595
-0.2,-0.2,0.6,-0.5235987755982988,-0.5235987755982988,1.1102230246251565e-16,1.1771169,1.6668458,0.40954936,0.13000211,0.37155858,0.7022736,0.59876454,-0.5565085,1.5731653,-0.13289219,-0.8403696,-0.13447855,1.3390135,1.501741
-0.2,-0.2,0.6,-0.5235987755982988,-0.5235987755982988,1.1102230246251565e-16,1.1809258,1.6546804,0.38319966,0.13733757,0.33924225,0.7012986,0.6320781,-0.55774504,1.5771286,-0.14484848,-0.8496754,-0.14194752,1.2988994,1.5315094
-0.2,-0.2,0.6,-0.5235987755982988,-0.5235987755982988,1.1102230246251565e-16,1.1619265,1.6702814,0.39199024,0.14170834,0.3611414,0.677858,0.58219504,-0.5528152,1.5720819,-0.13753521,-0.830093,-0.14401232,1.3190157,1.513232
-0.2,-0.2,0.6,-0.5235987755982988,-0.5235987755982988,1.1102230246251565e-16,1.1682692,1.6781818,0.39095104,0.13942924,0.39300206,0.7202929,0.66893643,-0.5593534,1.5807502,-0.12768286,-0.8580235,-0.16613895,1.3358307,1.5508562
-0.2,-0.2,0.6,-0.5235987755982988,-0.5235987755982988,1.1102230246251565e-16,1.1947244,1.6501387,0.39106357,0.14275154,0.37061715,0.7041679,0.6140842,-0.5507968,1.5738175,-0.12855932,-0.86082065,-0.13367414,1.3533818,1.4719876
-0.2,-0.2,0.6,-0.5235987755982988,-0.5235987755982988,1.1102230246251565e-16,1.1644402,1.6679534,0.40960878,0.12861516,0.37329268,0.7090813,0.64877105,-0.54547024,1.5755105,-0.12129357,-0.8498165,-0.11955292,1.3431466,1.4452746
-0.2,-0.2,0.6,-0.5235987755982988,-0.5235987755982988,1.1102230246251565e-16,1.1762872,1.6624535,0.39517495,0.13562693,0.3870582,0.7012358,0.6529393,-0.534643,1.5812192,-0.14175184,-0.8626027,-0.16385451,1.3225032,1.4290962
-0.2,-0.2,0.6,-0.5235987755982988,-0.5235987755982988,1.1102230246251565e-16,1.1840588,1.6468744,0.39881918,0.1662946,0.36660388,0.703201,0.6250326,-0.54586434,1.5674264,-0.13322045,-0.83355975,-0.1504719,1.3511581,1.5284499
-0.2,-0.2,0.6,-0.5235987755982988,-0.5235987755982988,1.1102230246251565e-16,1.1871021,1.6484158,0.3752059,0.13820139,0.37824935,0.7062669,0.6406461,-0.5693575,1.5842702,-0.12543538,-0.8769837,-0.09568293,1.3597252,1.5495081
-0.2,-0.2,0.6,-0.5235987755982988,-0.5235987755982988,1.1102230246251565e-16,1.1565727,1.6605281,0.39976096,0.14429858,0.34213018,0.7094607,0.60658574,-0.5571494,1.579734,-0.14320084,-0.8560056,-0.16085774,1.3135599,1.4417944
-0.2,-0.2,0.6,-0.5235987755982988,-0.5235987755982988,1.1102230246251565e-16,1.1734941,1.6989752,0.39393833,0.14880306,0.34652975,0.7051324,0.6349056,-0.5440955,1.5761467,-0.09884798,-0.8749329,-0.12827936,1.358294,1.5781626
-0.2,-0.2,0.6,-0.5235987755982988,-0.5235987755982988,1.1102230246251565e-16,1.161279,1.6558133,0.38074395,0.17031358,0.39829546,0.69895,0.6364013,-0.5649808,1.5749104,-0.13736077,-0.8856476,-0.15418558,1.3668413,1.59808
-0.2,-0.2,0.6,-0.5235987755982988,-0.5235987755982988,1.1102230246251565e-16,1.1583029,1.6733377,0.39959568,0.15212424,0.3935011,0.7011154,0.6151019,-0.5373355,1.576128,-0.11916314,-0.8449244,-0.16018948,1.3345673,1.5633824
-0.2,-0.2,0.6,-0.5235987755982988,-0.5235987755982988,1.1102230246251565e-16,1.1500399,1.655428,0.39994583,0.15167677,0.36792818,0.7036752,0.64945,-0.5399101,1.5712962,-0.14303447,-0.8324243,-0.17138427,1.3588241,1.4864826
-0.2,-0.2,0.6,-0.5235987755982988,-0.5235987755982988,1.1102230246251565e-16,1.1542263,1.6639512,0.3988069,0.15109758,0.3723631,0.7171517,0.61648595,-0.5434105,1.5761155,-0.14479193,-0.8438152,-0.17231138,1.3301655,1.5448866
-0.2,-0.2,0.6,-0.5235987755982988,-0.5235987755982988,1.1102230246251565e-16,1.1656891,1.666681,0.3796727,0.14899936,0.36368597,0.72162217,0.5788612,-0.5492943,1.5849848,-0.15469597,-0.8721905,-0.13261917,1.3226016,1.5369343
-0.2,-0.2,0.6,-0.5235987755982988,-0.5235987755982988,1.1102230246251565e-16,1.1661631,1.6665486,0.39701355,0.14930741,0.35522634,0.7301061,0.6413458,-0.55167127,1.5764776,-0.12888299,-0.8505421,-0.10880294,1.3688893,1.5952747
-0.2,-0.2,0.6,-0.5235987755982988,-0.5235987755982988,1.1102230246251565e-16,1.1661426,1.6501387,0.41111442,0.139423,0.39505437,0.6905874,0.63073885,-0.511953,1.5825769,-0.14858955,-0.84898764,-0.1399748,1.4063886,1.6373583
-0.2,-0.2,0.6,-0.5235987755982988,-0.5235987755982988,1.1102230246251565e-16,1.1504663,1.6582586,0.4028795,0.12261025,0.3691781,0.7168423,0.6610406,-0.547916,1.576214,-0.11692389,-0.85018337,-0.14176415,1.3452492,1.5923761
-0.2,-0.2,0.6,-0.5235987755982988,-0.5235987755982988,1.1102230246251565e-16,1.1665232,1.6643404,0.41114885,0.13025801,0.37131563,0.6928846,0.6457206,-0.5321265,1.5715698,-0.13826074,-0.82400334,-0.14392655,1.3457361,1.5894357
-0.2,-0.2,0.6,-0.5235987755982988,-0.5235987755982988,1.1102230246251565e-16,1.1524487,1.6773483,0.393075,0.15543647,0.38490063,0.6933918,0.6399884,-0.54398686,1.5833403,-0.13129456,-0.87533957,-0.15323809,1.3342216,1.5792849
-0.2,-0.2,0.6,-0.5235987755982988,-0.5235987755982988,1.1102230246251565e-16,1.1569014,1.6603359,0.38627982,0.13956687,0.39901105,0.6818129,0.62194824,-0.5424176,1.5788215,-0.10711213,-0.87999076,-0.13263103,1.3625497,1.4854599
-0.2,-0.2,0.6,-0.5235987755982988,-0.5235987755982988,1.1102230246251565e-16,1.1773429,1.6502954,0.40205204,0.1355493,0.3634664,0.7117711,0.65177774,-0.5456189,1.5800173,-0.12765506,-0.8638971,-0.123679094,1.3866351,1.456067
-0.2,-0.2,0.6,-0.5235987755982988,-0.5235987755982988,1.1102230246251565e-16,1.1795849,1.6500944,0.38743234,0.15247215,0.34875,0.7248488,0.6199526,-0.5335767,1.5766263,-0.12847014,-0.84332305,-0.13115822,1.3650637,1.5812193
-0.2,-0.2,0.6,-0.5235987755982988,-0.5235987755982988,1.1102230246251565e-16,1.1536577,1.6686397,0.40919635,0.10966415,0.41213349,0.7034546,0.65549713,-0.5499372,1.57817,-0.14082216,-0.85644644,-0.12526996,1.322827,1.5822624
-0.2,-0.2,0.6,-0.5235987755982988,-0.5235987755982988,1.1102230246251565e-16,1.187071,1.6526476,0.36838275,0.16525076,0.39395916,0.6966231,0.5889413,-0.5467694,1.5797653,-0.12421874,-0.86400646,-0.1570296,1.3656516,1.5671251
-0.2,-0.2,0.6,-0.5235987755982988,-0.5235987755982988,1.1102230246251565e-16,1.1528593,1.6652085,0.39359242,0.15001968,0.37094903,0.7127925,0.60146177,-0.5486979,1.5727037,-0.13282555,-0.85100013,-0.109603725,1.3586282,1.5712242
-0.2,-0.2,0.6,-0.5235987755982988,-0.5235987755982988,1.1102230246251565e-16,1.1682899,1.6602615,0.39774436,0.12828934,0.3982228,0.7058746,0.6184426,-0.54217106,1.5754657,-0.12214066,-0.84651256,-0.13755196,1.3494422,1.6174234
-0.2,-0.2,0.6,-0.5235987755982988,-0.5235987755982988,1.1102230246251565e-16,1.1874076,1.6738739,0.3870922,0.14178458,0.3777812,0.6951688,0.5957381,-0.54034007,1.579945,-0.14259826,-0.85470825,-0.11537701,1.3387084,1.6680514
-0.2,-0.2,0.6,-0.5235987755982988,-0.5235987755982988,1.1102230246251565e-16,1.1552831,1.6561859,0.39935613,0.14562114,0.3921813,0.69645965,0.5715917,-0.5556865,1.5793277,-0.1325069,-0.8666683,-0.14304747,1.3747087,1.4989562
-0.2,-0.2,0.6,-0.5235987755982988,-0.5235987755982988,1.1102230246251565e-16,1.1726866,1.6638298,0.3583705,0.15400505,0.3906671,0.71070814,0.59573793,-0.5504385,1.582243,-0.1320258,-0.87248755,-0.15399733,1.3089519,1.5165972
-0.2,-0.2,0.6,-0.5235987755982988,-0.5235987755982988,1.1102230246251565e-16,1.1846654,1.6654389,0.39390516,0.13945912,0.360632,0.69098765,0.68651724,-0.53845394,1.5765047,-0.14348039,-0.8607769,-0.12925173,1.3701408,1.5340613
-0.2,-0.2,0.6,-0.5235987755982988,-0.5235987755982988,1.1102230246251565e-16,1.152286,1.6623193,0.39457732,0.15165079,0.35429278,0.7023315,0.6257659,-0.5515125,1.579359,-0.13413961,-0.88652843,-0.12628922,1.394636,1.5581243
-0.2,-0.2,0.6,-0.5235987755982988,-0.5235987755982988,1.1102230246251565e-16,1.1850412,1.667507,0.37784675,0.14865395,0.3719142,0.6959514,0.624923,-0.544228,1.5815046,-0.12069217,-0.8991443,-0.119289204,1.3511875,1.4503342
-0.2,-0.2,0.6,-0.5235987755982988,-0.5235987755982988,1.1102230246251565e-16,1.170491,1.6623868,0.39147213,0.14925894,0.36380112,0.6841058,0.6393047,-0.5417838,1.5808102,-0.12508044,-0.8755408,-0.12820758,1.3625245,1.5816362
-0.2,-0.2,0.6,-0.5235987755982988,-0.5235987755982988,1.1102230246251565e-16,1.1697973,1.6597427,0.40914682,0.15503216,0.36287504,0.7111254,0.640158,-0.539985,1.5753126,-0.13616095,-0.8586854,-0.1266027,1.3946214,1.5818329
-0.2,-0.2,0.6,-0.5235987755982988,-0.5235987755982988,1.1102230246251565e-16,1.1713667,1.6671062,0.38543978,0.1732559,0.37686726,0.6839084,0.65174896,-0.5431733,1.5757711,-0.12854351,-0.882566,-0.105294555,1.3770185,1.5147403
-0.2,-0.2,0.6,-0.5235987755982988,-0.5235987755982988,1.1102230246251565e-16,1.1795375,1.6611625,0.38140345,0.13541748,0.38814387,0.7131762,0.6377689,-0.55601174,1.5841452,-0.14498544,-0.8811251,-0.122965656,1.3515984,1.583906
