sanky1234/BimanualDexCatch/isaacgymenvs/cem_results/football_pose_-0.1_0.0_1.1999999999999997_0.0_0.0_0_2025-05-25.csv
x,y,z,roll,pitch,yaw,robot1/joint1,robot1/joint2,robot1/joint3,robot1/joint4,robot1/joint5,robot1/joint6,robot1/joint7,robot2/joint1,robot2/joint2,robot2/joint3,robot2/joint4,robot2/joint5,robot2/joint6,robot2/joint7
-0.1,0.0,1.1999999999999997,0.0,0.0,0,-0.95531666,-1.4646207,1.5780506,-0.12046203,0.06401761,1.1728789,-0.47268572,2.0731087,1.3983815,-0.08975293,-0.105116405,0.05042141,1.2601156,0.74406517
-0.1,0.0,1.1999999999999997,0.0,0.0,0,-0.95528096,-1.4644499,1.5779192,-0.087066196,0.093357734,1.1637847,0.0011722554,2.0731335,1.3980508,0.004487687,-0.07325147,0.05661954,1.2419745,1.3914231
-0.1,0.0,1.1999999999999997,0.0,0.0,0,-0.95529515,-1.4648674,1.5782611,-0.11888274,0.12901519,1.1952264,0.0026905,2.0731094,1.3982055,-0.12996206,-0.09267207,0.023763387,1.234273,0.43793333
-0.1,0.0,1.1999999999999997,0.0,0.0,0,-0.95529413,-1.4644094,1.5779924,-0.12318225,0.034729972,1.1739544,0.14747651,2.07296,1.3982652,0.025706206,-0.08323743,-0.037773788,1.2017154,1.1198323
-0.1,0.0,1.1999999999999997,0.0,0.0,0,-0.9552689,-1.4642702,1.5777551,-0.096100144,0.07754687,1.1777372,-0.021604393,2.0735605,1.3980871,0.0039673625,-0.08776419,0.02546313,1.2685477,1.9077442
-0.1,0.0,1.1999999999999997,0.0,0.0,0,-0.95531714,-1.4646075,1.5780712,-0.102289155,0.052888315,1.1944888,-1.0728506,2.0731163,1.3985255,0.020910662,-0.098269165,0.06272513,1.2292436,0.6930948
-0.1,0.0,1.1999999999999997,0.0,0.0,0,-0.95534027,-1.4643583,1.5781578,-0.10201966,0.09127646,1.1697919,0.0046909535,2.0730503,1.39835,0.021728562,-0.08579688,0.051183604,1.2029862,0.22827111
-0.1,0.0,1.1999999999999997,0.0,0.0,0,-0.95526356,-1.4638935,1.577998,-0.11463342,0.10215938,1.1707091,0.6085587,2.0733414,1.3978724,-0.06745259,-0.09654295,0.018239766,1.2240988,-0.15050912
-0.1,0.0,1.1999999999999997,0.0,0.0,0,-0.9552515,-1.4642316,1.5779377,-0.11328158,0.024027828,1.1727188,-0.49321753,2.073143,1.398285,0.0014884279,-0.09729888,0.02037155,1.2622894,0.24599274
-0.1,0.0,1.1999999999999997,0.0,0.0,0,-0.95528555,-1.4643847,1.5778933,-0.13580385,0.0855104,1.1676596,0.36417234,2.0734982,1.3979535,0.0906128,-0.05848206,-0.033810433,1.2064017,1.9137719
-0.1,0.0,1.1999999999999997,0.0,0.0,0,-0.9552969,-1.4646553,1.5778512,-0.10836638,-0.006263464,1.1847608,-0.5605773,2.0735538,1.3982627,-0.033585977,-0.09568638,-0.03902886,1.2700094,1.2685978
-0.1,0.0,1.1999999999999997,0.0,0.0,0,-0.95533955,-1.4643152,1.5783715,-0.10754124,0.07477198,1.1733853,-0.13205224,2.073323,1.3979759,0.09108746,-0.09494202,-0.011960967,1.2196723,0.662151
-0.1,0.0,1.1999999999999997,0.0,0.0,0,-0.95528144,-1.4645264,1.5778931,-0.12054688,0.026799306,1.140598,-0.5482206,2.0733306,1.3980863,0.025326552,-0.068146266,0.04311367,1.2539386,-0.2387531
-0.1,0.0,1.1999999999999997,0.0,0.0,0,-0.9553004,-1.4645232,1.5780346,-0.10954501,0.071433954,1.1790757,-0.3228658,2.0734413,1.3983736,-0.08462967,-0.11486034,-0.02146724,1.2641221,1.086326
-0.1,0.0,1.1999999999999997,0.0,0.0,0,-0.95530695,-1.4643708,1.5780363,-0.097671695,0.099336945,1.1452149,0.06553363,2.0737953,1.3982946,0.022016285,-0.0864506,0.09030219,1.1798784,1.2828186
-0.1,0.0,1.1999999999999997,0.0,0.0,0,-0.9553406,-1.4644794,1.5781484,-0.100032374,0.02603939,1.1560782,-0.6120744,2.0733583,1.39801,-0.0820769,-0.10683575,0.095154986,1.210369,0.42631173
-0.1,0.0,1.1999999999999997,0.0,0.0,0,-0.9552851,-1.4643005,1.5780882,-0.10345882,0.014441224,1.1938298,-0.115419336,2.0735323,1.3982253,0.047592923,-0.07446674,-0.014225241,1.2927703,-0.37418637
-0.1,0.0,1.1999999999999997,0.0,0.0,0,-0.95525926,-1.4643958,1.5779893,-0.1115944,0.04612273,1.1092594,-0.052639294,2.0734475,1.3980932,0.07686036,-0.08566396,-0.006895002,1.2228141,1.0687975
-0.1,0.0,1.1999999999999997,0.0,0.0,0,-0.95527583,-1.4646642,1.5778092,-0.11457697,0.10032571,1.1665267,-0.81244683,2.0731845,1.397919,-0.024334623,-0.096119285,-0.02353601,1.2077338,0.864676
-0.1,0.0,1.1999999999999997,0.0,0.0,0,-0.9553381,-1.4644036,1.5781416,-0.12873793,0.069470696,1.1724609,-0.7806703,2.073347,1.398096,-0.08810425,-0.10709015,0.0170838,1.2437447,1.1310263
-0.1,0.0,1.1999999999999997,0.0,0.0,0,-0.9553753,-1.4650065,1.57787,-0.10931488,0.057802092,1.1724842,-0.0009727958,2.0737593,1.3982413,-0.111569755,-0.11462194,-0.034592222,1.2265357,0.06529514
-0.1,0.0,1.1999999999999997,0.0,0.0,0,-0.9553179,-1.4649165,1.5780985,-0.10293869,0.0790828,1.1470401,-0.8803347,2.0729394,1.3980916,0.12877138,-0.09620362,0.031512972,1.234667,1.3097007
-0.1,0.0,1.1999999999999997,0.0,0.0,0,-0.9552732,-1.4645858,1.5779997,-0.115923904,0.13181253,1.1752609,-0.5888935,2.0729854,1.3985183,0.089187734,-0.09603914,0.05341561,1.2517579,-0.06847842
-0.1,0.0,1.1999999999999997,0.0,0.0,0,-0.95528775,-1.464135,1.5779681,-0.10244789,0.09610034,1.1511133,0.46064174,2.0732954,1.3981198,-0.0404549,-0.077917874,-0.03864787,1.2556422,1.1134632
-0.1,0.0,1.1999999999999997,0.0,0.0,0,-0.9552853,-1.4642292,1.5781043,-0.12192126,0.09835361,1.1741319,-0.68942505,2.073171,1.398202,0.011199507,-0.071273535,0.115040734,1.2483803,0.42110845
-0.1,0.0,1.1999999999999997,0.0,0.0,0,-0.9552471,-1.4641728,1.57807,-0.1319157,0.07580911,1.2025372,-0.2367587,2.073462,1.3978351,-0.11941785,-0.08297028,0.031860832,1.2457318,0.3369413
-0.1,0.0,1.1999999999999997,0.0,0.0,0,-0.9552501,-1.4639403,1.5782263,-0.08135259,0.053366654,1.1805774,-0.4623914,2.073469,1.3979974,0.025460996,-0.09610766,-0.060602065,1.2242023,1.6913829
-0.1,0.0,1.1999999999999997,0.0,0.0,0,-0.95526683,-1.4641076,1.5780398,-0.09284487,0.08574011,1.2034525,0.081673294,2.0731778,1.3979028,0.037268512,-0.08951239,0.05591067,1.2475455,0.70326924
-0.1,0.0,1.1999999999999997,0.0,0.0,0,-0.95527434,-1.4646864,1.5780327,-0.09460526,0.061092705,1.1597083,0.85241085,2.0732698,1.3980856,-0.06772055,-0.075924814,-0.04043215,1.2328033,0.14511675
-0.1,0.0,1.1999999999999997,0.0,0.0,0,-0.95530415,-1.4640626,1.5779362,-0.11133712,0.07065108,1.1768246,-0.3464821,2.0730557,1.3980441,0.037059944,-0.093500204,-0.0022465952,1.2780489,1.0745655
-0.1,0.0,1.1999999999999997,0.0,0.0,0,-0.9552131,-1.4646862,1.5778179,-0.09952464,0.0038005807,1.1686993,0.07639328,2.0735366,1.3981507,0.16938792,-0.104792506,0.0059135137,1.2253993,1.2206383
-0.1,0.0,1.1999999999999997,0.0,0.0,0,-0.95526814,-1.4649742,1.5778955,-0.11710408,0.15366511,1.1814878,-0.5949805,2.073345,1.398033,0.09690857,-0.11141046,0.0060439627,1.2482555,-0.6360681
-0.1,0.0,1.1999999999999997,0.0,0.0,0,-0.95525825,-1.4644654,1.5782106,-0.11505151,0.0143655995,1.1815426,-0.9856584,2.0730731,1.3982129,0.072406255,-0.093658954,0.06284476,1.2468865,0.75981796
-0.1,0.0,1.1999999999999997,0.0,0.0,0,-0.9552665,-1.4635092,1.5783143,-0.12848456,0.08259815,1.2067078,-0.43368453,2.0733511,1.3979735,0.008895805,-0.07409959,0.023554673,1.228578,-0.37978786
-0.1,0.0,1.1999999999999997,0.0,0.0,0,-0.95529175,-1.4647065,1.5780556,-0.12122506,0.04338728,1.1326661,0.6939308,2.0734003,1.398128,-0.027911915,-0.07442046,0.074200444,1.228093,1.5341841
-0.1,0.0,1.1999999999999997,0.0,0.0,0,-0.95531523,-1.4645392,1.578084,-0.10204999,0.10104922,1.1607792,0.54035926,2.0732143,1.3980762,0.07907748,-0.081528895,-0.08703226,1.2469137,0.8186166
-0.1,0.0,1.1999999999999997,0.0,0.0,0,-0.95528543,-1.4640591,1.5779555,-0.104463205,0.052603435,1.1722071,-1.0366728,2.0735354,1.3980829,0.11961374,-0.088929124,-0.03928443,1.2350447,1.4184288
-0.1,0.0,1.1999999999999997,0.0,0.0,0,-0.955308,-1.4648222,1.5779172,-0.12027502,0.069890484,1.1854033,-0.6917434,2.0734956,1.3974552,0.009409758,-0.0810027,0.025156481,1.225857,0.7524603
-0.1,0.0,1.1999999999999997,0.0,0.0,0,-0.9553442,-1.4642425,1.5782175,-0.12155035,0.10623105,1.1667675,-0.09494765,2.07372,1.3978914,-0.09183696,-0.08647137,0.032458045,1.1874791,-0.055365074
-0.1,0.0,1.1999999999999997,0.0,0.0,0,-0.955297,-1.4644945,1.5779046,-0.11671286,0.06580075,1.1960295,-0.20276037,2.0734322,1.3980144,-0.031635307,-0.093602546,-0.024796784,1.232858,0.46594432
-0.1,0.0,1.1999999999999997,0.0,0.0,0,-0.9553162,-1.4644951,1.5780245,-0.11650057,0.09968145,1.1895791,-0.66753644,2.0734046,1.3983682,-0.0881789,-0.07053748,-0.03684956,1.2469039,0.33893472
-0.1,0.0,1.1999999999999997,0.0,0.0,0,-0.9552648,-1.464093,1.578054,-0.11341043,0.04955537,1.1306113,0.50570923,2.073528,1.3978658,-0.047067735,-0.100190975,0.071315624,1.2540979,1.8442655
-0.1,0.0,1.1999999999999997,0.0,0.0,0,-0.9552631,-1.464183,1.5777647,-0.12543927,0.08493157,1.1681144,0.188662,2.0734534,1.3983755,-0.22536057,-0.09601963,0.03489205,1.2407752,0.96621823
-0.1,0.0,1.1999999999999997,0.0,0.0,0,-0.95526004,-1.4647673,1.5781059,-0.10665341,0.10253801,1.1517229,0.22784334,2.0735972,1.3981955,0.14716849,-0.112865716,-0.007912061,1.2242149,1.4863902
-0.1,0.0,1.1999999999999997,0.0,0.0,0,-0.95527124,-1.4645032,1.5781066,-0.15094194,0.06966834,1.2108917,-0.40925518,2.0735955,1.3979639,0.14653249,-0.105365194,0.10775509,1.2193066,1.4731348
-0.1,0.0,1.1999999999999997,0.0,0.0,0,-0.95522374,-1.4640505,1.5778573,-0.10203971,0.051715802,1.1729094,-0.48869216,2.0735464,1.3981324,-0.13829741,-0.0868009,0.06704198,1.2529956,1.7347385
-0.1,0.0,1.1999999999999997,0.0,0.0,0,-0.9552777,-1.4646529,1.5778768,-0.10909966,0.05132698,1.1670945,-1.0344115,2.0731335,1.3979076,0.06695862,-0.08069497,0.022630526,1.2561816,1.0287094
-0.1,0.0,1.1999999999999997,0.0,0.0,0,-0.9552881,-1.4646276,1.5782746,-0.11973407,0.121964246,1.1393638,-0.43222865,2.0733836,1.3977594,-0.027468763,-0.0960628,0.00659073,1.2521871,1.7036613
-0.1,0.0,1.1999999999999997,0.0,0.0,0,-0.9552846,-1.4647263,1.5781252,-0.095689476,0.11128489,1.164055,0.68154556,2.0732062,1.3986163,-0.124630846,-0.079729654,0.012833006,1.2498721,0.40215778
-0.1,0.0,1.1999999999999997,0.0,0.0,0,-0.9553079,-1.4643544,1.5783304,-0.120257236,-0.009665649,1.1850764,0.5798948,2.0733023,1.3980141,0.118014865,-0.08442544,0.037007812,1.2012683,1.5605713
-0.1,0.0,1.1999999999999997,0.0,0.0,0,-0.95529,-1.4643985,1.5779473,-0.102301806,0.067634694,1.1565697,0.88016105,2.0734777,1.3981706,-0.083720386,-0.077010944,-0.013389708,1.2480129,1.5154053
-0.1,0.0,1.1999999999999997,0.0,0.0,0,-0.9552905,-1.4645076,1.5780303,-0.10211475,0.004973948,1.1823231,0.27689576,2.0731533,1.3980722,-0.022946684,-0.081282616,-0.0017164815,1.2349857,1.5080308
-0.1,0.0,1.1999999999999997,0.0,0.0,0,-0.9552542,-1.4644862,1.5782999,-0.11366726,0.07783453,1.141983,-1.0850526,2.0735357,1.3981569,0.16675244,-0.10301792,0.021166174,1.268451,1.5718372
-0.1,0.0,1.1999999999999997,0.0,0.0,0,-0.9552352,-1.4644539,1.5778369,-0.13021289,0.048096377,1.1593982,-0.46333522,2.0734549,1.3982502,0.15675603,-0.07928142,0.009112674,1.2035161,1.0857686
-0.1,0.0,1.1999999999999997,0.0,0.0,0,-0.9552783,-1.4641731,1.5783852,-0.12760738,0.13759647,1.1364837,-1.0702485,2.0732834,1.39814,0.04623856,-0.09954844,0.039862912,1.2407763,1.0084585
-0.1,0.0,1.1999999999999997,0.0,0.0,0,-0.95531994,-1.4648435,1.5779047,-0.09716002,0.0234559,1.1757004,-0.16375746,2.0736716,1.3980687,-0.11769914,-0.086161666,0.036269765,1.253487,-0.3466444
-0.1,0.0,1.1999999999999997,0.0,0.0,0,-0.9552666,-1.4642893,1.5784447,-0.13266402,-0.03113784,1.1095686,-0.16762082,2.0731797,1.3977908,0.083152525,-0.08887006,-0.015495762,1.2282046,1.5976913
-0.1,0.0,1.1999999999999997,0.0,0.0,0,-0.955302,-1.4643264,1.5780547,-0.113045104,0.05196333,1.1611428,-0.554518,2.0738208,1.3979414,0.093171865,-0.08166026,0.06641184,1.2326716,1.2973391
-0.1,0.0,1.1999999999999997,0.0,0.0,0,-0.9552477,-1.464438,1.5779089,-0.11748745,0.077603765,1.1725587,-1.2628586,2.0732129,1.3984493,0.19377656,-0.10223713,-0.00080253306,1.2496991,2.391753
-0.1,0.0,1.1999999999999997,0.0,0.0,0,-0.95530254,-1.4645008,1.578024,-0.10353682,0.039896857,1.1855307,-0.2717999,2.0737996,1.39763,0.07357478,-0.091310844,-0.04016604,1.2247297,2.0554404
-0.1,0.0,1.1999999999999997,0.0,0.0,0,-0.9552899,-1.4645396,1.5779717,-0.10941301,0.019683857,1.1572118,-0.74167156,2.0733342,1.3979273,0.049941808,-0.080673926,-0.03990527,1.2248665,0.121305406
-0.1,0.0,1.1999999999999997,0.0,0.0,0,-0.955252,-1.4644953,1.5779607,-0.11357182,0.04097442,1.168698,-0.09898201,2.0736701,1.3979338,-0.11759559,-0.11607785,-0.047655046,1.2253897,0.30915624
-0.1,0.0,1.1999999999999997,0.0,0.0,0,-0.9552953,-1.4646221,1.5778866,-0.12590885,0.06207027,1.1641731,0.23837651,2.073867,1.3978424,-0.023011925,-0.09381928,0.019006498,1.1917422,-0.098241754
-0.1,0.0,1.1999999999999997,0.0,0.0,0,-0.95526075,-1.4642723,1.5781723,-0.10661034,0.07027479,1.169707,0.35072377,2.0736036,1.3980589,-0.020968324,-0.10275289,0.010847322,1.2407709,0.98096794
-0.1,0.0,1.1999999999999997,0.0,0.0,0,-0.9552522,-1.4643931,1.5779316,-0.10633305,0.08730187,1.1500313,-0.3161739,2.0732262,1.3985281,-0.013171528,-0.05279292,-0.031811606,1.2776884,0.505793
-0.1,0.0,1.1999999999999997,0.0,0.0,0,-0.955303,-1.4643366,1.5779814,-0.09705338,0.05873884,1.1966187,-0.77333707,2.0736282,1.3981049,0.06817289,-0.077083044,0.015614271,1.2546887,1.7187507
-0.1,0.0,1.1999999999999997,0.0,0.0,0,-0.9552818,-1.4645424,1.5782111,-0.13277987,-0.017255161,1.2022259,-0.57674325,2.0735147,1.398266,0.0906156,-0.09625452,0.000757538,1.1754519,0.6140851
-0.1,0.0,1.1999999999999997,0.0,0.0,0,-0.95532763,-1.4644766,1.5780873,-0.10199576,0.03382963,1.1776013,-0.4558478,2.073863,1.3979696,-0.08531251,-0.11052602,0.005427942,1.2108225,1.9828609
-0.1,0.0,1.1999999999999997,0.0,0.0,0,-0.9553374,-1.4646391,1.5779588,-0.12777074,0.039520763,1.1959747,0.02418877,2.0735795,1.398021,0.049875673,-0.05265795,-0.043670747,1.243495,1.4366041
-0.1,0.0,1.1999999999999997,0.0,0.0,0,-0.9553238,-1.4650078,1.5780085,-0.12706307,0.052540768,1.1605884,-0.19529004,2.0731382,1.3981977,-0.089767784,-0.08537435,0.0040352684,1.2709963,0.5203285
-0.1,0.0,1.1999999999999997,0.0,0.0,0,-0.9552496,-1.4640926,1.5783,-0.11238777,-0.027303303,1.1867341,-0.09980368,2.0734816,1.3985902,0.06058866,-0.112169415,0.0032552138,1.2236098,0.71578866
-0.1,0.0,1.1999999999999997,0.0,0.0,0,-0.9552727,-1.46454,1.5778908,-0.09747141,0.054341465,1.1577134,-0.21940318,2.0733852,1.3978881,-0.050477494,-0.06564809,-2.8916787e-05,1.2380077,1.6108521
-0.1,0.0,1.1999999999999997,0.0,0.0,0,-0.955235,-1.4643315,1.5780424,-0.11329484,0.0651039,1.1922619,0.6853631,2.0734167,1.397837,-0.17748806,-0.085358314,0.016703319,1.2295346,1.2622927
-0.1,0.0,1.1999999999999997,0.0,0.0,0,-0.9552619,-1.4648143,1.5779598,-0.095203154,0.06283029,1.2129692,-0.8328285,2.0731573,1.3983728,-0.18581282,-0.096586786,0.029639369,1.2511387,0.57667243
-0.1,0.0,1.1999999999999997,0.0,0.0,0,-0.9553133,-1.4642643,1.5781159,-0.12235194,0.112198934,1.1952827,0.0019068174,2.0731554,1.3979704,-0.0775341,-0.10227091,0.038708907,1.2553988,1.0414526
-0.1,0.0,1.1999999999999997,0.0,0.0,0,-0.95531464,-1.4644542,1.5782533,-0.12468809,0.09062631,1.146365,0.6921256,2.073254,1.3979379,-0.086154446,-0.081918314,-0.008145518,1.236786,0.79555064
-0.1,0.0,1.1999999999999997,0.0,0.0,0,-0.9552459,-1.464197,1.5780936,-0.10972223,0.033434253,1.1881381,-0.2862423,2.0736074,1.3977408,0.09542277,-0.098360814,0.00026753315,1.2232196,0.50220716
-0.1,0.0,1.1999999999999997,0.0,0.0,0,-0.9552843,-1.4649771,1.5781591,-0.098167054,0.11989774,1.1733403,-0.34729713,2.0729542,1.398507,-0.20519859,-0.0978113,0.04431751,1.2512026,1.2712737
-0.1,0.0,1.1999999999999997,0.0,0.0,0,-0.9553144,-1.4641079,1.5782869,-0.13454872,0.08094818,1.1668049,-0.41042927,2.0732749,1.3979397,0.084964775,-0.08258859,0.05575687,1.2084024,0.7161514
-0.1,0.0,1.1999999999999997,0.0,0.0,0,-0.9552554,-1.4644574,1.5780275,-0.105718166,0.031377837,1.1602968,-0.5648747,2.0731378,1.397873,0.029401803,-0.054748535,0.009866304,1.2624912,0.20122719
-0.1,0.0,1.1999999999999997,0.0,0.0,0,-0.95530325,-1.4647948,1.5781529,-0.07603342,0.025599817,1.149202,-0.82739216,2.0735998,1.3979932,-0.1635444,-0.07851358,0.024298167,1.2164197,1.3999114
-0.1,0.0,1.1999999999999997,0.0,0.0,0,-0.95524776,-1.4642707,1.5783087,-0.12189033,0.022862973,1.1447729,-0.98715466,2.0738103,1.3978709,-0.03387795,-0.073508374,0.061364535,1.2180507,-0.094834454
-0.1,0.0,1.1999999999999997,0.0,0.0,0,-0.955242,-1.4641252,1.5781299,-0.113244474,0.060011063,1.1516993,0.93771803,2.0735097,1.3982573,0.005281462,-0.10467988,0.0058601084,1.2113135,0.6408279
-0.1,0.0,1.1999999999999997,0.0,0.0,0,-0.9553381,-1.464524,1.5779653,-0.08481445,0.010224188,1.1380258,1.017066,2.073401,1.3982053,-0.006652327,-0.09876834,0.046610486,1.2321099,0.05074537
-0.1,0.0,1.1999999999999997,0.0,0.0,0,-0.95526505,-1.4647596,1.5781875,-0.09868528,0.076809384,1.1627936,-0.9340904,2.0733597,1.3981324,0.047101025,-0.077541016,0.043524206,1.231858,0.24930573
-0.1,0.0,1.1999999999999997,0.0,0.0,0,-0.95528555,-1.4647489,1.5779012,-0.13543944,0.051172167,1.168621,0.8028912,2.0734382,1.3979261,-0.042555857,-0.059627272,-0.1167905,1.2003112,0.8089936
-0.1,0.0,1.1999999999999997,0.0,0.0,0,-0.9552787,-1.4646409,1.5781543,-0.14277062,0.075939976,1.1788756,0.7383125,2.073368,1.3984075,0.11709681,-0.09641805,0.041838065,1.2412028,0.8676
-0.1,0.0,1.1999999999999997,0.0,0.0,0,-0.9552654,-1.4651984,1.578215,-0.112065166,0.08324284,1.1343573,-0.8193058,2.073426,1.3979361,-0.010889436,-0.112788215,0.11935064,1.236925,0.20545106
-0.1,0.0,1.1999999999999997,0.0,0.0,0,-0.95525825,-1.4641732,1.5779076,-0.09999326,0.091923304,1.158297,0.67228377,2.0735261,1.3976609,0.003191972,-0.1052063,-0.024350245,1.2329676,1.0533149
-0.1,0.0,1.1999999999999997,0.0,0.0,0,-0.95527285,-1.4644164,1.577822,-0.08614255,0.10681956,1.1938328,-0.20382723,2.0734222,1.3986079,0.052125525,-0.07319924,-0.027157515,1.2455922,1.2024766
-0.1,0.0,1.1999999999999997,0.0,0.0,0,-0.95532197,-1.4647228,1.5780476,-0.085270084,0.14370273,1.1488003,0.31535074,2.0737035,1.3981054,-0.053201392,-0.10856743,-0.04208013,1.2141968,0.41649836
-0.1,0.0,1.1999999999999997,0.0,0.0,0,-0.9552709,-1.4645872,1.5783594,-0.10328418,0.10402619,1.1806196,-0.76547694,2.0734925,1.3978609,0.19059548,-0.09144192,-0.01645387,1.2291149,1.3619157
-0.1,0.0,1.1999999999999997,0.0,0.0,0,-0.9552331,-1.4644462,1.5781577,-0.14154683,-0.010338034,1.1532317,-0.9734268,2.0730474,1.3985531,0.14969338,-0.09765058,0.030170865,1.2372442,1.249096
-0.1,0.0,1.1999999999999997,0.0,0.0,0,-0.95521754,-1.4644592,1.5779468,-0.111534745,0.082048476,1.2110147,-0.28459767,2.073682,1.398405,0.0746194,-0.09149673,0.03479989,1.2190058,1.9702449
-0.1,0.0,1.1999999999999997,0.0,0.0,0,-0.95526016,-1.4643059,1.577903,-0.11998829,0.043067485,1.1612703,-0.36476824,2.0736854,1.3981885,0.024384748,-0.086629115,0.034718648,1.2479882,0.4475157
-0.1,0.0,1.1999999999999997,0.0,0.0,0,-0.9553,-1.4646055,1.5781198,-0.08887292,-0.047092885,1.1848624,0.34541684,2.073285,1.398215,0.1269821,-0.089724705,0.0818338,1.2243754,1.8885297
-0.1,0.0,1.1999999999999997,0.0,0.0,0,-0.9552733,-1.4646796,1.5782186,-0.1058752,0.061839685,1.1798886,-0.07482008,2.0733585,1.3977342,0.062443167,-0.09986237,-0.008217791,1.2074673,0.7383004
-0.1,0.0,1.1999999999999997,0.0,0.0,0,-0.9552747,-1.4649153,1.5779196,-0.11190793,-0.0030324669,1.2164315,-0.18639523,2.07347,1.398223,-0.0659006,-0.091870435,0.032458816,1.242951,1.609966
-0.1,0.0,1.1999999999999997,0.0,0.0,0,-0.9553011,-1.4649208,1.5782703,-0.11441455,0.07637163,1.1479943,0.10848988,2.0729089,1.398083,-0.16538902,-0.06352782,-0.029346755,1.2127264,0.7601511
-0.1,0.0,1.1999999999999997,0.0,0.0,0,-0.9552588,-1.4642828,1.5780454,-0.11555976,0.029862039,1.1436238,-0.70829654,2.073429,1.3982799,-0.19403842,-0.06319001,0.09936971,1.208828,-0.0466368
-0.1,0.0,1.1999999999999997,0.0,0.0,0,-0.9553132,-1.4641486,1.578072,-0.09614004,0.059288412,1.1948124,-0.37364262,2.0732887,1.3981383,0.023563439,-0.08469805,-0.0024629936,1.2461154,0.23105991
-0.1,0.0,1.1999999999999997,0.0,0.0,0,-0.9552622,-1.4644904,1.5781372,-0.12630771,0.0506775,1.1935964,-0.08222349,2.0734837,1.3979882,0.04914524,-0.037886716,0.03307579,1.2613541,1.0917704
-0.1,0.0,1.1999999999999997,0.0,0.0,0,-0.9552859,-1.4645298,1.5782143,-0.1264412,0.052502505,1.1944203,0.28217593,2.0735478,1.3982074,-0.00089951983,-0.07154459,-0.018523576,1.2788609,0.9528785
-0.1,0.0,1.1999999999999997,0.0,0.0,0,-0.95526445,-1.4650763,1.5780553,-0.098174565,0.06109693,1.1671215,-1.7561104,2.0729818,1.3980874,-0.047109675,-0.092941865,0.06046203,1.2315547,1.345871
-0.1,0.0,1.1999999999999997,0.0,0.0,0,-0.95528704,-1.4644158,1.578045,-0.09725461,0.109570354,1.1615442,-0.7181859,2.0735705,1.3982278,-0.16704403,-0.099826545,-0.07130356,1.2237959,1.2856386
-0.1,0.0,1.1999999999999997,0.0,0.0,0,-0.9552678,-1.4644874,1.5778967,-0.10453676,0.08264585,1.1902653,-0.5758952,2.073481,1.3976859,0.0589223,-0.067097895,0.07346889,1.2412939,0.57343704
-0.1,0.0,1.1999999999999997,0.0,0.0,0,-0.95525056,-1.4646703,1.5778637,-0.082246445,0.1121965,1.165054,-0.17347549,2.073465,1.3977926,-0.1354963,-0.09118252,0.016054314,1.2485638,1.1003876
-0.1,0.0,1.1999999999999997,0.0,0.0,0,-0.95528543,-1.4639692,1.5781729,-0.11353405,-0.023709485,1.138295,0.1451124,2.0733056,1.398305,-0.013320662,-0.08503234,0.060085174,1.2739077,0.54925865
-0.1,0.0,1.1999999999999997,0.0,0.0,0,-0.95527077,-1.4643177,1.5778654,-0.10840606,0.058157787,1.1588634,-0.5055799,2.0735946,1.3980448,-0.06132366,-0.105168924,-0.046805352,1.2173373,1.2558599
-0.1,0.0,1.1999999999999997,0.0,0.0,0,-0.9552614,-1.4642731,1.577966,-0.10099378,0.046137635,1.1681727,-0.101345964,2.073411,1.3984431,0.016549729,-0.0849879,0.045554176,1.2276632,1.1786222
-0.1,0.0,1.1999999999999997,0.0,0.0,0,-0.95524967,-1.4646621,1.5777739,-0.110200316,0.052123625,1.1712723,-0.41230953,2.0731976,1.3978704,0.04054954,-0.09277478,-0.013521737,1.2500329,1.1747515
-0.1,0.0,1.1999999999999997,0.0,0.0,0,-0.95527864,-1.4646047,1.5781895,-0.09954046,0.0727472,1.1695015,0.37505525,2.073467,1.3980078,0.090752214,-0.09054421,-0.027333189,1.2181064,0.90439487
-0.1,0.0,1.1999999999999997,0.0,0.0,0,-0.95525926,-1.4646093,1.5778689,-0.10396633,0.030150136,1.1624944,-0.11416498,2.0734174,1.3979602,0.01308142,-0.09879392,0.057226587,1.2276617,-0.024680762
-0.1,0.0,1.1999999999999997,0.0,0.0,0,-0.95534,-1.4645871,1.578237,-0.09998588,0.02732634,1.1790668,-0.7050155,2.0734303,1.3982774,0.07480235,-0.0716176,-0.017487511,1.2551209,1.1975032
-0.1,0.0,1.1999999999999997,0.0,0.0,0,-0.95526177,-1.464754,1.5779862,-0.121920496,0.07740161,1.1926676,0.33105525,2.0736444,1.3975065,0.07075176,-0.09033754,0.06147498,1.2105563,0.75807124
-0.1,0.0,1.1999999999999997,0.0,0.0,0,-0.9552807,-1.4646688,1.5778958,-0.10819569,0.013439365,1.1904315,-0.030157132,2.0734644,1.3979859,0.02548783,-0.08538544,0.04301657,1.2337377,1.7108899
-0.1,0.0,1.1999999999999997,0.0,0.0,0,-0.9552515,-1.4645008,1.5779498,-0.10212314,0.084972486,1.176412,-0.41730887,2.07302,1.3983037,0.023075625,-0.10301263,-0.010210542,1.2250041,-0.13087532
-0.1,0.0,1.1999999999999997,0.0,0.0,0,-0.95530266,-1.46432,1.5780177,-0.12998772,0.050977774,1.1948715,0.29192194,2.0731778,1.3987201,-0.014651452,-0.0681199,-0.0331531,1.2128092,1.0150485
-0.1,0.0,1.1999999999999997,0.0,0.0,0,-0.95529044,-1.4643738,1.5779963,-0.09782436,0.07051021,1.1865258,-0.46800143,2.0737052,1.3979911,-0.056517586,-0.076573394,0.046679907,1.2307912,0.9304838
-0.1,0.0,1.1999999999999997,0.0,0.0,0,-0.95523953,-1.4639416,1.5783042,-0.102296315,0.012620336,1.1414431,0.38221797,2.073409,1.3981808,0.04451833,-0.10102788,-0.02544026,1.2315501,1.3536929
-0.1,0.0,1.1999999999999997,0.0,0.0,0,-0.9552781,-1.4645905,1.5780706,-0.11242807,0.042486,1.1436992,-0.61170876,2.0731657,1.3984387,-0.093813814,-0.08102943,0.074134916,1.2370932,1.1139745
-0.1,0.0,1.1999999999999997,0.0,0.0,0,-0.95530117,-1.4646335,1.5780891,-0.11494857,0.060177892,1.1532636,0.6316374,2.07368,1.397603,-0.093480684,-0.078097425,-0.0188253,1.2884794,1.34631
-0.1,0.0,1.1999999999999997,0.0,0.0,0,-0.9552476,-1.464635,1.5779504,-0.105695784,0.053564027,1.1447319,-0.28470564,2.07349,1.3982642,0.121392824,-0.103932664,0.0067141745,1.225676,1.3525608
-0.1,0.0,1.1999999999999997,0.0,0.0,0,-0.9552365,-1.4640516,1.578322,-0.09170157,0.12223555,1.1687311,0.90910095,2.0736423,1.397964,-0.15219337,-0.09191423,0.041638922,1.1996435,0.6511522
-0.1,0.0,1.1999999999999997,0.0,0.0,0,-0.95526946,-1.4643574,1.5781815,-0.13718706,0.07735645,1.1844907,-0.85798043,2.073372,1.3982062,-0.009194651,-0.09449812,0.054173503,1.2766916,1.6176485
-0.1,0.0,1.1999999999999997,0.0,0.0,0,-0.9552928,-1.4641894,1.578259,-0.11610501,0.10401809,1.1712708,-0.44743282,2.0735056,1.3981481,-0.074868,-0.082798585,0.002810987,1.2456933,0.22580317
-0.1,0.0,1.1999999999999997,0.0,0.0,0,-0.9552815,-1.4645247,1.5782663,-0.11587766,0.06669909,1.1572527,0.13859531,2.0733552,1.3983591,0.04702211,-0.08798464,-0.027302587,1.2121246,-0.04009328
-0.1,0.0,1.1999999999999997,0.0,0.0,0,-0.95531774,-1.4652733,1.5779996,-0.11670965,0.15121451,1.1742506,-0.37213212,2.0732145,1.3981303,-0.031541094,-0.09470341,0.026781365,1.2315445,1.1262904
-0.1,0.0,1.1999999999999997,0.0,0.0,0,-0.95527697,-1.4645813,1.5779456,-0.124618776,0.07294985,1.1570976,-0.66422683,2.0735376,1.398238,-0.11122907,-0.095881626,0.06798654,1.233126,1.1287482
-0.1,0.0,1.1999999999999997,0.0,0.0,0,-0.9552867,-1.4644448,1.5782146,-0.10261973,0.05657235,1.1550258,-0.43881857,2.0732756,1.3979516,-0.0345141,-0.08127707,0.028616192,1.2130108,1.6595119
-0.1,0.0,1.1999999999999997,0.0,0.0,0,-0.95526224,-1.4642621,1.5781882,-0.10477306,0.12408143,1.1894469,0.12667766,2.0733984,1.3979623,0.009773307,-0.08045784,0.07268434,1.2558103,0.8293069
-0.1,0.0,1.1999999999999997,0.0,0.0,0,-0.9553055,-1.4644289,1.5782281,-0.11724157,0.030078076,1.1684217,0.7499153,2.0733488,1.3979844,-0.040759917,-0.07485479,0.07467616,1.2345328,-0.56918347
-0.1,0.0,1.1999999999999997,0.0,0.0,0,-0.95527846,-1.4643658,1.5781728,-0.101431794,0.039834935,1.1721175,-0.15550046,2.0735395,1.3982459,-0.02566294,-0.097388774,0.004727222,1.2612463,2.1796124
-0.1,0.0,1.1999999999999997,0.0,0.0,0,-0.95528716,-1.464944,1.5777938,-0.11201408,0.09255505,1.1720462,0.14650162,2.073666,1.3984159,-0.06009187,-0.10669663,0.021585554,1.216284,2.0825953
-0.1,0.0,1.1999999999999997,0.0,0.0,0,-0.9552578,-1.4645128,1.5780439,-0.12797177,-0.031009944,1.2047809,-0.1514338,2.0738325,1.3980705,-0.053323653,-0.13037474,-0.016602108,1.230125,0.6076113
-0.1,0.0,1.1999999999999997,0.0,0.0,0,-0.9552562,-1.4641874,1.5779612,-0.130064,0.06414786,1.2082169,0.2662335,2.0731392,1.3982928,0.020796018,-0.079759315,0.014601108,1.2368027,1.1489754
-0.1,0.0,1.1999999999999997,0.0,0.0,0,-0.9552494,-1.4645096,1.5779256,-0.103843085,0.08897644,1.1974174,0.22731206,2.0733657,1.3980396,0.0026105335,-0.092993386,0.06352686,1.2022221,1.2757535
-0.1,0.0,1.1999999999999997,0.0,0.0,0,-0.95526606,-1.4645329,1.5783341,-0.092044845,0.011461456,1.1100521,0.83394873,2.0733004,1.3982239,-0.106488146,-0.06973997,0.010133296,1.2147527,1.8863592
-0.1,0.0,1.1999999999999997,0.0,0.0,0,-0.95530015,-1.4643967,1.5779707,-0.11526725,0.018694535,1.1945381,0.16085745,2.0734215,1.3983694,0.013416624,-0.090616204,0.039332394,1.2547767,1.7821827
-0.1,0.0,1.1999999999999997,0.0,0.0,0,-0.95527977,-1.4646196,1.5781624,-0.13323547,-0.06000025,1.1488563,-0.40393975,2.0734284,1.3980632,-0.010404877,-0.07443258,0.0618725,1.2288042,0.9030406
-0.1,0.0,1.1999999999999997,0.0,0.0,0,-0.9552785,-1.4645151,1.5783346,-0.122216135,0.037306853,1.206677,-0.53547615,2.07336,1.3981779,-0.066178754,-0.08762761,-0.0137474155,1.2195753,0.60781896
-0.1,0.0,1.1999999999999997,0.0,0.0,0,-0.9552195,-1.4638296,1.5780684,-0.12573558,0.045968633,1.176372,0.1641823,2.0733654,1.3985032,-0.08454071,-0.08987646,0.06469124,1.222318,1.3085473
-0.1,0.0,1.1999999999999997,0.0,0.0,0,-0.95529854,-1.464663,1.5779669,-0.105290584,0.17812678,1.1748202,-0.45184416,2.0733957,1.3983624,-0.10303592,-0.09788033,0.0017533365,1.2473285,-0.28932026
-0.1,0.0,1.1999999999999997,0.0,0.0,0,-0.9552924,-1.4643141,1.5782743,-0.10031058,0.060042284,1.1643455,0.010865103,2.0733745,1.3982884,0.07667603,-0.0887685,-0.02240769,1.1996074,1.1927814
-0.1,0.0,1.1999999999999997,0.0,0.0,0,-0.9553247,-1.4647243,1.57808,-0.102055535,0.063086785,1.1720631,-0.10912467,2.073301,1.3980031,-0.16836149,-0.11104752,0.028962238,1.2383969,-0.1516612
-0.1,0.0,1.1999999999999997,0.0,0.0,0,-0.9552517,-1.4647497,1.5778505,-0.1135383,0.1116499,1.143281,-0.4771677,2.0733964,1.3984435,-0.0797158,-0.095138595,0.020986548,1.1785913,1.5517968
-0.1,0.0,1.1999999999999997,0.0,0.0,0,-0.955253,-1.464432,1.5779454,-0.12195197,0.06521334,1.1933408,-0.659323,2.073539,1.397731,0.021037009,-0.08084646,0.051832095,1.1810744,0.13984753
-0.1,0.0,1.1999999999999997,0.0,0.0,0,-0.95529944,-1.4645548,1.5781981,-0.11034325,0.1062667,1.1890104,0.47836575,2.0733852,1.3980455,0.09328089,-0.10375298,0.0061254036,1.2273091,1.5487067
-0.1,0.0,1.1999999999999997,0.0,0.0,0,-0.95526856,-1.4646654,1.5780679,-0.11115085,0.07941209,1.1619793,-0.49493298,2.0734468,1.3982967,-0.045169037,-0.08304066,-0.016467309,1.2211553,0.95048445
-0.1,0.0,1.1999999999999997,0.0,0.0,0,-0.95530355,-1.4654417,1.5779756,-0.11832963,0.04027249,1.2114431,-0.6423637,2.0735905,1.3983386,-0.06472629,-0.09149285,0.039907522,1.2516968,0.856306
-0.1,0.0,1.1999999999999997,0.0,0.0,0,-0.95525706,-1.4645132,1.5780827,-0.08546948,0.023070218,1.157663,-0.26129434,2.073245,1.3979415,-0.054267928,-0.095710665,-0.094892904,1.248382,0.24552512
-0.1,0.0,1.1999999999999997,0.0,0.0,0,-0.9553081,-1.4646295,1.5781204,-0.13030331,0.094550274,1.1769642,-1.3680594,2.0735095,1.3983132,0.13771383,-0.1056913,-0.02085071,1.219152,1.3616719
-0.1,0.0,1.1999999999999997,0.0,0.0,0,-0.955254,-1.4646422,1.5777391,-0.11293973,0.031451903,1.1537728,0.62791866,2.0734718,1.3983444,0.033483632,-0.06680927,0.024702132,1.240821,1.1601869
-0.1,0.0,1.1999999999999997,0.0,0.0,0,-0.95524704,-1.4641631,1.5779831,-0.12417466,0.054029092,1.197186,-0.16927157,2.0733364,1.3982948,-0.033990007,-0.07783383,0.028645638,1.2442439,0.7860762
-0.1,0.0,1.1999999999999997,0.0,0.0,0,-0.9552486,-1.464595,1.5780448,-0.107085325,0.054696985,1.1748648,-0.8889279,2.0734015,1.3980383,-0.01814345,-0.09748031,0.032631155,1.2421819,2.133174
-0.1,0.0,1.1999999999999997,0.0,0.0,0,-0.9552528,-1.4643962,1.5781482,-0.10870714,0.06333513,1.2086463,-0.7525422,2.0736928,1.3983783,-0.094705045,-0.13474306,-0.0035099117,1.2614032,0.72848696
-0.1,0.0,1.1999999999999997,0.0,0.0,0,-0.9552808,-1.4639422,1.5784051,-0.09344992,0.06514211,1.1170609,-0.4476773,2.0734496,1.3983631,-0.009209732,-0.082317,0.039446477,1.2325778,0.41104642
-0.1,0.0,1.1999999999999997,0.0,0.0,0,-0.9552187,-1.4645463,1.5780493,-0.12370099,0.06926823,1.188524,0.22954169,2.073356,1.3975412,-0.048703033,-0.09860577,-0.06507205,1.2318419,1.9655267
-0.1,0.0,1.1999999999999997,0.0,0.0,0,-0.95528454,-1.4644468,1.5782332,-0.10310441,0.04632124,1.1828966,0.25638196,2.0732033,1.3983384,0.024593104,-0.092515916,0.05909738,1.2843066,0.8973087
-0.1,0.0,1.1999999999999997,0.0,0.0,0,-0.95527524,-1.4646586,1.5779577,-0.087799154,0.046852004,1.193179,-0.4076641,2.0736969,1.3977634,-0.010842809,-0.09085549,0.07210343,1.278174,0.07739258
-0.1,0.0,1.1999999999999997,0.0,0.0,0,-0.9553394,-1.4644574,1.5781689,-0.12318782,0.08323721,1.1701629,0.42053124,2.0736992,1.397767,-0.1596446,-0.0726113,-0.06508295,1.2281973,0.26349133
-0.1,0.0,1.1999999999999997,0.0,0.0,0,-0.95526123,-1.4638963,1.5781162,-0.13266696,0.042225417,1.1738737,0.4483429,2.0735385,1.3985764,-0.09748632,-0.10219102,-0.074281976,1.2077031,0.30649284
-0.1,0.0,1.1999999999999997,0.0,0.0,0,-0.95531,-1.464687,1.5779845,-0.10951738,0.06382921,1.1982775,-0.0013043595,2.0734348,1.3977654,-0.13043454,-0.094573334,0.07073974,1.2224023,0.92261946
-0.1,0.0,1.1999999999999997,0.0,0.0,0,-0.9552361,-1.4642801,1.5779772,-0.12754485,0.08120714,1.192789,-0.29772136,2.0736604,1.3982395,0.05087153,-0.07214336,-0.038603578,1.2591636,0.39647022
-0.1,0.0,1.1999999999999997,0.0,0.0,0,-0.95527273,-1.4644613,1.5781806,-0.1106059,0.07303786,1.1767344,0.033008274,2.0734284,1.3984693,-0.04729983,-0.09112017,-0.013298349,1.207619,0.51765203
-0.1,0.0,1.1999999999999997,0.0,0.0,0,-0.9552574,-1.4640266,1.5779668,-0.10949957,0.063463256,1.1637735,-0.20966274,2.07316,1.3983235,-0.15222052,-0.076731674,0.03506438,1.2763373,0.16442014
-0.1,0.0,1.1999999999999997,0.0,0.0,0,-0.9553067,-1.4647287,1.5781211,-0.10533645,0.009886121,1.1510402,-0.040353004,2.074281,1.3977807,0.03914129,-0.111497976,0.056189574,1.2141511,1.497177
-0.1,0.0,1.1999999999999997,0.0,0.0,0,-0.9552703,-1.4644142,1.578153,-0.09074516,0.009973227,1.1754041,-0.4268829,2.0735312,1.3980243,-0.046386167,-0.08247737,0.06276252,1.2616253,1.1136531
-0.1,0.0,1.1999999999999997,0.0,0.0,0,-0.9552811,-1.4644691,1.5779788,-0.10822703,0.054881968,1.1272233,-0.6328307,2.0737934,1.3982618,-0.12544446,-0.1097754,0.003286857,1.2240359,0.8764634
-0.1,0.0,1.1999999999999997,0.0,0.0,0,-0.95528924,-1.4648311,1.5782542,-0.09585953,0.09488935,1.158618,-1.290126,2.0732827,1.3982402,0.028767508,-0.0783109,0.052984506,1.1985656,-0.40292233
-0.1,0.0,1.1999999999999997,0.0,0.0,0,-0.9552842,-1.4643872,1.5779938,-0.08681096,0.010750889,1.1452197,-0.5116105,2.073532,1.3982973,0.021315148,-0.1024873,0.041523416,1.2530056,1.7696311
-0.1,0.0,1.1999999999999997,0.0,0.0,0,-0.9552758,-1.4646729,1.5781456,-0.09929517,0.09281333,1.1687466,1.117414,2.0730145,1.3982781,0.11128364,-0.082236886,0.08512906,1.2382945,1.173885
-0.1,0.0,1.1999999999999997,0.0,0.0,0,-0.9553141,-1.4650472,1.5781412,-0.11587429,0.05143223,1.1678795,-1.0985923,2.0734522,1.3978752,0.14611687,-0.10324303,0.025358276,1.2398844,0.4905532
-0.1,0.0,1.1999999999999997,0.0,0.0,0,-0.95528877,-1.4646232,1.5779749,-0.12175554,0.11845217,1.2010652,0.42849806,2.0732648,1.3980063,-0.14533518,-0.10234178,0.053464677,1.2287132,0.12186148
-0.1,0.0,1.1999999999999997,0.0,0.0,0,-0.95527166,-1.4646884,1.5781091,-0.11727866,0.018240796,1.1095515,0.43399882,2.0732684,1.3981913,-0.09915094,-0.08493784,0.07867882,1.2528036,1.6643468
-0.1,0.0,1.1999999999999997,0.0,0.0,0,-0.95527035,-1.4645213,1.5781431,-0.11881764,0.10896914,1.1549891,-0.5247669,2.0735874,1.3982687,0.042153995,-0.07557158,0.026576333,1.2357155,0.4576266
-0.1,0.0,1.1999999999999997,0.0,0.0,0,-0.95526034,-1.4644889,1.5781609,-0.12315394,0.09217202,1.1567062,-0.093354665,2.0736163,1.3981668,-0.0834241,-0.09277305,0.016379515,1.2526305,0.5029464
-0.1,0.0,1.1999999999999997,0.0,0.0,0,-0.9552422,-1.4642556,1.5780349,-0.11801373,0.08977664,1.1468893,-0.16912383,2.0734432,1.3982419,0.008526803,-0.0946883,-0.041850813,1.2319177,0.63943505
-0.1,0.0,1.1999999999999997,0.0,0.0,0,-0.9552598,-1.4648705,1.5784434,-0.13499013,-0.047587175,1.1287363,-0.25452152,2.073465,1.3983012,-0.1286171,-0.057790015,-0.03750338,1.2349614,-0.16914575
-0.1,0.0,1.1999999999999997,0.0,0.0,0,-0.9552292,-1.4644554,1.5777906,-0.113270804,0.05216698,1.1818916,-0.41521007,2.0734453,1.397685,0.14655548,-0.07977199,-0.02445293,1.2427709,0.7088979
-0.1,0.0,1.1999999999999997,0.0,0.0,0,-0.955299,-1.4646047,1.5779388,-0.10288472,0.10990272,1.1808168,-1.4986045,2.0733256,1.3981066,-0.08239804,-0.09765018,-0.052221157,1.2346838,0.48477206
-0.1,0.0,1.1999999999999997,0.0,0.0,0,-0.9552568,-1.4644679,1.5781847,-0.107213564,0.09641181,1.1737558,0.41792658,2.0734022,1.3981371,0.14880869,-0.080737144,-0.009141983,1.2607895,-0.561676
-0.1,0.0,1.1999999999999997,0.0,0.0,0,-0.95531386,-1.4647945,1.5781283,-0.10314703,0.01939592,1.1506703,0.46340677,2.0735888,1.3979715,-0.05889887,-0.09311202,0.03502639,1.2475587,1.2028316
-0.1,0.0,1.1999999999999997,0.0,0.0,0,-0.9552148,-1.4644225,1.5780562,-0.11692961,0.07307203,1.177074,0.013865595,2.0727885,1.39863,-0.0504241,-0.07682555,-0.04394039,1.2397926,1.0312535
-0.1,0.0,1.1999999999999997,0.0,0.0,0,-0.95524496,-1.4644493,1.5780897,-0.115570314,0.093671136,1.1825594,-0.44849527,2.0737517,1.3978726,0.037122965,-0.08665775,0.022588978,1.2543435,0.814647
-0.1,0.0,1.1999999999999997,0.0,0.0,0,-0.955226,-1.4642769,1.5783174,-0.1163257,0.0510399,1.156894,-0.17399131,2.0733285,1.3985183,-0.010961584,-0.09699424,-0.06954527,1.2482506,0.863457
-0.1,0.0,1.1999999999999997,0.0,0.0,0,-0.95525986,-1.464524,1.5780032,-0.11594066,0.08458836,1.1699829,0.1371436,2.0735319,1.3982491,0.04715423,-0.09817087,0.004731821,1.2403333,0.90805525
-0.1,0.0,1.1999999999999997,0.0,0.0,0,-0.9552507,-1.4644597,1.5780331,-0.099514686,0.0865742,1.1691065,-0.44192484,2.0736084,1.3983022,-0.082586765,-0.08886248,-0.038148165,1.2646735,1.095354
-0.1,0.0,1.1999999999999997,0.0,0.0,0,-0.95524055,-1.4643326,1.5782473,-0.10406717,0.013008448,1.1774579,-0.2582752,2.0735312,1.397633,-0.009874172,-0.07061892,0.042481843,1.2436348,0.41292062
-0.1,0.0,1.1999999999999997,0.0,0.0,0,-0.95524627,-1.4642475,1.5780892,-0.10834217,0.044110723,1.1455679,-0.8881044,2.0735269,1.3981776,0.08878221,-0.08296435,-0.06457099,1.2358239,0.6713014
-0.1,0.0,1.1999999999999997,0.0,0.0,0,-0.9552232,-1.4651418,1.5781293,-0.097023346,0.12041512,1.1896996,-0.48820743,2.073259,1.3977399,0.1549835,-0.09287009,0.041205168,1.2327878,1.5057707
-0.1,0.0,1.1999999999999997,0.0,0.0,0,-0.95526844,-1.4646877,1.5781481,-0.100805424,0.0509102,1.1987597,-0.07447262,2.073317,1.3986938,0.16373546,-0.08303329,0.01576709,1.2044262,0.02967276
-0.1,0.0,1.1999999999999997,0.0,0.0,0,-0.9552451,-1.4638703,1.5779585,-0.10089706,0.011806608,1.1487951,0.14801265,2.0733554,1.3985186,-0.022712288,-0.08575977,0.069236204,1.2165306,1.9736702
-0.1,0.0,1.1999999999999997,0.0,0.0,0,-0.9552585,-1.4650286,1.5782373,-0.10316609,0.06770637,1.1649959,-0.90611535,2.0732112,1.3983638,-0.023535267,-0.09501245,0.061019145,1.2489434,0.9106179
-0.1,0.0,1.1999999999999997,0.0,0.0,0,-0.9552947,-1.4645734,1.5779221,-0.09983484,0.073981546,1.1487818,0.517269,2.0732498,1.3979124,-0.07751609,-0.070680626,-0.03249335,1.2451748,1.8865769
-0.1,0.0,1.1999999999999997,0.0,0.0,0,-0.9552739,-1.4647261,1.5779907,-0.095917426,0.118570566,1.1414444,-0.25146064,2.0734892,1.3978671,-0.09801373,-0.08842181,-0.023329623,1.2457156,0.57362574
-0.1,0.0,1.1999999999999997,0.0,0.0,0,-0.9552899,-1.4644307,1.578298,-0.08912749,0.06566335,1.1487272,-1.5462412,2.0735388,1.3982816,-0.04422677,-0.089149244,-0.0109399855,1.2329875,1.7375734
-0.1,0.0,1.1999999999999997,0.0,0.0,0,-0.9552393,-1.4648445,1.5781991,-0.1040409,0.013475865,1.17032,-1.0606568,2.073367,1.398219,-0.060273245,-0.090257466,0.045304693,1.250719,1.636253
-0.1,0.0,1.1999999999999997,0.0,0.0,0,-0.9552519,-1.4642155,1.578279,-0.11517368,0.12714912,1.1710075,-0.40316144,2.0735853,1.3979845,-0.05811414,-0.10083861,0.031193266,1.2408485,0.7072394
-0.1,0.0,1.1999999999999997,0.0,0.0,0,-0.9552393,-1.4647042,1.5780053,-0.11046284,0.09269541,1.1587651,0.24527478,2.0733695,1.3981626,-0.046389595,-0.089942835,-0.044677366,1.2348475,1.6245164
-0.1,0.0,1.1999999999999997,0.0,0.0,0,-0.95526695,-1.4644315,1.5781341,-0.10049715,0.051952705,1.1685027,0.28102303,2.0731778,1.3985015,-0.060620982,-0.07857997,-0.050077975,1.2207161,0.38163537
-0.1,0.0,1.1999999999999997,0.0,0.0,0,-0.95528984,-1.4640847,1.5782924,-0.12332191,0.06663841,1.1943545,-0.18208584,2.073519,1.398102,0.049693406,-0.08330936,-0.0051712976,1.230083,0.41325805
-0.1,0.0,1.1999999999999997,0.0,0.0,0,-0.95525396,-1.4643474,1.5782095,-0.12233217,0.0003460166,1.1762708,0.22956395,2.0733175,1.3982325,-0.05144077,-0.0656582,-0.031639703,1.2487819,0.024039522
-0.1,0.0,1.1999999999999997,0.0,0.0,0,-0.95522946,-1.4644567,1.577996,-0.10168729,0.14826566,1.1746519,-0.053961687,2.0733654,1.3980844,0.02133856,-0.08359522,-0.0214767,1.205349,-0.49179018
-0.1,0.0,1.1999999999999997,0.0,0.0,0,-0.95528525,-1.4646201,1.5783252,-0.11159661,0.085802466,1.1579349,0.04558534,2.0733995,1.3982269,0.1617447,-0.079166874,0.105341636,1.2528104,1.5195194
-0.1,0.0,1.1999999999999997,0.0,0.0,0,-0.9552482,-1.4645658,1.5782863,-0.1406493,0.1190745,1.151513,-0.81899905,2.0731056,1.397787,-0.04642823,-0.09708881,0.0179519,1.2210692,1.0120478
-0.1,0.0,1.1999999999999997,0.0,0.0,0,-0.95526874,-1.4648057,1.5782164,-0.115091875,0.12705877,1.1847095,-0.7602467,2.073734,1.3977075,-0.00788052,-0.050413582,-0.013396782,1.2719624,0.46340865
-0.1,0.0,1.1999999999999997,0.0,0.0,0,-0.95525956,-1.4641861,1.5782955,-0.09349617,-0.019424174,1.1562974,-0.029446151,2.0734937,1.397895,-0.057346065,-0.092116155,-0.026829269,1.2229097,1.12858
-0.1,0.0,1.1999999999999997,0.0,0.0,0,-0.95529985,-1.4652114,1.578103,-0.1120402,0.07720719,1.142267,-0.41265115,2.0732784,1.3982999,0.018133802,-0.08436025,-0.040136486,1.2564999,0.014994358
-0.1,0.0,1.1999999999999997,0.0,0.0,0,-0.95517933,-1.4648544,1.57805,-0.104993664,0.11977503,1.1105609,-0.66145396,2.0735483,1.3984379,0.11158266,-0.08114258,0.01640057,1.2317872,1.3612716
-0.1,0.0,1.1999999999999997,0.0,0.0,0,-0.9552398,-1.4646102,1.5781132,-0.1185628,0.10243,1.1682656,0.46915135,2.0736454,1.3980707,0.2141639,-0.08400334,0.0042405915,1.2447715,0.7166552
-0.1,0.0,1.1999999999999997,0.0,0.0,0,-0.95520896,-1.4650334,1.578167,-0.11006294,0.046626166,1.1760476,1.391795,2.0735612,1.3983545,0.06285503,-0.08009726,0.07155125,1.2338941,1.2225695
-0.1,0.0,1.1999999999999997,0.0,0.0,0,-0.9552584,-1.4648396,1.578077,-0.11674808,0.0655813,1.1904044,0.0111216735,2.0733054,1.3982263,0.021283671,-0.07574706,0.04231509,1.2142739,1.0967098
-0.1,0.0,1.1999999999999997,0.0,0.0,0,-0.95523006,-1.4648421,1.578062,-0.09212478,0.07466848,1.1711704,-0.07910163,2.0733452,1.3983008,-0.100610495,-0.07120625,0.12304227,1.2130214,0.4966533
-0.1,0.0,1.1999999999999997,0.0,0.0,0,-0.9552435,-1.4648769,1.5777022,-0.11989385,0.024933526,1.1990197,-0.9282487,2.0736861,1.3980917,0.041700993,-0.0987922,0.03499705,1.2171853,0.4775922
-0.1,0.0,1.1999999999999997,0.0,0.0,0,-0.9552996,-1.4645753,1.578242,-0.103115,0.025885595,1.1652073,1.1752253,2.0735004,1.3983513,-0.011684253,-0.09246948,0.02969058,1.2039417,1.3403039
-0.1,0.0,1.1999999999999997,0.0,0.0,0,-0.9552952,-1.4646938,1.5783653,-0.09683048,0.08600008,1.1478771,-0.65266174,2.0738275,1.3980517,-0.10724458,-0.11417416,0.13410029,1.2391237,1.278086
-0.1,0.0,1.1999999999999997,0.0,0.0,0,-0.9553201,-1.4648294,1.5781273,-0.12048739,0.05798131,1.1742188,-0.42499644,2.0736287,1.3976607,0.062764,-0.08073228,0.0541147,1.2500043,1.4001065
-0.1,0.0,1.1999999999999997,0.0,0.0,0,-0.95523196,-1.4644562,1.5781666,-0.11457889,0.06992936,1.1704466,-0.4342187,2.0734844,1.3980991,-0.032762535,-0.06682094,0.01831019,1.2290415,1.4183222
-0.1,0.0,1.1999999999999997,0.0,0.0,0,-0.95531,-1.4649065,1.578344,-0.10888064,0.051735643,1.1691811,0.1488691,2.073499,1.3978276,0.04551404,-0.091832176,-0.04501913,1.2520201,1.1576184
-0.1,0.0,1.1999999999999997,0.0,0.0,0,-0.9552494,-1.4645816,1.5782541,-0.11765271,0.08135191,1.1749973,-0.7236849,2.0732388,1.3983024,-0.05335531,-0.08494823,0.024274552,1.2296177,-0.05406123
-0.1,0.0,1.1999999999999997,0.0,0.0,0,-0.9552447,-1.4645524,1.5781583,-0.09997119,0.1518276,1.2050561,0.7604819,2.0731392,1.39862,-0.09973539,-0.106640756,-0.058449518,1.260748,0.60841453
-0.1,0.0,1.1999999999999997,0.0,0.0,0,-0.9552438,-1.4637198,1.5779309,-0.11360693,0.042879708,1.1610255,-0.021925408,2.0736716,1.398029,0.04528932,-0.07679726,0.009325757,1.2716302,1.905681
-0.1,0.0,1.1999999999999997,0.0,0.0,0,-0.9552736,-1.4645294,1.5781912,-0.10351372,-0.015986603,1.1696367,0.68764305,2.073275,1.3987588,0.037973836,-0.09589312,0.06280165,1.2255741,1.0686055
-0.1,0.0,1.1999999999999997,0.0,0.0,0,-0.95523083,-1.4647695,1.5780972,-0.09797283,0.08661905,1.180605,-1.0291275,2.0734851,1.3982624,0.06843809,-0.08126507,0.025772734,1.1853573,1.8707547
-0.1,0.0,1.1999999999999997,0.0,0.0,0,-0.9552547,-1.4647554,1.5781077,-0.09234915,0.05400121,1.1662828,-0.38438252,2.0735242,1.3979249,0.00705081,-0.09317635,0.068984345,1.2152988,0.600467
-0.1,0.0,1.1999999999999997,0.0,0.0,0,-0.9552627,-1.4649261,1.5782012,-0.12460054,0.10128156,1.1821594,-0.6109743,2.0733416,1.3987827,-0.0021929347,-0.106372915,0.05980695,1.242057,0.29896998
-0.1,0.0,1.1999999999999997,0.0,0.0,0,-0.9552737,-1.4644665,1.5783051,-0.11298333,-0.008337692,1.1531948,-0.1262593,2.073364,1.3982438,-0.0273536,-0.11847989,0.04231176,1.2393681,0.1015321
-0.1,0.0,1.1999999999999997,0.0,0.0,0,-0.9552994,-1.4647777,1.5779359,-0.10645579,0.09532419,1.1553009,0.3779591,2.0734665,1.3982952,0.031844743,-0.09931732,0.036537074,1.2405299,1.51549
-0.1,0.0,1.1999999999999997,0.0,0.0,0,-0.95523685,-1.464241,1.5781723,-0.104071245,0.17271,1.1552622,0.0694026,2.0729556,1.3982975,0.021108704,-0.10514556,0.026589531,1.2294627,1.52714
-0.1,0.0,1.1999999999999997,0.0,0.0,0,-0.9552847,-1.4647808,1.5779217,-0.112275116,0.09887073,1.1570174,0.13346073,2.0736604,1.3979177,-0.068398766,-0.091579385,0.07103441,1.2331985,1.4165745
-0.1,0.0,1.1999999999999997,0.0,0.0,0,-0.9552355,-1.4648745,1.5781779,-0.1014305,0.09682203,1.1671202,0.5285433,2.0736094,1.3980051,-0.06098935,-0.10073317,0.04508435,1.261249,1.2510301
-0.1,0.0,1.1999999999999997,0.0,0.0,0,-0.95527977,-1.4651294,1.5778373,-0.107851796,0.025894914,1.1745849,0.7858198,2.0735202,1.3982286,0.049765818,-0.10337357,-0.05552212,1.2191998,0.093810655
-0.1,0.0,1.1999999999999997,0.0,0.0,0,-0.95522934,-1.4645593,1.5782449,-0.08969138,0.109891035,1.1662952,0.011662301,2.073733,1.3981769,-0.016949415,-0.10303344,-0.024161661,1.2179842,1.0778086
-0.1,0.0,1.1999999999999997,0.0,0.0,0,-0.9552177,-1.4649596,1.578028,-0.09637606,0.08738124,1.1774327,-1.2427156,2.0730114,1.3978431,-0.05189861,-0.08315424,-0.05901426,1.2122654,1.1359715
-0.1,0.0,1.1999999999999997,0.0,0.0,0,-0.9552902,-1.4645655,1.5781925,-0.10847099,0.08650395,1.1925606,-0.50074774,2.073369,1.3983084,0.043412182,-0.08021221,-0.028540635,1.2175505,0.15296647
-0.1,0.0,1.1999999999999997,0.0,0.0,0,-0.9552598,-1.4646187,1.5780423,-0.10535906,0.11260587,1.1966652,0.13576576,2.073301,1.3982227,-0.0027942816,-0.103996925,0.030935142,1.2214679,1.5268378
-0.1,0.0,1.1999999999999997,0.0,0.0,0,-0.95523345,-1.4639016,1.5780602,-0.0776426,0.03841684,1.1866802,-0.22851783,2.0735064,1.3979311,0.01557487,-0.0759472,0.06379187,1.2517172,1.215732
-0.1,0.0,1.1999999999999997,0.0,0.0,0,-0.9552722,-1.4648362,1.5784215,-0.118347615,0.093292415,1.1666902,-0.45513865,2.0733914,1.3984468,-0.001312694,-0.07642124,0.04596202,1.2379924,0.4379105
-0.1,0.0,1.1999999999999997,0.0,0.0,0,-0.9552402,-1.4645666,1.5784913,-0.11199063,0.0025234336,1.1620733,0.68281627,2.0733454,1.3980889,-0.10430271,-0.057207536,0.016269835,1.2441299,-0.68232244
-0.1,0.0,1.1999999999999997,0.0,0.0,0,-0.9552589,-1.46458,1.5780984,-0.10526779,0.07238623,1.1716583,0.12117523,2.073432,1.3983139,-0.10300931,-0.10265474,0.08671847,1.2742923,0.10991486
-0.1,0.0,1.1999999999999997,0.0,0.0,0,-0.95529896,-1.4649353,1.5781834,-0.112730645,0.07748217,1.1893293,-0.59349483,2.0732403,1.3976846,-0.021599654,-0.099805,0.015970573,1.272546,0.67920387
-0.1,0.0,1.1999999999999997,0.0,0.0,0,-0.9552435,-1.4647597,1.5780569,-0.12277879,0.10030103,1.181114,0.09933229,2.0734231,1.3977522,0.060735036,-0.09958084,-0.020822234,1.2325717,1.1026559
-0.1,0.0,1.1999999999999997,0.0,0.0,0,-0.95525354,-1.4641894,1.5782808,-0.13434614,0.059928484,1.1644145,0.7280623,2.0734963,1.3982108,-0.09153267,-0.10115129,0.021880232,1.2383429,0.7128155
-0.1,0.0,1.1999999999999997,0.0,0.0,0,-0.95523596,-1.4640954,1.577998,-0.0989183,0.07079923,1.2049894,0.020561915,2.0736787,1.3980092,-0.1633833,-0.101280004,0.027866583,1.2308515,1.8665912
-0.1,0.0,1.1999999999999997,0.0,0.0,0,-0.95525324,-1.4648259,1.5782305,-0.10667729,0.032630082,1.2007257,0.1337042,2.073356,1.3983448,0.017928127,-0.0712889,-0.02521602,1.2134544,0.8975677
-0.1,0.0,1.1999999999999997,0.0,0.0,0,-0.9552588,-1.4645774,1.5781087,-0.11679773,0.020237168,1.1775535,1.4649953,2.073666,1.3978581,0.06087282,-0.08481652,-0.014798773,1.2486974,-0.023702167
-0.1,0.0,1.1999999999999997,0.0,0.0,0,-0.9552431,-1.4646285,1.5779812,-0.11254053,0.015227694,1.1846983,0.63101876,2.0732427,1.3985361,-0.06815855,-0.10859887,0.014847012,1.2300857,-0.7009644
-0.1,0.0,1.1999999999999997,0.0,0.0,0,-0.9552295,-1.4647634,1.577972,-0.11540486,0.07498798,1.1534811,0.4774869,2.0734763,1.398589,0.0533565,-0.10157472,-0.02407883,1.2420233,1.5700465
-0.1,0.0,1.1999999999999997,0.0,0.0,0,-0.95524275,-1.4649552,1.5781767,-0.10375604,0.06600496,1.1801969,-0.1430265,2.07336,1.3978949,-0.056981944,-0.091804124,-0.038886074,1.2389401,0.7311536
-0.1,0.0,1.1999999999999997,0.0,0.0,0,-0.95528674,-1.4653223,1.5784346,-0.11321328,0.03314956,1.1756915,-0.3646717,2.0733218,1.3985261,-0.032782886,-0.09928304,0.017876096,1.2848612,1.3968072
-0.1,0.0,1.1999999999999997,0.0,0.0,0,-0.95522046,-1.4640001,1.5783132,-0.11567581,0.0798314,1.1782231,-0.33133328,2.0735114,1.3979689,0.0726485,-0.09061958,-0.086536184,1.1941713,1.3561743
-0.1,0.0,1.1999999999999997,0.0,0.0,0,-0.95523304,-1.4649765,1.5783707,-0.10366499,0.07863308,1.1834148,-0.77632254,2.0731401,1.3983428,0.14151244,-0.098514296,0.0755255,1.2721363,0.64758337
-0.1,0.0,1.1999999999999997,0.0,0.0,0,-0.9552471,-1.4647319,1.5783571,-0.08941915,0.0068133357,1.1715611,0.020065732,2.073742,1.3979883,-0.059829056,-0.092534274,0.06024759,1.212705,-0.06871384
-0.1,0.0,1.1999999999999997,0.0,0.0,0,-0.95533997,-1.4649326,1.5778135,-0.11465574,0.1138437,1.1857829,1.2770197,2.073673,1.3981375,0.06972808,-0.09689786,-0.007738012,1.2570965,0.92083204
-0.1,0.0,1.1999999999999997,0.0,0.0,0,-0.9552923,-1.4637306,1.5779849,-0.12844053,0.05511646,1.1756353,-0.34295467,2.073453,1.3981963,-0.049638066,-0.07463422,0.047572628,1.2653592,0.7371828
