sanky1234/BimanualDexCatch/isaacgymenvs/cem_results/football_pose_0.0_-0.1_1.1999999999999997_-0.5235987755982988_-0.5235987755982988_0_2025-05-26.csv
x,y,z,roll,pitch,yaw,robot1/joint1,robot1/joint2,robot1/joint3,robot1/joint4,robot1/joint5,robot1/joint6,robot1/joint7,robot2/joint1,robot2/joint2,robot2/joint3,robot2/joint4,robot2/joint5,robot2/joint6,robot2/joint7
0.0,-0.1,1.1999999999999997,-0.5235987755982988,-0.5235987755982988,0,-0.12267064,-1.5129479,-0.9570427,-0.08105627,0.20562246,0.9982547,0.25702634,0.120859206,-0.6069327,-0.19677174,0.22504453,0.23470783,0.8431408,0.003097846
0.0,-0.1,1.1999999999999997,-0.5235987755982988,-0.5235987755982988,0,-0.12505196,-1.5130635,-0.95847076,-0.08051431,-0.12365532,1.0623777,-0.73336774,0.12238958,-0.6068499,-0.19019422,0.21478653,-0.047525067,0.8213572,-0.028682282
0.0,-0.1,1.1999999999999997,-0.5235987755982988,-0.5235987755982988,0,-0.12455205,-1.5136946,-0.9512848,-0.080356516,0.2865591,1.0796653,-0.7601265,0.12004848,-0.6070316,-0.18122688,0.19263683,0.11787127,0.86970097,0.57001835
0.0,-0.1,1.1999999999999997,-0.5235987755982988,-0.5235987755982988,0,-0.123342,-1.5139909,-0.9524044,-0.0779617,0.056471348,0.99031293,-0.15622422,0.12240285,-0.6066628,-0.19862795,0.18863267,0.33637244,0.99441,0.6152946
0.0,-0.1,1.1999999999999997,-0.5235987755982988,-0.5235987755982988,0,-0.12483276,-1.5132047,-0.955367,-0.07935093,-0.17351197,1.045154,-0.17884701,0.121732615,-0.60689634,-0.1900642,0.2268786,0.21738878,0.8997663,-0.81255084
0.0,-0.1,1.1999999999999997,-0.5235987755982988,-0.5235987755982988,0,-0.12458984,-1.5134993,-0.95529926,-0.08072863,-0.013591468,1.0746337,-0.08382545,0.12251148,-0.60729635,-0.18210645,0.19557571,0.16116843,0.8823829,0.88166034
0.0,-0.1,1.1999999999999997,-0.5235987755982988,-0.5235987755982988,0,-0.12363527,-1.5123363,-0.95712364,-0.0796903,-0.07238754,1.0911647,-0.7673236,0.12289867,-0.6068542,-0.19553502,0.1841205,-0.04922067,0.90576243,0.026482493
0.0,-0.1,1.1999999999999997,-0.5235987755982988,-0.5235987755982988,0,-0.12363637,-1.5125053,-0.9525455,-0.081937894,0.24671963,1.0605673,0.7015542,0.1231325,-0.6065239,-0.20042068,0.19026545,0.25842565,0.86460507,0.8555713
0.0,-0.1,1.1999999999999997,-0.5235987755982988,-0.5235987755982988,0,-0.124246,-1.5125186,-0.9534661,-0.0806297,-0.0231782,1.0487697,-0.99837506,0.1211223,-0.60685724,-0.19107954,0.19765604,-0.07259769,0.8938259,0.760321
0.0,-0.1,1.1999999999999997,-0.5235987755982988,-0.5235987755982988,0,-0.123888195,-1.5125206,-0.9515068,-0.08191996,-0.19423342,1.1379571,-1.4294499,0.123753674,-0.6064581,-0.19667703,0.20275508,0.19573346,0.936047,0.86015034
0.0,-0.1,1.1999999999999997,-0.5235987755982988,-0.5235987755982988,0,-0.12424098,-1.5115877,-0.95389265,-0.078772925,0.0357948,1.119305,1.719563,0.121456265,-0.6065076,-0.18724313,0.20608248,0.0898049,0.89132655,0.67772317
0.0,-0.1,1.1999999999999997,-0.5235987755982988,-0.5235987755982988,0,-0.124626346,-1.5130763,-0.95269555,-0.07628111,-0.15525727,0.9776105,-0.1589236,0.12206329,-0.60723937,-0.19055684,0.22659925,0.12948465,1.060486,-0.728306
0.0,-0.1,1.1999999999999997,-0.5235987755982988,-0.5235987755982988,0,-0.1256184,-1.512899,-0.9520786,-0.081576094,-0.06803484,1.1407341,-2.0633373,0.121763855,-0.6065865,-0.18660788,0.21356234,-0.008955618,0.8946847,1.0824437
0.0,-0.1,1.1999999999999997,-0.5235987755982988,-0.5235987755982988,0,-0.12497876,-1.5112084,-0.95458114,-0.08076179,-0.14433011,0.99916404,0.83987725,0.12566935,-0.60637444,-0.19592573,0.21291363,-0.0073000877,0.8775699,1.1522852
0.0,-0.1,1.1999999999999997,-0.5235987755982988,-0.5235987755982988,0,-0.12496734,-1.512421,-0.9580802,-0.080057934,-0.08702435,1.0989494,0.24376065,0.121628456,-0.6067954,-0.19103453,0.2188105,0.06773621,0.90236264,0.58650213
0.0,-0.1,1.1999999999999997,-0.5235987755982988,-0.5235987755982988,0,-0.12354711,-1.5129724,-0.9505052,-0.07778927,-0.016178217,1.1511984,0.13494952,0.1223478,-0.60562485,-0.19460161,0.18338484,-0.00083170546,0.98225206,1.6348122
0.0,-0.1,1.1999999999999997,-0.5235987755982988,-0.5235987755982988,0,-0.12416457,-1.5136772,-0.95439196,-0.07684885,0.02081287,1.0138253,0.12199807,0.12179994,-0.60716224,-0.19581328,0.2190981,-0.11308468,0.8731697,0.88256353
0.0,-0.1,1.1999999999999997,-0.5235987755982988,-0.5235987755982988,0,-0.12502629,-1.5125763,-0.95602024,-0.07821967,-0.06509549,1.0696125,-1.6169376,0.12219946,-0.60724294,-0.18795207,0.20739207,0.12707372,0.89783,1.063861
0.0,-0.1,1.1999999999999997,-0.5235987755982988,-0.5235987755982988,0,-0.12327691,-1.5123934,-0.95060414,-0.08117938,0.072748855,1.0884956,-0.23178288,0.12096127,-0.60666436,-0.19268073,0.21389246,0.054733004,1.0212442,1.2527516
0.0,-0.1,1.1999999999999997,-0.5235987755982988,-0.5235987755982988,0,-0.123773195,-1.5129372,-0.9529182,-0.078570396,0.019924494,1.1235265,-1.926303,0.123464644,-0.6069765,-0.19724926,0.1713314,0.020433605,0.9200659,1.3207495
0.0,-0.1,1.1999999999999997,-0.5235987755982988,-0.5235987755982988,0,-0.12488173,-1.5143249,-0.95674336,-0.08225075,0.024657967,1.0634722,0.5049366,0.122513,-0.60662067,-0.18608274,0.22576419,-0.2295724,0.90152365,1.5616978
0.0,-0.1,1.1999999999999997,-0.5235987755982988,-0.5235987755982988,0,-0.12422917,-1.5115081,-0.9525288,-0.07949002,0.0062141186,1.1964118,-1.7040604,0.12446869,-0.60635984,-0.1984345,0.22147001,-0.13369896,0.8276724,1.3685538
0.0,-0.1,1.1999999999999997,-0.5235987755982988,-0.5235987755982988,0,-0.12429235,-1.5132346,-0.9547029,-0.07990033,0.057528924,1.1382778,-1.4567341,0.122939125,-0.60642225,-0.19742092,0.21822113,-0.16055344,0.9695176,0.6165482
0.0,-0.1,1.1999999999999997,-0.5235987755982988,-0.5235987755982988,0,-0.12356245,-1.5150529,-0.9507755,-0.080265924,0.19840549,0.9601025,-1.2906911,0.121467166,-0.6067732,-0.19330494,0.18738437,0.25384882,0.90331435,-0.0038650173
0.0,-0.1,1.1999999999999997,-0.5235987755982988,-0.5235987755982988,0,-0.12543543,-1.5123178,-0.95452166,-0.07976352,-0.13265643,1.1572981,-0.5373509,0.12188091,-0.60703003,-0.19139613,0.19820808,0.0626317,0.8530982,1.2736238
0.0,-0.1,1.1999999999999997,-0.5235987755982988,-0.5235987755982988,0,-0.12553044,-1.5120813,-0.95380026,-0.078301094,-0.023670034,1.0052363,-0.42400417,0.12209026,-0.605916,-0.20098726,0.19718578,-0.052725393,0.96703583,0.21536335
0.0,-0.1,1.1999999999999997,-0.5235987755982988,-0.5235987755982988,0,-0.125074,-1.511846,-0.95383006,-0.08100241,0.077560894,1.1080143,-0.010976506,0.12033485,-0.6070532,-0.18329512,0.19199325,0.07391538,0.99229544,0.6685555
0.0,-0.1,1.1999999999999997,-0.5235987755982988,-0.5235987755982988,0,-0.12456567,-1.5121791,-0.95637715,-0.08256591,-0.15261024,1.1013405,0.9058072,0.11928976,-0.6067095,-0.18699048,0.19270141,-0.06035653,0.88352525,1.901154
0.0,-0.1,1.1999999999999997,-0.5235987755982988,-0.5235987755982988,0,-0.12508518,-1.5129356,-0.95659953,-0.08139908,0.0054449425,1.1142869,-0.97239184,0.12358436,-0.607071,-0.18900143,0.18659684,0.152461,0.88096756,1.201292
0.0,-0.1,1.1999999999999997,-0.5235987755982988,-0.5235987755982988,0,-0.12388727,-1.5114518,-0.9523018,-0.08030074,-0.059948187,1.1035782,0.19529228,0.12318188,-0.6065389,-0.18941833,0.21373932,-0.09979257,0.9743065,0.12205521
0.0,-0.1,1.1999999999999997,-0.5235987755982988,-0.5235987755982988,0,-0.12535565,-1.5141947,-0.95496833,-0.080977246,0.14394549,1.1500081,-0.18245035,0.12275831,-0.60656804,-0.1854056,0.17111348,0.040488318,0.9407613,0.9940777
0.0,-0.1,1.1999999999999997,-0.5235987755982988,-0.5235987755982988,0,-0.12401271,-1.5132359,-0.95758975,-0.07963661,0.28561684,1.0251765,-0.6831703,0.12120819,-0.60692537,-0.19407289,0.18394731,-0.091872014,0.9156792,-0.2819777
0.0,-0.1,1.1999999999999997,-0.5235987755982988,-0.5235987755982988,0,-0.12478245,-1.5128547,-0.9580778,-0.080333956,-0.08163181,1.0639384,1.0508567,0.12196846,-0.6068867,-0.18808763,0.18529564,0.06752525,0.9622212,2.3320024
0.0,-0.1,1.1999999999999997,-0.5235987755982988,-0.5235987755982988,0,-0.12317789,-1.5138713,-0.953929,-0.079495944,0.1651337,1.1641334,0.17211902,0.122831784,-0.6066792,-0.19672571,0.20040073,-0.18134286,1.0090919,0.15381315
0.0,-0.1,1.1999999999999997,-0.5235987755982988,-0.5235987755982988,0,-0.123668894,-1.5129144,-0.9507867,-0.07937826,-0.06088739,1.1234714,-0.09231399,0.12032618,-0.6067666,-0.19438589,0.19825813,0.20366843,0.9167108,0.92279005
0.0,-0.1,1.1999999999999997,-0.5235987755982988,-0.5235987755982988,0,-0.123381585,-1.5115418,-0.95349085,-0.080380395,-0.10264795,1.1042135,1.4808477,0.123365715,-0.6068889,-0.18773055,0.20948212,0.109503545,0.9398372,1.089111
0.0,-0.1,1.1999999999999997,-0.5235987755982988,-0.5235987755982988,0,-0.12411229,-1.5126251,-0.9541253,-0.078478865,0.015770521,1.0136154,0.29073542,0.12201999,-0.6062324,-0.20151986,0.201992,-0.10101448,0.9997046,0.6759892
0.0,-0.1,1.1999999999999997,-0.5235987755982988,-0.5235987755982988,0,-0.12450192,-1.513673,-0.9527752,-0.079869,0.0051207333,1.0273032,1.2519523,0.12068493,-0.6067164,-0.18693404,0.18194754,0.1526035,1.0319276,-0.6437474
0.0,-0.1,1.1999999999999997,-0.5235987755982988,-0.5235987755982988,0,-0.12384817,-1.5137806,-0.9531922,-0.07836165,-0.0410229,1.070408,-0.7522132,0.123155445,-0.6072714,-0.19353731,0.19618957,-0.10897196,0.90047604,0.23002405
0.0,-0.1,1.1999999999999997,-0.5235987755982988,-0.5235987755982988,0,-0.12435398,-1.5143504,-0.95823866,-0.079027176,-0.066311784,1.0631232,-0.27611023,0.12499078,-0.606748,-0.19340003,0.20491995,-0.08370973,1.0877789,0.81072193
0.0,-0.1,1.1999999999999997,-0.5235987755982988,-0.5235987755982988,0,-0.12470688,-1.5139667,-0.9562011,-0.080640525,0.14933966,0.97855973,-0.6001506,0.12292743,-0.6067229,-0.1924115,0.18345696,-0.053504717,0.95402026,0.33535233
0.0,-0.1,1.1999999999999997,-0.5235987755982988,-0.5235987755982988,0,-0.12383097,-1.5131978,-0.9556701,-0.0787422,0.17575264,0.9824324,-0.34083077,0.120339915,-0.6064868,-0.20101705,0.20500591,0.07534784,0.8664747,1.693209
0.0,-0.1,1.1999999999999997,-0.5235987755982988,-0.5235987755982988,0,-0.12401422,-1.5132973,-0.9586941,-0.07739319,-0.03124191,1.0584962,-0.57707435,0.12223922,-0.6066265,-0.19676019,0.20265016,0.00544231,1.0335591,0.07455444
0.0,-0.1,1.1999999999999997,-0.5235987755982988,-0.5235987755982988,0,-0.12439876,-1.5129418,-0.959911,-0.079221904,0.15453717,0.9644679,-1.4693304,0.121813014,-0.6069375,-0.20110245,0.21183603,-0.03010479,0.8880831,0.87061393
0.0,-0.1,1.1999999999999997,-0.5235987755982988,-0.5235987755982988,0,-0.12509324,-1.5131159,-0.95855856,-0.07773752,0.19895989,1.1048472,0.016631195,0.12166702,-0.6069905,-0.19285096,0.20173113,0.06624453,0.9300376,0.81764317
0.0,-0.1,1.1999999999999997,-0.5235987755982988,-0.5235987755982988,0,-0.1235849,-1.5140648,-0.9549496,-0.07791237,0.123432666,1.0100027,-0.40777883,0.12094689,-0.60735077,-0.18974465,0.23344205,-0.076089695,0.9241879,0.19753262
0.0,-0.1,1.1999999999999997,-0.5235987755982988,-0.5235987755982988,0,-0.123452045,-1.5116842,-0.9529679,-0.080157794,0.12680343,1.0558755,0.04990124,0.12179585,-0.6068263,-0.19071281,0.22525528,0.19090854,0.86950755,-0.338387
0.0,-0.1,1.1999999999999997,-0.5235987755982988,-0.5235987755982988,0,-0.12532367,-1.5131588,-0.9554749,-0.078168966,-0.24428207,1.0466951,-1.0637411,0.12195329,-0.6058115,-0.20413518,0.21967803,0.00815079,0.9335894,1.1960846
0.0,-0.1,1.1999999999999997,-0.5235987755982988,-0.5235987755982988,0,-0.12479071,-1.5115701,-0.9579726,-0.08201694,-0.19003046,1.0844662,-0.57883036,0.12151425,-0.606586,-0.1953836,0.2015654,-0.075699836,0.9491749,0.8213226
0.0,-0.1,1.1999999999999997,-0.5235987755982988,-0.5235987755982988,0,-0.12326806,-1.5113539,-0.9576916,-0.077475086,0.12068515,1.0415041,-0.07235293,0.12251756,-0.60716224,-0.20374697,0.20681149,-0.008034397,0.9591273,0.7754412
0.0,-0.1,1.1999999999999997,-0.5235987755982988,-0.5235987755982988,0,-0.12291163,-1.5152174,-0.9569672,-0.07791504,0.18633582,0.9896686,0.32337996,0.12244051,-0.60669655,-0.2054646,0.1884623,0.16236652,0.9302469,0.874413
0.0,-0.1,1.1999999999999997,-0.5235987755982988,-0.5235987755982988,0,-0.12537572,-1.5136251,-0.95038974,-0.08225885,0.044681683,1.1648687,-1.1891053,0.12670782,-0.606915,-0.19220585,0.21882197,0.04364075,1.0152768,0.8548613
0.0,-0.1,1.1999999999999997,-0.5235987755982988,-0.5235987755982988,0,-0.12275253,-1.5136902,-0.9572574,-0.08253149,0.13541728,1.1247902,-0.30089912,0.123117134,-0.60691553,-0.1976054,0.19792473,0.12658535,0.8930915,-0.6919437
0.0,-0.1,1.1999999999999997,-0.5235987755982988,-0.5235987755982988,0,-0.12310436,-1.5142646,-0.95835817,-0.08202479,0.16279535,1.182132,0.04884739,0.122898996,-0.6062605,-0.1945002,0.1880934,-0.023363136,0.96175194,-0.5507125
0.0,-0.1,1.1999999999999997,-0.5235987755982988,-0.5235987755982988,0,-0.1250708,-1.5112183,-0.95555604,-0.07859511,0.0640447,1.0765531,0.013024353,0.12256249,-0.60664755,-0.19226708,0.22025302,-0.10972887,0.9359138,1.9293027
0.0,-0.1,1.1999999999999997,-0.5235987755982988,-0.5235987755982988,0,-0.12624514,-1.5138632,-0.9553494,-0.07926045,0.061858907,1.0534736,-0.3046309,0.12277498,-0.6068226,-0.18548599,0.20655754,0.09956526,1.0114698,0.39972886
0.0,-0.1,1.1999999999999997,-0.5235987755982988,-0.5235987755982988,0,-0.12304512,-1.5121237,-0.9537815,-0.07933562,0.19453414,1.165244,-0.14983612,0.121674545,-0.6070037,-0.20242037,0.2089421,0.22198313,0.95784885,0.48494118
0.0,-0.1,1.1999999999999997,-0.5235987755982988,-0.5235987755982988,0,-0.12395463,-1.512627,-0.95588756,-0.0805322,-0.10216818,1.1052858,0.064195745,0.121394776,-0.60699725,-0.1957384,0.20667842,0.023820842,0.94442916,0.5849885
0.0,-0.1,1.1999999999999997,-0.5235987755982988,-0.5235987755982988,0,-0.12196845,-1.513809,-0.95534295,-0.07983401,-0.11445007,1.0657247,-1.193643,0.12142207,-0.6068546,-0.20059954,0.2064486,-0.01608303,0.9873541,0.8376704
0.0,-0.1,1.1999999999999997,-0.5235987755982988,-0.5235987755982988,0,-0.124299146,-1.5135875,-0.95574355,-0.080780216,0.08128404,1.1096303,1.6179236,0.121919,-0.6059611,-0.20435867,0.20961817,0.1660249,0.8387322,0.07457395
0.0,-0.1,1.1999999999999997,-0.5235987755982988,-0.5235987755982988,0,-0.12413054,-1.514417,-0.95019454,-0.07926127,0.15915498,0.9854625,-0.24495797,0.12314859,-0.6073715,-0.19297905,0.2042633,-0.35539916,0.9871231,1.9527428
0.0,-0.1,1.1999999999999997,-0.5235987755982988,-0.5235987755982988,0,-0.12419027,-1.5121062,-0.9531027,-0.07781325,-0.013299934,1.0359368,0.9906732,0.124239184,-0.606233,-0.19946226,0.19398402,0.13957644,0.991339,0.53355765
0.0,-0.1,1.1999999999999997,-0.5235987755982988,-0.5235987755982988,0,-0.12461538,-1.5149192,-0.9521745,-0.081174985,0.05574246,1.0918775,-0.41723922,0.1220471,-0.60640484,-0.19613156,0.1975751,0.03647443,0.8848517,1.048306
0.0,-0.1,1.1999999999999997,-0.5235987755982988,-0.5235987755982988,0,-0.1235655,-1.511504,-0.95448565,-0.07885817,-0.15372935,1.0986197,-0.09002449,0.12355726,-0.60692424,-0.19143546,0.20736353,0.10477954,0.979706,1.6792028
0.0,-0.1,1.1999999999999997,-0.5235987755982988,-0.5235987755982988,0,-0.125287,-1.5120714,-0.952454,-0.082769655,-0.14952362,1.0153086,-0.7167503,0.12333851,-0.6068989,-0.19433172,0.2146659,0.00091755117,0.9014673,1.5890429
0.0,-0.1,1.1999999999999997,-0.5235987755982988,-0.5235987755982988,0,-0.12392119,-1.5134597,-0.95820975,-0.081766926,0.19428355,0.9561666,0.8689611,0.122122414,-0.6066223,-0.19663279,0.19833995,-0.0025640586,1.1084394,-0.19399811
0.0,-0.1,1.1999999999999997,-0.5235987755982988,-0.5235987755982988,0,-0.123965375,-1.5137386,-0.9539442,-0.076881744,0.100334056,1.0591614,-0.36282662,0.122961,-0.6072639,-0.2021118,0.19616495,0.15357456,0.8416952,0.21012102
0.0,-0.1,1.1999999999999997,-0.5235987755982988,-0.5235987755982988,0,-0.12441024,-1.5149022,-0.9540793,-0.08051478,-0.09546792,1.014498,-0.5041294,0.12127144,-0.60685873,-0.18813623,0.22663897,-0.17020328,0.97853607,-0.7665723
0.0,-0.1,1.1999999999999997,-0.5235987755982988,-0.5235987755982988,0,-0.12489485,-1.513734,-0.95582676,-0.08069377,-0.14013901,1.0937726,-0.047296297,0.12032112,-0.60678756,-0.19519402,0.19970939,-0.04451403,0.7913602,0.42170498
0.0,-0.1,1.1999999999999997,-0.5235987755982988,-0.5235987755982988,0,-0.12473145,-1.5134634,-0.9550437,-0.077329904,-0.057305247,1.1325681,-0.23725083,0.12136491,-0.6069849,-0.20064734,0.18949883,0.0052013462,0.8048742,0.047987647
0.0,-0.1,1.1999999999999997,-0.5235987755982988,-0.5235987755982988,0,-0.1256504,-1.513638,-0.95517504,-0.07991636,0.104640566,1.0369824,0.017349113,0.12194599,-0.60683805,-0.19410248,0.21007203,0.024700796,0.91595346,0.5222222
0.0,-0.1,1.1999999999999997,-0.5235987755982988,-0.5235987755982988,0,-0.12487983,-1.5144353,-0.95646113,-0.07974443,0.1938018,1.0529153,0.53566664,0.120871395,-0.6064906,-0.195822,0.23331636,0.15195413,1.0126357,0.17900234
0.0,-0.1,1.1999999999999997,-0.5235987755982988,-0.5235987755982988,0,-0.12498365,-1.5111909,-0.95632136,-0.077902436,0.16120385,1.1065739,0.2673102,0.12171318,-0.6066713,-0.19340292,0.220111,0.049516283,0.9847616,-0.485518
0.0,-0.1,1.1999999999999997,-0.5235987755982988,-0.5235987755982988,0,-0.12420672,-1.5153354,-0.95432514,-0.077117376,0.07331672,1.0668349,0.09028672,0.12284644,-0.6069257,-0.19820702,0.18387973,0.045808535,0.93653,-0.24232797
0.0,-0.1,1.1999999999999997,-0.5235987755982988,-0.5235987755982988,0,-0.12514707,-1.5117166,-0.95413864,-0.079799704,0.1713785,1.1248639,0.69117916,0.12261445,-0.606686,-0.20171979,0.20078872,-0.0994165,0.90884036,1.3628603
0.0,-0.1,1.1999999999999997,-0.5235987755982988,-0.5235987755982988,0,-0.12387766,-1.5110064,-0.95305234,-0.080822274,0.017519133,1.0254135,0.117370285,0.12538812,-0.6070645,-0.19510232,0.2000552,0.054675937,1.0323546,1.314713
0.0,-0.1,1.1999999999999997,-0.5235987755982988,-0.5235987755982988,0,-0.12377069,-1.5147631,-0.9563673,-0.08270312,-0.0729127,1.1044122,0.37434155,0.12328987,-0.6066665,-0.19113883,0.22031184,0.09355771,0.9389497,0.2557365
0.0,-0.1,1.1999999999999997,-0.5235987755982988,-0.5235987755982988,0,-0.12410221,-1.5121316,-0.956885,-0.081913956,-0.10491194,1.0709413,1.0639739,0.124089144,-0.60695237,-0.20448767,0.19189738,-0.021342667,0.86122894,0.44179907
0.0,-0.1,1.1999999999999997,-0.5235987755982988,-0.5235987755982988,0,-0.12575555,-1.5133771,-0.9556538,-0.083781846,-0.2991622,1.0155901,-1.040309,0.12233399,-0.6066146,-0.1906055,0.17256549,0.069696195,0.8482474,1.7100549
0.0,-0.1,1.1999999999999997,-0.5235987755982988,-0.5235987755982988,0,-0.12365045,-1.5106124,-0.9556808,-0.079705246,-0.15200768,1.0513273,-0.7322817,0.12350617,-0.60651606,-0.20344026,0.2010001,-0.28948283,1.0548257,0.9818275
0.0,-0.1,1.1999999999999997,-0.5235987755982988,-0.5235987755982988,0,-0.12350609,-1.5124867,-0.95387226,-0.07979526,-0.0439608,1.039456,-1.102848,0.12134737,-0.606831,-0.20048018,0.19689006,-0.014687935,0.9809162,1.045716
0.0,-0.1,1.1999999999999997,-0.5235987755982988,-0.5235987755982988,0,-0.12327849,-1.5116735,-0.95255375,-0.0848461,-0.031863626,1.0052012,-2.0773826,0.12090614,-0.6069553,-0.19777259,0.20309642,-0.02924486,0.8602742,0.5133914
0.0,-0.1,1.1999999999999997,-0.5235987755982988,-0.5235987755982988,0,-0.12544625,-1.5132797,-0.9523119,-0.07971849,-0.019631071,1.1024503,-1.4983294,0.123445556,-0.6071181,-0.19773072,0.21899553,0.15291317,0.88764477,-0.30619678
0.0,-0.1,1.1999999999999997,-0.5235987755982988,-0.5235987755982988,0,-0.12404951,-1.5121619,-0.9539592,-0.08014118,0.015365739,1.0915693,-1.9639099,0.120805524,-0.6062849,-0.2008603,0.20846015,0.12738828,1.0460411,-1.0854418
0.0,-0.1,1.1999999999999997,-0.5235987755982988,-0.5235987755982988,0,-0.12500091,-1.5138355,-0.9534049,-0.08072345,-0.27369437,1.0103399,-0.7346079,0.12233369,-0.6071172,-0.19636674,0.18882704,-0.054927174,0.893773,-0.21428485
0.0,-0.1,1.1999999999999997,-0.5235987755982988,-0.5235987755982988,0,-0.12397888,-1.5138558,-0.9526028,-0.07981062,0.10300421,1.149856,-0.7306238,0.122591205,-0.6072608,-0.20058252,0.19628733,0.028735235,0.8215226,0.41623226
0.0,-0.1,1.1999999999999997,-0.5235987755982988,-0.5235987755982988,0,-0.123044856,-1.5134206,-0.9573367,-0.08179441,0.03851478,1.0567902,-2.2812808,0.122591645,-0.60675484,-0.20173144,0.20296663,0.14806762,1.0340397,0.4810227
0.0,-0.1,1.1999999999999997,-0.5235987755982988,-0.5235987755982988,0,-0.12457826,-1.5128226,-0.95773053,-0.08166893,-0.21056734,1.0282819,-0.70124906,0.12073124,-0.60665387,-0.19901982,0.20875426,0.1603927,0.9327252,0.4202122
0.0,-0.1,1.1999999999999997,-0.5235987755982988,-0.5235987755982988,0,-0.124291204,-1.5142933,-0.9544362,-0.07828343,0.001822027,1.102195,0.90071493,0.12072306,-0.6069615,-0.19732657,0.20217681,0.2027948,0.9661579,0.97719854
0.0,-0.1,1.1999999999999997,-0.5235987755982988,-0.5235987755982988,0,-0.1234726,-1.5119293,-0.9533057,-0.08385277,0.011763498,1.0857586,0.40784067,0.122686796,-0.6068209,-0.2018627,0.19507775,0.14515151,0.88823414,1.1250594
0.0,-0.1,1.1999999999999997,-0.5235987755982988,-0.5235987755982988,0,-0.12537317,-1.5153348,-0.95721513,-0.07909742,0.0621273,1.1083705,-0.50292176,0.12291004,-0.6068137,-0.186771,0.22566861,0.12461662,1.0182362,0.17582312
0.0,-0.1,1.1999999999999997,-0.5235987755982988,-0.5235987755982988,0,-0.12516016,-1.5141171,-0.951208,-0.079267725,0.06602863,1.0365994,-0.37130588,0.12156042,-0.607065,-0.19712672,0.20943776,0.17049748,0.8966095,1.7974358
0.0,-0.1,1.1999999999999997,-0.5235987755982988,-0.5235987755982988,0,-0.12530102,-1.5137789,-0.9542697,-0.08333629,-0.13066168,1.0821815,0.05255837,0.12305409,-0.6066029,-0.19252236,0.22992425,-0.070035905,0.96608895,-0.010838343
0.0,-0.1,1.1999999999999997,-0.5235987755982988,-0.5235987755982988,0,-0.12341796,-1.511144,-0.95383155,-0.08032593,0.008295395,1.064938,1.0781546,0.12070739,-0.6065079,-0.19710171,0.18175374,0.044155974,1.009543,1.7367437
0.0,-0.1,1.1999999999999997,-0.5235987755982988,-0.5235987755982988,0,-0.12378604,-1.5136484,-0.9494391,-0.07823964,0.06692991,0.9191964,-0.00794342,0.122126654,-0.6068963,-0.20707563,0.20077842,0.15827288,0.9513969,0.41154495
0.0,-0.1,1.1999999999999997,-0.5235987755982988,-0.5235987755982988,0,-0.1249085,-1.5137314,-0.9541842,-0.07817639,-0.0006845242,1.052406,-1.7037778,0.119892895,-0.6061074,-0.20409931,0.21400192,-0.1589495,0.89887416,0.23470013
0.0,-0.1,1.1999999999999997,-0.5235987755982988,-0.5235987755982988,0,-0.124458276,-1.5131483,-0.95727676,-0.080178596,-0.27043632,1.0373942,-1.3670352,0.11956539,-0.6071126,-0.19446604,0.20563391,0.15594827,0.9923189,1.6626999
0.0,-0.1,1.1999999999999997,-0.5235987755982988,-0.5235987755982988,0,-0.1237867,-1.5112467,-0.9518661,-0.08079413,0.24067804,1.0791615,-0.091675736,0.11922267,-0.6062354,-0.20473081,0.1991552,-0.0826628,0.9476457,0.9883676
0.0,-0.1,1.1999999999999997,-0.5235987755982988,-0.5235987755982988,0,-0.12411563,-1.5129949,-0.9522639,-0.08232244,0.083616965,1.0466399,0.119401306,0.11853081,-0.60708094,-0.1881504,0.20073436,0.15648834,0.97400844,-0.8724538
0.0,-0.1,1.1999999999999997,-0.5235987755982988,-0.5235987755982988,0,-0.1241367,-1.5116841,-0.9553339,-0.07993107,-0.1281941,1.1127361,-0.1841095,0.12185286,-0.60661405,-0.20364347,0.20586756,0.20652299,1.0247781,-0.08822793
0.0,-0.1,1.1999999999999997,-0.5235987755982988,-0.5235987755982988,0,-0.1256112,-1.5139388,-0.94759387,-0.07910273,0.044899676,1.1024905,-1.3343195,0.12313221,-0.6068383,-0.19956663,0.17374873,-0.005646285,0.87790823,1.4784712
0.0,-0.1,1.1999999999999997,-0.5235987755982988,-0.5235987755982988,0,-0.124248475,-1.512958,-0.95033664,-0.07639269,-0.021359157,1.0867542,-0.52244323,0.12240089,-0.6069073,-0.2043406,0.2067648,-0.051047202,0.95139575,1.722837
0.0,-0.1,1.1999999999999997,-0.5235987755982988,-0.5235987755982988,0,-0.12483546,-1.5140401,-0.95011985,-0.08131871,-0.11990945,1.0742576,-0.027754799,0.12295172,-0.60695577,-0.19937238,0.20483989,-0.17552409,0.8985802,-0.33749083
0.0,-0.1,1.1999999999999997,-0.5235987755982988,-0.5235987755982988,0,-0.12477555,-1.5145978,-0.95640683,-0.07922976,-0.12146954,1.1550725,-0.25019524,0.12283819,-0.6072422,-0.19901186,0.21810722,-0.024478992,0.87399954,-0.6266183
0.0,-0.1,1.1999999999999997,-0.5235987755982988,-0.5235987755982988,0,-0.12554036,-1.5115174,-0.9580567,-0.079509914,-0.15432148,1.0417522,-1.082548,0.1218657,-0.6071184,-0.20047873,0.19040757,0.11554223,0.92426986,-1.8028594
0.0,-0.1,1.1999999999999997,-0.5235987755982988,-0.5235987755982988,0,-0.124720216,-1.5141352,-0.9510021,-0.079823755,0.114471704,1.0271238,0.15938674,0.12227394,-0.60640424,-0.20363899,0.20558009,-0.033872917,0.98074985,1.6522543
0.0,-0.1,1.1999999999999997,-0.5235987755982988,-0.5235987755982988,0,-0.12462864,-1.5135518,-0.9522426,-0.082415774,-0.11641786,1.0576935,-1.6465282,0.1213158,-0.6070472,-0.19208208,0.19286112,0.23131281,1.0009285,2.1114037
0.0,-0.1,1.1999999999999997,-0.5235987755982988,-0.5235987755982988,0,-0.12381565,-1.5134751,-0.9557416,-0.07826689,-0.120193444,1.0909246,-0.79363436,0.11966468,-0.60656625,-0.20436196,0.21807335,0.021798225,0.92920184,0.28243354
0.0,-0.1,1.1999999999999997,-0.5235987755982988,-0.5235987755982988,0,-0.12364323,-1.5113237,-0.9545238,-0.08108821,-0.038126547,1.1152755,-0.2888324,0.120482,-0.6061133,-0.20897415,0.1960227,-0.033628397,0.95666814,-0.52419025
0.0,-0.1,1.1999999999999997,-0.5235987755982988,-0.5235987755982988,0,-0.12511617,-1.5133222,-0.9558203,-0.08063333,0.032381054,0.9841024,-0.18639933,0.122761145,-0.6079545,-0.18794721,0.20946847,-0.117258124,1.0425545,-0.21351272
0.0,-0.1,1.1999999999999997,-0.5235987755982988,-0.5235987755982988,0,-0.12521751,-1.5110713,-0.9565496,-0.081829116,-0.21179043,1.1017002,-0.95674103,0.12145186,-0.6070345,-0.20438658,0.20969833,-0.27272454,0.8416478,1.4984211
0.0,-0.1,1.1999999999999997,-0.5235987755982988,-0.5235987755982988,0,-0.12379921,-1.5121627,-0.9514634,-0.08499248,-0.026597602,1.0997578,-0.49583167,0.12383363,-0.60700357,-0.20356618,0.20149723,0.19399612,0.8705045,0.8916357
0.0,-0.1,1.1999999999999997,-0.5235987755982988,-0.5235987755982988,0,-0.12452132,-1.5138166,-0.9521949,-0.0805087,0.13540864,1.0047015,-0.8096644,0.122490704,-0.6070007,-0.20297763,0.19714731,0.008862358,0.963778,1.3134425
0.0,-0.1,1.1999999999999997,-0.5235987755982988,-0.5235987755982988,0,-0.12282427,-1.5131519,-0.9511177,-0.08179944,0.08797296,1.0669539,-0.39677596,0.121836305,-0.60707897,-0.2096479,0.20197862,0.07862159,0.8192491,0.25657743
0.0,-0.1,1.1999999999999997,-0.5235987755982988,-0.5235987755982988,0,-0.124551445,-1.5137876,-0.95473194,-0.0813967,-0.011237259,1.0785519,0.7020498,0.123344466,-0.60681134,-0.20568834,0.21219362,-0.15595846,0.992508,1.1332175
0.0,-0.1,1.1999999999999997,-0.5235987755982988,-0.5235987755982988,0,-0.124084875,-1.5130422,-0.95438284,-0.08125949,0.36607876,1.0563548,0.8755545,0.12139542,-0.6069811,-0.20661502,0.20368329,-0.04876134,0.92644244,-0.81885165
0.0,-0.1,1.1999999999999997,-0.5235987755982988,-0.5235987755982988,0,-0.12454516,-1.5111444,-0.9527381,-0.08075041,-0.08141048,1.0758165,-1.7908573,0.123322934,-0.6067513,-0.18547414,0.21125339,0.24334238,0.88769144,1.759754
0.0,-0.1,1.1999999999999997,-0.5235987755982988,-0.5235987755982988,0,-0.12391943,-1.5131764,-0.95472133,-0.083137624,0.19775195,1.169999,1.0438459,0.12346832,-0.6063864,-0.18735096,0.20018426,-0.012575815,0.90543914,-0.28840154
0.0,-0.1,1.1999999999999997,-0.5235987755982988,-0.5235987755982988,0,-0.12418787,-1.5135942,-0.95678794,-0.08149239,-0.030500859,1.0683627,-0.245017,0.12135888,-0.60584664,-0.18826158,0.20658001,-0.034190465,0.9571122,0.16355157
0.0,-0.1,1.1999999999999997,-0.5235987755982988,-0.5235987755982988,0,-0.12432378,-1.5132294,-0.9553667,-0.08039418,0.091363706,1.0624396,-0.09101661,0.12400903,-0.60696363,-0.18987378,0.1874726,-0.02421336,0.97437584,0.5128407
0.0,-0.1,1.1999999999999997,-0.5235987755982988,-0.5235987755982988,0,-0.12548715,-1.5130327,-0.95676166,-0.080140576,-0.12021745,0.9683919,-0.4553404,0.12075172,-0.6064418,-0.18566452,0.19465515,0.0105783595,1.122607,0.90969676
0.0,-0.1,1.1999999999999997,-0.5235987755982988,-0.5235987755982988,0,-0.12494831,-1.5128282,-0.94957715,-0.08071054,-0.0023164272,1.0436536,-1.8041675,0.12083233,-0.60633236,-0.19087458,0.20481437,0.026284207,0.8934608,1.2123832
0.0,-0.1,1.1999999999999997,-0.5235987755982988,-0.5235987755982988,0,-0.12433832,-1.5134822,-0.9552485,-0.082054324,-0.21450348,1.051607,0.24796255,0.12174201,-0.60709405,-0.18736199,0.20986266,-0.12659486,0.95056564,-0.47107786
0.0,-0.1,1.1999999999999997,-0.5235987755982988,-0.5235987755982988,0,-0.122956924,-1.5132184,-0.9492919,-0.079828896,0.16727531,1.0707113,-1.3333198,0.119737506,-0.6071785,-0.19152927,0.19085018,0.21222407,0.8736428,0.5558825
0.0,-0.1,1.1999999999999997,-0.5235987755982988,-0.5235987755982988,0,-0.12434537,-1.5120201,-0.9524026,-0.07846498,0.038837276,1.0533439,-1.401177,0.12343653,-0.6059399,-0.17684303,0.18686089,0.32365423,0.9445187,-0.4792695
0.0,-0.1,1.1999999999999997,-0.5235987755982988,-0.5235987755982988,0,-0.12326331,-1.513893,-0.9549562,-0.07756618,0.05988302,0.99846566,-0.38569894,0.12255329,-0.60618097,-0.18584213,0.21613945,0.058796655,0.9427366,0.36289242
0.0,-0.1,1.1999999999999997,-0.5235987755982988,-0.5235987755982988,0,-0.12533706,-1.5118327,-0.95675445,-0.07803999,0.11241878,1.1488148,0.68502766,0.122585304,-0.60631275,-0.1904426,0.17563125,-0.22799285,0.76349014,0.8507704
0.0,-0.1,1.1999999999999997,-0.5235987755982988,-0.5235987755982988,0,-0.12414426,-1.5128506,-0.9519094,-0.07977811,-0.07480375,1.0518938,-2.0159307,0.12382417,-0.60629064,-0.1863514,0.21169537,0.19650565,0.94466746,1.5930523
0.0,-0.1,1.1999999999999997,-0.5235987755982988,-0.5235987755982988,0,-0.12379518,-1.5123658,-0.9534431,-0.085415065,-0.066020675,0.96423274,-0.33607316,0.12389154,-0.6062906,-0.17777713,0.20569915,0.18546492,0.9780419,0.07029195
0.0,-0.1,1.1999999999999997,-0.5235987755982988,-0.5235987755982988,0,-0.12389342,-1.5119689,-0.95705396,-0.07936072,-0.2789894,1.0880524,-0.026075471,0.122759886,-0.6061307,-0.18841106,0.19693024,-0.0020400835,1.0041717,0.5413999
0.0,-0.1,1.1999999999999997,-0.5235987755982988,-0.5235987755982988,0,-0.122774646,-1.5146924,-0.95429814,-0.08140051,-0.2753941,0.95135635,0.1848145,0.120409384,-0.6067578,-0.1745385,0.20959385,-0.06077595,0.91289335,1.0738758
0.0,-0.1,1.1999999999999997,-0.5235987755982988,-0.5235987755982988,0,-0.12457707,-1.5128518,-0.95130515,-0.07762649,0.15138659,0.9324238,0.86782885,0.12071235,-0.60705954,-0.1772304,0.2160753,-0.05288236,0.9399663,0.7891624
0.0,-0.1,1.1999999999999997,-0.5235987755982988,-0.5235987755982988,0,-0.12414903,-1.512606,-0.9585698,-0.07743507,-0.19328615,1.0237864,-0.1274092,0.12138464,-0.60692567,-0.17957655,0.18738551,0.18341684,0.95517766,1.9212383
0.0,-0.1,1.1999999999999997,-0.5235987755982988,-0.5235987755982988,0,-0.12382462,-1.5133928,-0.952459,-0.077115715,-0.070976146,1.026907,-0.9259114,0.121013366,-0.60648066,-0.18502109,0.20907702,0.002488955,0.8634535,-0.35254562
0.0,-0.1,1.1999999999999997,-0.5235987755982988,-0.5235987755982988,0,-0.12240511,-1.5122617,-0.9592585,-0.07972135,-0.056634776,1.0790634,-0.9735133,0.12122038,-0.6065988,-0.18205985,0.21423952,-0.0131643955,1.0053196,-0.11005477
0.0,-0.1,1.1999999999999997,-0.5235987755982988,-0.5235987755982988,0,-0.12383839,-1.5122796,-0.9558461,-0.08225362,-0.06538248,1.027794,1.0049357,0.12194274,-0.60604316,-0.19190621,0.20274241,-0.02571533,0.89152473,0.63895625
0.0,-0.1,1.1999999999999997,-0.5235987755982988,-0.5235987755982988,0,-0.123151146,-1.5151732,-0.95105606,-0.07815555,-0.14436148,0.9910208,-0.4967626,0.122351706,-0.6069069,-0.176614,0.19190215,-0.2554037,0.9865797,-0.59502673
0.0,-0.1,1.1999999999999997,-0.5235987755982988,-0.5235987755982988,0,-0.12452551,-1.513216,-0.959339,-0.08045682,-0.0074464125,0.9431197,-0.5058875,0.12447831,-0.6060949,-0.18951173,0.19977461,-0.18092033,0.9760411,-0.40041876
0.0,-0.1,1.1999999999999997,-0.5235987755982988,-0.5235987755982988,0,-0.124084674,-1.5120907,-0.95542276,-0.07843681,0.040333286,1.067865,0.813827,0.122267276,-0.6060437,-0.19564843,0.21257903,0.14693049,0.8801944,-0.18132657
0.0,-0.1,1.1999999999999997,-0.5235987755982988,-0.5235987755982988,0,-0.12244274,-1.5134381,-0.9533405,-0.07812616,-0.05571632,0.9510274,-0.58986855,0.1218258,-0.6063779,-0.19443582,0.20384687,0.037935086,0.881898,0.38941056
0.0,-0.1,1.1999999999999997,-0.5235987755982988,-0.5235987755982988,0,-0.12512383,-1.5126272,-0.954869,-0.07986461,-0.020072335,1.1266773,-0.20293128,0.12026338,-0.6061513,-0.18188708,0.18890968,-0.07009608,0.8766721,0.11377738
0.0,-0.1,1.1999999999999997,-0.5235987755982988,-0.5235987755982988,0,-0.123020634,-1.5108498,-0.94842285,-0.07705875,0.31594798,1.0306231,-0.20265947,0.122355975,-0.6071046,-0.18874475,0.19393596,-0.062048335,0.94747025,1.0620071
0.0,-0.1,1.1999999999999997,-0.5235987755982988,-0.5235987755982988,0,-0.1234899,-1.5132521,-0.95639956,-0.07787656,-0.0826457,1.0576662,1.5728723,0.12131413,-0.6067845,-0.1867888,0.21764502,0.08964784,0.8677634,-0.031087535
0.0,-0.1,1.1999999999999997,-0.5235987755982988,-0.5235987755982988,0,-0.12547472,-1.5132508,-0.95692766,-0.08131021,-0.043545153,1.127437,0.10285928,0.12241041,-0.6060048,-0.18420255,0.2009796,-0.070296705,0.90774,1.0941011
0.0,-0.1,1.1999999999999997,-0.5235987755982988,-0.5235987755982988,0,-0.1249036,-1.513055,-0.9553565,-0.07945857,-0.12679684,1.007054,-0.34646586,0.122317694,-0.60732967,-0.1800728,0.19577953,-0.2842002,0.8767883,1.3031528
0.0,-0.1,1.1999999999999997,-0.5235987755982988,-0.5235987755982988,0,-0.12541774,-1.5133625,-0.95363593,-0.078320056,0.24206619,1.040824,-0.7135376,0.1224414,-0.6066837,-0.18367611,0.22161692,0.24161907,0.9646104,0.14159034
0.0,-0.1,1.1999999999999997,-0.5235987755982988,-0.5235987755982988,0,-0.1249812,-1.5140009,-0.954276,-0.07991576,-0.02128123,1.0351534,-0.7787976,0.12521027,-0.60619426,-0.19894172,0.19271933,0.18821397,0.9053157,0.07458056
0.0,-0.1,1.1999999999999997,-0.5235987755982988,-0.5235987755982988,0,-0.12476189,-1.5115921,-0.9594822,-0.08082362,0.14825177,1.0491714,-0.7051234,0.12129649,-0.6065653,-0.18458726,0.21439172,-0.26505175,1.0127062,0.8226012
0.0,-0.1,1.1999999999999997,-0.5235987755982988,-0.5235987755982988,0,-0.12359085,-1.5143743,-0.9557497,-0.07964053,-0.13875613,1.0605229,-1.5229869,0.12329908,-0.60602474,-0.19326167,0.21487623,-0.048716545,0.96040905,1.2441343
0.0,-0.1,1.1999999999999997,-0.5235987755982988,-0.5235987755982988,0,-0.12521745,-1.5121018,-0.9564945,-0.07752997,0.14599298,1.081413,0.049191,0.12087645,-0.6062344,-0.19347914,0.16554855,0.022489915,0.8690106,0.6505593
0.0,-0.1,1.1999999999999997,-0.5235987755982988,-0.5235987755982988,0,-0.12482371,-1.5106014,-0.9515538,-0.08012933,0.078530766,1.078743,-0.9396209,0.12375982,-0.6067783,-0.19477582,0.2146222,-0.16911887,0.94984424,-0.8629814
0.0,-0.1,1.1999999999999997,-0.5235987755982988,-0.5235987755982988,0,-0.12374959,-1.5119783,-0.95451474,-0.0805965,0.01988631,0.9935489,0.9323526,0.12205452,-0.60688,-0.19041303,0.20891583,0.13157946,0.92202973,0.5585994
0.0,-0.1,1.1999999999999997,-0.5235987755982988,-0.5235987755982988,0,-0.12472374,-1.5121269,-0.9581767,-0.08123398,0.25078753,1.0949762,-0.32172155,0.1226471,-0.6067546,-0.18789068,0.20961875,0.14324638,0.918658,0.09900409
0.0,-0.1,1.1999999999999997,-0.5235987755982988,-0.5235987755982988,0,-0.12498478,-1.512119,-0.9562396,-0.0786156,-0.12646833,1.0171936,-0.7019352,0.122395575,-0.60699725,-0.1870197,0.2078827,-0.14720415,0.95277315,0.07973685
0.0,-0.1,1.1999999999999997,-0.5235987755982988,-0.5235987755982988,0,-0.12380669,-1.5133476,-0.9548062,-0.08038508,0.058335084,1.1551892,-0.18438618,0.12319008,-0.606462,-0.19328119,0.21167842,0.03840089,0.9279667,-0.5683645
0.0,-0.1,1.1999999999999997,-0.5235987755982988,-0.5235987755982988,0,-0.12244429,-1.5142517,-0.9519911,-0.07707575,0.1528912,1.0236607,-0.49949378,0.12473189,-0.60702467,-0.20111747,0.20165282,0.15582974,0.8929487,0.8926145
0.0,-0.1,1.1999999999999997,-0.5235987755982988,-0.5235987755982988,0,-0.12650698,-1.5116903,-0.95178264,-0.07731506,0.14048314,1.1491352,-1.9678872,0.12284821,-0.606164,-0.19702287,0.20058447,-0.06445226,0.8987361,0.28537574
0.0,-0.1,1.1999999999999997,-0.5235987755982988,-0.5235987755982988,0,-0.12331397,-1.5135195,-0.9550184,-0.0778662,-0.23247479,1.0239354,-0.71988016,0.1233903,-0.60673976,-0.19991982,0.20375323,-0.041754298,0.9535064,0.1542379
0.0,-0.1,1.1999999999999997,-0.5235987755982988,-0.5235987755982988,0,-0.122230574,-1.513299,-0.9595647,-0.08212678,-0.00035582218,1.0976194,1.0309289,0.12366093,-0.60693085,-0.19056743,0.19104321,0.14782837,0.9062649,1.5632421
0.0,-0.1,1.1999999999999997,-0.5235987755982988,-0.5235987755982988,0,-0.12432982,-1.5121168,-0.9556053,-0.083080575,0.058494736,1.0840834,-0.4790253,0.12266374,-0.60683835,-0.18402837,0.20697296,-0.030794028,0.9217093,1.4854182
0.0,-0.1,1.1999999999999997,-0.5235987755982988,-0.5235987755982988,0,-0.12438897,-1.5135733,-0.95081073,-0.07851666,-0.016502488,1.0800369,1.3062626,0.12290204,-0.6070181,-0.19218093,0.19985971,-0.035161585,0.8601799,0.87397844
0.0,-0.1,1.1999999999999997,-0.5235987755982988,-0.5235987755982988,0,-0.12481522,-1.5116807,-0.9565628,-0.080251485,-0.12955047,1.0591016,0.7720707,0.12039365,-0.60704017,-0.18631963,0.20225076,0.0114358775,0.8708597,1.7109569
0.0,-0.1,1.1999999999999997,-0.5235987755982988,-0.5235987755982988,0,-0.12521014,-1.5137626,-0.9557019,-0.0813069,-0.033695027,1.0247177,-1.329903,0.12093208,-0.60640347,-0.18248264,0.21380438,0.08539897,0.9758921,0.5146453
0.0,-0.1,1.1999999999999997,-0.5235987755982988,-0.5235987755982988,0,-0.12418,-1.5128725,-0.95294046,-0.07978605,0.0742751,1.0554526,-0.9694504,0.12212123,-0.6066181,-0.19400448,0.18371628,-0.019432321,0.9180471,-0.7715091
0.0,-0.1,1.1999999999999997,-0.5235987755982988,-0.5235987755982988,0,-0.12393298,-1.5127847,-0.95153826,-0.07982993,0.033446785,0.98885775,-0.35211986,0.12154618,-0.60701233,-0.18899211,0.21475615,0.037480317,0.97076,0.96052915
0.0,-0.1,1.1999999999999997,-0.5235987755982988,-0.5235987755982988,0,-0.12515472,-1.5113755,-0.9540223,-0.078492105,0.19913308,1.1260412,-0.46693045,0.122044526,-0.60648924,-0.19112757,0.21745673,0.16148011,0.8210683,-0.26035714
0.0,-0.1,1.1999999999999997,-0.5235987755982988,-0.5235987755982988,0,-0.12518302,-1.513909,-0.95329577,-0.0817873,-0.028347947,1.0456583,-0.49980554,0.12435945,-0.60629,-0.1909245,0.19405419,-0.060998186,0.8886959,1.7118293
0.0,-0.1,1.1999999999999997,-0.5235987755982988,-0.5235987755982988,0,-0.12399351,-1.5136902,-0.958373,-0.08113079,-0.030484485,0.99793893,-0.44412276,0.12243657,-0.606378,-0.19017553,0.20968385,-0.040913217,1.0124598,-0.4829922
0.0,-0.1,1.1999999999999997,-0.5235987755982988,-0.5235987755982988,0,-0.12404433,-1.5119598,-0.9517383,-0.0812597,-0.114936024,1.0632186,0.032698438,0.12296223,-0.6071898,-0.19235227,0.19453731,0.0786203,0.93678546,1.3239894
0.0,-0.1,1.1999999999999997,-0.5235987755982988,-0.5235987755982988,0,-0.124548435,-1.5139829,-0.9567871,-0.08003616,-0.11888655,0.9769643,-0.8414735,0.12126597,-0.60675097,-0.19030376,0.18656,0.026029289,0.8302788,0.11324708
0.0,-0.1,1.1999999999999997,-0.5235987755982988,-0.5235987755982988,0,-0.122918285,-1.5118116,-0.9530932,-0.082969494,-0.06073233,1.0440621,-0.4498675,0.12186573,-0.6072739,-0.18932785,0.21215957,0.22619289,0.92847973,0.0731213
0.0,-0.1,1.1999999999999997,-0.5235987755982988,-0.5235987755982988,0,-0.12393309,-1.5121838,-0.9466566,-0.07951827,0.15703759,1.0306169,-0.79534805,0.122800805,-0.60764927,-0.1909504,0.2065271,0.06889484,0.9365599,-0.084844954
0.0,-0.1,1.1999999999999997,-0.5235987755982988,-0.5235987755982988,0,-0.12414431,-1.5119618,-0.95222884,-0.0811803,-0.12495723,1.1301169,-0.63264024,0.12040668,-0.6069724,-0.19150351,0.21420641,-0.023280524,0.86103857,-0.1303451
0.0,-0.1,1.1999999999999997,-0.5235987755982988,-0.5235987755982988,0,-0.12441474,-1.512184,-0.95341843,-0.08097354,0.009304435,1.0496117,0.7575785,0.11995759,-0.6059839,-0.19336498,0.20574144,0.10274346,1.0480323,0.3528381
0.0,-0.1,1.1999999999999997,-0.5235987755982988,-0.5235987755982988,0,-0.12389653,-1.5133139,-0.95415395,-0.07870475,-0.14885479,1.0221667,-1.4494059,0.120959334,-0.6067479,-0.19320983,0.20205963,-0.063505396,0.9997194,0.48247623
0.0,-0.1,1.1999999999999997,-0.5235987755982988,-0.5235987755982988,0,-0.12416135,-1.5151273,-0.953477,-0.07943106,0.11396883,1.0338618,-0.3420944,0.12258637,-0.6071637,-0.18500167,0.2085303,-0.13279855,0.9494379,-0.18509571
0.0,-0.1,1.1999999999999997,-0.5235987755982988,-0.5235987755982988,0,-0.12472263,-1.5127176,-0.9567256,-0.08263441,0.09600245,1.0496314,0.8108104,0.12052009,-0.6068198,-0.18062225,0.18580414,-0.13384269,1.0390675,0.20844553
0.0,-0.1,1.1999999999999997,-0.5235987755982988,-0.5235987755982988,0,-0.12443408,-1.5122201,-0.95643127,-0.08065223,-0.11686622,1.0212977,0.44450644,0.12085118,-0.6059323,-0.20040464,0.21161045,-0.121309474,0.95720506,1.2412727
0.0,-0.1,1.1999999999999997,-0.5235987755982988,-0.5235987755982988,0,-0.12567717,-1.5133189,-0.9533633,-0.07747313,-0.050296858,1.0491166,-0.1959752,0.124685585,-0.60696036,-0.19979084,0.21176393,0.09186538,0.8608562,1.3884251
0.0,-0.1,1.1999999999999997,-0.5235987755982988,-0.5235987755982988,0,-0.12441803,-1.5109699,-0.9545861,-0.08360986,0.07653674,1.0762815,-0.24351935,0.12200431,-0.6070552,-0.18787965,0.21468271,0.17097104,1.0469023,0.7098092
0.0,-0.1,1.1999999999999997,-0.5235987755982988,-0.5235987755982988,0,-0.12322132,-1.5143292,-0.9510146,-0.07659836,0.08988303,1.0687705,-0.54444516,0.120967545,-0.6069619,-0.19347222,0.19049753,0.016470864,1.0260357,0.18995827
0.0,-0.1,1.1999999999999997,-0.5235987755982988,-0.5235987755982988,0,-0.12575781,-1.5125315,-0.9537281,-0.07912902,0.066105105,1.0608428,0.38914427,0.123599015,-0.60673666,-0.19513075,0.20327115,-0.09452716,0.98364526,0.5432822
0.0,-0.1,1.1999999999999997,-0.5235987755982988,-0.5235987755982988,0,-0.12392118,-1.5132608,-0.95087534,-0.07973283,-0.10138794,0.9780139,-0.8146142,0.1218592,-0.6061655,-0.20341161,0.20935187,0.108764686,0.8845428,0.79880047
0.0,-0.1,1.1999999999999997,-0.5235987755982988,-0.5235987755982988,0,-0.124346316,-1.5130924,-0.9500883,-0.0768905,-0.04714027,1.1329546,-1.0041987,0.12157343,-0.6066557,-0.18551809,0.19267714,0.1695853,0.9426152,-0.35235804
0.0,-0.1,1.1999999999999997,-0.5235987755982988,-0.5235987755982988,0,-0.12476552,-1.5124887,-0.9560462,-0.07804865,0.17194968,1.0239072,-0.79846823,0.12069167,-0.60711366,-0.1896221,0.21395119,0.20487742,1.0152118,0.26059917
0.0,-0.1,1.1999999999999997,-0.5235987755982988,-0.5235987755982988,0,-0.12309621,-1.5121955,-0.95574427,-0.079558134,-0.0011574245,1.1325961,-0.33802116,0.12103178,-0.60754496,-0.18524113,0.20390299,0.04795716,1.0141616,0.7676578
0.0,-0.1,1.1999999999999997,-0.5235987755982988,-0.5235987755982988,0,-0.12465689,-1.5143428,-0.9521901,-0.07950859,0.073443376,1.0788605,0.36300915,0.12234681,-0.6067145,-0.1927225,0.182798,0.088517025,0.9564197,1.7295985
0.0,-0.1,1.1999999999999997,-0.5235987755982988,-0.5235987755982988,0,-0.12496847,-1.5127553,-0.95847577,-0.08087678,0.032320965,1.0585095,-1.6014353,0.12170745,-0.60711366,-0.18513949,0.21677236,0.013135662,0.9994611,2.1729143
0.0,-0.1,1.1999999999999997,-0.5235987755982988,-0.5235987755982988,0,-0.12442388,-1.5115217,-0.9483217,-0.08105163,0.02787881,1.0744611,-0.18802516,0.12127804,-0.6070168,-0.19335252,0.21315762,-0.028799199,0.945293,1.1745168
0.0,-0.1,1.1999999999999997,-0.5235987755982988,-0.5235987755982988,0,-0.12449226,-1.5135415,-0.9517216,-0.07722486,-0.019450743,1.0754608,-1.1147603,0.12265034,-0.60738826,-0.19233255,0.2112498,0.23318231,1.0098859,0.74257475
0.0,-0.1,1.1999999999999997,-0.5235987755982988,-0.5235987755982988,0,-0.1242464,-1.5133426,-0.95743436,-0.0789317,-0.034067564,1.0218714,0.48419827,0.1225944,-0.6069752,-0.20255116,0.21728341,0.1771285,0.82059544,-0.5533836
0.0,-0.1,1.1999999999999997,-0.5235987755982988,-0.5235987755982988,0,-0.123117805,-1.5134885,-0.9544036,-0.0783938,0.01412152,0.98278546,-1.6930217,0.122667074,-0.60755527,-0.19340408,0.23127982,0.15746346,0.96049225,-0.24508598
0.0,-0.1,1.1999999999999997,-0.5235987755982988,-0.5235987755982988,0,-0.12398203,-1.511858,-0.95377123,-0.08124558,-0.014950566,1.0673971,-0.81194913,0.11991793,-0.6063535,-0.19702771,0.19912773,0.06536536,0.9544715,-0.2720954
0.0,-0.1,1.1999999999999997,-0.5235987755982988,-0.5235987755982988,0,-0.124716826,-1.5145999,-0.9578895,-0.078412615,0.034914352,1.1096008,-0.24647188,0.12272616,-0.6065021,-0.2001479,0.1939667,0.051730562,0.9551834,0.20482774
0.0,-0.1,1.1999999999999997,-0.5235987755982988,-0.5235987755982988,0,-0.122792654,-1.5122519,-0.95522434,-0.08284724,0.13361356,1.0117962,-1.7870042,0.12171196,-0.607194,-0.19092725,0.19009894,-0.08276507,1.0501342,0.80120295
0.0,-0.1,1.1999999999999997,-0.5235987755982988,-0.5235987755982988,0,-0.12332901,-1.5125304,-0.95267487,-0.083503515,-0.032787684,1.1978785,-0.6804347,0.1220581,-0.60730237,-0.19365305,0.21549925,-0.10285768,0.87553585,1.4165716
0.0,-0.1,1.1999999999999997,-0.5235987755982988,-0.5235987755982988,0,-0.12394858,-1.5145274,-0.9504477,-0.08134478,0.20389342,1.0666143,1.115184,0.12273139,-0.60640043,-0.199738,0.19768158,-0.11404979,0.87773967,0.13590881
0.0,-0.1,1.1999999999999997,-0.5235987755982988,-0.5235987755982988,0,-0.12487927,-1.5127537,-0.9506119,-0.08071142,-0.056844186,1.1072954,-1.1155196,0.121919945,-0.6067589,-0.19809528,0.20326966,-0.12225484,0.817493,-0.24271321
0.0,-0.1,1.1999999999999997,-0.5235987755982988,-0.5235987755982988,0,-0.12455439,-1.5122528,-0.9546289,-0.08108358,0.02656919,1.0759143,0.37535116,0.122899294,-0.6073152,-0.19306427,0.2003534,-0.0131242545,0.9554981,-0.8148837
0.0,-0.1,1.1999999999999997,-0.5235987755982988,-0.5235987755982988,0,-0.12494642,-1.5135154,-0.95610183,-0.08360923,0.023355847,1.0991035,-1.4817258,0.12505531,-0.60685146,-0.19766487,0.19884495,0.27218565,0.8668923,0.75290775
0.0,-0.1,1.1999999999999997,-0.5235987755982988,-0.5235987755982988,0,-0.124183945,-1.5130233,-0.9543822,-0.0808126,0.06399372,1.0667536,-1.3981102,0.120632306,-0.60644484,-0.2002196,0.20922445,-0.18051234,0.8953174,1.7759237
0.0,-0.1,1.1999999999999997,-0.5235987755982988,-0.5235987755982988,0,-0.12467234,-1.5134692,-0.9512313,-0.07587068,0.012446791,1.0777595,0.26481003,0.12045074,-0.60649467,-0.19752072,0.19477582,0.04089901,1.0804173,-0.45080605
0.0,-0.1,1.1999999999999997,-0.5235987755982988,-0.5235987755982988,0,-0.12501788,-1.5143384,-0.9555883,-0.07788763,-0.061189283,1.0856973,-0.3485313,0.11989812,-0.6067505,-0.19338934,0.20727076,-0.21035723,0.9517433,0.7736502
0.0,-0.1,1.1999999999999997,-0.5235987755982988,-0.5235987755982988,0,-0.12521635,-1.5117004,-0.95394975,-0.08180954,-0.035865568,1.0850667,-1.1207396,0.12207077,-0.6070263,-0.19609834,0.20942496,-0.029283555,0.8857971,-0.1536668
0.0,-0.1,1.1999999999999997,-0.5235987755982988,-0.5235987755982988,0,-0.123902984,-1.512972,-0.95180786,-0.07770103,0.12069835,1.1079308,-2.5858862,0.119776405,-0.60686314,-0.19859803,0.22167215,-0.09711762,0.91334236,0.11339008
0.0,-0.1,1.1999999999999997,-0.5235987755982988,-0.5235987755982988,0,-0.12488014,-1.5148499,-0.95462877,-0.080384314,0.15174004,1.0150559,-0.65647763,0.122856475,-0.6066353,-0.19592491,0.19840255,0.15945327,0.9759128,1.4486318
0.0,-0.1,1.1999999999999997,-0.5235987755982988,-0.5235987755982988,0,-0.12496088,-1.5143156,-0.95423853,-0.07886894,-0.16753884,1.07504,-1.5328969,0.12040163,-0.6070423,-0.19546963,0.19060265,-0.22256826,0.84700036,1.2778822
0.0,-0.1,1.1999999999999997,-0.5235987755982988,-0.5235987755982988,0,-0.12522162,-1.514356,-0.95543015,-0.08111732,-0.049742583,1.0958911,0.76984525,0.121306784,-0.60710424,-0.18193747,0.20563276,-0.01174342,0.99779457,-0.7032392
0.0,-0.1,1.1999999999999997,-0.5235987755982988,-0.5235987755982988,0,-0.12498252,-1.5135704,-0.95243424,-0.081518434,-0.029214395,0.9895244,-2.358582,0.12138638,-0.607197,-0.19452865,0.20146133,-0.04642039,0.83025587,0.3112639
0.0,-0.1,1.1999999999999997,-0.5235987755982988,-0.5235987755982988,0,-0.12400635,-1.5127367,-0.95315206,-0.08030072,-0.076597035,1.0426377,-0.5473949,0.12102495,-0.60655504,-0.20325081,0.22070669,0.060937457,0.85331696,0.41087702
0.0,-0.1,1.1999999999999997,-0.5235987755982988,-0.5235987755982988,0,-0.123720534,-1.5123072,-0.95175946,-0.08119225,-0.2833105,1.0990938,0.84898365,0.1201838,-0.6061648,-0.20151766,0.20783721,0.12427627,1.0099117,0.45321694
0.0,-0.1,1.1999999999999997,-0.5235987755982988,-0.5235987755982988,0,-0.12526093,-1.5121646,-0.95706344,-0.081226,-0.003329316,1.1350201,0.13572358,0.12155242,-0.60721284,-0.19590679,0.20438853,0.037777036,0.87322295,0.95390695
0.0,-0.1,1.1999999999999997,-0.5235987755982988,-0.5235987755982988,0,-0.124681994,-1.5134959,-0.95491266,-0.07713189,-0.2249763,1.1252233,0.75193644,0.120937206,-0.60775316,-0.1895812,0.2218898,0.04535576,0.97150815,0.50408876
0.0,-0.1,1.1999999999999997,-0.5235987755982988,-0.5235987755982988,0,-0.124305785,-1.510246,-0.95538497,-0.08158824,0.0018610755,1.0872632,-0.48648214,0.12402626,-0.6072273,-0.19769391,0.20160373,-0.16259837,0.90869844,-0.45317996
0.0,-0.1,1.1999999999999997,-0.5235987755982988,-0.5235987755982988,0,-0.12687491,-1.5129819,-0.9531817,-0.07998721,-0.15404798,1.1276684,1.6275563,0.1237643,-0.60679567,-0.19848058,0.20799226,0.12675871,0.8670882,1.0382698
0.0,-0.1,1.1999999999999997,-0.5235987755982988,-0.5235987755982988,0,-0.12415106,-1.5121341,-0.9544136,-0.0798546,-0.15466997,1.079197,-0.51135755,0.12333232,-0.60707176,-0.2033859,0.20941514,0.014150088,0.9665272,-0.27996168
0.0,-0.1,1.1999999999999997,-0.5235987755982988,-0.5235987755982988,0,-0.12496689,-1.5125022,-0.9537862,-0.07939174,0.0795587,1.0437132,0.50451005,0.12121144,-0.6072201,-0.19815457,0.22016385,0.19964322,0.945859,0.4413443
0.0,-0.1,1.1999999999999997,-0.5235987755982988,-0.5235987755982988,0,-0.12322933,-1.513663,-0.9531733,-0.079835765,-0.12459665,1.1235731,-0.9091578,0.120824836,-0.6068395,-0.20253067,0.1706995,-0.10329848,0.9267482,-0.42225698
0.0,-0.1,1.1999999999999997,-0.5235987755982988,-0.5235987755982988,0,-0.12647562,-1.5127687,-0.95819443,-0.07791683,-0.01793873,1.0847096,-1.9863048,0.12298614,-0.6066204,-0.18476257,0.2060251,0.035093125,0.89503276,0.8552177
0.0,-0.1,1.1999999999999997,-0.5235987755982988,-0.5235987755982988,0,-0.12442607,-1.5149937,-0.9554056,-0.0791741,0.04196676,1.085999,-2.5365434,0.121388644,-0.6065645,-0.19133468,0.20218028,0.15861858,0.86160046,0.22613749
0.0,-0.1,1.1999999999999997,-0.5235987755982988,-0.5235987755982988,0,-0.12403038,-1.5126771,-0.9523409,-0.07717786,0.14980541,1.1111478,-0.64911777,0.12150359,-0.6071526,-0.19323497,0.20618705,0.1032573,1.0079006,0.217013
0.0,-0.1,1.1999999999999997,-0.5235987755982988,-0.5235987755982988,0,-0.12447058,-1.5151007,-0.9555323,-0.078801304,0.09996514,1.0652452,-1.4594142,0.12094269,-0.6064697,-0.19042158,0.19852763,0.055272218,1.0130717,0.9231612
0.0,-0.1,1.1999999999999997,-0.5235987755982988,-0.5235987755982988,0,-0.12409624,-1.5133281,-0.9534828,-0.07736892,0.09966901,1.0492088,-1.9885724,0.12391198,-0.6071186,-0.19794834,0.20903179,-0.038176157,0.9437134,0.42346314
0.0,-0.1,1.1999999999999997,-0.5235987755982988,-0.5235987755982988,0,-0.124966726,-1.5128419,-0.95300585,-0.08002297,-0.03742263,1.0265925,-1.6770473,0.12453631,-0.6065876,-0.19703598,0.20856181,-0.18666193,0.9852832,0.58043236
0.0,-0.1,1.1999999999999997,-0.5235987755982988,-0.5235987755982988,0,-0.123009175,-1.5107002,-0.9498768,-0.07642597,-0.047971178,1.0665464,0.28668323,0.12057311,-0.6062486,-0.17964733,0.19487254,0.016862951,0.9591891,0.29497245
0.0,-0.1,1.1999999999999997,-0.5235987755982988,-0.5235987755982988,0,-0.12334601,-1.5120527,-0.95473117,-0.07856296,-0.0041435775,1.0240858,-0.012262331,0.12350886,-0.6064233,-0.18731742,0.20492028,0.08051761,0.87560797,-0.0847413
0.0,-0.1,1.1999999999999997,-0.5235987755982988,-0.5235987755982988,0,-0.12400227,-1.5139917,-0.955277,-0.07999643,-0.09551301,0.9532894,-0.21850428,0.123013996,-0.60641605,-0.18200321,0.18497711,-0.077957295,0.9736823,0.24562691
0.0,-0.1,1.1999999999999997,-0.5235987755982988,-0.5235987755982988,0,-0.12349462,-1.5145766,-0.9545403,-0.07799249,-0.11881737,1.0652598,-0.8483537,0.120366886,-0.60666674,-0.1857719,0.19716035,-0.105743505,0.79972637,1.9535224
0.0,-0.1,1.1999999999999997,-0.5235987755982988,-0.5235987755982988,0,-0.12261186,-1.5115405,-0.9553049,-0.08087741,-0.13412495,1.0317466,0.8617441,0.12313247,-0.6065605,-0.19366755,0.21689096,0.15075102,1.0190682,0.2304557
0.0,-0.1,1.1999999999999997,-0.5235987755982988,-0.5235987755982988,0,-0.12455449,-1.5129327,-0.95203143,-0.08039102,0.10615367,1.0956061,-0.15957764,0.120783925,-0.6061204,-0.19024149,0.21374299,-0.011239349,0.9030643,-0.3038622
0.0,-0.1,1.1999999999999997,-0.5235987755982988,-0.5235987755982988,0,-0.12310946,-1.512825,-0.9508479,-0.081561714,0.097094685,1.0756022,-0.5653595,0.12455906,-0.6063657,-0.19584605,0.22122969,0.18193397,1.0106854,-0.70282245
0.0,-0.1,1.1999999999999997,-0.5235987755982988,-0.5235987755982988,0,-0.12230268,-1.5135365,-0.9519232,-0.08055902,-0.26474515,1.094259,-0.17950578,0.12007448,-0.6067624,-0.18632403,0.2030513,0.18623236,0.92715245,0.8325402
0.0,-0.1,1.1999999999999997,-0.5235987755982988,-0.5235987755982988,0,-0.123852976,-1.5119895,-0.95645297,-0.079578854,-0.18391123,1.1021701,0.20729816,0.12350951,-0.60700583,-0.19608398,0.19580676,-0.12178436,0.9066536,-0.018032001
0.0,-0.1,1.1999999999999997,-0.5235987755982988,-0.5235987755982988,0,-0.12421259,-1.5112716,-0.951608,-0.08142088,0.029598802,1.02733,-1.2328806,0.12187725,-0.60681915,-0.18615098,0.21830198,0.20951313,0.76989967,0.46505064
0.0,-0.1,1.1999999999999997,-0.5235987755982988,-0.5235987755982988,0,-0.12315911,-1.5131071,-0.9583572,-0.07886385,0.18542774,1.0772804,0.11791303,0.1234718,-0.6072288,-0.1934222,0.19092233,-0.15513662,0.85317713,0.9837656
0.0,-0.1,1.1999999999999997,-0.5235987755982988,-0.5235987755982988,0,-0.12352483,-1.5124384,-0.9527289,-0.08040465,-0.22883387,1.1320039,0.37115577,0.124258235,-0.6066866,-0.19952986,0.19537339,-0.13932355,0.9687196,-0.83363336
0.0,-0.1,1.1999999999999997,-0.5235987755982988,-0.5235987755982988,0,-0.123471774,-1.5114572,-0.95774704,-0.0824783,-0.09187553,1.0714456,-1.6604499,0.11882239,-0.60613644,-0.19329068,0.2289409,-0.045983154,0.9591104,1.9285383
0.0,-0.1,1.1999999999999997,-0.5235987755982988,-0.5235987755982988,0,-0.12432583,-1.5128322,-0.9536893,-0.081164256,0.043184917,1.0826505,0.35817522,0.121337645,-0.60704637,-0.18744634,0.19330566,0.054323956,0.87674713,0.9640242
0.0,-0.1,1.1999999999999997,-0.5235987755982988,-0.5235987755982988,0,-0.12617289,-1.5125855,-0.9559025,-0.08107891,-0.1427739,1.1508282,-0.7106941,0.12353568,-0.6061449,-0.19636156,0.19314812,-0.07227747,0.89163333,1.3648144
0.0,-0.1,1.1999999999999997,-0.5235987755982988,-0.5235987755982988,0,-0.12457818,-1.5117579,-0.9529953,-0.080963306,0.031084597,1.0296063,-0.8321331,0.12265961,-0.60659236,-0.1974082,0.19933923,-0.0874097,0.9544385,0.6736867
0.0,-0.1,1.1999999999999997,-0.5235987755982988,-0.5235987755982988,0,-0.12240554,-1.5134767,-0.9546796,-0.080794156,-0.088833414,1.1205035,0.40911946,0.121620156,-0.60723805,-0.18775149,0.18256976,0.06507812,1.0173198,1.7639048
0.0,-0.1,1.1999999999999997,-0.5235987755982988,-0.5235987755982988,0,-0.12577124,-1.5130435,-0.9516387,-0.07834009,0.10700757,1.1109776,1.0578617,0.12175546,-0.60658497,-0.19422387,0.20005862,0.05986913,0.928984,1.3434885
0.0,-0.1,1.1999999999999997,-0.5235987755982988,-0.5235987755982988,0,-0.124247655,-1.5111523,-0.9589507,-0.07992927,0.12908258,1.016086,0.4395564,0.11991386,-0.6073914,-0.19200753,0.24037875,-0.051690783,0.9852559,-0.7798706
0.0,-0.1,1.1999999999999997,-0.5235987755982988,-0.5235987755982988,0,-0.12394469,-1.5114628,-0.9564098,-0.08076681,-0.016642174,1.0757209,-1.6096506,0.12391633,-0.6061341,-0.20728065,0.19015197,-0.0012477513,0.9446365,1.0399513
0.0,-0.1,1.1999999999999997,-0.5235987755982988,-0.5235987755982988,0,-0.12502195,-1.511483,-0.95525587,-0.077109724,0.10915088,1.1011362,0.090031326,0.119997144,-0.60653627,-0.19517142,0.19207318,0.30071187,0.8552848,0.21619351
0.0,-0.1,1.1999999999999997,-0.5235987755982988,-0.5235987755982988,0,-0.123792656,-1.512428,-0.95437884,-0.079982296,-0.10469531,1.1445469,1.3270043,0.12069146,-0.60762966,-0.18540132,0.19950736,0.044991795,0.96123034,-0.46814394
0.0,-0.1,1.1999999999999997,-0.5235987755982988,-0.5235987755982988,0,-0.12516709,-1.5120857,-0.9510938,-0.07847946,-0.074589565,0.92552245,2.268496,0.12311897,-0.6063887,-0.19971485,0.19920695,0.055900224,0.9459659,0.18809476
0.0,-0.1,1.1999999999999997,-0.5235987755982988,-0.5235987755982988,0,-0.12394856,-1.5129157,-0.9542006,-0.081516564,0.19419602,1.1128953,-1.5372905,0.12124581,-0.6066432,-0.19750836,0.20935015,0.14359736,0.98670214,-0.22221448
0.0,-0.1,1.1999999999999997,-0.5235987755982988,-0.5235987755982988,0,-0.12503208,-1.5116285,-0.9523962,-0.07962904,-0.029221037,1.0852121,1.0363159,0.12334004,-0.6069338,-0.18953393,0.19711818,-0.06844511,0.9425138,0.00048314958
0.0,-0.1,1.1999999999999997,-0.5235987755982988,-0.5235987755982988,0,-0.12345527,-1.5132266,-0.9537906,-0.0817909,0.030363038,1.0427896,0.06105676,0.12159789,-0.6073327,-0.19464849,0.19005391,-0.08170972,0.946488,-0.5863577
0.0,-0.1,1.1999999999999997,-0.5235987755982988,-0.5235987755982988,0,-0.1244919,-1.5122094,-0.9554216,-0.08018138,-0.047210835,1.0559195,-0.747406,0.122272216,-0.6064433,-0.20467429,0.18183865,-0.20199808,0.98934937,0.831771
0.0,-0.1,1.1999999999999997,-0.5235987755982988,-0.5235987755982988,0,-0.123508036,-1.5137417,-0.9537563,-0.077449635,0.109834805,1.1010815,0.18475497,0.122833304,-0.60680366,-0.20622212,0.2152845,0.16153058,0.9892609,-0.12890095
0.0,-0.1,1.1999999999999997,-0.5235987755982988,-0.5235987755982988,0,-0.12336482,-1.5133458,-0.94891995,-0.081164315,0.020067926,1.0790857,1.483836,0.119631015,-0.60736454,-0.19493173,0.21877296,0.025972808,0.9046397,1.0362388
0.0,-0.1,1.1999999999999997,-0.5235987755982988,-0.5235987755982988,0,-0.123888545,-1.5127032,-0.95759493,-0.08126829,0.02415737,1.1254191,-1.6341668,0.121494435,-0.6065334,-0.20622028,0.20200723,-0.090214156,0.95359796,2.0053613
0.0,-0.1,1.1999999999999997,-0.5235987755982988,-0.5235987755982988,0,-0.12538673,-1.5132734,-0.9621856,-0.077264376,0.06524209,1.034904,-1.0691957,0.12305486,-0.6072134,-0.17755249,0.20472099,0.13064784,0.9249601,1.2368444
0.0,-0.1,1.1999999999999997,-0.5235987755982988,-0.5235987755982988,0,-0.123917595,-1.5153548,-0.9550392,-0.07699387,0.21600221,1.047734,-0.71555877,0.12203479,-0.60724944,-0.20144919,0.21930735,-0.09491371,0.97157264,0.9513749
