sanky1234/BimanualDexCatch/isaacgymenvs/cem_results/football_pose_0.1_0.0_0.7999999999999999_0.0_0.5235987755982988_0_2025-05-26.csv
x,y,z,roll,pitch,yaw,robot1/joint1,robot1/joint2,robot1/joint3,robot1/joint4,robot1/joint5,robot1/joint6,robot1/joint7,robot2/joint1,robot2/joint2,robot2/joint3,robot2/joint4,robot2/joint5,robot2/joint6,robot2/joint7
0.1,0.0,0.7999999999999999,0.0,0.5235987755982988,0,-1.3513901,1.4969802,-0.40492302,-0.03226009,-0.19891122,1.4945008,-0.4655736,1.2708333,1.6713139,1.0456593,-0.14530754,0.030871723,1.4101027,-1.3972172
0.1,0.0,0.7999999999999999,0.0,0.5235987755982988,0,-1.3558104,1.4933339,-0.39657846,-0.009246133,-0.17232576,1.4984672,-0.69890845,1.2434268,1.7106997,1.0062752,-0.16077338,-0.10906882,1.3434783,-1.2718353
0.1,0.0,0.7999999999999999,0.0,0.5235987755982988,0,-1.3455259,1.4900343,-0.392566,-0.0076520196,-0.1801621,1.4968389,-0.6466269,1.2262447,1.6969912,0.91176456,-0.09643445,0.09839174,1.2875985,-1.4249966
0.1,0.0,0.7999999999999999,0.0,0.5235987755982988,0,-1.3412958,1.4932636,-0.39001065,-0.009778747,-0.17276664,1.4959974,-0.5884835,1.2611437,1.7032636,0.94607043,-0.11442732,0.17033857,1.3656218,-1.1514777
0.1,0.0,0.7999999999999999,0.0,0.5235987755982988,0,-1.351636,1.4927168,-0.38744608,-0.01286471,-0.19917846,1.5047427,-0.83502465,1.2216804,1.7263689,0.9861413,-0.10941956,0.21437488,1.386466,-1.6882118
0.1,0.0,0.7999999999999999,0.0,0.5235987755982988,0,-1.3530833,1.4930301,-0.4030437,-0.016234884,-0.19168825,1.4773676,-0.8684286,1.2452669,1.7185445,0.959229,-0.13874343,-0.074690826,1.359343,-1.39475
0.1,0.0,0.7999999999999999,0.0,0.5235987755982988,0,-1.3582428,1.491789,-0.38036257,-0.008020944,-0.16343686,1.5041378,-0.6359975,1.2746705,1.6862584,0.88031244,-0.16427137,-0.108370095,1.3800957,-1.6620823
0.1,0.0,0.7999999999999999,0.0,0.5235987755982988,0,-1.3741821,1.4907749,-0.3967561,-0.01968923,-0.16791102,1.4866253,-0.7046729,1.2376186,1.6872144,0.9048707,-0.14835717,-0.0388952,1.3951569,-1.4399407
0.1,0.0,0.7999999999999999,0.0,0.5235987755982988,0,-1.362336,1.4930094,-0.39195526,-0.011852441,-0.13407381,1.4936659,-0.6183686,1.2416859,1.6731339,1.0509642,-0.16218449,0.11085858,1.4630516,-1.4884963
0.1,0.0,0.7999999999999999,0.0,0.5235987755982988,0,-1.3301435,1.4897418,-0.38630512,-0.025422415,-0.19038026,1.4966642,-0.9030735,1.235095,1.6989576,1.0725683,-0.13183218,-0.11684977,1.4531424,-1.3104544
0.1,0.0,0.7999999999999999,0.0,0.5235987755982988,0,-1.3501593,1.492384,-0.41135886,-0.021869196,-0.17072216,1.4926947,-0.2337292,1.2553474,1.6804417,0.9699318,-0.12183391,-0.033707876,1.3176777,-1.0586703
0.1,0.0,0.7999999999999999,0.0,0.5235987755982988,0,-1.359216,1.4913054,-0.40426493,-0.022689631,-0.17905726,1.5049976,-0.53719336,1.2271917,1.7545539,0.97709125,-0.11974153,0.117643595,1.2802948,-1.2306838
0.1,0.0,0.7999999999999999,0.0,0.5235987755982988,0,-1.3412853,1.498271,-0.41439036,-0.011770671,-0.17695944,1.5219746,-0.620482,1.2687536,1.6937797,1.0175889,-0.19487584,-0.232658,1.3955745,-1.5245951
0.1,0.0,0.7999999999999999,0.0,0.5235987755982988,0,-1.3651953,1.4978496,-0.39936784,-0.02602902,-0.16168949,1.5000488,-0.63367426,1.2164251,1.6650828,1.1287453,-0.1342871,-0.06934779,1.3619441,-1.8572761
0.1,0.0,0.7999999999999999,0.0,0.5235987755982988,0,-1.3691734,1.4863805,-0.4021945,-0.011124282,-0.158186,1.4982728,-0.503068,1.2463416,1.6518015,1.0461799,-0.08907117,0.093675874,1.399472,-1.5501108
0.1,0.0,0.7999999999999999,0.0,0.5235987755982988,0,-1.3565884,1.4941859,-0.4007665,-0.02275452,-0.17211053,1.4850378,-0.22838488,1.2175404,1.7030337,1.0440547,-0.15403153,0.07206514,1.4115664,-1.3202852
0.1,0.0,0.7999999999999999,0.0,0.5235987755982988,0,-1.3447373,1.4978322,-0.38201645,-0.012467639,-0.1352027,1.4792157,-0.27851605,1.2389096,1.6983302,0.8004079,-0.121930525,0.031090176,1.248913,-1.4251992
0.1,0.0,0.7999999999999999,0.0,0.5235987755982988,0,-1.3644593,1.493981,-0.40067858,-0.030663166,-0.15770237,1.5099819,-0.5006284,1.2099764,1.7378368,0.99913555,-0.12114106,-0.07105378,1.4265645,-1.2693516
0.1,0.0,0.7999999999999999,0.0,0.5235987755982988,0,-1.3461069,1.4947515,-0.39177024,-0.0024521057,-0.17480533,1.506823,-0.7688028,1.2169235,1.710075,0.85734564,-0.18431802,0.13706468,1.2760359,-1.1150378
0.1,0.0,0.7999999999999999,0.0,0.5235987755982988,0,-1.3558029,1.4939041,-0.39328808,0.010247875,-0.14135613,1.4982207,-0.45090607,1.2428086,1.6220852,1.0468465,-0.122102864,-0.15667008,1.3887976,-1.7679667
0.1,0.0,0.7999999999999999,0.0,0.5235987755982988,0,-1.3521094,1.4906497,-0.40011716,-0.0021539151,-0.15476577,1.4966787,-0.5099175,1.207503,1.7185482,0.9916994,-0.18535109,-0.15694326,1.3805747,-1.211948
0.1,0.0,0.7999999999999999,0.0,0.5235987755982988,0,-1.3542225,1.4937264,-0.39640132,-0.0033894135,-0.10660432,1.4954649,-0.4150517,1.2722126,1.6779082,0.9325592,-0.14884628,-0.04484644,1.3350596,-1.2176522
0.1,0.0,0.7999999999999999,0.0,0.5235987755982988,0,-1.3868706,1.4851078,-0.40049413,-0.0534128,-0.17126441,1.5043977,-0.5607531,1.2693318,1.7049178,1.0434449,-0.14494741,-0.006119894,1.3284119,-1.2411766
0.1,0.0,0.7999999999999999,0.0,0.5235987755982988,0,-1.3636925,1.4920918,-0.39334074,-0.021769239,-0.1868786,1.4931782,-0.57196534,1.2556934,1.6807135,1.024695,-0.115553126,-0.11813483,1.3052812,-1.2597257
0.1,0.0,0.7999999999999999,0.0,0.5235987755982988,0,-1.3487808,1.500775,-0.3814729,-0.0035876276,-0.16969651,1.4951994,-0.8826427,1.2769216,1.7014298,1.0343958,-0.18246652,-2.6899861e-05,1.3778608,-1.2563511
0.1,0.0,0.7999999999999999,0.0,0.5235987755982988,0,-1.3564178,1.5017941,-0.38831303,-0.034195613,-0.19875619,1.4947209,-0.6013303,1.2541509,1.6944324,0.9637782,-0.06107637,0.03142542,1.313818,-1.4564642
0.1,0.0,0.7999999999999999,0.0,0.5235987755982988,0,-1.3599019,1.493671,-0.38704473,-0.03019533,-0.16340283,1.5008746,-0.27998433,1.26804,1.7043983,0.946465,-0.17624114,0.25430354,1.3517774,-1.6081048
0.1,0.0,0.7999999999999999,0.0,0.5235987755982988,0,-1.3506802,1.491815,-0.39962074,-0.016084729,-0.18539612,1.4880699,-0.6332764,1.2407311,1.7281971,1.1058018,-0.16535406,0.07948321,1.406788,-1.625305
0.1,0.0,0.7999999999999999,0.0,0.5235987755982988,0,-1.3692341,1.4965178,-0.39386317,-0.021700058,-0.17924553,1.5006951,-0.46649355,1.2253028,1.7129309,1.0120269,-0.17090945,0.16981359,1.3511599,-1.4639244
0.1,0.0,0.7999999999999999,0.0,0.5235987755982988,0,-1.369551,1.4922917,-0.38812667,-0.020188883,-0.18572073,1.502423,-0.38905093,1.1906321,1.6934849,1.087089,-0.13522804,-0.088444956,1.3476337,-1.7902032
0.1,0.0,0.7999999999999999,0.0,0.5235987755982988,0,-1.3584354,1.4902836,-0.40246028,-0.012388829,-0.19787017,1.4858531,-0.7026633,1.2446703,1.6857948,0.9396111,-0.12828583,0.13531096,1.374005,-1.5002818
0.1,0.0,0.7999999999999999,0.0,0.5235987755982988,0,-1.345127,1.4918736,-0.3858954,-0.010648196,-0.1734258,1.5051476,-0.28948832,1.2121965,1.7111764,0.97775114,-0.12177321,-0.17310378,1.3498448,-1.7508806
0.1,0.0,0.7999999999999999,0.0,0.5235987755982988,0,-1.3699058,1.4936467,-0.398744,-0.01264863,-0.16318065,1.5276561,-0.6142804,1.2709426,1.692903,0.95395714,-0.1315413,-0.13677767,1.2653997,-1.4268122
0.1,0.0,0.7999999999999999,0.0,0.5235987755982988,0,-1.335271,1.4959092,-0.38817298,-0.0061551286,-0.15315735,1.4972396,-0.784635,1.2709957,1.7136467,1.1496109,-0.10191073,0.12228199,1.25732,-1.737971
0.1,0.0,0.7999999999999999,0.0,0.5235987755982988,0,-1.3575687,1.493503,-0.39834097,-0.018375637,-0.18093635,1.4687902,-1.1667882,1.2558923,1.7020628,1.0128734,-0.14949186,0.006451762,1.4184463,-1.4403666
0.1,0.0,0.7999999999999999,0.0,0.5235987755982988,0,-1.3664532,1.4967042,-0.38924184,-0.022142224,-0.18987867,1.5133971,-0.76151377,1.2498082,1.6728964,0.96101815,-0.20015249,-0.10099862,1.3504071,-1.3098984
0.1,0.0,0.7999999999999999,0.0,0.5235987755982988,0,-1.3497142,1.4940789,-0.38871038,-0.014166501,-0.17938295,1.4940187,-0.71331286,1.2347962,1.6782552,1.0656862,-0.15168542,-0.109535515,1.4336745,-1.267355
0.1,0.0,0.7999999999999999,0.0,0.5235987755982988,0,-1.3596067,1.4929981,-0.4012521,0.005256953,-0.15232795,1.4950533,-0.23025936,1.223575,1.6742784,1.0004262,-0.12020467,0.060340915,1.3200561,-1.4345878
0.1,0.0,0.7999999999999999,0.0,0.5235987755982988,0,-1.3578798,1.484651,-0.39345896,-0.009503394,-0.1985741,1.5014112,-0.7587203,1.2054597,1.6980546,0.94317955,-0.19398789,0.16421305,1.3852633,-1.5422599
0.1,0.0,0.7999999999999999,0.0,0.5235987755982988,0,-1.3405404,1.5009705,-0.4049434,0.0058701206,-0.15189719,1.5132403,-0.6355211,1.2343198,1.7289734,1.0234044,-0.13652505,0.086072296,1.3760989,-1.0588065
0.1,0.0,0.7999999999999999,0.0,0.5235987755982988,0,-1.3594131,1.4880399,-0.38345617,-0.014770888,-0.21066618,1.4856025,-0.5983571,1.2632363,1.6820543,1.044899,-0.12492152,0.06770957,1.3076375,-1.4074836
0.1,0.0,0.7999999999999999,0.0,0.5235987755982988,0,-1.3465873,1.4885317,-0.40851542,-0.0009738122,-0.15579124,1.5054507,-0.4969005,1.2558407,1.7083347,1.0069231,-0.17814215,0.15482658,1.2970742,-1.3383706
0.1,0.0,0.7999999999999999,0.0,0.5235987755982988,0,-1.3421544,1.4896355,-0.39543995,-0.0067226305,-0.18758367,1.5174469,-0.8474249,1.2253737,1.6122684,1.0933948,-0.14029059,-0.11633293,1.3302412,-1.1759127
0.1,0.0,0.7999999999999999,0.0,0.5235987755982988,0,-1.3395671,1.4894491,-0.39887303,0.005302073,-0.13922499,1.5046536,-0.7054216,1.213253,1.709589,0.9782428,-0.07674535,0.09099406,1.3743585,-1.3051721
0.1,0.0,0.7999999999999999,0.0,0.5235987755982988,0,-1.3467448,1.4979011,-0.3900987,-0.016069917,-0.1762357,1.5112174,-0.2773308,1.1934314,1.6787242,1.1221932,-0.105667934,0.08361174,1.3023632,-1.371026
0.1,0.0,0.7999999999999999,0.0,0.5235987755982988,0,-1.3518171,1.4942188,-0.3730409,-0.015700983,-0.19073482,1.5008729,-0.95124453,1.2836113,1.7312741,0.8134239,-0.16133964,-0.13937026,1.3406837,-1.1560336
0.1,0.0,0.7999999999999999,0.0,0.5235987755982988,0,-1.3443751,1.4933224,-0.3940773,0.003209224,-0.20029473,1.506708,-0.5252302,1.2431989,1.7029536,0.82899547,-0.13812804,0.030150305,1.4019376,-0.9987644
0.1,0.0,0.7999999999999999,0.0,0.5235987755982988,0,-1.3575866,1.4895982,-0.3981211,-0.028275447,-0.22011739,1.4994446,-0.7534929,1.2990452,1.6655824,0.8725481,-0.18595119,0.041145913,1.3370507,-1.5228622
0.1,0.0,0.7999999999999999,0.0,0.5235987755982988,0,-1.3589611,1.494442,-0.38258323,-0.01825451,-0.18268447,1.4935702,-0.7201184,1.1647744,1.6971436,0.965651,-0.15007414,0.047335412,1.3983666,-1.1299545
0.1,0.0,0.7999999999999999,0.0,0.5235987755982988,0,-1.3562578,1.4913647,-0.39384592,-0.02402001,-0.17555279,1.4949675,-0.6488427,1.2574389,1.6805494,0.9991984,-0.16145486,0.03364556,1.3941565,-1.438163
0.1,0.0,0.7999999999999999,0.0,0.5235987755982988,0,-1.3557259,1.4917154,-0.38528523,0.004258809,-0.1647117,1.4959953,-0.65224123,1.2355562,1.7021743,1.0162433,-0.115151525,0.103111066,1.3764862,-1.5325673
0.1,0.0,0.7999999999999999,0.0,0.5235987755982988,0,-1.353006,1.4942613,-0.3931495,-0.018173479,-0.12811422,1.4927067,-0.99408644,1.2804404,1.7027206,1.0464624,-0.13660994,0.053238206,1.3312504,-1.2339178
0.1,0.0,0.7999999999999999,0.0,0.5235987755982988,0,-1.3549836,1.4936955,-0.40023127,-0.015728798,-0.17215608,1.4965092,-0.64203185,1.2839388,1.7166421,1.0036058,-0.20569928,-0.03089292,1.3294989,-1.4133677
0.1,0.0,0.7999999999999999,0.0,0.5235987755982988,0,-1.3550351,1.4878852,-0.39883432,-0.007501654,-0.18513879,1.5070238,-0.41922966,1.1803899,1.7000027,1.0526217,-0.13451514,0.055499226,1.2571435,-1.7747281
0.1,0.0,0.7999999999999999,0.0,0.5235987755982988,0,-1.3426567,1.4946917,-0.39957318,-0.0037082534,-0.2142189,1.5006894,-0.57869905,1.2341912,1.739814,0.91689986,-0.14018427,-0.03645325,1.2701364,-1.3439751
0.1,0.0,0.7999999999999999,0.0,0.5235987755982988,0,-1.3619522,1.4912189,-0.38943923,-0.0043395553,-0.11150242,1.4882483,-0.419064,1.2379814,1.7226493,1.0844002,-0.114353225,-0.032982916,1.3508856,-1.3312789
0.1,0.0,0.7999999999999999,0.0,0.5235987755982988,0,-1.3431424,1.4924971,-0.4037898,0.0003937532,-0.17037824,1.4853206,-0.7500668,1.250582,1.7361776,0.96176225,-0.16118862,-0.03409737,1.3056242,-1.1292272
0.1,0.0,0.7999999999999999,0.0,0.5235987755982988,0,-1.3642814,1.4985311,-0.3856505,-0.006115203,-0.1431528,1.5023901,-0.7757884,1.311061,1.649507,0.9772332,-0.13544448,0.05227689,1.3425757,-1.4426467
0.1,0.0,0.7999999999999999,0.0,0.5235987755982988,0,-1.3571662,1.4920424,-0.38060117,-0.030615358,-0.15609284,1.4993694,-0.30021772,1.2827146,1.7012058,0.94508374,-0.04935646,0.034913883,1.3166766,-1.522594
0.1,0.0,0.7999999999999999,0.0,0.5235987755982988,0,-1.356479,1.4979864,-0.3947211,-0.024155745,-0.16903037,1.4592477,-0.6302452,1.2117734,1.6252729,1.003132,-0.15900728,0.0047123604,1.4068269,-1.4087
0.1,0.0,0.7999999999999999,0.0,0.5235987755982988,0,-1.3367373,1.491213,-0.39378622,-0.028516216,-0.1889742,1.4990348,-0.4992206,1.2661351,1.6908696,0.9567575,-0.11187124,0.17186306,1.3852689,-1.5285763
0.1,0.0,0.7999999999999999,0.0,0.5235987755982988,0,-1.3604317,1.495863,-0.3759573,-0.02282492,-0.14053194,1.5051688,-0.81061685,1.2725867,1.6881095,1.1123383,-0.16444898,-0.10067728,1.2923197,-1.3019692
0.1,0.0,0.7999999999999999,0.0,0.5235987755982988,0,-1.3648586,1.4961991,-0.38054395,-0.020604646,-0.13285726,1.5136422,-0.5548163,1.2518677,1.7064747,0.84633654,-0.2119116,0.005563327,1.2849492,-1.3629804
0.1,0.0,0.7999999999999999,0.0,0.5235987755982988,0,-1.3643948,1.4982386,-0.3830432,-0.016854238,-0.14099012,1.4982791,-0.6170925,1.2309304,1.6860999,0.9319033,-0.14101055,0.039845448,1.3837165,-1.8915105
0.1,0.0,0.7999999999999999,0.0,0.5235987755982988,0,-1.3603709,1.489258,-0.39919078,-0.014155859,-0.13478892,1.4852045,-0.50283545,1.2423388,1.6965387,1.0683067,-0.14203484,-0.018729141,1.3869526,-1.4593314
0.1,0.0,0.7999999999999999,0.0,0.5235987755982988,0,-1.3504173,1.4964108,-0.38847145,-0.004405115,-0.13056344,1.4997126,-0.6279487,1.2272056,1.6696862,1.095869,-0.21840774,0.03625888,1.3167584,-1.8117405
0.1,0.0,0.7999999999999999,0.0,0.5235987755982988,0,-1.3379401,1.4950224,-0.3879389,-0.0064775464,-0.1483655,1.5090642,-0.7145151,1.2567543,1.7037195,1.0797678,-0.09910022,-0.007802448,1.2704835,-1.4899433
0.1,0.0,0.7999999999999999,0.0,0.5235987755982988,0,-1.358725,1.4952174,-0.39490083,-0.023636468,-0.16672078,1.4888374,-0.5479575,1.27657,1.7110454,1.0861334,-0.13451596,-0.05221464,1.3383512,-1.2037508
0.1,0.0,0.7999999999999999,0.0,0.5235987755982988,0,-1.3564808,1.493014,-0.38954228,-0.007990199,-0.14819857,1.5061443,-0.15857999,1.2403785,1.6667068,1.0719857,-0.12236496,0.06874656,1.405787,-1.4343625
0.1,0.0,0.7999999999999999,0.0,0.5235987755982988,0,-1.349269,1.4953126,-0.388497,-0.014880399,-0.17271161,1.5077758,-0.71163744,1.200213,1.7094468,1.1786016,-0.08478592,0.14003049,1.3912085,-0.96347386
0.1,0.0,0.7999999999999999,0.0,0.5235987755982988,0,-1.3586373,1.4970626,-0.37773067,-0.020898627,-0.18430655,1.4951746,-0.5007249,1.2757511,1.7259023,1.0225029,-0.1291186,-0.051124204,1.4135916,-1.348789
0.1,0.0,0.7999999999999999,0.0,0.5235987755982988,0,-1.3622298,1.4955224,-0.39129657,-0.0048963004,-0.15813954,1.4950695,-0.7820857,1.2709254,1.6977549,0.7880006,-0.11075187,-0.075177684,1.3804688,-1.1216453
0.1,0.0,0.7999999999999999,0.0,0.5235987755982988,0,-1.3514317,1.5026637,-0.39931524,-0.014304535,-0.14538819,1.5113658,-0.55796343,1.2614897,1.6603965,0.91477245,-0.17246217,0.11557624,1.3252754,-1.1959049
0.1,0.0,0.7999999999999999,0.0,0.5235987755982988,0,-1.3572716,1.5058725,-0.38585117,-0.014218351,-0.1685385,1.506957,-0.48279098,1.259162,1.7246882,0.96516466,-0.14439529,-0.05158733,1.2922001,-1.2548681
0.1,0.0,0.7999999999999999,0.0,0.5235987755982988,0,-1.3565276,1.497689,-0.41189945,-0.009638679,-0.13180697,1.4760747,-0.5661627,1.2183876,1.7170988,1.0049493,-0.11378862,0.071289875,1.2827961,-1.4958353
0.1,0.0,0.7999999999999999,0.0,0.5235987755982988,0,-1.3698325,1.492768,-0.3743922,-0.034522533,-0.18199298,1.4928385,-0.7666292,1.2658914,1.7018081,0.927746,-0.14318994,-0.012082517,1.2997115,-1.3578795
0.1,0.0,0.7999999999999999,0.0,0.5235987755982988,0,-1.3542864,1.4895099,-0.3925188,-0.01720039,-0.15404093,1.5111669,-0.71150666,1.2933755,1.6484042,0.88256913,-0.17693806,0.16141838,1.290466,-1.2095858
0.1,0.0,0.7999999999999999,0.0,0.5235987755982988,0,-1.3470458,1.4943538,-0.40428564,-0.011494077,-0.13592415,1.4934974,-0.60028464,1.3026752,1.7199407,1.0311687,-0.1308005,0.07042622,1.3702576,-1.428171
0.1,0.0,0.7999999999999999,0.0,0.5235987755982988,0,-1.3471748,1.485404,-0.39813232,0.0037547622,-0.21058217,1.4854556,-0.72696567,1.2606983,1.6806341,1.0162989,-0.12407946,0.04882301,1.3135148,-1.5081886
0.1,0.0,0.7999999999999999,0.0,0.5235987755982988,0,-1.3734694,1.4966941,-0.3832956,-0.020361818,-0.19770375,1.4810297,-0.8735895,1.2394503,1.7190223,0.8570899,-0.09264525,0.0070838192,1.3615111,-1.331271
0.1,0.0,0.7999999999999999,0.0,0.5235987755982988,0,-1.3649112,1.492793,-0.38431913,-0.018164542,-0.15107718,1.4972789,-0.56878227,1.2626379,1.7028236,1.0093079,-0.12367225,-0.109775804,1.3386017,-1.3579717
0.1,0.0,0.7999999999999999,0.0,0.5235987755982988,0,-1.3486949,1.4931879,-0.40594807,-0.019631138,-0.13346033,1.4930227,-0.62267286,1.2460818,1.6477128,0.97014403,-0.09681276,0.055419788,1.3040571,-1.1945239
0.1,0.0,0.7999999999999999,0.0,0.5235987755982988,0,-1.3548163,1.5036885,-0.3853362,-0.01189011,-0.18725757,1.5048894,-0.22279146,1.2026742,1.6601418,1.0768061,-0.1218757,0.012542735,1.3520572,-1.3736272
0.1,0.0,0.7999999999999999,0.0,0.5235987755982988,0,-1.3464024,1.4938656,-0.39703155,-0.008459328,-0.17593585,1.5163321,-1.0932529,1.2019604,1.700855,1.0958915,-0.13302673,0.16180064,1.3689255,-1.4497321
0.1,0.0,0.7999999999999999,0.0,0.5235987755982988,0,-1.3453658,1.4915565,-0.36992913,-0.034403045,-0.17979108,1.4903464,-0.7892223,1.2558528,1.6884626,0.9786494,-0.18066,-0.016519139,1.3420795,-1.2209722
0.1,0.0,0.7999999999999999,0.0,0.5235987755982988,0,-1.3640721,1.4915508,-0.3919959,-0.0102431495,-0.14883731,1.5012447,-0.38877153,1.2491558,1.6486508,0.86815625,-0.11069439,0.005377438,1.3719591,-1.1191062
0.1,0.0,0.7999999999999999,0.0,0.5235987755982988,0,-1.3538557,1.4945885,-0.39557737,-0.01095876,-0.17427804,1.4843087,-0.5157183,1.2382058,1.7055286,1.0656859,-0.16756706,0.1578623,1.3360076,-1.26811
0.1,0.0,0.7999999999999999,0.0,0.5235987755982988,0,-1.3371848,1.5008045,-0.38500044,0.01788713,-0.20189753,1.4994719,-0.79909164,1.228159,1.6854517,0.9409783,-0.1766295,-0.10786065,1.3159986,-1.4151105
0.1,0.0,0.7999999999999999,0.0,0.5235987755982988,0,-1.3567429,1.4991325,-0.3975848,-0.0075650197,-0.17040895,1.5248065,-0.3516348,1.2285042,1.7018647,0.97861886,-0.112640776,0.023613747,1.3085431,-1.0160606
0.1,0.0,0.7999999999999999,0.0,0.5235987755982988,0,-1.3594183,1.4926856,-0.38527548,-0.009986409,-0.18077976,1.4815532,-0.45062357,1.2247225,1.6333418,0.88547504,-0.09082275,0.03028657,1.3456261,-1.2220107
0.1,0.0,0.7999999999999999,0.0,0.5235987755982988,0,-1.3601825,1.4927452,-0.3796421,-0.017750528,-0.17563654,1.4922903,-0.6292182,1.2500105,1.6828765,0.99493295,-0.100399435,0.16273142,1.3852476,-1.388376
0.1,0.0,0.7999999999999999,0.0,0.5235987755982988,0,-1.3760755,1.4956383,-0.3909424,-0.015055899,-0.22464071,1.4758933,-0.70416474,1.212577,1.6930131,0.9519089,-0.14644894,-0.07872297,1.3622613,-1.4061704
0.1,0.0,0.7999999999999999,0.0,0.5235987755982988,0,-1.3617784,1.4889759,-0.38394597,-0.017509028,-0.19641435,1.5163643,-0.5755701,1.2579808,1.7127876,1.0264373,-0.11531238,-0.0388908,1.307373,-1.5266378
0.1,0.0,0.7999999999999999,0.0,0.5235987755982988,0,-1.37522,1.4922113,-0.39119428,-0.025387647,-0.15836258,1.5013858,-0.5342353,1.2483617,1.7151614,0.98341286,-0.10954827,-0.04408696,1.3393906,-1.6281253
0.1,0.0,0.7999999999999999,0.0,0.5235987755982988,0,-1.3714442,1.4970253,-0.39340162,0.0026010412,-0.19129843,1.5059906,-0.5696485,1.2637787,1.6312841,1.0488827,-0.1891575,0.07561193,1.3308283,-1.2701737
0.1,0.0,0.7999999999999999,0.0,0.5235987755982988,0,-1.3627536,1.4871161,-0.3920486,-0.0013061856,-0.15924715,1.494382,-0.64482176,1.241501,1.7341034,1.0207278,-0.1641129,-0.10518484,1.3307879,-1.5361763
0.1,0.0,0.7999999999999999,0.0,0.5235987755982988,0,-1.3516178,1.4918184,-0.3762669,0.008450026,-0.11181547,1.4964025,-0.701962,1.2604113,1.6675087,1.0168303,-0.17793535,-0.08444237,1.3181096,-1.2949688
0.1,0.0,0.7999999999999999,0.0,0.5235987755982988,0,-1.3581649,1.4884428,-0.39340875,-0.011264247,-0.21294448,1.5114614,-0.449322,1.1973165,1.7362276,1.0081137,-0.13258313,-0.0055078287,1.4046931,-0.98046225
0.1,0.0,0.7999999999999999,0.0,0.5235987755982988,0,-1.3614106,1.4957389,-0.3956617,0.0051027127,-0.1881746,1.5146041,-0.6390971,1.2759691,1.7104628,1.0490664,-0.15001775,-0.12769489,1.3226403,-1.3077986
0.1,0.0,0.7999999999999999,0.0,0.5235987755982988,0,-1.358386,1.4963665,-0.38587147,-0.0050558243,-0.15055898,1.4888288,-0.46601227,1.2349768,1.718969,0.9356576,-0.113388784,-0.025194714,1.3616786,-1.2689589
0.1,0.0,0.7999999999999999,0.0,0.5235987755982988,0,-1.3707163,1.4889385,-0.38828686,-0.018050736,-0.1401705,1.4994159,-0.6745834,1.2768153,1.6794242,0.9345184,-0.08784826,0.07168456,1.3170438,-1.7701657
0.1,0.0,0.7999999999999999,0.0,0.5235987755982988,0,-1.3607434,1.4979329,-0.39203608,-0.0061218296,-0.1738029,1.5187448,-0.7668665,1.2185231,1.6925329,1.0535856,-0.14977339,-0.0046841404,1.3565685,-1.3220359
0.1,0.0,0.7999999999999999,0.0,0.5235987755982988,0,-1.3495686,1.4969424,-0.40063396,-0.009148285,-0.15096028,1.532798,-1.0149559,1.2348782,1.7413721,1.008508,-0.14714813,0.07261314,1.3432263,-1.5614325
0.1,0.0,0.7999999999999999,0.0,0.5235987755982988,0,-1.3601578,1.5011464,-0.39533833,-0.020537125,-0.1863933,1.508353,-0.48927596,1.2700646,1.6943117,0.88319886,-0.09408338,0.11530194,1.4164394,-1.6307946
0.1,0.0,0.7999999999999999,0.0,0.5235987755982988,0,-1.3686478,1.4917401,-0.39035806,-0.008614196,-0.19234993,1.4825102,-0.73569745,1.2199078,1.6661553,0.9142797,-0.18046623,0.12746058,1.4257725,-1.4769752
0.1,0.0,0.7999999999999999,0.0,0.5235987755982988,0,-1.374452,1.491996,-0.39992765,-0.029706264,-0.20323552,1.4894075,-0.81532687,1.202175,1.6940962,1.0994935,-0.16011454,0.032397017,1.454024,-1.4955678
0.1,0.0,0.7999999999999999,0.0,0.5235987755982988,0,-1.369322,1.4948403,-0.39632568,-0.013016433,-0.15748666,1.5125307,-0.7701273,1.2208717,1.6767211,1.0073787,-0.11045378,0.09876673,1.4041753,-1.7794738
0.1,0.0,0.7999999999999999,0.0,0.5235987755982988,0,-1.3662863,1.4877146,-0.39149454,-0.029840574,-0.1879871,1.4775497,-0.4655545,1.2979985,1.6768167,0.8745601,-0.14186975,0.038497556,1.2935178,-1.3509742
0.1,0.0,0.7999999999999999,0.0,0.5235987755982988,0,-1.3743143,1.4976308,-0.40975177,-0.023232087,-0.14665705,1.4971668,-0.8071254,1.2497436,1.7117286,0.94648296,-0.17413397,0.09770882,1.3503379,-1.2632669
0.1,0.0,0.7999999999999999,0.0,0.5235987755982988,0,-1.3601825,1.4937452,-0.39119452,-0.0061856653,-0.18033491,1.5208778,-0.6755621,1.207113,1.6992915,1.0576404,-0.13585953,0.09357521,1.2806104,-1.429804
0.1,0.0,0.7999999999999999,0.0,0.5235987755982988,0,-1.3662237,1.4913685,-0.39515236,-0.008521596,-0.16957982,1.496046,-0.70672786,1.2428201,1.6616205,1.0083363,-0.042940352,0.050806094,1.2935573,-1.4767154
0.1,0.0,0.7999999999999999,0.0,0.5235987755982988,0,-1.3413821,1.4912479,-0.39518708,-0.03416557,-0.15025954,1.4898397,-0.8944877,1.2328517,1.6760311,0.96293837,-0.09691598,-0.09981262,1.4490049,-1.4036664
0.1,0.0,0.7999999999999999,0.0,0.5235987755982988,0,-1.3591409,1.4984028,-0.40355825,-0.017604508,-0.14658162,1.4877539,-0.970066,1.231213,1.661484,0.8936912,-0.14428861,0.009902796,1.2615968,-1.611684
0.1,0.0,0.7999999999999999,0.0,0.5235987755982988,0,-1.3575355,1.488597,-0.40029612,0.011331328,-0.17053644,1.5132743,-0.6783646,1.2283503,1.6728851,0.96799225,-0.1086912,-0.16093898,1.3077376,-0.9852376
0.1,0.0,0.7999999999999999,0.0,0.5235987755982988,0,-1.3562605,1.4946582,-0.39260486,-0.009482313,-0.15876032,1.495362,-0.6298025,1.1969565,1.7404826,0.9729697,-0.16149895,-0.029541882,1.2788671,-1.1869158
0.1,0.0,0.7999999999999999,0.0,0.5235987755982988,0,-1.3684767,1.4893486,-0.40041256,0.007457572,-0.19366011,1.5040362,-0.8210208,1.2420378,1.719294,1.0671761,-0.12872748,0.059455648,1.4001921,-1.5020831
0.1,0.0,0.7999999999999999,0.0,0.5235987755982988,0,-1.3477397,1.4938433,-0.3786031,-0.0021223726,-0.1330503,1.4792024,-0.6348225,1.2729596,1.700917,1.0342115,-0.13618235,-0.06710205,1.387488,-1.7959118
0.1,0.0,0.7999999999999999,0.0,0.5235987755982988,0,-1.3451734,1.4944882,-0.39043838,0.0055065723,-0.17404917,1.4952847,-0.76157814,1.2394991,1.688894,0.9484194,-0.11288576,0.17822123,1.2892387,-1.4574546
0.1,0.0,0.7999999999999999,0.0,0.5235987755982988,0,-1.364225,1.4965925,-0.4143959,-0.026633576,-0.19487894,1.5152994,-0.7992049,1.2566833,1.727594,0.97438276,-0.13993272,-0.13232784,1.4129043,-1.8553809
0.1,0.0,0.7999999999999999,0.0,0.5235987755982988,0,-1.3402483,1.4987863,-0.40653914,-0.0026112876,-0.17753474,1.501949,-0.75324637,1.2359725,1.6587033,1.0255775,-0.05162306,0.122404024,1.4560152,-1.5447347
0.1,0.0,0.7999999999999999,0.0,0.5235987755982988,0,-1.3549719,1.4970416,-0.39613667,-0.017834108,-0.1306576,1.503963,-0.25406298,1.1957021,1.7104443,0.9151641,-0.13130252,-0.049003508,1.3402005,-1.1977837
0.1,0.0,0.7999999999999999,0.0,0.5235987755982988,0,-1.3561976,1.4890685,-0.40442654,-0.0080222,-0.1618678,1.5268092,-0.7341261,1.2683778,1.7145625,0.9813598,-0.15040934,-0.08820951,1.3805631,-1.6199855
0.1,0.0,0.7999999999999999,0.0,0.5235987755982988,0,-1.3568566,1.49612,-0.4030437,0.012463268,-0.15713708,1.4907476,-0.80301017,1.2144932,1.7073412,0.91249907,-0.12220431,0.008632074,1.2480375,-1.4256991
0.1,0.0,0.7999999999999999,0.0,0.5235987755982988,0,-1.356505,1.502539,-0.38075408,-0.007158573,-0.14578447,1.5004237,-0.68540037,1.2076429,1.6913095,1.0716403,-0.16756852,0.004152663,1.3420589,-1.3419107
0.1,0.0,0.7999999999999999,0.0,0.5235987755982988,0,-1.3490295,1.4886941,-0.3961624,-0.021114504,-0.19583468,1.5193915,-0.70969164,1.1970518,1.6783297,0.88247913,-0.10646411,-0.030015726,1.310753,-1.5077292
0.1,0.0,0.7999999999999999,0.0,0.5235987755982988,0,-1.349727,1.5008924,-0.40914947,0.007319331,-0.18683937,1.4961085,-0.7036354,1.2649229,1.669527,1.1925817,-0.16815227,0.08527778,1.4127473,-1.5452247
0.1,0.0,0.7999999999999999,0.0,0.5235987755982988,0,-1.3312798,1.4953516,-0.39756712,0.011251664,-0.17370752,1.508626,-0.66728073,1.2631861,1.7134295,0.9813741,-0.1167785,0.058471266,1.2890832,-1.2391914
0.1,0.0,0.7999999999999999,0.0,0.5235987755982988,0,-1.3707227,1.4907279,-0.38128018,-0.018625703,-0.17704399,1.5004665,-0.6011398,1.1857547,1.7014816,0.8966043,-0.17074561,-0.07189242,1.3805095,-1.0183418
0.1,0.0,0.7999999999999999,0.0,0.5235987755982988,0,-1.3569762,1.4948196,-0.3940828,-0.00021827154,-0.19476771,1.5287995,-0.7251469,1.2455447,1.7002232,0.9654323,-0.13372666,0.0009154035,1.2836999,-1.0271397
0.1,0.0,0.7999999999999999,0.0,0.5235987755982988,0,-1.3555273,1.487378,-0.3847388,-0.009930081,-0.14394577,1.4789953,-0.59811705,1.26131,1.707711,0.9283941,-0.17716178,0.05068043,1.294236,-1.5670894
0.1,0.0,0.7999999999999999,0.0,0.5235987755982988,0,-1.3591416,1.5010597,-0.3959576,-0.018731548,-0.14063206,1.5120552,-0.8157609,1.2271132,1.7260472,0.9863758,-0.09354372,-0.09210913,1.283711,-1.4161855
0.1,0.0,0.7999999999999999,0.0,0.5235987755982988,0,-1.3617729,1.4982643,-0.3998817,-0.0118543245,-0.20620501,1.505874,-0.46638665,1.2383856,1.7346731,0.94964105,-0.13292874,-0.02637774,1.3686132,-1.0156356
0.1,0.0,0.7999999999999999,0.0,0.5235987755982988,0,-1.3502144,1.4893254,-0.39798114,0.008841982,-0.14457475,1.5082977,-0.7539243,1.22617,1.7032593,0.8579495,-0.18494673,0.034242593,1.257467,-1.4962356
0.1,0.0,0.7999999999999999,0.0,0.5235987755982988,0,-1.3714393,1.4906113,-0.39365214,-0.01437005,-0.15793973,1.506175,-0.4439973,1.245142,1.7085757,0.985793,-0.13117748,-0.1143922,1.3545598,-1.4249917
0.1,0.0,0.7999999999999999,0.0,0.5235987755982988,0,-1.3587917,1.4972951,-0.39359498,-0.0048032133,-0.18323724,1.494685,-0.5926889,1.2290168,1.7194701,1.0174406,-0.14786913,0.20813,1.2870451,-1.478843
0.1,0.0,0.7999999999999999,0.0,0.5235987755982988,0,-1.3525003,1.4930431,-0.38267207,-0.015130836,-0.13647327,1.5043945,-0.4981552,1.30386,1.7289919,0.94117206,-0.17714158,0.06793109,1.3394845,-1.9041866
0.1,0.0,0.7999999999999999,0.0,0.5235987755982988,0,-1.362372,1.4974791,-0.39833063,0.0073136007,-0.17270413,1.5009174,-0.42771146,1.2288243,1.7096943,1.0646586,-0.11666821,-0.21980986,1.3691055,-1.5061655
0.1,0.0,0.7999999999999999,0.0,0.5235987755982988,0,-1.3477757,1.4908692,-0.39919698,-0.0046079177,-0.1439273,1.5004102,-0.41142246,1.2343011,1.7096775,0.9710854,-0.1793748,0.030765789,1.3195925,-1.5605344
0.1,0.0,0.7999999999999999,0.0,0.5235987755982988,0,-1.3397235,1.4955709,-0.3816338,-0.010985426,-0.18008505,1.5150611,-0.6371405,1.2773173,1.7161782,0.9762548,-0.12890285,-0.015066346,1.3517148,-1.6048977
0.1,0.0,0.7999999999999999,0.0,0.5235987755982988,0,-1.3594804,1.4970917,-0.38997215,-0.0028908418,-0.1920457,1.4967337,-0.60136396,1.2374289,1.7077358,0.88997436,-0.15995426,-0.061852675,1.3602738,-1.2519577
0.1,0.0,0.7999999999999999,0.0,0.5235987755982988,0,-1.3653479,1.5020789,-0.3902667,-0.0070914985,-0.19093147,1.4983548,-1.0170507,1.1884832,1.7645842,0.87215084,-0.094154544,0.12556528,1.3408386,-1.0165521
0.1,0.0,0.7999999999999999,0.0,0.5235987755982988,0,-1.3645791,1.4961982,-0.38869098,-0.0130183585,-0.22125319,1.4960389,-0.761535,1.2688135,1.7147578,1.0716263,-0.11011926,0.0269866,1.3546928,-1.2534101
0.1,0.0,0.7999999999999999,0.0,0.5235987755982988,0,-1.3589087,1.4931903,-0.38668627,-0.023344144,-0.14839311,1.5042574,-0.82813835,1.2342582,1.6584934,0.942836,-0.124745555,-0.16056314,1.3251524,-1.4557512
0.1,0.0,0.7999999999999999,0.0,0.5235987755982988,0,-1.374295,1.500741,-0.38144678,-0.008847597,-0.13738924,1.4964948,-0.67968047,1.1840333,1.7502275,1.0487006,-0.16357091,0.053680032,1.4119852,-1.2937899
0.1,0.0,0.7999999999999999,0.0,0.5235987755982988,0,-1.3588536,1.4912997,-0.37721184,-0.012023763,-0.17788647,1.5075123,-0.48094183,1.2433654,1.7010629,0.99896896,-0.10344838,0.22509745,1.3864614,-1.7892283
0.1,0.0,0.7999999999999999,0.0,0.5235987755982988,0,-1.3478454,1.4918715,-0.38620692,0.00038771593,-0.1734754,1.4943279,-0.739439,1.2433625,1.6440705,1.026674,-0.13085543,0.016098497,1.3726034,-1.8860112
0.1,0.0,0.7999999999999999,0.0,0.5235987755982988,0,-1.3686255,1.4899137,-0.3778932,-0.0037454416,-0.14004122,1.5136365,-0.49751616,1.2640395,1.6718465,0.8488972,-0.12825933,0.018334035,1.3865768,-1.4697968
0.1,0.0,0.7999999999999999,0.0,0.5235987755982988,0,-1.357639,1.498899,-0.3961561,-0.016976995,-0.14366046,1.4962562,-0.92416483,1.2425747,1.6817933,0.89545894,-0.11332226,0.08401597,1.3304615,-1.4513881
0.1,0.0,0.7999999999999999,0.0,0.5235987755982988,0,-1.3438668,1.4998097,-0.39010236,-0.004527644,-0.13665137,1.4986439,-0.675017,1.2696214,1.6970559,0.925293,-0.12997091,-0.017873075,1.3256711,-1.5197248
0.1,0.0,0.7999999999999999,0.0,0.5235987755982988,0,-1.3645136,1.4917818,-0.39448142,-0.008536029,-0.18941389,1.4913028,-0.70067215,1.2352748,1.6833127,0.96179146,-0.1586048,0.01378681,1.3147731,-1.5930343
0.1,0.0,0.7999999999999999,0.0,0.5235987755982988,0,-1.339022,1.4961568,-0.39849108,-0.015895275,-0.16342564,1.5220969,-0.7621087,1.2484028,1.685939,0.9220778,-0.12306524,0.039018046,1.3580605,-1.5946708
0.1,0.0,0.7999999999999999,0.0,0.5235987755982988,0,-1.3665497,1.4908798,-0.39213222,-0.005810075,-0.16050486,1.5023472,-0.7229829,1.2715156,1.7004489,1.0089482,-0.12094601,-0.1773001,1.2958763,-1.4245173
0.1,0.0,0.7999999999999999,0.0,0.5235987755982988,0,-1.3526134,1.4953805,-0.38590527,-0.02903361,-0.175471,1.5085204,-0.62685573,1.2214113,1.7110564,1.0380327,-0.14879303,-0.09219452,1.3956121,-1.6743419
0.1,0.0,0.7999999999999999,0.0,0.5235987755982988,0,-1.3731014,1.4977443,-0.39607844,0.005201839,-0.20539767,1.4929488,-0.80286384,1.2456975,1.7242179,0.9869692,-0.12728736,0.12015868,1.3431741,-1.2201005
0.1,0.0,0.7999999999999999,0.0,0.5235987755982988,0,-1.3624798,1.4942211,-0.3944626,-0.04226777,-0.22451234,1.4883463,-0.55398065,1.2448809,1.7475513,1.1255075,-0.13181537,0.070365265,1.4090085,-1.8088511
0.1,0.0,0.7999999999999999,0.0,0.5235987755982988,0,-1.3576969,1.4913405,-0.3919839,-0.011059027,-0.17767826,1.4808425,-0.79581416,1.22509,1.7119063,0.98814887,-0.15688983,-0.23306373,1.4062251,-1.3665736
0.1,0.0,0.7999999999999999,0.0,0.5235987755982988,0,-1.3616499,1.4879768,-0.3805629,-0.01262021,-0.17672718,1.5195751,-0.7547938,1.2339178,1.7324953,1.0372794,-0.13512596,0.08421827,1.3456563,-1.558419
0.1,0.0,0.7999999999999999,0.0,0.5235987755982988,0,-1.3563824,1.4905983,-0.3941692,0.003428764,-0.17594455,1.4869946,-0.8220432,1.2829218,1.6690757,1.0838424,-0.14161241,0.032753862,1.4120349,-1.5195098
0.1,0.0,0.7999999999999999,0.0,0.5235987755982988,0,-1.3581471,1.496868,-0.38896978,-0.013174735,-0.15882148,1.5046184,-0.9842172,1.2311128,1.71544,0.92927825,-0.17235966,0.040234286,1.3572879,-1.431155
0.1,0.0,0.7999999999999999,0.0,0.5235987755982988,0,-1.350887,1.4988983,-0.3996178,0.0009638055,-0.19048677,1.4832993,-0.3932137,1.2282082,1.7001255,1.1073501,-0.124614,-0.06571655,1.3256465,-0.92207754
0.1,0.0,0.7999999999999999,0.0,0.5235987755982988,0,-1.3388771,1.502695,-0.38105527,0.015278861,-0.14721848,1.516959,-0.8596808,1.2643553,1.7295086,0.939449,-0.1664065,0.12211894,1.3589969,-1.4188405
0.1,0.0,0.7999999999999999,0.0,0.5235987755982988,0,-1.3672794,1.4921446,-0.3898133,-0.009951403,-0.20590375,1.4904773,-1.072764,1.2994009,1.730788,0.81487995,-0.12423634,-0.030763041,1.3960905,-1.5349373
0.1,0.0,0.7999999999999999,0.0,0.5235987755982988,0,-1.3422567,1.4989016,-0.38868165,0.0021179311,-0.14938363,1.4837286,-0.583849,1.2522998,1.7010975,1.0162437,-0.12907211,0.018586552,1.4152533,-1.546767
0.1,0.0,0.7999999999999999,0.0,0.5235987755982988,0,-1.3717258,1.4989141,-0.38825533,-0.0071788086,-0.18777907,1.4701802,-0.964013,1.2808967,1.685528,0.8939465,-0.118497126,0.20982014,1.4558147,-1.204172
0.1,0.0,0.7999999999999999,0.0,0.5235987755982988,0,-1.3596795,1.4940808,-0.39823988,-0.02589681,-0.16703402,1.5012314,-0.96507305,1.2495338,1.6940184,0.9456486,-0.12196679,-0.118638195,1.3805405,-1.5137877
0.1,0.0,0.7999999999999999,0.0,0.5235987755982988,0,-1.3572838,1.4945796,-0.4005268,0.0014074976,-0.12512906,1.5021262,-0.6442192,1.2451915,1.6767162,1.1138556,-0.093733996,0.0500645,1.4097385,-1.7547485
0.1,0.0,0.7999999999999999,0.0,0.5235987755982988,0,-1.3618902,1.4919131,-0.38539007,-0.018441755,-0.21727306,1.5235505,-0.592344,1.2205223,1.6763064,0.9060605,-0.11564745,0.045279086,1.4637779,-1.6265424
0.1,0.0,0.7999999999999999,0.0,0.5235987755982988,0,-1.3583949,1.4917332,-0.40254673,-0.001554588,-0.174861,1.4927387,-0.71901274,1.2786374,1.7319057,0.9795373,-0.11719997,-0.07803715,1.3484312,-1.3854233
0.1,0.0,0.7999999999999999,0.0,0.5235987755982988,0,-1.3462179,1.488076,-0.38390997,-0.022049988,-0.14062472,1.498631,-0.9397614,1.2696073,1.7225809,0.99018115,-0.13114138,-0.101313554,1.4216582,-1.0607214
0.1,0.0,0.7999999999999999,0.0,0.5235987755982988,0,-1.3567472,1.4876852,-0.3949404,-0.030589594,-0.16948609,1.5117586,-0.7584976,1.2364842,1.6906464,1.0591192,-0.13678975,0.064591564,1.3534522,-0.8951767
0.1,0.0,0.7999999999999999,0.0,0.5235987755982988,0,-1.3452064,1.4883354,-0.39763054,-0.027412739,-0.1921741,1.5107489,-0.27710956,1.2733934,1.72033,0.99523157,-0.18834092,0.26564726,1.4148384,-1.4432038
0.1,0.0,0.7999999999999999,0.0,0.5235987755982988,0,-1.3408333,1.4992267,-0.3960658,-0.027807314,-0.18738328,1.4947422,-0.60539883,1.2504762,1.6960092,0.90601546,-0.1272263,0.1237528,1.3378116,-1.247684
0.1,0.0,0.7999999999999999,0.0,0.5235987755982988,0,-1.3442868,1.4942802,-0.39833468,0.0039688647,-0.17716666,1.4918516,-0.64195406,1.2399858,1.6247826,1.0414644,-0.11609964,0.024654495,1.3941115,-1.1233258
0.1,0.0,0.7999999999999999,0.0,0.5235987755982988,0,-1.3328406,1.4973482,-0.40168774,-0.022648444,-0.13278645,1.4926324,-0.76577425,1.2483752,1.6934607,1.0743098,-0.1641298,0.16941606,1.4491253,-1.5282885
0.1,0.0,0.7999999999999999,0.0,0.5235987755982988,0,-1.3638018,1.4872147,-0.40639895,-0.046937197,-0.20940669,1.4908606,-0.54693764,1.2548741,1.6937003,1.0343305,-0.109852165,-0.041791692,1.2821038,-1.4848123
0.1,0.0,0.7999999999999999,0.0,0.5235987755982988,0,-1.3324038,1.4878091,-0.38871902,-0.017995255,-0.18309727,1.4848171,-0.84825593,1.2683147,1.7064127,0.95359284,-0.15195045,0.2602174,1.3340619,-1.315128
0.1,0.0,0.7999999999999999,0.0,0.5235987755982988,0,-1.3456752,1.4927783,-0.37048003,-0.0054091867,-0.16624732,1.5143031,-0.6230627,1.2734017,1.6866165,1.0744213,-0.15948732,-0.12070218,1.3019246,-1.3398461
0.1,0.0,0.7999999999999999,0.0,0.5235987755982988,0,-1.3755758,1.4905926,-0.38271317,-0.028459087,-0.15794973,1.5209136,-0.5529539,1.2658508,1.6651207,1.0314837,-0.14643447,-0.095676616,1.4911776,-1.2032613
0.1,0.0,0.7999999999999999,0.0,0.5235987755982988,0,-1.3580703,1.4941803,-0.39388216,-0.02531968,-0.20368198,1.4956114,-0.6774767,1.240745,1.669903,0.9997298,-0.12572213,-0.093404904,1.3565667,-1.1194918
0.1,0.0,0.7999999999999999,0.0,0.5235987755982988,0,-1.3468976,1.4889143,-0.38742033,-0.028282728,-0.1338914,1.4994379,-0.5881031,1.1902436,1.6892022,1.0861758,-0.15171322,-0.059734855,1.3386518,-1.2465367
0.1,0.0,0.7999999999999999,0.0,0.5235987755982988,0,-1.352089,1.4950193,-0.39973512,-0.018486736,-0.16613567,1.5146294,-0.51720256,1.2304194,1.6888075,0.97344524,-0.13568349,0.054205786,1.3027464,-1.5548627
0.1,0.0,0.7999999999999999,0.0,0.5235987755982988,0,-1.3486559,1.4906646,-0.39894077,-0.004580652,-0.18204257,1.4913434,-1.1461849,1.2214487,1.6898712,0.9930994,-0.15424801,-0.07382202,1.3998626,-1.4215305
0.1,0.0,0.7999999999999999,0.0,0.5235987755982988,0,-1.3310349,1.4916903,-0.40542325,-0.035946112,-0.18410985,1.4989563,-0.66720337,1.1856704,1.724952,0.977404,-0.09216459,0.06615939,1.3270991,-1.3380781
0.1,0.0,0.7999999999999999,0.0,0.5235987755982988,0,-1.3482044,1.4946861,-0.4037008,-0.028397415,-0.18399124,1.5044926,-0.5496052,1.2815355,1.6722336,1.1315687,-0.115078576,-0.082550466,1.3678591,-1.5634835
0.1,0.0,0.7999999999999999,0.0,0.5235987755982988,0,-1.3451262,1.4940561,-0.39722446,-0.028808437,-0.20191546,1.4931463,-0.5989432,1.2443299,1.6964953,0.8622759,-0.13971005,-0.0056461003,1.310758,-1.4265211
0.1,0.0,0.7999999999999999,0.0,0.5235987755982988,0,-1.354072,1.4906566,-0.39786413,-0.01741006,-0.13731268,1.521412,-0.62540007,1.258335,1.6771333,1.0338771,-0.17093071,-0.004421013,1.343813,-2.0836232
0.1,0.0,0.7999999999999999,0.0,0.5235987755982988,0,-1.322927,1.4986495,-0.39793506,0.0017027564,-0.19543828,1.5223961,-0.81118536,1.2731607,1.6910584,0.8191716,-0.10031571,-0.10816193,1.3918985,-1.1520705
0.1,0.0,0.7999999999999999,0.0,0.5235987755982988,0,-1.3525801,1.4875209,-0.39743683,-0.027495997,-0.17710929,1.5070719,-0.868777,1.2110296,1.6716199,0.98382103,-0.19888803,-0.047638785,1.3745152,-1.10165
0.1,0.0,0.7999999999999999,0.0,0.5235987755982988,0,-1.3555923,1.4951556,-0.396322,-0.0314972,-0.15002047,1.4974273,-0.72209173,1.1821247,1.70003,0.9431307,-0.08352455,0.21694632,1.337031,-1.3135384
0.1,0.0,0.7999999999999999,0.0,0.5235987755982988,0,-1.3552461,1.4979482,-0.39187816,0.002084505,-0.18752088,1.4873677,-0.9100554,1.2183136,1.6773973,1.0815179,-0.17298348,-0.056531634,1.3385582,-1.5134612
0.1,0.0,0.7999999999999999,0.0,0.5235987755982988,0,-1.3503178,1.4954182,-0.39148566,-0.0057557817,-0.1554148,1.5187267,-0.5808771,1.2032958,1.7032394,0.95162576,-0.13544722,-0.036608916,1.3331645,-1.0329165
0.1,0.0,0.7999999999999999,0.0,0.5235987755982988,0,-1.3598949,1.4919245,-0.3826288,-0.028555855,-0.16799375,1.4798278,-0.8050423,1.2556566,1.721378,0.9771483,-0.20093128,-0.14688799,1.3630637,-1.1388865
0.1,0.0,0.7999999999999999,0.0,0.5235987755982988,0,-1.3462853,1.4925431,-0.38510945,-0.035463274,-0.16200048,1.5125551,-0.6685755,1.2494922,1.7210834,0.9472909,-0.17503443,-0.15692145,1.4120594,-1.5262576
0.1,0.0,0.7999999999999999,0.0,0.5235987755982988,0,-1.3410727,1.4901857,-0.38733616,0.016704572,-0.19411874,1.4936488,-0.70112014,1.2438616,1.6875279,1.1023202,-0.14967102,0.08708677,1.3590393,-1.6193188
0.1,0.0,0.7999999999999999,0.0,0.5235987755982988,0,-1.3440752,1.4988564,-0.39244583,-0.020470964,-0.162072,1.5079254,-0.5462897,1.2858317,1.6912713,1.043711,-0.15138598,0.013603357,1.3569506,-1.4880013
0.1,0.0,0.7999999999999999,0.0,0.5235987755982988,0,-1.3457015,1.4911355,-0.391022,-0.0072199465,-0.20240228,1.491853,-0.33997983,1.2030839,1.6722509,1.0238922,-0.14445251,0.04068319,1.4227686,-1.4138441
0.1,0.0,0.7999999999999999,0.0,0.5235987755982988,0,-1.3422828,1.4896746,-0.38286704,-0.012259428,-0.15554434,1.4884794,-0.89343154,1.2737322,1.6832445,1.0979271,-0.13543554,-0.006491877,1.2272315,-1.4490086
0.1,0.0,0.7999999999999999,0.0,0.5235987755982988,0,-1.3499693,1.4882108,-0.38919786,-0.01873755,-0.1496853,1.5192071,-0.68101656,1.2746134,1.6825663,0.99457604,-0.14552106,-0.04236958,1.246273,-1.3212966
0.1,0.0,0.7999999999999999,0.0,0.5235987755982988,0,-1.3678893,1.4836351,-0.4027463,-0.0098539265,-0.20518126,1.509349,-0.25043073,1.2578369,1.6510847,1.0303618,-0.06845747,0.010844644,1.293238,-1.5580043
0.1,0.0,0.7999999999999999,0.0,0.5235987755982988,0,-1.3625367,1.49375,-0.39001647,-0.04012896,-0.19621886,1.4875022,-0.86998975,1.2268326,1.6930265,0.9972579,-0.2049362,-0.1453432,1.3454216,-1.5795952
0.1,0.0,0.7999999999999999,0.0,0.5235987755982988,0,-1.3615181,1.4982126,-0.4020528,-0.021497577,-0.13768548,1.4881293,-0.51829994,1.253639,1.7138557,0.99833363,-0.1411787,-0.044543087,1.3170087,-1.4029258
0.1,0.0,0.7999999999999999,0.0,0.5235987755982988,0,-1.3394839,1.4878407,-0.38850704,-0.009107351,-0.19089173,1.4863027,-0.6029942,1.2357697,1.7107831,1.0290303,-0.12162214,-0.13691711,1.4328249,-1.4640753
0.1,0.0,0.7999999999999999,0.0,0.5235987755982988,0,-1.3546821,1.5009502,-0.39707214,-4.6902253e-05,-0.12567186,1.5081064,-0.5187426,1.2328873,1.6487776,0.97903746,-0.15242256,-0.09057798,1.3551444,-1.4187849
0.1,0.0,0.7999999999999999,0.0,0.5235987755982988,0,-1.34894,1.4997364,-0.4018044,-0.022405727,-0.19685839,1.5017534,-0.6546507,1.2693013,1.674554,0.9297692,-0.15722233,0.04230803,1.2377843,-1.661234
0.1,0.0,0.7999999999999999,0.0,0.5235987755982988,0,-1.3586923,1.4965506,-0.39744976,-0.0025970808,-0.14956133,1.515965,-0.7601406,1.2641191,1.6851827,0.9885545,-0.14416006,0.07060605,1.307917,-1.4927381
0.1,0.0,0.7999999999999999,0.0,0.5235987755982988,0,-1.3696655,1.4984952,-0.3841696,-0.009579291,-0.17557476,1.5070987,-0.59161955,1.2314663,1.6587782,0.94387364,-0.1914611,-0.27338174,1.2823331,-1.0999603
0.1,0.0,0.7999999999999999,0.0,0.5235987755982988,0,-1.353883,1.5028317,-0.39258814,0.024959289,-0.22197194,1.5066237,-0.85740864,1.1921661,1.6794419,1.0851927,-0.18276532,0.12343367,1.3989476,-1.232353
0.1,0.0,0.7999999999999999,0.0,0.5235987755982988,0,-1.3089452,1.4959143,-0.40625262,-0.00663776,-0.1726735,1.5147909,-0.7658761,1.2723727,1.722284,0.90389097,-0.12361343,0.0038606157,1.3755045,-1.7367064
0.1,0.0,0.7999999999999999,0.0,0.5235987755982988,0,-1.3596885,1.4962387,-0.37711817,-0.027186682,-0.14879248,1.522657,-0.5953255,1.2665155,1.7100285,0.8566922,-0.13117391,0.115855865,1.3240695,-1.247967
0.1,0.0,0.7999999999999999,0.0,0.5235987755982988,0,-1.3511194,1.4954453,-0.38823006,-0.014837323,-0.16572572,1.4951426,-0.7749989,1.2254668,1.7008736,1.0268216,-0.1784883,0.00039749398,1.3486737,-1.4576285
0.1,0.0,0.7999999999999999,0.0,0.5235987755982988,0,-1.3919593,1.4957035,-0.38790682,-0.01974452,-0.14193785,1.4964095,-0.70280993,1.2471899,1.7205994,1.0261816,-0.12209926,0.17379488,1.2731177,-1.1192722
0.1,0.0,0.7999999999999999,0.0,0.5235987755982988,0,-1.3608013,1.4994489,-0.39018583,-0.015583887,-0.13406454,1.4936966,-0.87547207,1.2279514,1.7080835,0.9251756,-0.12500602,-0.12933075,1.3282841,-1.6657854
0.1,0.0,0.7999999999999999,0.0,0.5235987755982988,0,-1.359411,1.4945844,-0.3880946,-0.00024534698,-0.1843218,1.5057647,-0.66617775,1.2448423,1.6865672,1.0496587,-0.17479268,-0.11107084,1.2773356,-1.6594489
0.1,0.0,0.7999999999999999,0.0,0.5235987755982988,0,-1.3460951,1.4957403,-0.38937724,-0.025435321,-0.19553795,1.5072973,-0.8238442,1.2252237,1.6949295,0.9942507,-0.15073821,-0.013208822,1.3665265,-1.66068
0.1,0.0,0.7999999999999999,0.0,0.5235987755982988,0,-1.347529,1.4947627,-0.38598427,-0.018232355,-0.17430457,1.4811151,-0.8354059,1.1892642,1.6977401,0.92419124,-0.106177844,-0.12038781,1.4300948,-1.2707876
0.1,0.0,0.7999999999999999,0.0,0.5235987755982988,0,-1.3554996,1.4936082,-0.3853261,-0.017766057,-0.21330063,1.5002446,-0.5014886,1.1955214,1.6922449,1.0981168,-0.14491786,0.14315514,1.366745,-0.8970323
0.1,0.0,0.7999999999999999,0.0,0.5235987755982988,0,-1.3446597,1.4873329,-0.39978614,-0.03424463,-0.18824239,1.498996,-0.917901,1.2803935,1.7055211,1.1173642,-0.16291177,0.01936265,1.4186717,-1.0833846
0.1,0.0,0.7999999999999999,0.0,0.5235987755982988,0,-1.3426864,1.4978813,-0.3864395,-0.00784712,-0.18336658,1.4993277,-0.5686619,1.2064784,1.7186377,0.8965914,-0.18598391,-0.015463692,1.3331639,-1.6842525
0.1,0.0,0.7999999999999999,0.0,0.5235987755982988,0,-1.3532606,1.5013716,-0.3949745,-0.03482522,-0.16333361,1.5159534,-0.657538,1.2620007,1.6561172,1.0171801,-0.13436763,-0.12767242,1.3675857,-1.7839254
0.1,0.0,0.7999999999999999,0.0,0.5235987755982988,0,-1.3605512,1.4955407,-0.38440838,-0.039184052,-0.18841836,1.514471,-0.772345,1.2375376,1.6923331,1.1191298,-0.12336206,-0.15641586,1.3930172,-1.1871378
0.1,0.0,0.7999999999999999,0.0,0.5235987755982988,0,-1.3471072,1.4943647,-0.39090875,-0.024421336,-0.14233215,1.4854314,-0.62941587,1.1637176,1.7375259,0.9969261,-0.11241143,-0.103413515,1.4380513,-1.3048294
0.1,0.0,0.7999999999999999,0.0,0.5235987755982988,0,-1.3451378,1.4919505,-0.39439398,-0.0180562,-0.19118007,1.501345,-0.60368645,1.2098334,1.6888543,0.9390626,-0.12505113,-0.02697661,1.3140404,-1.1996219
0.1,0.0,0.7999999999999999,0.0,0.5235987755982988,0,-1.3392575,1.4941341,-0.4037199,-0.03548704,-0.15811162,1.5094867,-0.94402623,1.2414753,1.6637341,0.9754801,-0.12061895,0.006986285,1.3043153,-1.168226
0.1,0.0,0.7999999999999999,0.0,0.5235987755982988,0,-1.2655051,1.4876792,-0.3886763,0.017077547,-0.1504885,1.4920486,-0.52981484,1.174844,1.7117939,0.8917964,-0.09609811,-0.04884401,1.3219877,-1.0702555
0.1,0.0,0.7999999999999999,0.0,0.5235987755982988,0,-1.3558384,1.4876642,-0.3951421,-0.02416402,-0.12469406,1.4989322,-0.77039385,1.2490569,1.7198998,0.9754818,-0.09943005,0.094842695,1.3889366,-1.8027436
0.1,0.0,0.7999999999999999,0.0,0.5235987755982988,0,-1.3490568,1.499177,-0.3958886,-0.016417827,-0.19834402,1.5109262,-0.46728322,1.2714373,1.666906,0.9848878,-0.14733435,-0.123295486,1.4572514,-1.6546035
0.1,0.0,0.7999999999999999,0.0,0.5235987755982988,0,-1.3596457,1.4875497,-0.3921934,0.0042453483,-0.18058273,1.501618,-0.50966465,1.265448,1.7149537,0.9796333,-0.09538616,0.05837522,1.4252399,-1.7150226
0.1,0.0,0.7999999999999999,0.0,0.5235987755982988,0,-1.3552202,1.495472,-0.40289685,-0.0010691739,-0.14581862,1.5162379,-0.6013894,1.2380853,1.668941,0.9569049,-0.14239512,-0.105374075,1.4386235,-1.4163929
0.1,0.0,0.7999999999999999,0.0,0.5235987755982988,0,-1.335357,1.4953626,-0.39848664,-0.004019174,-0.17384659,1.5036154,-0.7484166,1.2989621,1.6631609,1.0057888,-0.06331939,-0.10620714,1.4141855,-1.6572082
0.1,0.0,0.7999999999999999,0.0,0.5235987755982988,0,-1.35096,1.4914263,-0.38491574,-0.020881368,-0.14715824,1.4786541,-0.7607546,1.2574376,1.6809093,0.90275484,-0.13052876,-0.08565005,1.4226736,-1.3672175
0.1,0.0,0.7999999999999999,0.0,0.5235987755982988,0,-1.368919,1.4968272,-0.38987815,-0.0054019582,-0.2149739,1.4996675,-0.5065753,1.2919959,1.7022979,1.0108945,-0.12398063,-0.018544184,1.3429269,-1.3353791
0.1,0.0,0.7999999999999999,0.0,0.5235987755982988,0,-1.3561479,1.487452,-0.3833236,-0.008799309,-0.155433,1.4975815,-0.6716746,1.2611561,1.7000374,0.98897576,-0.049585033,-0.0041568554,1.4251515,-1.4961541
0.1,0.0,0.7999999999999999,0.0,0.5235987755982988,0,-1.3636215,1.4909352,-0.39029077,-0.036187828,-0.17564009,1.489309,-0.8340431,1.256755,1.71208,1.016686,-0.110365115,-0.18796864,1.355594,-1.3823378
0.1,0.0,0.7999999999999999,0.0,0.5235987755982988,0,-1.3633189,1.4899082,-0.39368698,-0.025756495,-0.18241471,1.5104133,-0.9317833,1.2488126,1.7352628,0.97024333,-0.17513499,0.044620343,1.355435,-1.3401955
0.1,0.0,0.7999999999999999,0.0,0.5235987755982988,0,-1.3578752,1.4967157,-0.3782648,0.0039005554,-0.18051767,1.5019504,-0.25525692,1.2353863,1.7382839,0.9739723,-0.13303962,-0.045009654,1.3921406,-1.4302704
0.1,0.0,0.7999999999999999,0.0,0.5235987755982988,0,-1.3513926,1.4924672,-0.38559932,-0.0010663879,-0.19547875,1.4934748,-0.7482375,1.2301615,1.710558,1.0832702,-0.11915347,0.09994457,1.432515,-1.5146438
0.1,0.0,0.7999999999999999,0.0,0.5235987755982988,0,-1.3468127,1.4976954,-0.41312334,-0.02178076,-0.16064435,1.5035052,-0.55323315,1.2662749,1.6904716,0.84562314,-0.08821117,0.014254134,1.3825973,-1.4890324
0.1,0.0,0.7999999999999999,0.0,0.5235987755982988,0,-1.3545934,1.4930159,-0.37637505,-0.015783107,-0.15979268,1.5102918,-0.5444531,1.2596399,1.6924301,0.955366,-0.08553651,0.008021368,1.4516262,-1.8310052
0.1,0.0,0.7999999999999999,0.0,0.5235987755982988,0,-1.3428555,1.4908432,-0.39654914,-0.0129613485,-0.19449334,1.4999243,-0.8000141,1.2396328,1.6752895,0.9730873,-0.11740093,0.022968901,1.416893,-1.8545175
0.1,0.0,0.7999999999999999,0.0,0.5235987755982988,0,-1.3365577,1.5005301,-0.3745835,-0.011039595,-0.1347164,1.5088272,-0.6748268,1.2229471,1.6913424,0.8495208,-0.16724622,0.030962836,1.3233538,-1.6804652
0.1,0.0,0.7999999999999999,0.0,0.5235987755982988,0,-1.3609073,1.5015539,-0.3965953,-0.025312096,-0.17551702,1.5160929,-0.7730813,1.2894467,1.7245457,0.99759036,-0.12172921,-0.13752118,1.4182955,-1.5676982
0.1,0.0,0.7999999999999999,0.0,0.5235987755982988,0,-1.3638929,1.4924445,-0.3894948,-0.027594417,-0.19414496,1.4923338,-0.37824163,1.213051,1.7086438,1.0378956,-0.15159927,0.04240027,1.4959352,-1.9446882
0.1,0.0,0.7999999999999999,0.0,0.5235987755982988,0,-1.3427995,1.4922768,-0.3757658,-0.017015768,-0.20065422,1.5162354,-0.6951151,1.1614562,1.7218853,0.9839803,-0.14229313,-0.18867747,1.4145697,-1.5042301
0.1,0.0,0.7999999999999999,0.0,0.5235987755982988,0,-1.349711,1.4951594,-0.38767308,-0.0011741099,-0.1865244,1.4982265,-0.6054562,1.226879,1.6531873,0.7954687,-0.1515045,0.20929232,1.3255559,-1.5979594
0.1,0.0,0.7999999999999999,0.0,0.5235987755982988,0,-1.3621914,1.4887624,-0.39576772,-0.018737843,-0.18756908,1.5120051,-0.848319,1.2175208,1.6854534,0.87113684,-0.15496705,-0.15417103,1.3162295,-1.1660074
0.1,0.0,0.7999999999999999,0.0,0.5235987755982988,0,-1.3575004,1.4957802,-0.39745283,0.01373724,-0.12397055,1.5104486,-0.9459488,1.2179053,1.7104017,0.89811385,-0.16683814,-0.018264774,1.2921101,-1.5878713
0.1,0.0,0.7999999999999999,0.0,0.5235987755982988,0,-1.3568158,1.4927415,-0.39265156,-0.027572235,-0.16994368,1.504978,-0.47730675,1.2073593,1.6738536,1.0084388,-0.13215283,0.1825225,1.3272765,-1.4584872
0.1,0.0,0.7999999999999999,0.0,0.5235987755982988,0,-1.3605193,1.4947134,-0.38344005,-0.0007629009,-0.18046,1.5199533,-0.8452179,1.2398956,1.6847969,0.9388892,-0.16010964,0.23467366,1.3948216,-1.526451
0.1,0.0,0.7999999999999999,0.0,0.5235987755982988,0,-1.3492662,1.4906987,-0.39677542,-0.01718131,-0.15386416,1.5072322,-0.9056921,1.2381145,1.7250216,0.93843216,-0.14730807,-0.1557352,1.3342453,-1.333776
0.1,0.0,0.7999999999999999,0.0,0.5235987755982988,0,-1.3579038,1.4916399,-0.38915697,-0.012908807,-0.11623826,1.5073861,-0.6183674,1.2562846,1.6789958,1.0593851,-0.12904243,-0.088041015,1.3120359,-1.50565
0.1,0.0,0.7999999999999999,0.0,0.5235987755982988,0,-1.3655535,1.4989136,-0.4064382,-0.018856324,-0.15984297,1.4835676,-0.8212866,1.2587645,1.7589941,0.99884003,-0.09842728,-0.29609543,1.385169,-1.3537235
0.1,0.0,0.7999999999999999,0.0,0.5235987755982988,0,-1.339677,1.495028,-0.38942716,0.016633483,-0.15781382,1.4894373,-0.7015862,1.2318653,1.7028736,1.0414062,-0.15128364,-0.0004681809,1.4202135,-1.2854904
0.1,0.0,0.7999999999999999,0.0,0.5235987755982988,0,-1.3490968,1.5013176,-0.40242654,-0.015685529,-0.14014155,1.5070221,-0.6762157,1.2222548,1.6909668,0.97708553,-0.16940343,-0.10002446,1.3657222,-1.3938365
0.1,0.0,0.7999999999999999,0.0,0.5235987755982988,0,-1.3429006,1.4946996,-0.38132548,-0.008006813,-0.16167748,1.4882253,-0.49622086,1.2315348,1.6668055,1.0545083,-0.098650806,-0.0072155055,1.3315263,-1.2711481
0.1,0.0,0.7999999999999999,0.0,0.5235987755982988,0,-1.3321222,1.4940751,-0.38897994,-0.02885784,-0.1869006,1.4978305,-0.63992274,1.2236484,1.6833361,0.9567669,-0.14106762,-0.016400276,1.3312759,-1.5753484
0.1,0.0,0.7999999999999999,0.0,0.5235987755982988,0,-1.3440163,1.4959543,-0.39294037,0.001672029,-0.14289613,1.5104241,-0.78157663,1.250402,1.6739092,1.0855837,-0.13543436,0.018795576,1.3060468,-1.1887335
