sanky1234/BimanualDexCatch/isaacgymenvs/cem_results/football_pose_0.0_-0.1_0.8999999999999999_0.0_0.0_0_2025-05-26.csv
x,y,z,roll,pitch,yaw,robot1/joint1,robot1/joint2,robot1/joint3,robot1/joint4,robot1/joint5,robot1/joint6,robot1/joint7,robot2/joint1,robot2/joint2,robot2/joint3,robot2/joint4,robot2/joint5,robot2/joint6,robot2/joint7
0.0,-0.1,0.8999999999999999,0.0,0.0,0,0.021181032,-1.0798305,-3.0268636,0.06259498,-0.52959317,1.4530545,-0.055787597,-0.15370251,0.8774126,-0.29414248,0.35787755,-0.2221059,-0.67736894,0.9616712
0.0,-0.1,0.8999999999999999,0.0,0.0,0,0.024344286,-1.0252227,-2.989063,0.089048944,-0.49203706,1.4769878,-0.09640557,-0.16974556,0.9954981,0.093721814,0.4130127,-0.35398883,0.39014673,0.44740334
0.0,-0.1,0.8999999999999999,0.0,0.0,0,0.019362453,-1.061037,-2.9934502,0.07870561,-0.47684222,1.4895053,-0.12590787,-0.14390598,0.83817583,1.0164406,0.46372414,-0.47828564,-0.3614894,0.81394035
0.0,-0.1,0.8999999999999999,0.0,0.0,0,0.01519942,-1.0628517,-3.0121071,0.111871384,-0.53054005,1.4639736,-0.025892815,-0.17643294,0.85494983,0.77221453,0.49590656,-0.25013086,-0.47787166,0.053247053
0.0,-0.1,0.8999999999999999,0.0,0.0,0,0.02753125,-1.0539693,-3.0067165,0.09423177,-0.55250293,1.4353292,-0.0476156,-0.18591574,0.92830855,-0.69400585,0.61029625,-0.33706093,-0.9780687,0.27093786
0.0,-0.1,0.8999999999999999,0.0,0.0,0,0.033285934,-1.0739614,-2.9890397,0.09426403,-0.52016973,1.4367961,-0.17641093,-0.19293399,0.9585782,-0.20392713,0.6050431,-0.42579392,-0.034969207,0.3014523
0.0,-0.1,0.8999999999999999,0.0,0.0,0,0.01368009,-1.074023,-3.000158,0.09562992,-0.5338291,1.4268796,-0.20350836,-0.17901607,0.80171907,0.98476505,0.26454458,-0.46468604,-0.5043126,0.45294905
0.0,-0.1,0.8999999999999999,0.0,0.0,0,0.004237699,-1.0653684,-3.00589,0.06887008,-0.5563332,1.4704303,-0.021775264,-0.19573383,1.0177102,0.98949325,0.6362594,-0.48975438,-1.1696085,0.6931065
0.0,-0.1,0.8999999999999999,0.0,0.0,0,0.01855006,-1.067748,-2.998549,0.047745757,-0.5252508,1.4410212,-0.03780137,-0.17663103,0.766945,-1.3673052,-0.34218135,-0.4206625,-0.92142427,0.58973265
0.0,-0.1,0.8999999999999999,0.0,0.0,0,0.011831506,-1.0708845,-3.0115352,0.0765705,-0.495266,1.4571522,-0.05952036,-0.17888206,0.8513238,0.21532692,-0.033262484,-0.07660255,-0.15998475,0.89430207
0.0,-0.1,0.8999999999999999,0.0,0.0,0,0.02768565,-1.0527222,-2.9982638,0.10856939,-0.522902,1.4696152,-0.033899613,-0.17631443,1.1021525,0.51354855,-0.0034867546,-0.014216854,-0.9462775,0.7055035
0.0,-0.1,0.8999999999999999,0.0,0.0,0,0.03194271,-1.0617261,-3.0237937,0.0882642,-0.5327552,1.4814274,-0.22966264,-0.16086501,1.0326881,1.059106,0.06453334,-0.1263274,-0.65917605,0.49398717
0.0,-0.1,0.8999999999999999,0.0,0.0,0,0.0060392106,-1.073693,-3.0014713,0.09408625,-0.55533177,1.4657549,0.034245603,-0.20228267,0.8372689,0.1703822,0.5177029,-0.50704885,0.024085777,0.22217534
0.0,-0.1,0.8999999999999999,0.0,0.0,0,0.014984034,-1.0731465,-3.005795,0.10001548,-0.52680856,1.4676541,-0.02804696,-0.15278456,0.84301,-0.62632406,0.06230647,-0.5244318,-0.15890004,0.70129293
0.0,-0.1,0.8999999999999999,0.0,0.0,0,0.030974494,-1.0623486,-3.008311,0.10943634,-0.5526516,1.4515725,-0.08276005,-0.18042631,0.92881155,0.51095665,-0.18990836,0.15311635,-1.0970982,0.5809724
0.0,-0.1,0.8999999999999999,0.0,0.0,0,0.031530507,-1.0837309,-3.0116308,0.06281501,-0.47332296,1.4780761,0.10462957,-0.15429947,1.1712161,0.6456829,0.29704383,-0.19839965,-0.17876954,0.5337404
0.0,-0.1,0.8999999999999999,0.0,0.0,0,0.037775148,-1.0939534,-3.0075,0.07427283,-0.4994023,1.469247,-0.1952494,-0.13864501,0.94448155,0.09859604,0.27021298,0.10313035,-0.46542588,0.7695504
0.0,-0.1,0.8999999999999999,0.0,0.0,0,0.0120397275,-1.09402,-2.9969516,0.05791492,-0.45810708,1.4525927,-0.08623397,-0.19505344,0.97090536,0.6809363,-0.07725641,-0.3284883,-0.54663694,0.3823211
0.0,-0.1,0.8999999999999999,0.0,0.0,0,0.029344141,-1.111552,-2.9961052,0.06456265,-0.5081518,1.4692994,-0.042995624,-0.14661396,1.0498916,-1.385896,0.5762424,-0.19360769,0.12419631,0.19134165
0.0,-0.1,0.8999999999999999,0.0,0.0,0,0.022820057,-1.0925224,-2.9964485,0.08887657,-0.55532503,1.4536614,0.011219882,-0.1539853,1.027573,-0.6637904,-0.011105425,0.025232079,-0.73044056,0.02535604
0.0,-0.1,0.8999999999999999,0.0,0.0,0,0.03841981,-1.1075408,-2.9963968,0.07924053,-0.5078966,1.4524376,-0.07739683,-0.15143988,0.9275645,0.41766492,0.7198107,-0.095506325,-0.6031075,0.3556894
0.0,-0.1,0.8999999999999999,0.0,0.0,0,0.01645751,-1.0458763,-2.984297,0.079028614,-0.52008075,1.4315832,-0.09377397,-0.17918348,0.8577621,0.39890966,0.8224157,-0.09868009,-0.19705436,1.0914937
0.0,-0.1,0.8999999999999999,0.0,0.0,0,0.014287324,-1.0895907,-2.9757497,0.085684456,-0.49620476,1.440855,-0.106354944,-0.16963063,1.1338806,0.8835153,0.078733236,0.02053539,-0.7553704,0.48137712
0.0,-0.1,0.8999999999999999,0.0,0.0,0,0.00876143,-1.0313183,-2.972611,0.09267873,-0.5041889,1.4569844,-0.11950367,-0.17200787,0.8957274,0.31608152,0.13080537,0.12991004,-0.26094863,0.46258962
0.0,-0.1,0.8999999999999999,0.0,0.0,0,0.022709686,-1.0565392,-2.988002,0.019608442,-0.5659203,1.460902,-0.0197253,-0.20857976,0.86154616,-0.14902177,0.5067744,0.06832138,0.6893484,0.48173425
0.0,-0.1,0.8999999999999999,0.0,0.0,0,0.009851296,-1.0410575,-2.997983,0.09706029,-0.51443005,1.4552829,-0.24353276,-0.173854,0.92327034,0.04545632,0.22044405,-0.07656174,-0.016211575,0.40868202
0.0,-0.1,0.8999999999999999,0.0,0.0,0,0.031666573,-1.1008512,-2.9730687,0.11093192,-0.565627,1.4562569,-0.07594814,-0.14421405,0.97654724,-0.011862001,0.010036299,-0.38742262,-0.04340934,1.012645
0.0,-0.1,0.8999999999999999,0.0,0.0,0,0.016931525,-1.0581927,-2.996528,0.09977165,-0.5035212,1.4344686,-0.17492303,-0.19180599,0.9266532,-0.20160173,-0.13768958,0.13479751,0.1568868,-0.19312769
0.0,-0.1,0.8999999999999999,0.0,0.0,0,0.029146994,-1.0523688,-2.9933834,0.095076725,-0.5219724,1.4463506,-0.2154633,-0.16442586,0.7922842,0.9138229,-0.062280703,-0.2806722,-0.5371402,0.41525275
0.0,-0.1,0.8999999999999999,0.0,0.0,0,0.006799773,-1.0520277,-2.9663582,0.11488981,-0.55865353,1.455693,-0.21229532,-0.17212793,1.0364889,0.1971019,0.49846375,-0.12782624,-0.5700125,-0.3347023
0.0,-0.1,0.8999999999999999,0.0,0.0,0,0.021144496,-1.0749782,-2.9605293,0.11766188,-0.545209,1.4452571,-0.20781577,-0.18441544,1.0307997,0.5109196,0.027395057,-0.15055323,-0.33054736,-0.10489198
0.0,-0.1,0.8999999999999999,0.0,0.0,0,0.02515515,-1.0932167,-2.9890668,0.1641937,-0.54089624,1.4454136,-0.29053253,-0.16907893,0.7451094,0.14683774,0.29444796,0.12440512,-0.58373874,-0.09072119
0.0,-0.1,0.8999999999999999,0.0,0.0,0,0.032540135,-1.0180259,-3.0041811,0.12984204,-0.5594327,1.4627149,-0.06448531,-0.18225716,0.76007986,-1.5500278,0.8687035,-0.5372698,-0.7002762,0.29513812
0.0,-0.1,0.8999999999999999,0.0,0.0,0,0.008421572,-1.1026022,-3.00696,0.07699168,-0.50212353,1.4686097,-0.15257366,-0.18205516,0.86066335,-0.12367208,0.63217473,0.2780674,0.57725066,0.7959515
0.0,-0.1,0.8999999999999999,0.0,0.0,0,0.0015457184,-1.0389234,-2.9665918,0.16323462,-0.56057787,1.4659324,0.03900462,-0.14354004,0.74972874,0.6413428,0.35923952,-0.088895194,0.0663456,0.80415225
0.0,-0.1,0.8999999999999999,0.0,0.0,0,0.010893037,-1.0707923,-2.993541,0.09634575,-0.54891807,1.4621761,-0.06505078,-0.16261579,0.73870397,-1.243293,0.5123134,0.44007844,-0.24873605,0.12574685
0.0,-0.1,0.8999999999999999,0.0,0.0,0,0.029273607,-1.035224,-2.9503078,0.16463944,-0.51895344,1.4241832,-0.13626936,-0.16467665,0.8069024,-0.4027657,0.08922294,-0.37479493,-0.32426867,0.48166558
0.0,-0.1,0.8999999999999999,0.0,0.0,0,0.023488272,-1.0435736,-2.9923565,0.15770596,-0.52774733,1.4549388,-0.018992526,-0.1573484,0.93645644,0.49821433,0.2315487,-0.24688908,-0.31373733,0.216843
0.0,-0.1,0.8999999999999999,0.0,0.0,0,-0.010562263,-1.0984942,-2.961311,0.12676322,-0.52985483,1.4610338,-0.20379695,-0.16271967,0.8666226,0.10274738,0.18949568,-0.38337925,0.06872016,0.36979568
0.0,-0.1,0.8999999999999999,0.0,0.0,0,0.01202602,-1.0707593,-3.0004823,0.118825704,-0.5663467,1.4512542,-0.21109582,-0.14878836,1.2375946,-0.05818349,0.13615263,-0.07068115,-0.42977417,0.09037448
0.0,-0.1,0.8999999999999999,0.0,0.0,0,0.01127791,-1.03344,-3.0072,0.13629104,-0.5241553,1.4575616,-0.14613652,-0.19209954,0.8306647,-0.009445621,0.1955399,-0.13072312,-0.6776287,0.16502808
0.0,-0.1,0.8999999999999999,0.0,0.0,0,0.007052276,-1.0589206,-2.9948761,0.13222592,-0.5515957,1.4626442,-0.012329185,-0.16008168,0.7928109,0.43467584,0.8358843,-0.34273714,-1.2018452,0.9561957
0.0,-0.1,0.8999999999999999,0.0,0.0,0,0.03564475,-1.0750875,-3.0106034,0.10408541,-0.5194051,1.4750514,-0.038847767,-0.18574661,0.93669915,0.07529463,0.15615247,-0.18516295,0.3994608,0.29229373
0.0,-0.1,0.8999999999999999,0.0,0.0,0,0.016474765,-1.05583,-2.9772215,0.11396405,-0.52478546,1.4252516,0.049450923,-0.19138867,0.92906845,-0.23332015,0.17669713,-0.10511586,-0.061367903,0.9729987
0.0,-0.1,0.8999999999999999,0.0,0.0,0,0.011317871,-1.0717205,-2.9810257,0.11284388,-0.564938,1.4283805,-0.12987436,-0.17216386,1.0109555,0.12270932,0.38214865,-0.48231113,-0.044450045,0.054289144
0.0,-0.1,0.8999999999999999,0.0,0.0,0,0.018160421,-0.93775153,-3.0055544,0.15771432,-0.5134829,1.4290669,-0.11910975,-0.15569355,0.8136125,0.17487305,-0.107334286,-0.083482936,-0.13555373,0.5638633
0.0,-0.1,0.8999999999999999,0.0,0.0,0,0.022368893,-1.0761198,-2.9949446,0.08251022,-0.5540517,1.4645613,-0.18553957,-0.16499059,0.9713874,0.8712841,0.3033967,-0.37153357,0.20446692,0.36838472
0.0,-0.1,0.8999999999999999,0.0,0.0,0,0.023642523,-1.0851988,-2.9994009,0.06788612,-0.57765734,1.4696236,-0.062311996,-0.1888845,0.9532836,-0.0518742,0.06919493,-0.40375334,-0.8879435,0.27848497
0.0,-0.1,0.8999999999999999,0.0,0.0,0,0.028777516,-1.0784335,-2.9898286,0.0680056,-0.50112873,1.4448079,-0.071142614,-0.18349428,0.84912086,-0.45864505,0.36602572,0.10702357,-0.05875585,0.081190325
0.0,-0.1,0.8999999999999999,0.0,0.0,0,0.029332975,-1.082922,-2.9977067,0.047577545,-0.49219495,1.4561505,-0.02728412,-0.195632,0.74974823,1.32858,0.6262314,-0.08176365,-0.82427555,0.9749184
0.0,-0.1,0.8999999999999999,0.0,0.0,0,0.018348373,-1.0735222,-2.9834702,0.06441607,-0.53608984,1.4659214,-0.25591853,-0.15240063,0.85001236,1.2303177,0.44725412,-0.395108,-0.42619634,0.78805315
0.0,-0.1,0.8999999999999999,0.0,0.0,0,0.0375459,-1.0952377,-3.0039115,0.041694876,-0.52923185,1.454874,-0.03417011,-0.15897849,0.956193,-0.38431117,-0.48557436,0.029690688,-0.79298526,1.0519527
0.0,-0.1,0.8999999999999999,0.0,0.0,0,0.039036345,-1.0638912,-2.9961815,0.08849989,-0.51817644,1.4546297,-0.19757414,-0.17144743,1.0714916,1.0050687,0.4257849,-0.17252785,-1.1225314,0.39093724
0.0,-0.1,0.8999999999999999,0.0,0.0,0,0.041827805,-1.0984068,-2.9704823,0.07139153,-0.5514716,1.4406508,-0.10369481,-0.13142516,0.98507226,-0.34988675,0.07235711,-0.5888393,-1.1436061,-0.14702258
0.0,-0.1,0.8999999999999999,0.0,0.0,0,0.032484658,-1.0801619,-2.9954052,0.06551989,-0.5407441,1.4454628,-0.08300516,-0.17277168,0.98242116,1.0883751,0.06623549,-0.7035632,-0.6917865,0.6230977
0.0,-0.1,0.8999999999999999,0.0,0.0,0,0.017690135,-1.0802631,-2.9905987,0.04823771,-0.5434164,1.4431472,-0.13140301,-0.16821457,0.9879893,0.93952054,0.14719851,-0.10153956,0.43654922,0.15028849
0.0,-0.1,0.8999999999999999,0.0,0.0,0,0.032618493,-1.0885831,-3.0134842,0.0441853,-0.5613627,1.4672292,-0.16480368,-0.15688725,1.038123,-0.25044066,0.40418205,-0.14994337,-1.5418681,0.2744161
0.0,-0.1,0.8999999999999999,0.0,0.0,0,0.03812403,-1.0407075,-2.974893,0.11479696,-0.50902224,1.4230351,-0.09776739,-0.18185064,0.90570605,-0.7325569,0.0070567583,-0.33756578,-0.032005433,-0.2851818
0.0,-0.1,0.8999999999999999,0.0,0.0,0,0.019645048,-1.0675085,-2.9577434,0.12027272,-0.5144908,1.467264,-0.18638316,-0.17779693,1.0119002,0.18874857,0.5067337,-0.63560736,-0.30256993,0.6791641
0.0,-0.1,0.8999999999999999,0.0,0.0,0,0.0078096865,-1.0238287,-2.989026,0.14281102,-0.50814164,1.4673439,-0.07855208,-0.15822022,0.85565585,-0.030229064,0.7126083,-0.03407477,-0.6583046,0.36920106
0.0,-0.1,0.8999999999999999,0.0,0.0,0,0.018251942,-1.0806822,-2.994359,0.050684985,-0.5292604,1.4403709,-0.12719446,-0.20267855,0.8055202,0.10151382,0.46546265,-0.061228108,-0.1543455,0.76753753
0.0,-0.1,0.8999999999999999,0.0,0.0,0,0.013340424,-1.0976552,-2.9821346,0.05797274,-0.5423278,1.4764796,-0.032723773,-0.15803324,0.55400544,0.8824079,-0.025748614,0.24036403,-0.78538775,0.2734899
0.0,-0.1,0.8999999999999999,0.0,0.0,0,0.02207666,-1.1096572,-3.00398,0.0835214,-0.52148217,1.4574956,-0.05942832,-0.15674038,0.78381574,0.48586154,0.4032639,0.12411486,-0.32495224,0.5789544
0.0,-0.1,0.8999999999999999,0.0,0.0,0,0.0039967434,-1.0803562,-3.0108743,0.11397243,-0.5168215,1.4424784,-0.14043379,-0.12478435,0.9321659,-0.06664267,0.5707674,-0.12940687,-0.53084385,0.54749703
0.0,-0.1,0.8999999999999999,0.0,0.0,0,0.021671494,-1.0544126,-2.9815366,0.0694213,-0.47351757,1.4517802,-0.097388424,-0.15984376,1.0970622,0.031102963,0.202183,-0.18532594,0.25714844,0.7739401
0.0,-0.1,0.8999999999999999,0.0,0.0,0,0.033435468,-1.0699153,-2.9868183,0.0559331,-0.51042277,1.4356233,-0.027428959,-0.17457737,0.99222034,0.21163897,0.44351327,-0.06662743,0.37625867,0.3297216
0.0,-0.1,0.8999999999999999,0.0,0.0,0,0.02669349,-1.0397176,-3.0043824,0.12507081,-0.55354166,1.4370325,-0.112065814,-0.11738078,0.98365927,1.2510507,0.15388179,0.12915254,-1.2627448,0.6570457
0.0,-0.1,0.8999999999999999,0.0,0.0,0,0.011776412,-1.094743,-3.012691,0.080430105,-0.4733253,1.4715505,-0.13742122,-0.16441937,0.9007535,-1.057632,0.38456094,0.00382639,-0.9163144,0.18586421
0.0,-0.1,0.8999999999999999,0.0,0.0,0,0.026449952,-1.0273255,-2.9637425,0.114340104,-0.54255927,1.473029,-0.073084146,-0.15235756,1.0239424,-0.034326617,0.5933137,-0.685021,-0.3344897,0.75662494
0.0,-0.1,0.8999999999999999,0.0,0.0,0,0.041156873,-1.0730617,-2.9825962,0.10692804,-0.5138498,1.4410572,-0.020485055,-0.17575032,1.1822197,0.76916254,0.4542229,0.051143527,-0.7251744,0.7852955
0.0,-0.1,0.8999999999999999,0.0,0.0,0,0.012409902,-1.0655857,-2.9612432,0.087739706,-0.5090576,1.4639388,-0.2928747,-0.17703253,1.0028566,-0.43694392,0.26176873,-0.29712647,0.26899436,0.5458044
0.0,-0.1,0.8999999999999999,0.0,0.0,0,0.02118491,-1.0811232,-2.9607744,0.09877471,-0.52192813,1.4512584,-0.04870291,-0.16281953,0.91004014,0.80642605,0.41416037,0.11301906,-0.5376421,0.46403626
0.0,-0.1,0.8999999999999999,0.0,0.0,0,0.025247913,-1.0340971,-3.0131469,0.15313226,-0.5379142,1.472251,-0.0021673897,-0.15209076,1.0432593,1.2698859,0.6236882,-0.49387428,-1.0511115,0.12906438
0.0,-0.1,0.8999999999999999,0.0,0.0,0,0.02945143,-1.0780427,-2.9838476,0.060360882,-0.52360517,1.4500936,-0.15268223,-0.16990274,1.3146272,-0.22513674,0.21275634,-0.5659902,-0.3994422,0.6371458
0.0,-0.1,0.8999999999999999,0.0,0.0,0,0.022260103,-1.0155586,-2.9847376,0.156239,-0.5088495,1.4379277,-0.07653697,-0.1771305,1.0811256,-0.1268947,0.24694185,0.18339802,-0.8105445,0.31326824
0.0,-0.1,0.8999999999999999,0.0,0.0,0,0.01704543,-1.0621156,-2.9964693,0.16232541,-0.5243209,1.4314511,-0.06822096,-0.15976319,0.8972513,0.48234412,-0.21585536,0.28889164,-0.07939249,0.3783474
0.0,-0.1,0.8999999999999999,0.0,0.0,0,0.017653057,-1.0986521,-3.010816,0.03495846,-0.5575324,1.4820235,-0.08006391,-0.1667626,0.77879465,-0.5250202,0.41442472,0.23464811,-0.76185805,1.3638082
0.0,-0.1,0.8999999999999999,0.0,0.0,0,0.009692768,-1.0622624,-2.99606,0.079743996,-0.5280869,1.4337645,-0.13441254,-0.14315489,0.7325432,-0.30896,0.87768334,-0.1685709,-0.23295845,0.65990686
0.0,-0.1,0.8999999999999999,0.0,0.0,0,0.022460857,-1.0775065,-2.977467,0.11160349,-0.5103022,1.4718726,-0.1595998,-0.1761561,0.80856603,0.7508472,0.3307126,-0.41365808,-1.1606766,0.02238716
0.0,-0.1,0.8999999999999999,0.0,0.0,0,0.03354235,-1.0809256,-2.9760616,0.0940783,-0.5297499,1.4635774,0.020046195,-0.16806136,1.1009401,-0.6760976,-0.18693797,-0.27382007,-0.22948937,0.1252293
0.0,-0.1,0.8999999999999999,0.0,0.0,0,0.03158787,-1.0705777,-2.9872835,0.090316445,-0.5189267,1.4411427,-0.15225011,-0.17784694,0.7982559,0.58928925,0.26673856,0.7077306,-1.0822669,0.39102396
0.0,-0.1,0.8999999999999999,0.0,0.0,0,0.024677923,-1.0593679,-2.9681025,0.15062918,-0.5028672,1.4520602,-0.19721416,-0.15162177,0.96687794,0.14415753,0.3013588,-0.23167647,-0.09241925,0.14327666
0.0,-0.1,0.8999999999999999,0.0,0.0,0,0.022812009,-1.0865755,-2.9931033,0.054410446,-0.54938585,1.4424558,-0.046012368,-0.119778246,1.0265499,0.1104677,0.38496664,-0.40518937,0.72551876,0.059712406
0.0,-0.1,0.8999999999999999,0.0,0.0,0,0.028035725,-1.0965911,-2.983324,0.044644475,-0.53769267,1.4638172,-0.0939387,-0.16014335,0.9065889,0.84805936,0.3333838,-0.14755708,-0.34106597,0.41890436
0.0,-0.1,0.8999999999999999,0.0,0.0,0,0.02682565,-1.1030037,-3.0120897,0.02950927,-0.5533346,1.4342172,-0.058816165,-0.16641337,0.84888613,0.19677351,0.9828201,0.1931243,-0.29265952,0.5658405
0.0,-0.1,0.8999999999999999,0.0,0.0,0,0.030948358,-1.0986001,-3.000457,0.036676645,-0.53012466,1.4588246,-0.19068752,-0.17385185,0.9241005,-0.3279955,0.5153461,-0.44590336,-0.36035237,0.6273104
0.0,-0.1,0.8999999999999999,0.0,0.0,0,0.024882723,-1.0503051,-2.9818988,0.112482734,-0.46953252,1.4725999,-0.2978956,-0.17308709,0.9114123,-0.03471874,0.57777333,-0.15399854,-0.17647019,0.14854325
0.0,-0.1,0.8999999999999999,0.0,0.0,0,0.019827323,-1.108104,-2.9734175,0.03515991,-0.52977544,1.435385,-0.07731933,-0.17895922,1.0454948,-0.16102062,-0.20443204,-0.52638,0.052195564,1.0368431
0.0,-0.1,0.8999999999999999,0.0,0.0,0,0.02802615,-1.0988814,-2.9926677,0.03814902,-0.560324,1.4575039,-0.12048621,-0.1708487,0.8637419,-0.2283711,0.6207516,-0.515135,0.35719785,0.1605683
0.0,-0.1,0.8999999999999999,0.0,0.0,0,0.03723941,-1.0964314,-2.9844491,0.045614056,-0.50947326,1.4539475,-0.08893102,-0.18544273,0.9827403,-0.24322195,0.51409453,0.13156143,-0.3623372,0.36988547
0.0,-0.1,0.8999999999999999,0.0,0.0,0,0.020029467,-1.0579944,-2.9922833,0.07426202,-0.50517577,1.4265437,-0.26900685,-0.17338565,0.95814264,0.586963,0.1079121,-0.015002004,-0.34273222,0.17860503
0.0,-0.1,0.8999999999999999,0.0,0.0,0,0.031477693,-1.0649544,-2.9922793,0.11579973,-0.53624016,1.424946,-0.049306042,-0.15203187,1.0478233,-0.824164,0.39399317,-0.28852427,-0.59606695,0.13598375
0.0,-0.1,0.8999999999999999,0.0,0.0,0,0.016283114,-1.0749011,-2.9674337,0.116282985,-0.5142338,1.474788,-0.13205644,-0.18178767,0.7429019,-0.25075978,0.0423099,-0.5595334,-0.45726448,-0.007294594
0.0,-0.1,0.8999999999999999,0.0,0.0,0,0.025330048,-1.0771829,-3.0204344,0.12374255,-0.49785498,1.4559197,-0.19595928,-0.1586236,0.94354427,0.615576,-0.10709206,-0.109950066,-0.70327157,0.6638537
0.0,-0.1,0.8999999999999999,0.0,0.0,0,0.019233685,-1.0865517,-2.9786158,0.109400645,-0.53294003,1.4903116,-0.08344338,-0.18004277,0.78457963,-0.31192476,0.45126668,-0.031822987,-0.6828379,0.7552826
0.0,-0.1,0.8999999999999999,0.0,0.0,0,0.014658746,-1.0933582,-3.011405,0.11923229,-0.5730544,1.4578053,-0.090792894,-0.1942722,1.0511333,-0.74205357,0.11992964,-0.25155395,0.5420149,0.6069326
0.0,-0.1,0.8999999999999999,0.0,0.0,0,0.035417527,-1.0515001,-2.9909353,0.10626136,-0.48016495,1.4668142,-0.13880175,-0.19534683,0.95960134,1.0192466,-0.07669981,-0.22871406,-0.14890078,0.049576666
0.0,-0.1,0.8999999999999999,0.0,0.0,0,0.0028550397,-1.0853591,-2.9880824,0.102024674,-0.551766,1.4824605,0.05938964,-0.18393418,1.0103377,-0.3916113,-0.11946208,0.108078614,0.2564272,0.830079
0.0,-0.1,0.8999999999999999,0.0,0.0,0,0.012943835,-1.0631783,-2.9875991,0.106515504,-0.4891665,1.4447447,-0.009341152,-0.17394674,0.9472835,0.25278077,0.30941585,0.10110605,0.18068087,0.17426105
0.0,-0.1,0.8999999999999999,0.0,0.0,0,0.033133496,-1.0915947,-2.9884384,0.112315774,-0.51478595,1.4870244,-0.099914044,-0.15626422,0.66800606,0.07481752,-0.071975216,-0.43091395,-0.10373583,0.21270359
0.0,-0.1,0.8999999999999999,0.0,0.0,0,0.02313179,-1.0541869,-3.0014255,0.18411772,-0.5342546,1.4534762,-0.047198147,-0.17534415,1.1411164,0.87715644,0.2484721,-0.054789763,-0.60994256,0.6131364
0.0,-0.1,0.8999999999999999,0.0,0.0,0,0.03057584,-1.0625241,-3.0007515,0.095532976,-0.53117824,1.4621096,-0.18607944,-0.14002095,1.1068716,-0.81866926,-0.0132826045,-0.1997575,-0.6293709,0.23729062
0.0,-0.1,0.8999999999999999,0.0,0.0,0,0.027647957,-1.040274,-2.9806066,0.1274121,-0.5232166,1.4538364,0.07981195,-0.165604,0.964633,0.013376046,-0.20181514,-0.010109889,-0.14557767,0.81319904
0.0,-0.1,0.8999999999999999,0.0,0.0,0,0.0122444965,-1.0498096,-2.9961734,0.12525068,-0.5480233,1.459499,-0.23502538,-0.17993174,0.9238664,-1.0834929,0.32559678,0.22819017,-0.14025149,0.82413304
0.0,-0.1,0.8999999999999999,0.0,0.0,0,0.027536927,-1.091339,-2.998936,0.09331378,-0.518339,1.4414464,-0.033592813,-0.16288055,0.95250237,-0.3982518,-0.17646141,0.31782258,-0.2531694,0.57556367
0.0,-0.1,0.8999999999999999,0.0,0.0,0,0.033619594,-1.067305,-2.9946957,0.17912279,-0.5016495,1.4577862,-0.06812662,-0.19911768,1.0251784,0.06391594,0.20277338,0.18511745,-0.11099998,0.21425492
0.0,-0.1,0.8999999999999999,0.0,0.0,0,0.018321851,-1.07318,-2.9928396,0.1314057,-0.5419563,1.4439831,-0.1022147,-0.19575378,0.83245414,-0.6173374,0.5466896,-0.12822182,0.38561833,0.57479525
0.0,-0.1,0.8999999999999999,0.0,0.0,0,0.01950226,-1.054655,-2.9913466,0.109689355,-0.47792417,1.4550503,-0.26386228,-0.14972495,1.1847068,1.6960241,0.069458134,-0.43756312,-1.3085887,-0.28868642
0.0,-0.1,0.8999999999999999,0.0,0.0,0,0.032228075,-1.007264,-3.0090227,0.16907339,-0.5142806,1.4394978,-0.19897437,-0.15448381,0.75963306,0.8923057,0.4504749,-0.4546192,-0.07001441,0.49881262
0.0,-0.1,0.8999999999999999,0.0,0.0,0,0.02703577,-1.0681503,-2.9705534,0.10055444,-0.4961635,1.4609331,-0.031644527,-0.18670487,0.6679827,-0.61708325,0.3841593,-0.06484706,-0.038635053,1.0701844
0.0,-0.1,0.8999999999999999,0.0,0.0,0,0.0029175843,-1.06592,-3.0073242,0.11405978,-0.46746182,1.4443957,-0.18804027,-0.11797606,0.8057345,0.085475184,0.01266881,-0.24459244,-0.21777382,0.19321883
0.0,-0.1,0.8999999999999999,0.0,0.0,0,0.02257164,-1.0214986,-2.999569,0.15158047,-0.5507004,1.4501852,-0.098728985,-0.14473449,0.9098886,-1.3242364,0.33737054,-0.14806153,-0.7853869,0.47780377
0.0,-0.1,0.8999999999999999,0.0,0.0,0,0.032649178,-0.9885193,-2.969075,0.16148825,-0.50911415,1.4641179,0.10916069,-0.2013664,1.1368736,0.006213175,0.28761005,0.21081965,-0.12232715,0.76199293
0.0,-0.1,0.8999999999999999,0.0,0.0,0,0.010037103,-1.0061058,-3.0053897,0.13983679,-0.54747856,1.4582862,-0.04689728,-0.16851558,0.96677095,0.16332693,0.3773495,-0.27680743,-0.61461157,0.078041665
0.0,-0.1,0.8999999999999999,0.0,0.0,0,0.029588897,-1.0237532,-3.0164444,0.13957348,-0.50257707,1.4468497,-0.14864895,-0.20275702,0.8975826,1.0135937,0.6171835,-0.00038580655,-1.0372014,0.5702636
0.0,-0.1,0.8999999999999999,0.0,0.0,0,0.022906668,-1.0469854,-2.9516416,0.24645148,-0.46739724,1.4577299,-0.16279666,-0.18468088,1.2520226,-0.604654,-0.16085371,-0.43511593,-0.9816242,0.44659677
0.0,-0.1,0.8999999999999999,0.0,0.0,0,0.019117627,-1.0691459,-2.9802063,0.1071774,-0.4693856,1.433703,-0.12268503,-0.12739673,1.1320872,0.38527668,-0.0928327,-0.3714978,0.078960545,0.7184896
0.0,-0.1,0.8999999999999999,0.0,0.0,0,0.015537786,-1.0052509,-2.9935057,0.14593254,-0.5117868,1.4571577,-0.03575067,-0.13884217,0.93748295,-0.030650126,-0.17094374,0.17960593,-0.39380762,0.3219843
0.0,-0.1,0.8999999999999999,0.0,0.0,0,0.019327292,-0.9767626,-3.0049722,0.14984925,-0.5279061,1.4503258,-0.20857006,-0.11833042,1.1317848,-0.72813964,0.132719,-0.060069725,-1.3709066,0.8976003
0.0,-0.1,0.8999999999999999,0.0,0.0,0,0.023777599,-1.0865005,-2.9878848,0.13201255,-0.535734,1.4516317,-0.10458384,-0.18029177,0.9329278,-0.71260315,0.40740874,-0.1421594,0.041025884,0.631639
0.0,-0.1,0.8999999999999999,0.0,0.0,0,0.027158346,-1.0911304,-2.973144,0.11022627,-0.5125384,1.436917,-0.0586456,-0.14525113,0.72977555,-0.41418663,0.5309469,-0.52035964,0.18157692,-0.42079705
0.0,-0.1,0.8999999999999999,0.0,0.0,0,0.026704624,-1.020707,-2.978119,0.16013683,-0.5015816,1.4718114,-0.040462248,-0.17684418,0.73971653,-0.107530214,0.64955854,0.03788433,-0.8504214,0.5433026
0.0,-0.1,0.8999999999999999,0.0,0.0,0,0.029315677,-1.0412515,-3.0409384,0.10759478,-0.46068567,1.4418328,-0.062458705,-0.14706202,0.9538023,-0.09376852,0.1439483,0.0871658,-0.18461472,1.2295818
0.0,-0.1,0.8999999999999999,0.0,0.0,0,0.012273736,-0.98156804,-2.9921744,0.13756168,-0.5629504,1.4454774,-0.21038991,-0.1710746,0.95924693,0.5603499,0.80328465,-0.27238584,0.33932078,0.5255531
0.0,-0.1,0.8999999999999999,0.0,0.0,0,0.03218973,-1.0698198,-2.9925587,0.09572499,-0.5265419,1.458681,0.021405619,-0.16005692,1.028049,1.1419388,0.64714855,0.16017322,-0.33509925,0.49304503
0.0,-0.1,0.8999999999999999,0.0,0.0,0,0.028443929,-1.0597942,-2.9846904,0.08832026,-0.5256571,1.4307733,-0.0013616802,-0.1525805,0.77328587,0.86949414,0.09652892,8.49859e-05,-0.65427387,0.56625545
0.0,-0.1,0.8999999999999999,0.0,0.0,0,0.018545324,-1.0232857,-2.99232,0.14822245,-0.51515275,1.4390639,-0.1353757,-0.15761277,0.89826447,0.47208062,-0.0038727878,-0.605666,0.507144,1.0557816
0.0,-0.1,0.8999999999999999,0.0,0.0,0,0.016058605,-1.0163476,-2.991534,0.1122449,-0.51903296,1.4572109,-0.043558564,-0.16093476,0.9559562,-0.80947125,0.21987417,-0.49185115,-1.2117205,0.4836438
0.0,-0.1,0.8999999999999999,0.0,0.0,0,0.03308815,-1.1084174,-2.9845731,0.07532616,-0.5439344,1.463782,-0.17487761,-0.13969325,1.0987942,1.1373405,0.37468597,-0.5551455,-0.77270085,0.34014124
0.0,-0.1,0.8999999999999999,0.0,0.0,0,0.034553476,-1.057862,-2.9833198,0.1315152,-0.5776925,1.4503942,0.0030292876,-0.16228679,0.83344895,-0.09254165,0.4694347,-0.41159722,-0.08375123,0.4311784
0.0,-0.1,0.8999999999999999,0.0,0.0,0,0.02929605,-1.0565579,-2.991118,0.11443156,-0.54352254,1.469055,-0.093967624,-0.15480311,1.0801219,-0.75685585,0.19089827,-0.10370397,0.10936655,1.0014907
0.0,-0.1,0.8999999999999999,0.0,0.0,0,0.015905393,-1.08693,-2.975595,0.11135077,-0.5337785,1.4699708,0.01806635,-0.15718265,0.9259797,1.4154279,0.2739021,0.2114207,-0.49000424,0.49420714
0.0,-0.1,0.8999999999999999,0.0,0.0,0,0.022010796,-1.055435,-3.0053968,0.12207608,-0.526992,1.4693425,-0.025300344,-0.18150616,0.88959557,0.9814283,0.6318617,0.14259805,-0.21103655,0.6803157
0.0,-0.1,0.8999999999999999,0.0,0.0,0,0.025490494,-1.0466716,-2.9867837,0.114060044,-0.5667009,1.4515268,-0.14430895,-0.20205368,1.008717,-0.5740224,0.038634725,-0.10634497,0.10560073,0.6192978
0.0,-0.1,0.8999999999999999,0.0,0.0,0,0.021322215,-1.0611819,-2.9903717,0.11373989,-0.5323923,1.4760629,-0.122038275,-0.17724721,0.86699814,0.25464925,-0.07794921,-0.26275855,-1.0122311,0.32858762
0.0,-0.1,0.8999999999999999,0.0,0.0,0,0.022159824,-1.0359584,-3.0035717,0.11351684,-0.5400675,1.4414974,-0.027797177,-0.15670598,0.8651551,0.65085375,0.18765183,0.09688848,-1.2576634,0.17232333
0.0,-0.1,0.8999999999999999,0.0,0.0,0,0.039832037,-1.0935671,-2.9899282,0.12562226,-0.4958462,1.4550477,-0.27421254,-0.16350731,0.8379447,0.85443664,-0.026523467,-0.33408976,-0.5928754,0.8479417
0.0,-0.1,0.8999999999999999,0.0,0.0,0,0.024323007,-1.0861742,-2.9679863,0.13046665,-0.5381056,1.4523818,-0.24685363,-0.14440681,0.7266049,-0.14972164,0.24748692,-0.27305546,-1.1869432,-0.13791326
0.0,-0.1,0.8999999999999999,0.0,0.0,0,0.02272993,-1.0456245,-3.0032508,0.12715541,-0.5280659,1.4629931,-0.09112432,-0.15557404,1.1721027,-0.33712086,0.051627718,0.248884,-0.5999326,0.24573241
0.0,-0.1,0.8999999999999999,0.0,0.0,0,0.04354565,-1.0598266,-2.9371636,0.15134716,-0.5091882,1.423083,-0.1518475,-0.1643865,0.843091,-0.31275347,0.12206361,-0.2903787,-0.47174376,0.76481384
0.0,-0.1,0.8999999999999999,0.0,0.0,0,0.012543512,-1.0376996,-2.9978774,0.14044769,-0.50706816,1.4688733,-0.04597777,-0.17824559,0.93944854,0.86784214,0.05834933,-0.2558957,-0.64284176,0.12960398
0.0,-0.1,0.8999999999999999,0.0,0.0,0,0.024664616,-1.0349212,-2.975964,0.10610565,-0.53921103,1.4322575,-0.075002074,-0.14206171,0.92507213,1.3628938,0.31478196,-0.14845416,-0.17343731,0.6932017
0.0,-0.1,0.8999999999999999,0.0,0.0,0,0.025997631,-1.0944192,-2.9769313,0.06608725,-0.54561484,1.457536,-0.083881475,-0.19801088,1.0670643,-0.42352995,0.47764155,0.26978195,-0.23311658,0.63378024
0.0,-0.1,0.8999999999999999,0.0,0.0,0,0.022452317,-1.0785286,-2.989885,0.061460935,-0.53210634,1.4607791,-0.12090994,-0.15243839,0.985768,-0.23900522,0.7347314,-0.25368217,-0.015137304,0.85588115
0.0,-0.1,0.8999999999999999,0.0,0.0,0,0.015097126,-1.0794692,-2.973003,0.08632168,-0.52617073,1.4601915,-0.019061169,-0.19908221,0.8564778,2.1350095,-0.007961864,-0.1707177,-0.22151981,0.71055794
0.0,-0.1,0.8999999999999999,0.0,0.0,0,0.017192965,-1.0666059,-2.9830463,0.078640774,-0.48471242,1.4693323,-0.12891133,-0.16031902,0.7048513,0.31459668,0.10384206,-0.37034965,-0.25948244,0.56295276
0.0,-0.1,0.8999999999999999,0.0,0.0,0,0.009778442,-1.0595318,-2.99429,0.08227198,-0.48202896,1.4701284,-0.17226641,-0.17065687,0.9197377,1.3908048,0.42718565,-0.09829621,-0.360647,0.228933
0.0,-0.1,0.8999999999999999,0.0,0.0,0,0.024905827,-1.0413349,-2.9982593,0.112731054,-0.5446453,1.4533404,-0.09440664,-0.16251454,0.85926557,1.3882697,0.54908955,-0.27214125,-0.84971327,0.024162702
0.0,-0.1,0.8999999999999999,0.0,0.0,0,0.020788789,-1.0553311,-3.0043757,0.06301924,-0.5243205,1.4738654,-0.01604117,-0.14738901,0.9578476,0.13390699,0.73056704,-0.30569044,-0.73823416,0.50565165
0.0,-0.1,0.8999999999999999,0.0,0.0,0,0.018920014,-1.0794394,-3.0022209,0.091756806,-0.5099995,1.4819928,-0.11053959,-0.16269714,0.7092273,0.5104449,-0.3650189,-0.11643414,-0.7991009,0.58094114
0.0,-0.1,0.8999999999999999,0.0,0.0,0,0.02393908,-1.0574031,-2.9708571,0.08104619,-0.5349121,1.4533869,-0.24031009,-0.1745333,0.9990118,0.3607442,0.7375738,-0.46811315,-0.7746862,0.6844709
0.0,-0.1,0.8999999999999999,0.0,0.0,0,0.030170333,-1.0887475,-2.99258,0.027498705,-0.48999292,1.4441378,-0.17456649,-0.16677931,1.1502962,-0.23916289,0.38950643,0.047237337,-0.054926056,0.22609887
0.0,-0.1,0.8999999999999999,0.0,0.0,0,0.036481332,-1.0524449,-3.0152173,0.10192707,-0.52393204,1.4475939,-0.05861775,-0.18233351,0.81749713,-0.025178079,0.13585915,-0.088395,0.11106683,0.17694359
0.0,-0.1,0.8999999999999999,0.0,0.0,0,0.035905167,-1.086249,-3.0015996,0.07685335,-0.4825085,1.4688733,-0.17747368,-0.15169422,0.838012,-0.39594588,0.2516683,0.019155229,-0.84994245,0.46862534
0.0,-0.1,0.8999999999999999,0.0,0.0,0,0.013317599,-1.0361446,-3.0406282,0.0688832,-0.51267415,1.4478605,-0.058070794,-0.17576015,1.0145857,-0.08132635,-0.06367278,0.11588166,-0.32630867,0.8863704
0.0,-0.1,0.8999999999999999,0.0,0.0,0,0.02634374,-1.0868171,-2.9767935,0.084498756,-0.5065708,1.4575115,-0.14848863,-0.18506908,0.9996939,0.7980027,-0.51137215,-0.48195454,-0.07757828,0.2672541
0.0,-0.1,0.8999999999999999,0.0,0.0,0,0.012240389,-1.0619048,-3.0048158,0.07330728,-0.52764934,1.4686407,0.042298898,-0.16351661,1.0298728,0.9048928,-0.16532677,-0.4627271,-0.26373452,0.44278076
0.0,-0.1,0.8999999999999999,0.0,0.0,0,0.04158811,-1.0481732,-3.0072486,0.0920538,-0.4865094,1.4400661,0.03742619,-0.16833301,0.87319267,1.0101533,0.33509204,-0.39719188,-0.705919,0.07749961
0.0,-0.1,0.8999999999999999,0.0,0.0,0,0.01712961,-1.0626628,-2.973678,0.09718932,-0.475638,1.4660873,-0.10108238,-0.15202643,0.80374074,0.19866607,-0.018257532,0.24764352,-0.2577375,0.45132723
0.0,-0.1,0.8999999999999999,0.0,0.0,0,0.007857804,-1.0798378,-2.9669945,0.08647583,-0.49208614,1.4576939,-0.09848994,-0.18199599,0.8438527,1.0182896,0.5499663,-0.092848934,-0.4509409,0.65093565
0.0,-0.1,0.8999999999999999,0.0,0.0,0,0.012875553,-1.0669727,-2.9664888,0.085625514,-0.5407283,1.4512933,-0.12986174,-0.14410292,0.79903466,0.6121228,-0.058377326,-0.21933292,-0.16963598,0.22279063
0.0,-0.1,0.8999999999999999,0.0,0.0,0,0.03146795,-1.0750109,-3.0044086,0.04865876,-0.53223693,1.4672828,-0.18856688,-0.14981084,0.8211373,1.2091658,0.0700195,-0.22003679,-0.34548238,0.26133996
0.0,-0.1,0.8999999999999999,0.0,0.0,0,0.040703263,-1.0559895,-3.009465,0.059320778,-0.5301928,1.4540297,-0.16546717,-0.17944321,0.91858023,0.28685892,0.27176577,0.24472271,0.020035584,0.51369137
0.0,-0.1,0.8999999999999999,0.0,0.0,0,0.00012172306,-1.0625086,-2.9626925,0.09233442,-0.51740557,1.447654,0.06601774,-0.15198058,0.7207235,-0.045107454,0.6240375,-0.34922153,-0.5216004,1.0635183
0.0,-0.1,0.8999999999999999,0.0,0.0,0,0.043916166,-1.1077464,-3.0046008,0.050160054,-0.5252442,1.4487884,0.03704481,-0.15718257,0.9792554,-0.21281777,-0.0021086058,0.36712214,-0.46724528,0.8905979
0.0,-0.1,0.8999999999999999,0.0,0.0,0,0.0063994094,-1.097987,-2.9807212,0.0684847,-0.533068,1.4795849,0.006730704,-0.19408642,0.99563134,0.4779519,0.036557,-0.61847484,-0.693846,0.6569078
0.0,-0.1,0.8999999999999999,0.0,0.0,0,0.019846197,-1.0526774,-2.9965737,0.10581542,-0.51334333,1.4530914,-0.2070958,-0.16888832,0.94453126,0.8450135,-0.15734929,0.18208429,-0.811025,0.6097712
0.0,-0.1,0.8999999999999999,0.0,0.0,0,0.022593586,-1.0696497,-2.9867222,0.08981981,-0.4878242,1.4507368,-0.11034442,-0.17481358,0.98358434,0.5610076,0.21501169,0.039978284,-0.2366279,0.16634102
0.0,-0.1,0.8999999999999999,0.0,0.0,0,0.029665628,-1.0700433,-2.9854343,0.06925635,-0.53277165,1.4576408,-0.18569359,-0.1740086,0.91927755,-0.35026,0.3114569,-0.017912533,-1.1079578,-0.104342125
0.0,-0.1,0.8999999999999999,0.0,0.0,0,0.030824171,-1.0794816,-2.9897327,0.09398884,-0.57482153,1.4548252,-0.0264255,-0.18544953,1.0025321,0.2940968,0.890938,-0.62256527,-0.27593344,0.7454781
0.0,-0.1,0.8999999999999999,0.0,0.0,0,0.035446856,-1.0935656,-2.9577358,0.07063043,-0.5385032,1.4713382,-0.010121731,-0.16934875,1.1034042,-0.43200174,0.20469677,0.02236793,-0.5479522,0.342031
0.0,-0.1,0.8999999999999999,0.0,0.0,0,0.016225582,-1.1168973,-2.9957724,0.06729625,-0.476571,1.4638907,-0.08870122,-0.17269178,0.83792984,1.2722948,-0.035049874,-0.68879426,-0.6186731,0.49409756
0.0,-0.1,0.8999999999999999,0.0,0.0,0,0.02367489,-1.0608687,-2.9558098,0.10669076,-0.56261015,1.4414065,-0.0672898,-0.18265948,0.7975336,0.068581894,-0.46059957,-0.12421958,-0.9181759,0.1933785
0.0,-0.1,0.8999999999999999,0.0,0.0,0,0.021887485,-1.0770706,-3.0090365,0.1475513,-0.5443711,1.4317935,-0.23493975,-0.15683524,0.9076549,0.6518246,0.26570174,-0.22117773,-0.9966883,0.6029052
0.0,-0.1,0.8999999999999999,0.0,0.0,0,0.044363532,-1.0883027,-3.0023286,0.06301095,-0.5088703,1.4628415,-0.018036345,-0.16801882,1.1722486,0.12067811,0.35021892,-0.26694486,-0.1271692,0.5476358
0.0,-0.1,0.8999999999999999,0.0,0.0,0,0.030326797,-1.057143,-2.9930158,0.09295247,-0.5140245,1.4494923,-0.19978257,-0.16198654,0.827724,0.63706934,0.015223157,-0.027763804,-0.56069255,1.2904838
0.0,-0.1,0.8999999999999999,0.0,0.0,0,0.04021132,-1.1065131,-2.982478,0.075716004,-0.53634906,1.4372643,-0.0255312,-0.15023133,0.9695739,-0.44529587,0.6540711,-0.324186,-0.3960026,0.5824597
0.0,-0.1,0.8999999999999999,0.0,0.0,0,0.041419394,-1.0810957,-3.0042436,0.07969333,-0.51261854,1.4432366,-0.23706795,-0.1485628,1.0510505,0.1422989,0.18934113,-0.035087053,-0.6426398,0.6453403
0.0,-0.1,0.8999999999999999,0.0,0.0,0,0.036280073,-1.0578713,-2.9927056,0.06888729,-0.53348196,1.4424489,-0.1804236,-0.12377584,0.947529,0.796308,0.23583344,-0.2345089,-1.2034545,1.0898447
0.0,-0.1,0.8999999999999999,0.0,0.0,0,0.012695678,-1.090307,-2.9909694,0.048783775,-0.5227746,1.4404278,-0.20746762,-0.1545302,0.9050041,-0.01888267,0.685941,-0.08345199,-0.2704276,0.51109207
0.0,-0.1,0.8999999999999999,0.0,0.0,0,0.019459797,-1.1017808,-2.9679563,0.04388012,-0.5446401,1.4443156,-0.19147062,-0.14519992,1.0175246,0.281155,0.24695826,-0.0013547009,-0.25832126,0.34291413
0.0,-0.1,0.8999999999999999,0.0,0.0,0,0.017116139,-1.0949807,-2.9752965,0.031222967,-0.539039,1.4889232,-0.090540595,-0.16973093,0.90644443,-0.39838746,0.42633122,-0.16512464,-0.39671767,0.28378144
0.0,-0.1,0.8999999999999999,0.0,0.0,0,0.007463615,-1.0651444,-2.991165,0.039235502,-0.48363817,1.4441731,-0.14093417,-0.16544975,0.7998732,-0.25835255,0.13725094,-0.2992781,-0.94510925,0.73185575
0.0,-0.1,0.8999999999999999,0.0,0.0,0,0.015050898,-1.0349218,-2.9891124,0.15084194,-0.5064593,1.4770285,-0.14481758,-0.18502767,0.7097466,0.2626695,0.30059868,0.1433127,-0.3982136,0.5283241
0.0,-0.1,0.8999999999999999,0.0,0.0,0,0.029312,-1.0522709,-3.0062046,0.07105271,-0.52378213,1.4482216,0.006174314,-0.16275385,1.0230981,0.40225923,0.23922327,-0.14785755,-0.02949735,0.374581
0.0,-0.1,0.8999999999999999,0.0,0.0,0,0.035230104,-1.1211505,-3.0026736,0.03901529,-0.52902,1.4644743,-0.03250921,-0.17915851,0.8765429,0.7002446,0.4069293,-0.15717146,-1.2628987,0.29692084
0.0,-0.1,0.8999999999999999,0.0,0.0,0,0.013809554,-1.0744429,-2.982041,0.05408479,-0.5249891,1.4669302,-0.1450556,-0.17378263,0.968902,-0.43343103,0.21205394,0.17419025,-0.80726284,0.7493706
0.0,-0.1,0.8999999999999999,0.0,0.0,0,0.01954266,-1.0388305,-3.021555,0.1686631,-0.49631083,1.4966346,-0.18121159,-0.16082072,0.97238314,-1.3140101,0.06504798,-0.14111876,-0.43142027,0.054094348
0.0,-0.1,0.8999999999999999,0.0,0.0,0,0.015778502,-1.0692996,-3.0107954,0.16032913,-0.5335285,1.4573479,-0.16114967,-0.1693089,0.6788426,0.31729132,0.12971728,-0.55822706,-0.72189045,0.37465632
0.0,-0.1,0.8999999999999999,0.0,0.0,0,0.01963524,-1.0685656,-2.9763494,0.091951266,-0.5028542,1.4384102,-0.23296382,-0.17578794,0.73410976,0.3031295,0.13468327,-0.19174497,-0.13003032,0.50053144
0.0,-0.1,0.8999999999999999,0.0,0.0,0,0.02966879,-1.0679146,-2.9876285,0.09605544,-0.5141545,1.4828509,-0.19517952,-0.15356635,1.0542969,0.076787725,0.17661503,-0.061370123,0.53056186,0.42002487
0.0,-0.1,0.8999999999999999,0.0,0.0,0,0.031146802,-1.0556947,-2.9955833,0.09891777,-0.56917477,1.4414526,-0.15307623,-0.16842332,0.8888548,-0.100331716,0.35550842,-0.3832894,-1.1286552,0.15578401
0.0,-0.1,0.8999999999999999,0.0,0.0,0,0.02313211,-1.111964,-3.000918,0.06961153,-0.49410453,1.4632103,-0.2036641,-0.18882918,1.0491813,0.6006072,0.033210263,-0.119822234,-0.47419485,0.4301348
0.0,-0.1,0.8999999999999999,0.0,0.0,0,0.01898781,-1.0580746,-2.98183,0.06626584,-0.517156,1.4351159,-0.1727388,-0.17936602,0.918352,1.3022059,0.22803585,-0.69868094,-0.10207898,-0.051974043
0.0,-0.1,0.8999999999999999,0.0,0.0,0,0.029472312,-1.0577617,-3.021033,0.08622491,-0.50119585,1.427184,-0.04466542,-0.152556,0.87407094,-0.09503363,0.20851776,0.1721488,0.23735353,0.49884433
0.0,-0.1,0.8999999999999999,0.0,0.0,0,0.019614173,-1.0512391,-2.962468,0.11043681,-0.49607027,1.4365485,-0.12182743,-0.16725136,1.1329712,0.669315,0.73033893,-0.07354287,-0.717082,0.733646
0.0,-0.1,0.8999999999999999,0.0,0.0,0,0.0252685,-1.1103088,-3.0138643,-0.019111728,-0.51267177,1.4445596,-0.26731881,-0.15767534,0.84320277,0.3697268,-0.013069643,-0.021674257,-0.59228134,0.47088614
0.0,-0.1,0.8999999999999999,0.0,0.0,0,0.015355067,-1.0930834,-3.0080726,0.044022307,-0.52299356,1.4701053,-0.07452359,-0.20393538,0.91646725,0.31747127,-0.07695051,-0.15646133,-1.1639457,0.70852554
0.0,-0.1,0.8999999999999999,0.0,0.0,0,-0.0004664088,-1.0697241,-2.9705613,0.0607654,-0.4862441,1.4807097,-0.06118519,-0.19396666,0.89312714,0.09155602,0.29216164,0.09959719,-1.0086434,-0.21576758
0.0,-0.1,0.8999999999999999,0.0,0.0,0,0.030879976,-1.061174,-2.9915779,0.08437622,-0.53704435,1.4376831,-0.18862936,-0.18083866,1.044495,1.0934037,0.4859205,-0.12801412,-0.81017214,0.92888683
0.0,-0.1,0.8999999999999999,0.0,0.0,0,0.018329406,-1.0839307,-2.957603,0.10924218,-0.554249,1.4343581,-0.16847506,-0.1507102,0.8833888,-0.41340017,0.27058655,0.0039190827,0.40111136,0.5889838
0.0,-0.1,0.8999999999999999,0.0,0.0,0,0.014637279,-1.0864133,-2.9935403,0.049145367,-0.5393826,1.4362355,-0.07510576,-0.18050654,0.6574638,0.47127694,0.21696794,0.035008304,-0.6973431,0.084987655
0.0,-0.1,0.8999999999999999,0.0,0.0,0,0.016371341,-1.0785451,-2.9984024,0.06363303,-0.54568857,1.4368167,-0.19921632,-0.18434785,0.8477166,0.6403363,0.37628022,-0.10603488,-1.4864609,0.3251627
0.0,-0.1,0.8999999999999999,0.0,0.0,0,0.023058109,-1.0860769,-2.977219,0.0802012,-0.500462,1.4483684,-0.21068999,-0.2131923,1.0801829,0.41731766,0.04101046,0.04877441,-0.9559362,0.1625032
0.0,-0.1,0.8999999999999999,0.0,0.0,0,0.02697464,-1.0754551,-2.991227,0.1400662,-0.5092208,1.4413941,0.027073232,-0.15764827,0.68002135,0.17120369,0.4244097,0.17137918,0.0010644097,0.56501085
0.0,-0.1,0.8999999999999999,0.0,0.0,0,0.013536313,-1.0728601,-2.9894388,0.10393004,-0.50505865,1.4548129,-0.19348583,-0.16853268,0.8975208,0.67882866,0.25798613,0.1805284,-0.42762592,0.96007943
0.0,-0.1,0.8999999999999999,0.0,0.0,0,0.033932436,-1.0709492,-2.9999092,0.070111655,-0.5219057,1.4621979,-0.07711618,-0.17564958,0.9710304,0.7744417,0.20736136,0.2185747,-1.0203525,0.5211961
0.0,-0.1,0.8999999999999999,0.0,0.0,0,0.02142793,-1.0769091,-2.9818177,0.042211328,-0.52418333,1.4748845,-0.06495855,-0.17299144,0.80256397,-0.2485769,0.103130355,-0.17152187,-0.82471335,0.709924
0.0,-0.1,0.8999999999999999,0.0,0.0,0,0.030855108,-1.0695254,-2.9733374,0.067592874,-0.52461386,1.4541471,-0.13159688,-0.17836915,0.8494553,0.6831624,0.25545576,0.10261968,-0.7560649,0.13159981
0.0,-0.1,0.8999999999999999,0.0,0.0,0,0.032924697,-1.0586672,-2.9900181,0.19721928,-0.5017588,1.458267,-0.15746525,-0.17416404,0.848609,-0.27905387,0.40536883,-0.3507871,-0.40676048,0.6261919
0.0,-0.1,0.8999999999999999,0.0,0.0,0,0.025220826,-1.1122565,-2.9671235,0.046206288,-0.53178215,1.4473974,0.033691168,-0.16491707,1.1014941,0.1484196,-0.060785957,-0.094185196,-0.12756133,0.46826556
0.0,-0.1,0.8999999999999999,0.0,0.0,0,0.031110242,-1.0706742,-3.0003147,0.06730153,-0.5427297,1.4889649,-0.08200285,-0.19902287,1.0459934,-0.4694489,-0.14270595,-0.59826446,-1.4387075,0.45101607
0.0,-0.1,0.8999999999999999,0.0,0.0,0,0.02373384,-1.0835072,-2.9756854,0.062503114,-0.52566075,1.4630951,-0.13027087,-0.14996077,0.8854022,-0.030386964,0.026485382,-0.71717477,0.75892085,0.7120721
0.0,-0.1,0.8999999999999999,0.0,0.0,0,0.021385917,-1.0606768,-3.0066915,0.08272538,-0.5402533,1.4216238,-0.1578662,-0.15628228,1.0347173,0.65714395,0.20595841,-0.06329005,-0.23625264,0.6398969
0.0,-0.1,0.8999999999999999,0.0,0.0,0,0.013596699,-1.0673121,-3.01811,0.036578644,-0.5486219,1.446819,-0.10169948,-0.1815054,1.042523,0.5055406,-0.11844426,-0.625546,-0.47331733,0.6664659
0.0,-0.1,0.8999999999999999,0.0,0.0,0,0.04129699,-1.0757831,-2.9872541,0.1356331,-0.5108294,1.4370234,-0.12801944,-0.16147663,1.0211642,0.85619444,-0.04820079,0.35129344,-1.2195278,0.65382135
0.0,-0.1,0.8999999999999999,0.0,0.0,0,0.024817502,-1.0804906,-3.0074325,0.20882925,-0.47806275,1.4365047,-0.10321827,-0.1763104,0.8807558,0.2805397,0.63019955,-0.37399948,-0.31890723,0.48928764
0.0,-0.1,0.8999999999999999,0.0,0.0,0,0.016090922,-1.0478191,-2.9768033,0.17301151,-0.52386016,1.4697318,-0.045234226,-0.16821475,0.748226,0.73862773,0.00010117987,-0.68570757,-0.6425852,0.1691751
0.0,-0.1,0.8999999999999999,0.0,0.0,0,0.030326774,-1.0768346,-2.97614,0.12059654,-0.5386162,1.466373,0.018006712,-0.17127435,0.74620223,0.38090348,-0.12983498,-0.1542266,-0.010341731,0.56600606
0.0,-0.1,0.8999999999999999,0.0,0.0,0,0.029814504,-1.0650672,-2.991602,0.07356681,-0.50050396,1.4345523,-0.20130527,-0.18314499,1.156912,-0.84818023,0.081477724,-0.28125563,-0.55548656,0.20402397
0.0,-0.1,0.8999999999999999,0.0,0.0,0,0.017188167,-1.0705445,-2.9768054,0.04718517,-0.4926266,1.4378624,-0.10677702,-0.18956715,0.94242525,-0.8946872,0.42539424,-0.108278394,0.29619718,0.8689807
0.0,-0.1,0.8999999999999999,0.0,0.0,0,0.025874637,-1.0826523,-2.953398,0.10835947,-0.5130231,1.4670967,-0.18874486,-0.19962958,1.0584325,-0.7206131,0.091372885,-0.35293937,-0.48238635,0.24120337
0.0,-0.1,0.8999999999999999,0.0,0.0,0,0.026785223,-1.0810344,-2.9651177,0.06509371,-0.58169377,1.4488052,-0.01881755,-0.15104808,0.49266464,-0.049926426,0.69855255,0.25033435,-0.043150082,0.5189133
0.0,-0.1,0.8999999999999999,0.0,0.0,0,0.03623983,-1.0933037,-2.993034,0.035843175,-0.5030374,1.4738222,-0.19037224,-0.18157144,0.930361,0.19059893,-0.049530733,-0.28316757,-0.47565156,0.5369912
0.0,-0.1,0.8999999999999999,0.0,0.0,0,0.017292146,-1.1018302,-3.001639,0.024994243,-0.5205902,1.470591,-0.09984024,-0.16665679,0.94112647,-0.13190137,0.0873781,-0.5976297,-0.8224972,1.039619
0.0,-0.1,0.8999999999999999,0.0,0.0,0,0.013548705,-1.0962254,-2.9956374,0.02619272,-0.6063481,1.4611096,-0.05542335,-0.16186206,0.8560087,-0.11336115,-0.0696212,-0.34422076,-0.16996545,0.018130576
0.0,-0.1,0.8999999999999999,0.0,0.0,0,0.01810339,-1.0643234,-2.9777224,0.13357997,-0.5103992,1.4317605,-0.15863082,-0.18104903,0.9781333,-0.36571592,0.15022714,0.020210017,0.014955441,0.45401683
0.0,-0.1,0.8999999999999999,0.0,0.0,0,0.033488423,-1.0795963,-2.9943664,0.1051516,-0.54179054,1.4726818,-0.064252615,-0.17486459,0.9440221,0.05981623,0.39152864,-0.06995816,-0.774956,0.6378781
0.0,-0.1,0.8999999999999999,0.0,0.0,0,0.038629387,-1.0779567,-2.996413,0.031125242,-0.5136486,1.471922,-0.23464535,-0.14880577,0.76755595,0.80842996,-0.1967188,0.06044968,0.072933905,0.4367666
0.0,-0.1,0.8999999999999999,0.0,0.0,0,0.037662234,-1.1038469,-2.982845,0.120860405,-0.5541038,1.4579734,-0.059407808,-0.18378034,0.8107434,0.2458599,0.1412755,0.45134118,0.10202021,1.3542328
0.0,-0.1,0.8999999999999999,0.0,0.0,0,0.020760018,-1.0795479,-2.9961443,0.05910343,-0.507742,1.4411588,-0.03080942,-0.12900743,0.83840543,1.1269042,-0.25132322,-0.31610653,-1.0080323,0.31552404
0.0,-0.1,0.8999999999999999,0.0,0.0,0,0.039892446,-1.1038971,-2.995447,0.016626673,-0.5258904,1.4524167,-0.062179815,-0.13704799,1.0561669,1.1308981,0.2581905,-0.27671164,0.19589345,0.29454032
0.0,-0.1,0.8999999999999999,0.0,0.0,0,0.007396702,-1.0565668,-2.9797132,0.09665427,-0.49382192,1.474643,-0.11579608,-0.16530272,0.96867245,0.33555096,-0.05376987,-0.026160933,-0.64603513,-0.0027779664
0.0,-0.1,0.8999999999999999,0.0,0.0,0,0.012295842,-1.1247422,-2.972467,-0.0070303846,-0.50646293,1.473843,-0.20124832,-0.17043924,0.6772451,0.46986362,0.31051502,-0.35284838,-1.0353272,0.67227346
0.0,-0.1,0.8999999999999999,0.0,0.0,0,0.033794526,-1.0555885,-2.9655626,0.16172095,-0.5130764,1.476377,-0.25316426,-0.17563596,0.9853392,0.7599046,0.20100652,-0.17315067,-0.6150427,0.7596817
0.0,-0.1,0.8999999999999999,0.0,0.0,0,0.024565626,-1.0956758,-2.9782689,0.15016434,-0.54614925,1.4627455,-0.22002898,-0.18750778,1.0721083,1.5546626,0.34096476,-0.28490147,-0.122102216,0.4127931
0.0,-0.1,0.8999999999999999,0.0,0.0,0,0.030836714,-1.0853367,-2.9638572,0.10950571,-0.49130404,1.4662186,-0.15074702,-0.1757623,0.87689775,0.64121586,0.42253,-0.44628727,0.19458066,-0.10816044
0.0,-0.1,0.8999999999999999,0.0,0.0,0,0.026085464,-1.0887748,-2.9899359,0.10589154,-0.54480463,1.451081,-0.16811018,-0.18085812,0.981405,0.31270298,0.50401574,0.10438275,-1.2584599,0.5533335
0.0,-0.1,0.8999999999999999,0.0,0.0,0,0.018246826,-1.1060034,-2.9701858,0.09823391,-0.4933436,1.4574324,-0.09453538,-0.17490995,0.5901208,0.47891712,0.45591652,-0.20081297,-0.68154204,0.16424581
0.0,-0.1,0.8999999999999999,0.0,0.0,0,0.025858985,-1.1040418,-2.9879212,0.1518028,-0.5545333,1.4401317,-0.058459453,-0.15632989,1.1606401,0.4670446,0.010967721,-0.8532415,-0.29400802,-0.12744509
0.0,-0.1,0.8999999999999999,0.0,0.0,0,0.024438513,-1.0584931,-2.971825,0.12095534,-0.5114587,1.4598023,-0.17702898,-0.15304874,1.1383488,1.0606313,0.37193102,-0.16631943,-0.28798515,0.03293586
0.0,-0.1,0.8999999999999999,0.0,0.0,0,0.02242919,-1.0915178,-2.971127,0.12385266,-0.46661016,1.4383954,-0.12851205,-0.17157514,0.97597283,0.55741084,0.5501736,-0.16778883,0.33688805,0.38323322
0.0,-0.1,0.8999999999999999,0.0,0.0,0,0.024797067,-1.060359,-2.9877908,0.18386455,-0.50383335,1.4132458,-0.1524963,-0.16081098,0.9084077,-0.5014086,0.25916052,-0.33950117,-0.5846077,0.58935016
0.0,-0.1,0.8999999999999999,0.0,0.0,0,0.03101981,-1.0832384,-2.996178,0.11792903,-0.5461012,1.4740641,-0.2006373,-0.14738683,0.8562777,0.14674786,0.11018305,-0.18694551,-0.78852755,0.26246896
0.0,-0.1,0.8999999999999999,0.0,0.0,0,0.036197234,-1.1041319,-2.9851592,0.12942322,-0.50182,1.4528164,-0.1540579,-0.18112914,0.89997816,0.15753835,0.30215052,-0.43205515,-0.34639382,0.09451086
0.0,-0.1,0.8999999999999999,0.0,0.0,0,0.031910457,-1.0765543,-3.003038,0.15256439,-0.5161966,1.4559267,-0.13147198,-0.18287829,1.03755,-0.27505898,0.6625777,-0.7439042,0.50006586,0.699596
0.0,-0.1,0.8999999999999999,0.0,0.0,0,0.020723032,-1.0904298,-2.9840083,0.10601929,-0.48820642,1.4577119,-0.2265026,-0.15705669,0.951869,-0.3198111,0.43602455,-0.15957469,-0.2996018,0.7261307
0.0,-0.1,0.8999999999999999,0.0,0.0,0,0.035168033,-1.0565223,-3.008948,0.15871207,-0.53635776,1.4879807,-0.08928925,-0.15896599,1.0414487,-0.3705477,0.45551085,0.05841137,-0.55867344,0.06679824
0.0,-0.1,0.8999999999999999,0.0,0.0,0,0.020477701,-1.1060477,-3.0056767,0.10143556,-0.5347915,1.4527874,-0.13941358,-0.18513083,1.025303,-0.1921227,-0.15868486,-0.28336722,-0.5881058,0.54504424
0.0,-0.1,0.8999999999999999,0.0,0.0,0,-0.00021992227,-1.082188,-2.9610476,0.12690501,-0.5373797,1.4494448,-0.13521032,-0.17491694,0.95506996,-0.12676816,-0.05245167,0.030682709,-0.08459397,0.8278728
0.0,-0.1,0.8999999999999999,0.0,0.0,0,0.009811635,-1.0691851,-3.0072591,0.13570781,-0.51355875,1.4128433,-0.12879905,-0.1796075,0.92684644,0.018928353,0.13927431,-0.13694376,-0.709584,0.74787515
0.0,-0.1,0.8999999999999999,0.0,0.0,0,0.0031091473,-1.075594,-3.01064,0.13267975,-0.522344,1.4531757,-0.06687416,-0.1619545,0.8814847,0.7777042,0.18715155,-0.07842646,1.0060855,0.15629424
0.0,-0.1,0.8999999999999999,0.0,0.0,0,0.012051832,-1.091471,-3.0056105,0.11459871,-0.5536251,1.4592043,-0.14432105,-0.14585982,0.7540895,0.61646736,-0.09182325,0.073263414,-1.48237,0.5784569
0.0,-0.1,0.8999999999999999,0.0,0.0,0,0.025210384,-1.0327728,-2.988148,0.13068035,-0.5536915,1.455543,-0.07521022,-0.15124372,1.0604403,0.12189259,0.37983105,-0.24808988,-0.6529153,0.66196007
0.0,-0.1,0.8999999999999999,0.0,0.0,0,0.015278626,-1.057444,-2.994195,0.08558514,-0.5181762,1.4769415,-0.16801824,-0.15027206,0.75613075,0.027820688,0.727318,-0.035744727,-1.2383947,0.40645787
0.0,-0.1,0.8999999999999999,0.0,0.0,0,0.026181802,-1.0938247,-2.9870574,0.0516554,-0.5318846,1.4537883,-0.14082462,-0.16129403,1.0129098,0.5368683,-0.028375272,-0.7933884,-1.5534849,0.7858163
