sanky1234/BimanualDexCatch/isaacgymenvs/cem_results/football_pose_0.1_0.0_1.0999999999999999_0.5235987755982988_0.5235987755982988_0_2025-05-26.csv
x,y,z,roll,pitch,yaw,robot1/joint1,robot1/joint2,robot1/joint3,robot1/joint4,robot1/joint5,robot1/joint6,robot1/joint7,robot2/joint1,robot2/joint2,robot2/joint3,robot2/joint4,robot2/joint5,robot2/joint6,robot2/joint7
0.1,0.0,1.0999999999999999,0.5235987755982988,0.5235987755982988,0,-1.4091576,0.71171314,-0.49371403,0.7451093,-0.19366178,0.7447976,-0.6229124,0.330987,1.3372381,0.06270186,-0.09301406,0.04515693,1.2336022,0.3463425
0.1,0.0,1.0999999999999999,0.5235987755982988,0.5235987755982988,0,-1.4087195,0.7116116,-0.49432957,0.7451956,-0.19431618,0.74541426,-0.616818,0.36149755,1.3073729,0.13567032,-0.024815869,0.05271657,1.263381,1.0604091
0.1,0.0,1.0999999999999999,0.5235987755982988,0.5235987755982988,0,-1.4092195,0.7113968,-0.4939826,0.7447383,-0.19454773,0.74570096,-0.6414989,0.4386288,1.3551155,0.1061519,-0.085603505,-0.00027878888,1.2325152,0.60374796
0.1,0.0,1.0999999999999999,0.5235987755982988,0.5235987755982988,0,-1.4093819,0.7115939,-0.49406227,0.7448303,-0.19369856,0.7461456,-0.58104044,0.5415463,1.2878758,-0.12362624,-0.06439047,0.063030645,1.2572795,0.9949917
0.1,0.0,1.0999999999999999,0.5235987755982988,0.5235987755982988,0,-1.4093982,0.7118225,-0.493831,0.7446634,-0.19434567,0.74619037,-0.67415,0.5590928,1.3228784,0.19913311,-0.05658139,-0.039015487,1.2318743,1.0774139
0.1,0.0,1.0999999999999999,0.5235987755982988,0.5235987755982988,0,-1.4089357,0.7114886,-0.49302614,0.74516016,-0.19460505,0.7469656,-0.52532846,0.1111212,1.3512137,-0.117881045,-0.09838883,0.16469857,1.25834,-0.8685002
0.1,0.0,1.0999999999999999,0.5235987755982988,0.5235987755982988,0,-1.4094536,0.711731,-0.4928569,0.7447406,-0.1940942,0.74497086,-0.64757496,0.38662672,1.307127,-0.20325756,-0.0661543,-0.1025977,1.2432775,1.0008714
0.1,0.0,1.0999999999999999,0.5235987755982988,0.5235987755982988,0,-1.4093789,0.7114361,-0.4931171,0.7446757,-0.19341451,0.74642664,-0.43016833,0.5077983,1.3091123,0.13276601,-0.07622767,-0.08658333,1.2383118,-0.5579881
0.1,0.0,1.0999999999999999,0.5235987755982988,0.5235987755982988,0,-1.409491,0.71158284,-0.49400273,0.74489397,-0.19424441,0.7449064,-0.6157384,0.3835453,1.2805363,-0.027243089,-0.0811608,-0.15017527,1.2344171,0.8575369
0.1,0.0,1.0999999999999999,0.5235987755982988,0.5235987755982988,0,-1.4094999,0.7116953,-0.4946099,0.74492925,-0.194496,0.7457841,-0.47317907,0.51017237,1.3123465,0.042714365,-0.109553754,0.06344685,1.2694016,1.3548931
0.1,0.0,1.0999999999999999,0.5235987755982988,0.5235987755982988,0,-1.409089,0.71139187,-0.49439427,0.74509466,-0.19502437,0.7460569,-0.54019076,0.3320632,1.2761278,-0.103630796,-0.12630011,0.096111596,1.25965,-0.9364987
0.1,0.0,1.0999999999999999,0.5235987755982988,0.5235987755982988,0,-1.4087975,0.7114939,-0.49387333,0.74502295,-0.19361712,0.7454024,-0.58968216,0.49804786,1.366462,-0.057070844,-0.09784118,0.011142726,1.2604618,1.5727621
0.1,0.0,1.0999999999999999,0.5235987755982988,0.5235987755982988,0,-1.4094553,0.71195406,-0.49327818,0.7454256,-0.19478184,0.7448246,-0.51191735,0.74005574,1.3308934,0.05963062,-0.07650717,-0.007202472,1.2538882,-1.0333287
0.1,0.0,1.0999999999999999,0.5235987755982988,0.5235987755982988,0,-1.409316,0.7117569,-0.49343446,0.7449411,-0.19451828,0.74684584,-0.8123107,0.34348255,1.326495,0.005005464,-0.07407871,-0.029885752,1.2475464,0.3644193
0.1,0.0,1.0999999999999999,0.5235987755982988,0.5235987755982988,0,-1.4089818,0.7119901,-0.49366328,0.7455293,-0.19361302,0.74650747,-0.53123516,0.5996738,1.3269334,0.072435714,-0.0383949,0.060488027,1.2409089,0.074404866
0.1,0.0,1.0999999999999999,0.5235987755982988,0.5235987755982988,0,-1.4091009,0.7114981,-0.49376202,0.74503374,-0.19459696,0.7463462,-0.72771657,0.48790905,1.2854657,0.225706,-0.10238188,-0.0060738414,1.2190197,0.94539905
0.1,0.0,1.0999999999999999,0.5235987755982988,0.5235987755982988,0,-1.4087415,0.711796,-0.4946055,0.7451925,-0.19484319,0.7458391,-0.6031591,0.544272,1.3410262,0.21667337,-0.064440705,-0.07486205,1.2311006,0.08233072
0.1,0.0,1.0999999999999999,0.5235987755982988,0.5235987755982988,0,-1.4088695,0.7115043,-0.49368295,0.74551773,-0.19387496,0.7458277,-0.7422199,0.3937773,1.3024845,0.25487995,-0.046672065,-0.07984253,1.2397393,0.7183154
0.1,0.0,1.0999999999999999,0.5235987755982988,0.5235987755982988,0,-1.4091207,0.71171474,-0.4935873,0.74471605,-0.19358285,0.74671966,-0.5669472,0.7360748,1.2439872,-0.077437855,-0.121967316,-0.053744316,1.2208787,-0.44986
0.1,0.0,1.0999999999999999,0.5235987755982988,0.5235987755982988,0,-1.4092828,0.71180266,-0.49400568,0.744926,-0.19441736,0.74565333,-0.66085017,0.32280782,1.3244827,0.004480751,-0.11297315,0.052773457,1.2945476,0.65043205
0.1,0.0,1.0999999999999999,0.5235987755982988,0.5235987755982988,0,-1.4090428,0.71178687,-0.49401745,0.7444946,-0.19469085,0.7451652,-0.5305903,0.33632028,1.2967864,0.07950605,-0.061569326,0.015970644,1.2311622,1.0649422
0.1,0.0,1.0999999999999999,0.5235987755982988,0.5235987755982988,0,-1.4091691,0.71166986,-0.4937377,0.7449475,-0.1942109,0.74563056,-0.58554363,0.5021036,1.2971818,-0.00013546033,-0.104067825,-0.037591062,1.2561527,0.65779644
0.1,0.0,1.0999999999999999,0.5235987755982988,0.5235987755982988,0,-1.4090418,0.7117664,-0.49367607,0.7451746,-0.19331181,0.7452643,-0.47989884,0.8046267,1.3000884,0.20144652,-0.05770874,0.011662969,1.2669021,1.0574582
0.1,0.0,1.0999999999999999,0.5235987755982988,0.5235987755982988,0,-1.4093274,0.71198815,-0.49463367,0.74550956,-0.19338761,0.74553305,-0.65082663,0.6058621,1.3074982,0.099436544,-0.06422551,-0.04194206,1.2312813,-0.10238613
0.1,0.0,1.0999999999999999,0.5235987755982988,0.5235987755982988,0,-1.4094335,0.71200085,-0.4941765,0.74566495,-0.1938293,0.7441997,-0.5219955,0.39403716,1.3230271,-0.08680279,-0.064402394,0.011424009,1.2756525,1.010683
0.1,0.0,1.0999999999999999,0.5235987755982988,0.5235987755982988,0,-1.4093847,0.7116694,-0.4941717,0.7450589,-0.1940625,0.74451196,-0.5910397,1.3322105,1.2676336,0.030111661,-0.118743874,0.0050157877,1.2367276,0.45877773
0.1,0.0,1.0999999999999999,0.5235987755982988,0.5235987755982988,0,-1.4091191,0.711845,-0.49397847,0.74410194,-0.19399288,0.74596,-0.5990529,0.36324793,1.3035911,-0.0047583138,-0.09138353,-0.12439464,1.2416854,-0.6766643
0.1,0.0,1.0999999999999999,0.5235987755982988,0.5235987755982988,0,-1.4089384,0.7116818,-0.4937423,0.7451018,-0.19401899,0.746432,-0.61856365,0.70569444,1.362921,0.106923774,-0.081705965,-0.07772964,1.2528005,0.030948263
0.1,0.0,1.0999999999999999,0.5235987755982988,0.5235987755982988,0,-1.4089721,0.7116457,-0.4945381,0.7449737,-0.19474171,0.7445496,-0.6337005,0.31930915,1.2265818,-0.073934205,-0.009755648,0.10358356,1.2145716,-0.08771343
0.1,0.0,1.0999999999999999,0.5235987755982988,0.5235987755982988,0,-1.4091911,0.7115861,-0.4937335,0.7444289,-0.19412535,0.74515736,-0.5148367,0.49104452,1.3348649,-0.14707696,-0.074426696,0.07004879,1.24969,-1.1387081
0.1,0.0,1.0999999999999999,0.5235987755982988,0.5235987755982988,0,-1.4089371,0.7117619,-0.4942253,0.7448894,-0.19430017,0.7459507,-0.43630537,0.39633715,1.2959185,-0.055269625,-0.059943207,-0.031186776,1.2047875,1.4358742
0.1,0.0,1.0999999999999999,0.5235987755982988,0.5235987755982988,0,-1.4089593,0.7117435,-0.49386632,0.7449186,-0.19525355,0.74536425,-0.56764394,0.63150686,1.2819444,0.010088744,-0.05877191,-0.1645214,1.2176657,-0.909652
0.1,0.0,1.0999999999999999,0.5235987755982988,0.5235987755982988,0,-1.409048,0.7118338,-0.49418324,0.74488866,-0.19444509,0.7455743,-0.63018906,0.4886906,1.3190364,-0.09661308,-0.057958923,-0.05603103,1.2537476,0.6921409
0.1,0.0,1.0999999999999999,0.5235987755982988,0.5235987755982988,0,-1.4089221,0.7112139,-0.4937935,0.7448129,-0.19451237,0.7454138,-0.58074534,0.76520777,1.3552264,-0.07782025,-0.05011877,-0.1837757,1.2382299,0.7313726
0.1,0.0,1.0999999999999999,0.5235987755982988,0.5235987755982988,0,-1.4090956,0.71193963,-0.4936671,0.74493545,-0.19384676,0.74645615,-0.49523595,0.7348951,1.3284318,0.09980356,-0.03984412,-0.10742772,1.2118936,0.96095014
0.1,0.0,1.0999999999999999,0.5235987755982988,0.5235987755982988,0,-1.4090976,0.7115947,-0.49377918,0.7453214,-0.19509907,0.7456641,-0.5664802,0.74393123,1.3438983,-0.017340677,-0.09009472,-0.121962376,1.2230687,0.43300322
0.1,0.0,1.0999999999999999,0.5235987755982988,0.5235987755982988,0,-1.4090858,0.711591,-0.49364397,0.7449742,-0.19425923,0.7452705,-0.54115057,0.30961674,1.3332943,0.27012852,-0.03652978,0.08755925,1.2791975,-0.1809288
0.1,0.0,1.0999999999999999,0.5235987755982988,0.5235987755982988,0,-1.4091554,0.7116888,-0.49465486,0.74468267,-0.19414274,0.74640065,-0.68860775,0.7491154,1.2604774,-0.13824995,-0.015681578,0.047141097,1.2418836,-0.46867168
0.1,0.0,1.0999999999999999,0.5235987755982988,0.5235987755982988,0,-1.4088246,0.7115641,-0.49384287,0.7445445,-0.19388513,0.7459289,-0.46754408,0.68115383,1.3148488,0.21080443,-0.04389589,0.07753339,1.2448239,-0.7289011
0.1,0.0,1.0999999999999999,0.5235987755982988,0.5235987755982988,0,-1.4088688,0.71205544,-0.49441856,0.7445288,-0.1936067,0.7460568,-0.70623076,0.68281263,1.3422235,0.28219226,-0.06794778,-0.109840624,1.1924502,0.80105495
0.1,0.0,1.0999999999999999,0.5235987755982988,0.5235987755982988,0,-1.4088236,0.71160084,-0.49322793,0.74594027,-0.19407968,0.7451952,-0.7918656,0.8622814,1.3208808,-0.012534366,-0.057528567,0.003260026,1.2763186,1.9462172
0.1,0.0,1.0999999999999999,0.5235987755982988,0.5235987755982988,0,-1.4093335,0.71164453,-0.49350742,0.7450143,-0.19390054,0.7464248,-0.613488,0.29595456,1.3533397,0.048885413,-0.066820934,0.027077397,1.2177778,0.08483734
0.1,0.0,1.0999999999999999,0.5235987755982988,0.5235987755982988,0,-1.4088072,0.7116314,-0.4938319,0.7450314,-0.19418031,0.74635065,-0.51981634,0.8470383,1.338714,-0.02916299,-0.06618107,0.02185161,1.2711382,-0.6227083
0.1,0.0,1.0999999999999999,0.5235987755982988,0.5235987755982988,0,-1.4089077,0.7117877,-0.4935291,0.74516964,-0.193424,0.7461806,-0.6428463,0.11894419,1.2619547,0.17209035,-0.071351655,-0.029073166,1.2555275,-0.05233521
0.1,0.0,1.0999999999999999,0.5235987755982988,0.5235987755982988,0,-1.4089926,0.7115444,-0.49403033,0.7446942,-0.19389409,0.74619246,-0.5903125,0.3608277,1.3405374,-0.015932838,-0.051029246,0.019906694,1.2382907,0.014322363
0.1,0.0,1.0999999999999999,0.5235987755982988,0.5235987755982988,0,-1.4092745,0.71129405,-0.49394295,0.7449182,-0.19362469,0.7454852,-0.5561242,0.7117231,1.3330281,-0.19310512,-0.10546604,0.13425596,1.2338319,0.35079664
0.1,0.0,1.0999999999999999,0.5235987755982988,0.5235987755982988,0,-1.40909,0.7112994,-0.49367717,0.74531865,-0.19390132,0.74586505,-0.67031205,0.742285,1.3011706,0.00062657736,-0.07154032,-0.050793253,1.280296,0.30490044
0.1,0.0,1.0999999999999999,0.5235987755982988,0.5235987755982988,0,-1.4091623,0.711509,-0.49361226,0.74521804,-0.19332065,0.7461073,-0.59293205,0.5810173,1.2879235,0.20107123,-0.046716154,-0.039598547,1.2573162,-0.07400347
0.1,0.0,1.0999999999999999,0.5235987755982988,0.5235987755982988,0,-1.4090718,0.71127623,-0.49351344,0.7453371,-0.19373217,0.74554634,-0.72861826,0.15459451,1.3614904,0.16846558,-0.09336177,-0.13346365,1.2453958,1.7138034
0.1,0.0,1.0999999999999999,0.5235987755982988,0.5235987755982988,0,-1.4091636,0.71176314,-0.49416563,0.7455036,-0.19344176,0.74574417,-0.6199564,0.88889873,1.2759748,0.0914984,-0.11545605,0.062781684,1.238608,0.26261476
0.1,0.0,1.0999999999999999,0.5235987755982988,0.5235987755982988,0,-1.4093739,0.71208453,-0.49343574,0.7452466,-0.1938845,0.7457372,-0.43113112,0.17820537,1.2796979,0.051756177,-0.08403674,-0.005565485,1.266857,-0.6108767
0.1,0.0,1.0999999999999999,0.5235987755982988,0.5235987755982988,0,-1.409142,0.7115924,-0.49327865,0.74506724,-0.19373134,0.74513113,-0.62155545,0.49709415,1.3267177,0.05860485,-0.048576932,-0.020894697,1.2452499,0.45893118
0.1,0.0,1.0999999999999999,0.5235987755982988,0.5235987755982988,0,-1.4090872,0.7115739,-0.4946961,0.7450192,-0.19342554,0.7458364,-0.67381823,0.3804805,1.3320556,0.22043909,-0.08077889,-0.0020736507,1.23076,-1.2754241
0.1,0.0,1.0999999999999999,0.5235987755982988,0.5235987755982988,0,-1.4090588,0.71177495,-0.4936464,0.7452084,-0.19326279,0.7454965,-0.6311681,0.5026915,1.3334712,-0.0074095707,-0.07250991,0.002213904,1.2557849,0.9934742
0.1,0.0,1.0999999999999999,0.5235987755982988,0.5235987755982988,0,-1.4090849,0.7117732,-0.49364826,0.74530333,-0.19420668,0.7459902,-0.6133099,0.52929676,1.3229119,0.26832387,-0.056767818,-0.05765996,1.2860365,0.553828
0.1,0.0,1.0999999999999999,0.5235987755982988,0.5235987755982988,0,-1.4092196,0.7117952,-0.4937106,0.74510825,-0.19434515,0.74534994,-0.63897985,0.24433616,1.3712515,0.05220332,-0.043232135,-0.015400816,1.2339475,-0.2822232
0.1,0.0,1.0999999999999999,0.5235987755982988,0.5235987755982988,0,-1.4090718,0.71163553,-0.4934345,0.7454369,-0.19441965,0.7468154,-0.71381354,0.35782924,1.3335208,-0.06463492,-0.06782995,-0.08142341,1.2572523,-2.0748053
0.1,0.0,1.0999999999999999,0.5235987755982988,0.5235987755982988,0,-1.4090371,0.7116831,-0.49430436,0.7450129,-0.19384345,0.745434,-0.47623605,0.44240183,1.31464,0.11270006,-0.09539402,0.004634612,1.2197186,0.09006619
0.1,0.0,1.0999999999999999,0.5235987755982988,0.5235987755982988,0,-1.4088917,0.7112685,-0.49348834,0.7448405,-0.19369718,0.74585575,-0.61201084,0.5234524,1.3213258,0.03705232,-0.065600425,0.03989425,1.2360073,-0.6303019
0.1,0.0,1.0999999999999999,0.5235987755982988,0.5235987755982988,0,-1.4087334,0.71182996,-0.49337068,0.7449096,-0.19348527,0.7463759,-0.49208078,0.7078271,1.3017983,-0.03519298,-0.059663024,-0.061412632,1.221581,0.54843503
0.1,0.0,1.0999999999999999,0.5235987755982988,0.5235987755982988,0,-1.4093571,0.7118425,-0.4934737,0.7450125,-0.19354899,0.74685335,-0.598232,0.2632285,1.3019407,0.13169433,-0.06970431,-0.08745283,1.2724432,-0.45044592
0.1,0.0,1.0999999999999999,0.5235987755982988,0.5235987755982988,0,-1.4088085,0.7114732,-0.49360612,0.74549484,-0.1944139,0.7461426,-0.5497881,0.29096428,1.3203691,0.19445866,-0.039374765,-0.049467962,1.2953159,0.40293247
0.1,0.0,1.0999999999999999,0.5235987755982988,0.5235987755982988,0,-1.4090334,0.7111759,-0.49400693,0.74536324,-0.19390099,0.745222,-0.5914017,0.33984593,1.319235,0.006893213,-0.08337768,0.18929946,1.2181938,0.8286165
0.1,0.0,1.0999999999999999,0.5235987755982988,0.5235987755982988,0,-1.4090011,0.71175194,-0.49434587,0.74508446,-0.19348387,0.7445634,-0.57950515,0.3150456,1.2832539,-0.13392745,-0.04544918,-0.058573924,1.2621527,-0.22632232
0.1,0.0,1.0999999999999999,0.5235987755982988,0.5235987755982988,0,-1.4092445,0.7114779,-0.49419907,0.74481046,-0.19400682,0.7451586,-0.51037216,0.47480363,1.3059242,0.06682436,-0.09837124,0.0277427,1.2092456,-0.5344874
0.1,0.0,1.0999999999999999,0.5235987755982988,0.5235987755982988,0,-1.4093583,0.7116834,-0.49368724,0.7454773,-0.19521105,0.74569523,-0.5809201,0.5905402,1.3255752,-0.09708911,-0.07397719,0.02599313,1.2330008,-0.7972615
0.1,0.0,1.0999999999999999,0.5235987755982988,0.5235987755982988,0,-1.4087648,0.71157,-0.49368662,0.7452674,-0.19393924,0.7455547,-0.55557424,0.49158692,1.316327,-0.0884977,-0.095771745,0.03684632,1.2144147,1.2710763
0.1,0.0,1.0999999999999999,0.5235987755982988,0.5235987755982988,0,-1.4094068,0.71201444,-0.49431518,0.74485874,-0.1943643,0.7451177,-0.58036876,0.60089743,1.3097651,-0.072976746,-0.050305527,0.035265468,1.2001296,1.2197303
0.1,0.0,1.0999999999999999,0.5235987755982988,0.5235987755982988,0,-1.4089137,0.7116409,-0.49402046,0.74474216,-0.19396566,0.74623036,-0.4922295,0.184969,1.2646222,0.035522442,-0.06382083,0.17558116,1.2032238,-0.27404594
0.1,0.0,1.0999999999999999,0.5235987755982988,0.5235987755982988,0,-1.4091594,0.71197385,-0.49404937,0.7447505,-0.19408658,0.74635893,-0.6124061,0.6602123,1.2436264,-0.0068154735,-0.07024841,0.14148565,1.2327584,-0.9785774
0.1,0.0,1.0999999999999999,0.5235987755982988,0.5235987755982988,0,-1.409262,0.7116273,-0.4934638,0.7457797,-0.19376738,0.7454246,-0.6452657,0.485184,1.3372806,0.023923373,-0.106307104,-0.011547476,1.299083,0.74412227
0.1,0.0,1.0999999999999999,0.5235987755982988,0.5235987755982988,0,-1.409087,0.7116139,-0.49387765,0.74462116,-0.19417869,0.7460518,-0.6622047,0.4205091,1.3124518,-0.052965093,-0.076201215,-0.076569885,1.2573184,-0.12513496
0.1,0.0,1.0999999999999999,0.5235987755982988,0.5235987755982988,0,-1.4088522,0.71176773,-0.49371436,0.74507475,-0.19446778,0.74627906,-0.5149864,0.7868408,1.2527978,0.123977326,-0.092410564,-0.16509302,1.2335638,0.16010638
0.1,0.0,1.0999999999999999,0.5235987755982988,0.5235987755982988,0,-1.4094368,0.71170837,-0.49403334,0.7450526,-0.19450486,0.7460867,-0.7322444,0.5577167,1.3894016,0.10022426,-0.0837333,-0.057216335,1.2563468,2.4446585
0.1,0.0,1.0999999999999999,0.5235987755982988,0.5235987755982988,0,-1.4089704,0.7119516,-0.4941018,0.74517083,-0.19365792,0.74575835,-0.65605044,0.34015712,1.3352556,-0.07847133,-0.042922392,0.120188616,1.2462157,-0.038416497
0.1,0.0,1.0999999999999999,0.5235987755982988,0.5235987755982988,0,-1.4088314,0.7117579,-0.4933789,0.7444315,-0.19396724,0.7460816,-0.5546319,0.45807415,1.327341,-0.088209406,-0.08438556,-0.019438045,1.2472743,1.2639543
0.1,0.0,1.0999999999999999,0.5235987755982988,0.5235987755982988,0,-1.4090099,0.7115731,-0.4934865,0.74435276,-0.19432944,0.7463302,-0.5897559,0.6918917,1.2913806,0.14044873,-0.094531424,0.031561874,1.2497271,-0.57598525
0.1,0.0,1.0999999999999999,0.5235987755982988,0.5235987755982988,0,-1.4095033,0.7113924,-0.49261865,0.74464965,-0.19371137,0.74522376,-0.5468857,0.5490148,1.2834225,-0.0402682,-0.04066547,0.013438641,1.2740629,0.611661
0.1,0.0,1.0999999999999999,0.5235987755982988,0.5235987755982988,0,-1.4092021,0.7119735,-0.49476022,0.7452464,-0.19409099,0.74642485,-0.5145521,0.37573132,1.3754357,-0.062114436,-0.064677045,-0.12658325,1.2564834,0.85521275
0.1,0.0,1.0999999999999999,0.5235987755982988,0.5235987755982988,0,-1.4090171,0.7118148,-0.49374822,0.7450747,-0.19467112,0.7456773,-0.58096415,0.3451191,1.3050263,0.1502307,-0.08670868,-0.10355801,1.2537267,-0.47796136
0.1,0.0,1.0999999999999999,0.5235987755982988,0.5235987755982988,0,-1.4089708,0.7117463,-0.4942451,0.74527335,-0.19405888,0.7454738,-0.6527134,0.52096796,1.3677033,0.1902991,-0.044174295,-0.0052891215,1.2340809,0.27237856
0.1,0.0,1.0999999999999999,0.5235987755982988,0.5235987755982988,0,-1.409208,0.7117356,-0.49393323,0.74456453,-0.19376001,0.7447287,-0.6195637,0.67299,1.3571792,0.064073525,-0.07477322,-0.04359085,1.30532,-0.8235592
0.1,0.0,1.0999999999999999,0.5235987755982988,0.5235987755982988,0,-1.4090984,0.71150684,-0.49359313,0.7452207,-0.19381948,0.7450178,-0.7172999,0.54726523,1.3766632,-0.06817112,-0.09467145,0.033864673,1.2061615,-0.21153086
0.1,0.0,1.0999999999999999,0.5235987755982988,0.5235987755982988,0,-1.4092342,0.7114453,-0.49377105,0.7451588,-0.19368953,0.74589455,-0.6647845,0.6612399,1.3420234,-0.043197833,-0.05547302,0.120836556,1.2094476,0.8311887
0.1,0.0,1.0999999999999999,0.5235987755982988,0.5235987755982988,0,-1.4087365,0.7116223,-0.49388474,0.74539214,-0.19428484,0.7460275,-0.75485516,0.21810675,1.3610312,0.035041943,-0.09003611,-0.08254521,1.2188948,0.07103648
0.1,0.0,1.0999999999999999,0.5235987755982988,0.5235987755982988,0,-1.408966,0.7115583,-0.493366,0.74541485,-0.19346349,0.7460581,-0.59963536,0.7226709,1.3274589,0.105154164,-0.08101573,-0.1698445,1.2151623,-0.6953952
0.1,0.0,1.0999999999999999,0.5235987755982988,0.5235987755982988,0,-1.4089221,0.7118133,-0.49335226,0.74430096,-0.19370966,0.7465476,-0.72181046,0.67895645,1.3476778,0.012267523,-0.081300706,-0.018665396,1.20644,0.5141105
0.1,0.0,1.0999999999999999,0.5235987755982988,0.5235987755982988,0,-1.4092615,0.7117263,-0.49387744,0.7447626,-0.1939018,0.7466939,-0.62746376,0.39750588,1.2950529,0.1045182,-0.08412589,-0.06321748,1.2116741,-0.9931812
0.1,0.0,1.0999999999999999,0.5235987755982988,0.5235987755982988,0,-1.4092139,0.71154076,-0.49419782,0.74518585,-0.1943809,0.7453695,-0.49999544,0.49418724,1.3180406,0.024399305,-0.05659998,0.10756827,1.271615,-0.18163519
0.1,0.0,1.0999999999999999,0.5235987755982988,0.5235987755982988,0,-1.4089116,0.7117768,-0.49423772,0.7447475,-0.19431132,0.74482757,-0.6890776,0.36285183,1.291496,0.15754502,-0.04296991,-0.12523846,1.2504467,1.7085212
0.1,0.0,1.0999999999999999,0.5235987755982988,0.5235987755982988,0,-1.4087924,0.71148926,-0.49324572,0.7457521,-0.19386446,0.74619687,-0.64996725,0.34068146,1.2987927,-0.13568757,-0.028505277,0.020141207,1.2141107,0.6590511
0.1,0.0,1.0999999999999999,0.5235987755982988,0.5235987755982988,0,-1.4086471,0.71164876,-0.49402303,0.7455791,-0.1944948,0.7458791,-0.5597794,0.36409354,1.3109794,-0.028832285,-0.07214154,-0.008079193,1.2847043,-0.16319905
0.1,0.0,1.0999999999999999,0.5235987755982988,0.5235987755982988,0,-1.4090141,0.7117733,-0.49385172,0.7451243,-0.19435756,0.74552613,-0.63794273,0.5790141,1.2777872,0.13990875,-0.07363312,0.09442063,1.2533774,0.83068234
0.1,0.0,1.0999999999999999,0.5235987755982988,0.5235987755982988,0,-1.4093214,0.71122456,-0.4934154,0.74451345,-0.19455135,0.74698263,-0.4868713,0.6498261,1.2981625,0.11772164,-0.05194653,-0.108525716,1.2857251,1.2886988
0.1,0.0,1.0999999999999999,0.5235987755982988,0.5235987755982988,0,-1.4091493,0.7116263,-0.49338663,0.7451112,-0.19429907,0.7453996,-0.5659289,0.4409982,1.3268051,-0.040076442,-0.046649903,0.022122532,1.2741431,-0.7007392
0.1,0.0,1.0999999999999999,0.5235987755982988,0.5235987755982988,0,-1.4090905,0.71201086,-0.49403265,0.7450517,-0.19427125,0.7456709,-0.6376211,0.45923764,1.3523134,-0.03966377,-0.05297883,-0.054644596,1.2480662,0.025495658
0.1,0.0,1.0999999999999999,0.5235987755982988,0.5235987755982988,0,-1.4089671,0.71195173,-0.49433726,0.7441113,-0.19440612,0.74469095,-0.63784283,0.47134393,1.3004308,0.20062123,-0.06318856,-0.008500156,1.2149184,0.17593548
0.1,0.0,1.0999999999999999,0.5235987755982988,0.5235987755982988,0,-1.4089811,0.71162856,-0.49375895,0.74458605,-0.19383763,0.7460342,-0.44119802,0.34519225,1.3334768,0.053788804,-0.055034336,-0.009023704,1.2081106,0.5527611
0.1,0.0,1.0999999999999999,0.5235987755982988,0.5235987755982988,0,-1.409443,0.71175617,-0.49524516,0.74502695,-0.19468632,0.7466064,-0.6021981,0.8245574,1.2963076,0.032771714,-0.10629764,-0.09299399,1.3069135,0.6566958
0.1,0.0,1.0999999999999999,0.5235987755982988,0.5235987755982988,0,-1.4091973,0.71183115,-0.49332342,0.7444072,-0.19479167,0.7463115,-0.4846103,0.4542243,1.2891788,0.058670655,-0.07753174,-0.10494972,1.2207202,1.6337905
0.1,0.0,1.0999999999999999,0.5235987755982988,0.5235987755982988,0,-1.408951,0.7117608,-0.4940981,0.74527234,-0.1934681,0.7454745,-0.686527,0.77490854,1.3230308,-0.12679587,-0.05779616,-0.07080726,1.2359735,0.23678328
0.1,0.0,1.0999999999999999,0.5235987755982988,0.5235987755982988,0,-1.409741,0.71179426,-0.49318567,0.74512446,-0.19460087,0.7452559,-0.5868239,0.3948549,1.2960122,0.041001983,-0.057406362,0.08890643,1.2588347,0.9942966
0.1,0.0,1.0999999999999999,0.5235987755982988,0.5235987755982988,0,-1.409186,0.7113669,-0.4931704,0.74541324,-0.1932772,0.7465464,-0.5952877,0.40871754,1.2859355,0.10209537,-0.07401526,-0.037556008,1.2514653,-0.6838539
0.1,0.0,1.0999999999999999,0.5235987755982988,0.5235987755982988,0,-1.4091108,0.71156234,-0.49379596,0.74449205,-0.19455747,0.7465572,-0.34699702,0.7775211,1.3350904,0.026651617,-0.052288476,0.026768386,1.2209296,1.2593393
0.1,0.0,1.0999999999999999,0.5235987755982988,0.5235987755982988,0,-1.4093047,0.71163464,-0.4945217,0.7445955,-0.19398525,0.7459926,-0.60521084,0.64532566,1.2986081,0.05873451,-0.0731975,-0.101836085,1.3036604,-1.321652
0.1,0.0,1.0999999999999999,0.5235987755982988,0.5235987755982988,0,-1.4089289,0.71145755,-0.49373415,0.7450258,-0.19405076,0.7449707,-0.7571996,0.0674449,1.285246,-0.043367513,-0.080080904,-0.091439344,1.270014,0.52262247
0.1,0.0,1.0999999999999999,0.5235987755982988,0.5235987755982988,0,-1.4092995,0.7117161,-0.49331713,0.744331,-0.19441529,0.74640524,-0.59876657,0.4327013,1.3721924,0.007908178,-0.02891551,0.035259273,1.2291212,0.53285813
0.1,0.0,1.0999999999999999,0.5235987755982988,0.5235987755982988,0,-1.4085201,0.71178734,-0.494117,0.74508303,-0.1935399,0.7454209,-0.55374825,0.3080836,1.3080832,-0.10132346,-0.04441512,-0.027187016,1.2879498,-0.35037565
0.1,0.0,1.0999999999999999,0.5235987755982988,0.5235987755982988,0,-1.4088205,0.71157175,-0.49364308,0.7454865,-0.19387496,0.7457858,-0.5972634,0.5735664,1.2950889,0.18582499,-0.13756686,-0.03329923,1.2745534,0.9415904
0.1,0.0,1.0999999999999999,0.5235987755982988,0.5235987755982988,0,-1.4091883,0.71222824,-0.4938961,0.74438715,-0.19392848,0.7458011,-0.6624405,0.5480719,1.350843,0.12440524,-0.09942646,-0.06359687,1.267595,-0.31532064
0.1,0.0,1.0999999999999999,0.5235987755982988,0.5235987755982988,0,-1.4091598,0.7116708,-0.49347553,0.74508065,-0.19394833,0.7472548,-0.6629239,0.57099366,1.284981,0.09828745,-0.06889764,-0.25761747,1.2617153,0.7145639
0.1,0.0,1.0999999999999999,0.5235987755982988,0.5235987755982988,0,-1.4090426,0.7117769,-0.4933936,0.745317,-0.19503139,0.7460298,-0.5160306,0.4737467,1.3443707,-0.19906402,-0.05619313,0.03703649,1.232563,-0.08231769
0.1,0.0,1.0999999999999999,0.5235987755982988,0.5235987755982988,0,-1.4092284,0.7117105,-0.49342668,0.7452127,-0.19411218,0.7464777,-0.6163585,0.6450403,1.3478259,0.0995638,-0.088010915,-0.010667611,1.235341,-0.05832824
0.1,0.0,1.0999999999999999,0.5235987755982988,0.5235987755982988,0,-1.4090362,0.71166915,-0.49455974,0.7450129,-0.19408117,0.74527276,-0.77851564,0.38584262,1.3046339,0.0046671345,-0.08215838,0.12705512,1.2384235,1.0173305
0.1,0.0,1.0999999999999999,0.5235987755982988,0.5235987755982988,0,-1.4090731,0.7114451,-0.49376994,0.74515057,-0.19360074,0.7450448,-0.7614269,0.85905325,1.3403618,-0.015928293,-0.0933505,-0.12991717,1.2250984,0.62424207
0.1,0.0,1.0999999999999999,0.5235987755982988,0.5235987755982988,0,-1.408939,0.71197575,-0.49394217,0.74509054,-0.19403432,0.74646443,-0.6653296,0.61477196,1.2607697,-0.014364,-0.026074138,0.104770094,1.2241967,-0.29828852
0.1,0.0,1.0999999999999999,0.5235987755982988,0.5235987755982988,0,-1.409166,0.7115599,-0.49411133,0.744973,-0.19396065,0.745776,-0.5949594,0.3457614,1.3136816,0.05519154,-0.10538697,-0.055237647,1.235116,0.6287916
0.1,0.0,1.0999999999999999,0.5235987755982988,0.5235987755982988,0,-1.4092826,0.711899,-0.49394473,0.7446568,-0.19356161,0.7460552,-0.6029482,0.70424175,1.2874808,0.051473707,-0.104942225,0.020942576,1.2250525,1.0426567
0.1,0.0,1.0999999999999999,0.5235987755982988,0.5235987755982988,0,-1.409322,0.7117472,-0.49396405,0.7449843,-0.19457431,0.74568766,-0.6036641,0.46803698,1.341311,-0.00087497383,-0.09123458,-0.04757985,1.2644547,-0.70896196
0.1,0.0,1.0999999999999999,0.5235987755982988,0.5235987755982988,0,-1.4087285,0.71167654,-0.49479154,0.7448279,-0.19359216,0.7450123,-0.5883788,0.40940747,1.3525295,-0.21896346,-0.082967214,0.11374908,1.2454201,2.545014
0.1,0.0,1.0999999999999999,0.5235987755982988,0.5235987755982988,0,-1.4090403,0.71194583,-0.49403173,0.7454214,-0.19324593,0.74527776,-0.6297593,0.5509605,1.3414699,0.043688186,-0.098079406,0.10532691,1.2961988,-0.9312805
0.1,0.0,1.0999999999999999,0.5235987755982988,0.5235987755982988,0,-1.4088594,0.71169853,-0.4939406,0.7446238,-0.19324632,0.74581176,-0.4470533,0.4617973,1.3408161,0.031787086,-0.06771562,-0.13198803,1.2484902,0.69018507
0.1,0.0,1.0999999999999999,0.5235987755982988,0.5235987755982988,0,-1.4091568,0.7116423,-0.49359506,0.74485284,-0.19458906,0.74555236,-0.6517868,0.78574985,1.3128654,-0.0632448,-0.09597129,-0.014837806,1.2038366,-1.786378
0.1,0.0,1.0999999999999999,0.5235987755982988,0.5235987755982988,0,-1.4091014,0.71163267,-0.4939173,0.7445348,-0.19405581,0.7464607,-0.6988865,0.27258185,1.3105419,0.12258518,-0.042404514,-0.016571634,1.2673161,0.5476851
0.1,0.0,1.0999999999999999,0.5235987755982988,0.5235987755982988,0,-1.4087775,0.7115241,-0.49413553,0.74543786,-0.1941934,0.7453704,-0.71465975,0.5349657,1.3010995,0.18760325,-0.060020577,-0.07817833,1.2514204,-0.113373354
0.1,0.0,1.0999999999999999,0.5235987755982988,0.5235987755982988,0,-1.4095744,0.71126586,-0.49322852,0.74489075,-0.19353108,0.74418986,-0.71307915,0.61254007,1.3444288,0.16187775,-0.06605996,-0.049512368,1.2008106,0.7348835
0.1,0.0,1.0999999999999999,0.5235987755982988,0.5235987755982988,0,-1.4093866,0.71196026,-0.4940527,0.74488664,-0.19382213,0.74572706,-0.7374036,0.54500914,1.2866069,0.049259886,-0.08783987,-0.074130096,1.2664434,-0.88320434
0.1,0.0,1.0999999999999999,0.5235987755982988,0.5235987755982988,0,-1.4090014,0.7116748,-0.49406588,0.74508643,-0.19405098,0.7458722,-0.5816919,0.31302023,1.2838076,0.11377015,-0.07333762,-0.0024504063,1.2061677,-0.6122029
0.1,0.0,1.0999999999999999,0.5235987755982988,0.5235987755982988,0,-1.409038,0.71171635,-0.4938806,0.74519897,-0.194889,0.7455149,-0.6495738,0.40075096,1.3179575,-0.06359254,-0.08115046,-0.0021623548,1.2675047,-0.56223357
0.1,0.0,1.0999999999999999,0.5235987755982988,0.5235987755982988,0,-1.4086998,0.7120849,-0.49431992,0.74542046,-0.19472675,0.7450547,-0.6392089,0.4778236,1.3102794,0.13982742,-0.0914411,-0.018502833,1.2292506,-0.5862909
0.1,0.0,1.0999999999999999,0.5235987755982988,0.5235987755982988,0,-1.4091016,0.71168053,-0.49389842,0.7453049,-0.19424857,0.7458094,-0.5969847,0.7990268,1.3063238,0.11881845,-0.08205841,-0.12094933,1.2575297,-0.6055383
0.1,0.0,1.0999999999999999,0.5235987755982988,0.5235987755982988,0,-1.4091114,0.7119733,-0.49285927,0.7448863,-0.1941409,0.7460941,-0.7727804,0.63203466,1.2738986,-0.037642997,-0.07200306,-0.020214194,1.195513,-0.036980156
0.1,0.0,1.0999999999999999,0.5235987755982988,0.5235987755982988,0,-1.4093572,0.7117719,-0.49460348,0.7450291,-0.193658,0.7465431,-0.59442645,0.15892921,1.3450005,0.100899786,-0.08355846,-0.043115523,1.2426332,-0.23438244
0.1,0.0,1.0999999999999999,0.5235987755982988,0.5235987755982988,0,-1.4091145,0.71154135,-0.49410486,0.7450725,-0.19476034,0.745775,-0.5184926,0.3332663,1.3308829,0.11694971,-0.09038579,-0.036064558,1.223421,-0.4541573
0.1,0.0,1.0999999999999999,0.5235987755982988,0.5235987755982988,0,-1.4088676,0.7113005,-0.4943184,0.74477357,-0.1946534,0.7453562,-0.37085363,0.61113536,1.3129808,0.18122192,-0.0828653,0.028270602,1.2334129,0.9166197
0.1,0.0,1.0999999999999999,0.5235987755982988,0.5235987755982988,0,-1.4091021,0.7115516,-0.49327725,0.7451698,-0.19437906,0.7458539,-0.7180071,0.7213602,1.3212595,0.22316553,-0.0731031,-0.15044166,1.2536174,0.16359834
0.1,0.0,1.0999999999999999,0.5235987755982988,0.5235987755982988,0,-1.4094291,0.71192074,-0.4936863,0.7443557,-0.19380705,0.74625427,-0.6248257,-0.022562101,1.3008648,0.070624895,-0.07079648,-0.08093939,1.2272301,-1.0832523
0.1,0.0,1.0999999999999999,0.5235987755982988,0.5235987755982988,0,-1.4090843,0.71204114,-0.4937227,0.74512476,-0.19294211,0.7471511,-0.5986111,0.2605266,1.3513408,0.043156438,-0.080699,0.05074723,1.2612526,-0.3471785
0.1,0.0,1.0999999999999999,0.5235987755982988,0.5235987755982988,0,-1.4088213,0.7116978,-0.4934297,0.7452329,-0.19329624,0.7446656,-0.5354717,0.51961076,1.3070115,0.015798403,-0.094786465,-0.12777258,1.2875683,-0.6928441
0.1,0.0,1.0999999999999999,0.5235987755982988,0.5235987755982988,0,-1.4093319,0.71158797,-0.49456698,0.7451319,-0.19445035,0.74683744,-0.54561806,0.56100285,1.3085648,0.24027054,-0.05733828,-0.069224924,1.2426426,1.5433133
0.1,0.0,1.0999999999999999,0.5235987755982988,0.5235987755982988,0,-1.4092386,0.7116171,-0.49361134,0.74550754,-0.19434704,0.74573755,-0.5568203,0.70034176,1.3306692,-0.11884505,-0.04613282,-0.023363762,1.249728,0.6728159
0.1,0.0,1.0999999999999999,0.5235987755982988,0.5235987755982988,0,-1.4089923,0.71166754,-0.4939576,0.7453468,-0.19442184,0.7453483,-0.536358,0.22713833,1.3242327,0.03747745,-0.068390794,0.052354395,1.2685001,0.22149768
0.1,0.0,1.0999999999999999,0.5235987755982988,0.5235987755982988,0,-1.4092467,0.7117937,-0.49378252,0.7449801,-0.19326857,0.7458605,-0.67199016,0.7534609,1.3001759,0.06281516,-0.07488727,0.03622175,1.2727185,0.16150908
0.1,0.0,1.0999999999999999,0.5235987755982988,0.5235987755982988,0,-1.4092824,0.7118128,-0.49396485,0.74503535,-0.19416603,0.7461218,-0.6468158,0.29664478,1.3326277,-0.0142239,-0.06411333,0.011156262,1.2828541,-0.014661693
0.1,0.0,1.0999999999999999,0.5235987755982988,0.5235987755982988,0,-1.4094157,0.7114956,-0.49510282,0.74477017,-0.19417557,0.74741554,-0.56553555,0.66842395,1.283838,0.17054483,-0.08824819,-0.14461653,1.290133,0.71830225
0.1,0.0,1.0999999999999999,0.5235987755982988,0.5235987755982988,0,-1.4090037,0.71176034,-0.49317607,0.7450997,-0.19434023,0.74674124,-0.46422693,0.730207,1.3203393,-0.00587777,-0.059999958,0.0035948092,1.2961154,-0.17044123
0.1,0.0,1.0999999999999999,0.5235987755982988,0.5235987755982988,0,-1.4089077,0.7114997,-0.49350914,0.74447376,-0.193499,0.7449245,-0.5892823,0.81235003,1.2869606,0.09523327,-0.087162524,0.0076181367,1.2702016,-0.8714375
0.1,0.0,1.0999999999999999,0.5235987755982988,0.5235987755982988,0,-1.4088233,0.71171606,-0.49427292,0.74519426,-0.19342086,0.74500877,-0.5488831,0.5415417,1.3175482,0.19388725,-0.060750056,0.08919279,1.2864623,1.3050784
0.1,0.0,1.0999999999999999,0.5235987755982988,0.5235987755982988,0,-1.4089261,0.7118979,-0.494424,0.7448621,-0.19449274,0.745912,-0.5275851,0.45926082,1.301912,0.033145048,-0.04707499,-0.009124339,1.2090288,-1.171401
0.1,0.0,1.0999999999999999,0.5235987755982988,0.5235987755982988,0,-1.4094458,0.71211743,-0.49342257,0.7449969,-0.19425637,0.7465393,-0.51902264,0.6469617,1.2776811,-0.021765709,-0.051285222,-0.092714086,1.2316914,0.7995218
0.1,0.0,1.0999999999999999,0.5235987755982988,0.5235987755982988,0,-1.409505,0.7117788,-0.49389744,0.7455831,-0.19349824,0.7455996,-0.7192841,0.34941402,1.3476969,-0.032832213,-0.07498436,-0.16059923,1.2635756,1.0429546
0.1,0.0,1.0999999999999999,0.5235987755982988,0.5235987755982988,0,-1.409296,0.71173733,-0.49356055,0.7447209,-0.1941425,0.74599886,-0.5857994,0.36471888,1.3093537,0.0012283154,-0.05824635,-0.025982691,1.251964,0.18765487
0.1,0.0,1.0999999999999999,0.5235987755982988,0.5235987755982988,0,-1.4094902,0.7117788,-0.49295002,0.744843,-0.19396755,0.7460983,-0.6915359,0.35740235,1.3731565,-0.15027818,-0.08265398,-0.08858059,1.2533897,0.8208223
0.1,0.0,1.0999999999999999,0.5235987755982988,0.5235987755982988,0,-1.4089787,0.71194077,-0.49311078,0.7450577,-0.1935211,0.7460108,-0.63226014,0.30437428,1.2769042,0.09615902,-0.044753786,-0.06816459,1.2810227,1.8455312
0.1,0.0,1.0999999999999999,0.5235987755982988,0.5235987755982988,0,-1.4093349,0.7114688,-0.4934745,0.7448787,-0.19413574,0.74497783,-0.48681992,0.79357433,1.3327138,0.062466443,-0.07932832,-0.06284015,1.2376994,0.40997067
0.1,0.0,1.0999999999999999,0.5235987755982988,0.5235987755982988,0,-1.4091789,0.71182615,-0.49309623,0.74542755,-0.19454679,0.74662393,-0.43824768,0.5524037,1.3378714,0.047133263,-0.041544653,0.023483554,1.2623773,-0.474519
0.1,0.0,1.0999999999999999,0.5235987755982988,0.5235987755982988,0,-1.4090973,0.71183956,-0.49367532,0.74517244,-0.19477762,0.74577826,-0.7300047,0.61172116,1.3095355,-0.026292415,-0.06424989,-0.03343171,1.2403934,-0.13590968
0.1,0.0,1.0999999999999999,0.5235987755982988,0.5235987755982988,0,-1.4092251,0.7114322,-0.49386737,0.74527866,-0.19361733,0.7474005,-0.63920164,0.065344766,1.3706714,0.04977688,-0.06999625,-0.12818304,1.2466083,0.7972942
0.1,0.0,1.0999999999999999,0.5235987755982988,0.5235987755982988,0,-1.409205,0.7118098,-0.49355593,0.7450801,-0.19415163,0.74554574,-0.72897977,0.7806685,1.2945217,0.036385234,-0.07570054,0.013715334,1.2723039,-0.64539933
0.1,0.0,1.0999999999999999,0.5235987755982988,0.5235987755982988,0,-1.4092863,0.7114952,-0.49331972,0.74517107,-0.19372484,0.7455698,-0.672261,0.55525064,1.2808292,0.09344047,-0.0697706,0.012026653,1.2875594,0.24442507
0.1,0.0,1.0999999999999999,0.5235987755982988,0.5235987755982988,0,-1.4085864,0.7119446,-0.49439687,0.74463445,-0.19464065,0.74494565,-0.5685314,0.6986674,1.3139695,-0.12020395,-0.08219008,-0.059180383,1.2669605,-0.6556287
0.1,0.0,1.0999999999999999,0.5235987755982988,0.5235987755982988,0,-1.4089185,0.7116206,-0.49428427,0.74482167,-0.1939968,0.7449367,-0.6153076,0.96421856,1.287051,0.114676945,-0.071031734,-0.0058590057,1.2741874,-1.2420653
0.1,0.0,1.0999999999999999,0.5235987755982988,0.5235987755982988,0,-1.4087625,0.7119714,-0.4941898,0.7448597,-0.19441357,0.74550784,-0.6328882,0.38145384,1.28317,-0.03493446,-0.096558236,0.0542883,1.2421391,1.6980911
0.1,0.0,1.0999999999999999,0.5235987755982988,0.5235987755982988,0,-1.4092234,0.7116877,-0.4943932,0.7457183,-0.19330317,0.7469777,-0.7317505,0.33386,1.3563643,0.016456407,-0.06516582,-0.03727013,1.2190055,1.3708389
0.1,0.0,1.0999999999999999,0.5235987755982988,0.5235987755982988,0,-1.4087902,0.71138,-0.49463314,0.7450299,-0.19319247,0.7457804,-0.6172163,0.6587492,1.3344074,0.20516746,-0.091715656,-0.022001883,1.2303872,0.18805555
0.1,0.0,1.0999999999999999,0.5235987755982988,0.5235987755982988,0,-1.4090439,0.71127146,-0.4933867,0.74540985,-0.19438493,0.74536026,-0.44613189,1.2132133,1.3209474,-0.11390597,-0.089660436,-0.03937182,1.2059381,0.09071125
0.1,0.0,1.0999999999999999,0.5235987755982988,0.5235987755982988,0,-1.408808,0.71185005,-0.49256712,0.7446166,-0.19379306,0.7449771,-0.5141667,0.49798468,1.2705399,0.17240143,-0.07812579,-0.15439935,1.2826188,1.0788912
0.1,0.0,1.0999999999999999,0.5235987755982988,0.5235987755982988,0,-1.4089879,0.7113973,-0.49482018,0.74533975,-0.19385014,0.74595004,-0.56667954,0.6008825,1.2682683,-0.044563066,-0.071787626,-0.12117371,1.2591101,-0.2207538
0.1,0.0,1.0999999999999999,0.5235987755982988,0.5235987755982988,0,-1.4091588,0.7118326,-0.49337256,0.7447965,-0.19387248,0.7464174,-0.6415451,0.5290305,1.3405777,-0.08937798,-0.052921757,0.18791716,1.19618,0.064072795
0.1,0.0,1.0999999999999999,0.5235987755982988,0.5235987755982988,0,-1.4092011,0.7119208,-0.49391976,0.7452134,-0.19391707,0.7461414,-0.51333034,0.6600275,1.3395396,-0.027790913,-0.08081496,-0.025982853,1.2602007,0.45051143
0.1,0.0,1.0999999999999999,0.5235987755982988,0.5235987755982988,0,-1.4095012,0.7118002,-0.4939893,0.7451141,-0.1943335,0.7462617,-0.7371182,0.5163065,1.3543593,0.06962714,-0.085376054,-0.07962702,1.2304527,0.88099945
0.1,0.0,1.0999999999999999,0.5235987755982988,0.5235987755982988,0,-1.4088477,0.711994,-0.4937607,0.7447212,-0.19381025,0.74632025,-0.6251123,0.7225789,1.2692276,0.20609912,-0.06924335,0.09812817,1.2352495,-0.8832183
0.1,0.0,1.0999999999999999,0.5235987755982988,0.5235987755982988,0,-1.408715,0.711905,-0.4942424,0.74559957,-0.19389471,0.7435602,-0.50142556,0.78387225,1.3054234,0.061050683,-0.029952748,0.038132403,1.2658839,0.99005544
0.1,0.0,1.0999999999999999,0.5235987755982988,0.5235987755982988,0,-1.4096489,0.71166044,-0.49309674,0.74590373,-0.1942844,0.7461309,-0.6836645,0.35276878,1.3033694,0.074342124,-0.08627509,0.10562074,1.2356288,-0.21235137
0.1,0.0,1.0999999999999999,0.5235987755982988,0.5235987755982988,0,-1.4092405,0.71186256,-0.4931036,0.7449485,-0.19412054,0.74601114,-0.63153327,0.51923335,1.3208977,-0.17706561,-0.03411342,-0.049396805,1.2877836,0.94022125
0.1,0.0,1.0999999999999999,0.5235987755982988,0.5235987755982988,0,-1.4090947,0.711467,-0.4941392,0.7446888,-0.19434838,0.747055,-0.5279639,0.7588728,1.345738,-0.030266007,-0.08830176,-0.07071719,1.2648339,-0.15605287
0.1,0.0,1.0999999999999999,0.5235987755982988,0.5235987755982988,0,-1.4092476,0.71160907,-0.49451792,0.7448661,-0.19345032,0.7440703,-0.5552912,0.055874098,1.3424515,0.23437306,-0.105315454,0.028269202,1.2156906,-0.29985315
0.1,0.0,1.0999999999999999,0.5235987755982988,0.5235987755982988,0,-1.4092734,0.7114091,-0.493123,0.74522275,-0.19421574,0.7458687,-0.58361053,0.9242265,1.3125947,0.053355932,-0.09110687,-0.09636101,1.2602513,1.1956608
0.1,0.0,1.0999999999999999,0.5235987755982988,0.5235987755982988,0,-1.4093096,0.7115068,-0.49469826,0.7452737,-0.19495957,0.74564457,-0.57508665,0.9165704,1.3186387,0.12309554,-0.034136992,-0.06275871,1.2439965,0.9681446
0.1,0.0,1.0999999999999999,0.5235987755982988,0.5235987755982988,0,-1.4089735,0.71177924,-0.49487805,0.74508613,-0.19465259,0.74657154,-0.59962565,0.86464715,1.2862678,0.03667199,-0.09479305,-0.08179092,1.2429309,0.29273352
0.1,0.0,1.0999999999999999,0.5235987755982988,0.5235987755982988,0,-1.4091287,0.71186346,-0.49437705,0.7452745,-0.19387309,0.7451841,-0.689051,0.11907997,1.2837303,0.179836,-0.09682914,-0.16540693,1.2326528,-2.160911
0.1,0.0,1.0999999999999999,0.5235987755982988,0.5235987755982988,0,-1.4092102,0.7115923,-0.49395415,0.7448118,-0.19473098,0.74523705,-0.4534766,0.5170108,1.3568684,0.096068375,-0.08000799,0.03643486,1.2294023,1.9870105
0.1,0.0,1.0999999999999999,0.5235987755982988,0.5235987755982988,0,-1.4092283,0.7119393,-0.49371392,0.7446673,-0.19377689,0.745089,-0.5669928,0.5823982,1.3658587,0.107324354,-0.12500456,-0.18254344,1.3059293,0.7581245
0.1,0.0,1.0999999999999999,0.5235987755982988,0.5235987755982988,0,-1.4093511,0.7116682,-0.49364886,0.7445994,-0.19543585,0.7447705,-0.48742473,0.33948687,1.3392996,0.0027174978,-0.06820994,0.011509272,1.2340676,0.2680535
0.1,0.0,1.0999999999999999,0.5235987755982988,0.5235987755982988,0,-1.4092388,0.71184206,-0.49405172,0.74442214,-0.1940293,0.7444885,-0.6365699,0.5053419,1.2550083,-0.014452684,-0.07585998,-0.10609586,1.2531419,0.14454544
0.1,0.0,1.0999999999999999,0.5235987755982988,0.5235987755982988,0,-1.4088228,0.711635,-0.49310905,0.744839,-0.19372238,0.7459366,-0.45070753,0.9019668,1.3900545,-0.012309699,-0.0513979,0.099959396,1.2257699,-0.7439894
0.1,0.0,1.0999999999999999,0.5235987755982988,0.5235987755982988,0,-1.4091995,0.7118492,-0.49457568,0.7450076,-0.19301374,0.7448107,-0.53520966,0.66392696,1.2771177,0.03840235,-0.01783021,-0.06623129,1.2639141,-0.03316235
0.1,0.0,1.0999999999999999,0.5235987755982988,0.5235987755982988,0,-1.4090267,0.7119542,-0.49337715,0.74486023,-0.19411208,0.74511474,-0.58750135,0.40491268,1.3369157,0.046236813,-0.054655243,-0.124822155,1.3150692,0.4748617
0.1,0.0,1.0999999999999999,0.5235987755982988,0.5235987755982988,0,-1.4091014,0.711878,-0.49403852,0.74473995,-0.1945286,0.7457543,-0.5852264,0.5609784,1.3213098,0.104599096,-0.080119625,-0.14366175,1.2559968,-0.60172886
0.1,0.0,1.0999999999999999,0.5235987755982988,0.5235987755982988,0,-1.4094262,0.7120101,-0.49427858,0.7447342,-0.19413221,0.7448986,-0.75781864,0.80086446,1.3634508,0.22564155,-0.09990753,-0.055445585,1.2278421,0.53044474
0.1,0.0,1.0999999999999999,0.5235987755982988,0.5235987755982988,0,-1.4088887,0.7116626,-0.49443924,0.7452231,-0.19416508,0.7455241,-0.46778816,1.0990496,1.3083676,0.2540187,-0.099078394,0.0835756,1.2735716,-0.1555791
0.1,0.0,1.0999999999999999,0.5235987755982988,0.5235987755982988,0,-1.4087694,0.71173525,-0.49410826,0.7446643,-0.19339588,0.7462315,-0.7412946,-0.096474454,1.3557729,0.019805392,-0.09136839,0.1253014,1.2233496,0.10345381
0.1,0.0,1.0999999999999999,0.5235987755982988,0.5235987755982988,0,-1.4092916,0.71197015,-0.49428594,0.7450022,-0.19382828,0.74584454,-0.66510636,0.53045547,1.3222347,0.1982014,-0.06449217,-0.13847798,1.2464283,0.59801257
0.1,0.0,1.0999999999999999,0.5235987755982988,0.5235987755982988,0,-1.409311,0.7116378,-0.49424964,0.7449847,-0.19450219,0.7462444,-0.6427588,0.3545842,1.2944605,-0.0005457623,-0.055897582,-0.070267916,1.2195476,0.2882015
0.1,0.0,1.0999999999999999,0.5235987755982988,0.5235987755982988,0,-1.4091593,0.71133786,-0.4938481,0.74469155,-0.1941925,0.7449496,-0.68454146,0.24785063,1.3257362,-0.064748354,-0.07711537,-0.07183341,1.2438632,-0.79350984
0.1,0.0,1.0999999999999999,0.5235987755982988,0.5235987755982988,0,-1.4089893,0.71151876,-0.49416372,0.74446434,-0.19465373,0.7453637,-0.70357245,0.4880087,1.3140191,-0.060918987,-0.07918393,-0.0110650845,1.2469661,-1.4256375
0.1,0.0,1.0999999999999999,0.5235987755982988,0.5235987755982988,0,-1.4090562,0.7116491,-0.49435276,0.7448179,-0.19458498,0.74584,-0.639529,0.47999322,1.3137025,0.11986464,-0.07088475,0.12670273,1.2657547,0.93471414
0.1,0.0,1.0999999999999999,0.5235987755982988,0.5235987755982988,0,-1.4090654,0.7115158,-0.49361286,0.7454673,-0.19431269,0.7437956,-0.5043204,0.13224663,1.2986108,-0.0059869117,-0.07286132,-0.01494632,1.2204983,0.7716378
0.1,0.0,1.0999999999999999,0.5235987755982988,0.5235987755982988,0,-1.4092062,0.71153545,-0.49409202,0.74543315,-0.19339731,0.7462555,-0.68523085,0.5564471,1.3094628,-0.025529003,-0.08570689,0.04899682,1.251399,-0.51597077
0.1,0.0,1.0999999999999999,0.5235987755982988,0.5235987755982988,0,-1.4089032,0.7117836,-0.49416503,0.74550706,-0.1949792,0.7451853,-0.51105803,1.1388797,1.27161,0.11805187,-0.07588302,-0.06242412,1.2246894,0.82984316
0.1,0.0,1.0999999999999999,0.5235987755982988,0.5235987755982988,0,-1.4089111,0.7115471,-0.49390972,0.7449303,-0.19370244,0.7457322,-0.5496921,0.29626554,1.2815857,0.017558865,-0.051097054,0.08564582,1.1713834,-0.03443677
0.1,0.0,1.0999999999999999,0.5235987755982988,0.5235987755982988,0,-1.4088507,0.71169484,-0.49373475,0.74467087,-0.19446926,0.74534714,-0.54009986,0.3297763,1.2774957,-0.17128295,-0.07317532,-0.026840696,1.2304796,-0.32957017
0.1,0.0,1.0999999999999999,0.5235987755982988,0.5235987755982988,0,-1.4092038,0.71136576,-0.4941363,0.74493366,-0.19401294,0.74390703,-0.61411434,0.22762558,1.3280905,0.21490936,-0.08473343,-0.016319158,1.2515126,0.82190955
0.1,0.0,1.0999999999999999,0.5235987755982988,0.5235987755982988,0,-1.4089458,0.711504,-0.49377912,0.7448522,-0.19316053,0.74409646,-0.64338404,0.45989704,1.3288481,0.065676354,-0.07349365,-0.09664233,1.1797788,-0.48343956
0.1,0.0,1.0999999999999999,0.5235987755982988,0.5235987755982988,0,-1.4097184,0.7117618,-0.49457923,0.744768,-0.19409546,0.745269,-0.55747104,0.88100696,1.3399177,-0.020001175,-0.064385116,-0.02747473,1.2403718,0.76973724
0.1,0.0,1.0999999999999999,0.5235987755982988,0.5235987755982988,0,-1.4087508,0.7117927,-0.49423352,0.7448329,-0.19462134,0.7449694,-0.52881336,0.51618135,1.3268659,-0.04827351,-0.1050205,2.5502595e-05,1.2463044,0.22100416
0.1,0.0,1.0999999999999999,0.5235987755982988,0.5235987755982988,0,-1.4090925,0.7117345,-0.49337226,0.7446452,-0.19281673,0.7449613,-0.71450114,0.5236789,1.3111931,0.055925082,-0.07466559,0.0022524577,1.2350812,0.004965699
0.1,0.0,1.0999999999999999,0.5235987755982988,0.5235987755982988,0,-1.4089395,0.7117005,-0.49440137,0.7447146,-0.19409181,0.7455109,-0.57104367,0.2370131,1.2581155,-0.07849841,-0.065206714,-0.13118944,1.2246917,-0.3147911
0.1,0.0,1.0999999999999999,0.5235987755982988,0.5235987755982988,0,-1.4092737,0.71148235,-0.4944571,0.7447661,-0.19455215,0.74541247,-0.52094465,0.40606397,1.3424952,0.16113573,-0.07197964,0.09602451,1.2706215,0.7856872
0.1,0.0,1.0999999999999999,0.5235987755982988,0.5235987755982988,0,-1.4089266,0.7118396,-0.4941025,0.74505186,-0.19473964,0.74512976,-0.65723807,0.40173075,1.2821499,-0.092311375,-0.06940438,-0.039276037,1.2364745,0.3777844
0.1,0.0,1.0999999999999999,0.5235987755982988,0.5235987755982988,0,-1.4087522,0.7117629,-0.4942982,0.7448388,-0.19384311,0.74560195,-0.53649426,0.8867865,1.269428,0.060820874,-0.10400461,-0.07015634,1.266919,0.92214686
0.1,0.0,1.0999999999999999,0.5235987755982988,0.5235987755982988,0,-1.4095373,0.7117932,-0.4937871,0.7453289,-0.19464658,0.7457211,-0.64680505,0.5966557,1.3385398,-0.065811805,-0.058016323,0.011512583,1.2220333,1.148184
0.1,0.0,1.0999999999999999,0.5235987755982988,0.5235987755982988,0,-1.4088949,0.7117688,-0.4941171,0.7447584,-0.19453678,0.74569535,-0.6494264,0.7940956,1.2746199,0.033970706,-0.05055735,0.03208211,1.2188737,0.8567387
0.1,0.0,1.0999999999999999,0.5235987755982988,0.5235987755982988,0,-1.4093324,0.71132606,-0.49392587,0.7443949,-0.19387972,0.7451886,-0.647604,0.14060986,1.2925454,-0.025875896,-0.060710706,-0.041369576,1.2435014,-0.5867884
0.1,0.0,1.0999999999999999,0.5235987755982988,0.5235987755982988,0,-1.4091164,0.7119971,-0.4942848,0.744873,-0.1944118,0.7462939,-0.52589834,0.5419146,1.3008144,0.11143245,-0.07976988,-0.08377652,1.2177932,2.0234377
0.1,0.0,1.0999999999999999,0.5235987755982988,0.5235987755982988,0,-1.4089059,0.71179,-0.49452868,0.7450437,-0.19354905,0.7468232,-0.5579385,1.0634599,1.31948,0.19776589,-0.09544963,-0.16716927,1.2509235,0.8267811
0.1,0.0,1.0999999999999999,0.5235987755982988,0.5235987755982988,0,-1.4092739,0.7119266,-0.4933118,0.7449509,-0.1950078,0.7457159,-0.42463768,0.56429684,1.3422284,0.17428327,-0.06845228,-0.029049922,1.2337803,0.50059056
0.1,0.0,1.0999999999999999,0.5235987755982988,0.5235987755982988,0,-1.4090949,0.7114883,-0.49296978,0.7456359,-0.1941354,0.74532855,-0.5772495,0.3270722,1.313384,0.08900407,-0.07869015,-0.050291814,1.2580793,0.8408857
0.1,0.0,1.0999999999999999,0.5235987755982988,0.5235987755982988,0,-1.4089471,0.7117291,-0.4939479,0.74534917,-0.19443136,0.74659693,-0.60229474,0.70263034,1.2885085,0.22419378,-0.050779376,0.04239456,1.2535734,-1.8041192
0.1,0.0,1.0999999999999999,0.5235987755982988,0.5235987755982988,0,-1.4100552,0.71168554,-0.4930811,0.74546874,-0.19403161,0.7455359,-0.6491245,0.3615651,1.3587005,-0.050792575,-0.08614248,-0.10055637,1.2589861,-0.4120202
0.1,0.0,1.0999999999999999,0.5235987755982988,0.5235987755982988,0,-1.4094632,0.71175814,-0.49330273,0.7446525,-0.19450016,0.7452066,-0.6118289,0.63379467,1.3587378,0.090283625,-0.053246733,-0.20355915,1.2399286,1.0326668
0.1,0.0,1.0999999999999999,0.5235987755982988,0.5235987755982988,0,-1.4089655,0.711819,-0.4946088,0.74474245,-0.19493632,0.745727,-0.686978,0.61061895,1.3710704,0.008156812,-0.06465742,-0.016314767,1.19903,0.56009686
0.1,0.0,1.0999999999999999,0.5235987755982988,0.5235987755982988,0,-1.4092337,0.71156186,-0.49363428,0.7449564,-0.19440967,0.74528295,-0.5940053,0.6717792,1.3115209,0.016383896,-0.034309134,0.0010523896,1.2751492,0.47823858
0.1,0.0,1.0999999999999999,0.5235987755982988,0.5235987755982988,0,-1.4093388,0.7116899,-0.4939596,0.7451666,-0.19416551,0.74671197,-0.64074814,0.55133533,1.2758348,0.06870167,-0.037290514,0.008614352,1.2663486,-0.93760926
0.1,0.0,1.0999999999999999,0.5235987755982988,0.5235987755982988,0,-1.4091574,0.7115569,-0.49323758,0.7452057,-0.19430193,0.74619544,-0.6315937,0.46291465,1.27339,-0.054085404,-0.066115834,0.2928079,1.251196,-0.15614109
0.1,0.0,1.0999999999999999,0.5235987755982988,0.5235987755982988,0,-1.4091256,0.71179813,-0.495044,0.74484456,-0.19370902,0.74605304,-0.62684304,0.56288034,1.37759,0.052371375,-0.06511272,-0.022883054,1.2466687,0.026316136
0.1,0.0,1.0999999999999999,0.5235987755982988,0.5235987755982988,0,-1.4087064,0.71193653,-0.49387193,0.74482316,-0.19369224,0.7454108,-0.6315256,0.13237093,1.3006052,0.06910644,-0.07334606,0.09131053,1.2610911,0.64097226
0.1,0.0,1.0999999999999999,0.5235987755982988,0.5235987755982988,0,-1.4087758,0.71156,-0.49327597,0.7454503,-0.19478995,0.74479204,-0.6512713,0.7487085,1.3507605,0.100607485,-0.06488059,0.054581326,1.2913977,-0.14951545
0.1,0.0,1.0999999999999999,0.5235987755982988,0.5235987755982988,0,-1.4090878,0.7116157,-0.49380365,0.7449665,-0.1942646,0.74544287,-0.5609079,0.50206083,1.3147161,0.06695761,-0.037052393,0.030132253,1.2054168,0.3974071
0.1,0.0,1.0999999999999999,0.5235987755982988,0.5235987755982988,0,-1.4094166,0.7119632,-0.4941751,0.74437994,-0.19378592,0.74611413,-0.5118945,0.53272116,1.3109508,-0.0038536496,-0.093401074,-0.16155596,1.2813928,0.8454482
0.1,0.0,1.0999999999999999,0.5235987755982988,0.5235987755982988,0,-1.4087195,0.71157116,-0.4938784,0.74519783,-0.1944042,0.74475896,-0.604369,0.77761126,1.3071363,0.23698546,-0.11114851,0.11184778,1.2225214,0.50972575
0.1,0.0,1.0999999999999999,0.5235987755982988,0.5235987755982988,0,-1.4090159,0.7117231,-0.4937352,0.74481356,-0.19421585,0.74577886,-0.70660335,0.27028105,1.2569202,0.09023314,-0.081657514,0.18009472,1.2515054,-1.1204859
0.1,0.0,1.0999999999999999,0.5235987755982988,0.5235987755982988,0,-1.4088341,0.7116557,-0.49349707,0.74548155,-0.1941207,0.7456869,-0.58424675,0.5603299,1.2928802,-0.06611279,-0.08653571,0.0071859565,1.2528086,0.7305326
0.1,0.0,1.0999999999999999,0.5235987755982988,0.5235987755982988,0,-1.4090651,0.71154624,-0.4941939,0.74498326,-0.19372259,0.74474555,-0.473644,0.5365662,1.3507069,0.024007231,-0.051142525,-0.16867708,1.2300329,1.3899859
0.1,0.0,1.0999999999999999,0.5235987755982988,0.5235987755982988,0,-1.4093564,0.7116758,-0.49360856,0.74500036,-0.1942512,0.746008,-0.69443053,0.5671544,1.3118858,-0.110456765,-0.07612757,-0.095866926,1.2488219,-1.5919214
0.1,0.0,1.0999999999999999,0.5235987755982988,0.5235987755982988,0,-1.4090923,0.7120656,-0.49399766,0.7453058,-0.19416548,0.74664354,-0.5093465,0.5282478,1.3220686,0.27511927,-0.0819661,0.016955558,1.2295686,0.88817614
0.1,0.0,1.0999999999999999,0.5235987755982988,0.5235987755982988,0,-1.4094127,0.71193445,-0.49394903,0.7446219,-0.19351843,0.7462059,-0.49436885,0.4444309,1.317769,0.0953266,-0.06617923,-0.010537792,1.2216669,0.43225408
0.1,0.0,1.0999999999999999,0.5235987755982988,0.5235987755982988,0,-1.4095856,0.711644,-0.49263868,0.74534935,-0.19363701,0.74543744,-0.6015881,0.21781714,1.3152015,0.051589448,-0.063397236,-0.08953245,1.2665864,0.68492603
0.1,0.0,1.0999999999999999,0.5235987755982988,0.5235987755982988,0,-1.4088912,0.71148026,-0.49403203,0.744848,-0.19514678,0.74413866,-0.53623015,0.22065958,1.2199246,0.15159005,-0.10397994,-0.24363153,1.2409693,-0.5235005
0.1,0.0,1.0999999999999999,0.5235987755982988,0.5235987755982988,0,-1.4088572,0.71206623,-0.49380755,0.74519914,-0.19334209,0.746706,-0.62002146,0.36085442,1.3134235,0.046354845,-0.06832263,-0.02459354,1.2668813,-0.8686676
0.1,0.0,1.0999999999999999,0.5235987755982988,0.5235987755982988,0,-1.4090017,0.7115252,-0.49460962,0.74480605,-0.19357412,0.7465139,-0.64662987,0.5153808,1.339146,-0.0007212685,-0.056217864,0.03827043,1.2526519,1.9258591
0.1,0.0,1.0999999999999999,0.5235987755982988,0.5235987755982988,0,-1.4090393,0.71139115,-0.49386457,0.7444318,-0.19502991,0.7458398,-0.6532344,0.60827667,1.3638383,0.17286892,-0.04403125,0.12184169,1.2580764,0.11538865
0.1,0.0,1.0999999999999999,0.5235987755982988,0.5235987755982988,0,-1.4086682,0.7116247,-0.49387872,0.74492085,-0.193844,0.7445689,-0.623299,0.43549484,1.2922283,0.00059891737,-0.087587,-0.06475073,1.2361689,0.8326319
0.1,0.0,1.0999999999999999,0.5235987755982988,0.5235987755982988,0,-1.4089057,0.7118689,-0.49338213,0.7448613,-0.19363585,0.7448646,-0.5750022,0.24308383,1.3173937,0.097891234,-0.050739605,-0.10320744,1.2503153,0.9268813
0.1,0.0,1.0999999999999999,0.5235987755982988,0.5235987755982988,0,-1.4084742,0.71174324,-0.4946039,0.7446657,-0.19352901,0.7451271,-0.71420014,0.36957628,1.2753077,-0.12278312,-0.098833375,0.010968274,1.2472786,0.040578175
0.1,0.0,1.0999999999999999,0.5235987755982988,0.5235987755982988,0,-1.4089779,0.7115406,-0.49416858,0.7452919,-0.19407056,0.7464535,-0.510081,1.00505,1.3598112,-0.33736065,-0.09940852,0.12112736,1.2468841,-1.163807
0.1,0.0,1.0999999999999999,0.5235987755982988,0.5235987755982988,0,-1.4093425,0.711883,-0.49338287,0.74519104,-0.19315064,0.7446544,-0.6261261,0.36841798,1.3629286,0.24200949,-0.04629694,-0.11720324,1.222529,1.3588241
0.1,0.0,1.0999999999999999,0.5235987755982988,0.5235987755982988,0,-1.4088172,0.7116855,-0.49480638,0.7447582,-0.19518523,0.74513704,-0.52831364,0.16051228,1.3174429,0.06658635,-0.040096313,0.00896924,1.2296028,-0.33843002
0.1,0.0,1.0999999999999999,0.5235987755982988,0.5235987755982988,0,-1.4087749,0.711862,-0.49384537,0.74472666,-0.19351362,0.74536484,-0.56685776,0.5746056,1.3147602,0.047566455,-0.08870922,-0.08505946,1.2237365,-0.900377
0.1,0.0,1.0999999999999999,0.5235987755982988,0.5235987755982988,0,-1.4095845,0.7114814,-0.49523607,0.745285,-0.19494447,0.74577045,-0.64966905,0.6863304,1.3627594,0.106966905,-0.094049245,-0.043328848,1.241343,-0.53357744
0.1,0.0,1.0999999999999999,0.5235987755982988,0.5235987755982988,0,-1.4090588,0.7119548,-0.49374637,0.7451713,-0.19402689,0.7448803,-0.548351,0.53035456,1.2625515,-0.05480347,-0.062596664,-0.039755967,1.2884563,-0.4227191
0.1,0.0,1.0999999999999999,0.5235987755982988,0.5235987755982988,0,-1.408915,0.7114939,-0.49442995,0.7449511,-0.19428702,0.744828,-0.5735055,0.54629004,1.3610103,0.03454239,-0.09392135,0.025093164,1.2463332,-0.025072774
0.1,0.0,1.0999999999999999,0.5235987755982988,0.5235987755982988,0,-1.4092443,0.711771,-0.49401772,0.7444063,-0.19427593,0.7450634,-0.6308977,0.026112875,1.2880498,0.025009947,-0.06377033,-0.0664773,1.2133368,0.98239
0.1,0.0,1.0999999999999999,0.5235987755982988,0.5235987755982988,0,-1.4089751,0.71152896,-0.4947649,0.74538094,-0.19438878,0.7460655,-0.65196747,0.9517071,1.3078353,-0.031721536,-0.090828486,-0.012227024,1.2396487,-0.4438156
0.1,0.0,1.0999999999999999,0.5235987755982988,0.5235987755982988,0,-1.4091103,0.71169335,-0.49385434,0.7444148,-0.19440368,0.7465362,-0.56336457,0.68154985,1.3806316,0.23744005,-0.075461864,-0.07257852,1.2903564,-0.40967813
0.1,0.0,1.0999999999999999,0.5235987755982988,0.5235987755982988,0,-1.4092876,0.7116527,-0.49373382,0.74514216,-0.19315301,0.74629945,-0.61759,0.6275803,1.297141,-0.028971935,-0.04893806,-0.035742007,1.2674971,0.40117365
