sanky1234/BimanualDexCatch/isaacgymenvs/cem_results/football_pose_-0.1_-0.2_0.7_0.5235987755982988_-0.5235987755982988_0_2025-05-25.csv
x,y,z,roll,pitch,yaw,robot1/joint1,robot1/joint2,robot1/joint3,robot1/joint4,robot1/joint5,robot1/joint6,robot1/joint7,robot2/joint1,robot2/joint2,robot2/joint3,robot2/joint4,robot2/joint5,robot2/joint6,robot2/joint7
-0.1,-0.2,0.7,0.5235987755982988,-0.5235987755982988,0,-0.8749611,-0.7896004,-0.13965982,-0.15284277,0.28885853,1.0888544,0.26566008,-0.090666324,1.4104931,-0.7158219,-0.011535052,0.5174064,1.256434,-1.0170692
-0.1,-0.2,0.7,0.5235987755982988,-0.5235987755982988,0,0.7309289,-0.6936665,0.19421437,-0.2776333,0.4153249,0.826238,0.52804977,-0.09228285,1.3201166,-0.74277127,-0.014056095,-0.046379358,1.3258767,0.94198775
-0.1,-0.2,0.7,0.5235987755982988,-0.5235987755982988,0,0.2420908,-0.7061298,0.15222275,-0.43766883,0.36503416,1.3977951,0.6252194,-0.10398108,1.3860084,-0.7053659,-0.011293584,0.17327519,1.1462073,-0.26966217
-0.1,-0.2,0.7,0.5235987755982988,-0.5235987755982988,0,-1.1973046,-0.9096713,-0.17847665,-0.15782562,0.18016481,0.5826255,0.52014726,0.0025458324,1.4255987,-0.71334934,-0.04981933,-0.10043316,1.1959641,-0.017969266
-0.1,-0.2,0.7,0.5235987755982988,-0.5235987755982988,0,0.5822414,-0.9066386,-0.1833913,-0.48028964,0.4558323,0.9362257,0.86389786,-0.10169703,1.3929615,-0.6909295,-0.026979221,0.09293806,1.106817,-0.99334294
-0.1,-0.2,0.7,0.5235987755982988,-0.5235987755982988,0,0.5112961,-0.9415053,-0.115556784,-0.401425,0.30870324,1.1557593,0.6239602,-0.13625243,1.3768848,-0.70645314,-0.03266835,0.14051649,1.0881193,0.29970297
-0.1,-0.2,0.7,0.5235987755982988,-0.5235987755982988,0,0.0029209473,-1.0560164,0.1950264,-0.24847035,0.88339835,0.8978813,0.20469372,-0.07702002,1.3882346,-0.68001837,-0.010276124,0.2869204,1.1615528,-0.0950762
-0.1,-0.2,0.7,0.5235987755982988,-0.5235987755982988,0,-0.783145,-1.1792259,0.051841754,-0.32798433,0.028171804,0.807745,0.64764255,-0.15747942,1.3892969,-0.70378286,-0.07740307,0.1288709,1.2597817,0.3270183
-0.1,-0.2,0.7,0.5235987755982988,-0.5235987755982988,0,0.46071282,-0.9955526,0.2677647,-0.3374509,0.36186153,1.2394675,0.65964806,-0.14455438,1.3341246,-0.7045334,-0.010912752,0.30235925,1.0874379,0.13993397
-0.1,-0.2,0.7,0.5235987755982988,-0.5235987755982988,0,-0.7278745,-0.92195755,-0.13709712,-0.18491662,-0.08689446,0.76178926,0.34649518,-0.10273071,1.3521943,-0.71158373,0.0054357382,-0.2631069,1.0887771,0.3016041
-0.1,-0.2,0.7,0.5235987755982988,-0.5235987755982988,0,0.624482,-1.1914275,0.09376924,-0.2321188,-0.083767824,1.1565726,1.2411956,-0.08573497,1.4138414,-0.71636266,-0.0408068,0.13117188,1.3832154,0.020236837
-0.1,-0.2,0.7,0.5235987755982988,-0.5235987755982988,0,0.3395729,-0.5471257,-0.3260536,-0.2584734,0.23430972,0.84792405,0.32930514,-0.12837209,1.3701841,-0.7058677,-0.017290533,-0.21763548,1.1928054,-0.7843048
-0.1,-0.2,0.7,0.5235987755982988,-0.5235987755982988,0,-0.43432623,-0.88910496,-0.13513066,-0.1224741,0.7470539,0.7984789,0.14277408,-0.11325824,1.4016813,-0.7335955,-0.034735404,0.1950532,1.2786001,0.25288552
-0.1,-0.2,0.7,0.5235987755982988,-0.5235987755982988,0,0.5841644,-1.0949756,-0.45507452,-0.14631361,0.55175304,1.0735861,0.09722667,-0.10734403,1.3929541,-0.70801586,-0.028605746,0.31851074,1.3187325,1.4477401
-0.1,-0.2,0.7,0.5235987755982988,-0.5235987755982988,0,0.9422481,-0.8023915,-0.16426437,-0.53918964,0.18875475,0.527108,0.9712247,-0.1036951,1.3979548,-0.70130575,-0.035443887,-0.2085926,1.278997,-1.2851743
-0.1,-0.2,0.7,0.5235987755982988,-0.5235987755982988,0,-0.91613466,-0.58305573,-0.2425563,-0.026800912,0.5568279,1.0107188,1.0538532,-0.105661385,1.3925779,-0.67594445,-0.016714023,-0.10988678,1.2395601,0.23272556
-0.1,-0.2,0.7,0.5235987755982988,-0.5235987755982988,0,-0.14604975,-0.69644547,-0.1583687,-0.24263373,0.39681566,1.219551,0.92583674,-0.093439095,1.3881905,-0.6960449,-0.015856009,0.43415582,1.1795498,0.06548718
-0.1,-0.2,0.7,0.5235987755982988,-0.5235987755982988,0,0.5294518,-0.6702889,-0.124231674,-0.19788167,0.27708775,1.081339,0.7860673,-0.09594034,1.3607335,-0.6943031,-0.017106716,0.22134757,1.2256933,-0.37210003
-0.1,-0.2,0.7,0.5235987755982988,-0.5235987755982988,0,-0.2278597,-0.6414304,-0.58293194,-0.18041512,0.03251078,1.2063007,0.47950128,-0.07220154,1.3251252,-0.7042573,-0.026024776,-0.67300135,1.320985,1.0302196
-0.1,-0.2,0.7,0.5235987755982988,-0.5235987755982988,0,-0.012959873,-0.5041152,-0.34655172,-0.3884353,0.9189308,0.76017493,0.81215686,-0.057049334,1.4418578,-0.7277994,-0.040311906,0.019134702,1.1592187,0.3142204
-0.1,-0.2,0.7,0.5235987755982988,-0.5235987755982988,0,-0.20855032,-0.9427955,0.37282,-0.22553821,-0.2324381,0.5815556,0.72713506,-0.11546581,1.3965077,-0.69711787,-0.041319862,0.13480714,1.3441404,-1.4962182
-0.1,-0.2,0.7,0.5235987755982988,-0.5235987755982988,0,-1.2595575,-0.85034,-0.011956092,-0.28414252,0.11117969,1.163047,0.7632698,-0.15337378,1.3573405,-0.68815666,-0.03639365,0.019320624,1.2245682,-0.8672751
-0.1,-0.2,0.7,0.5235987755982988,-0.5235987755982988,0,-0.7680113,-0.8872099,0.36185002,-0.24502303,0.20450646,1.1822602,-0.107382916,-0.118242085,1.4042363,-0.7056204,-0.08574038,-0.031132177,1.1330287,0.14158754
-0.1,-0.2,0.7,0.5235987755982988,-0.5235987755982988,0,-0.3831151,-0.57458,-0.44222352,-0.08394276,-0.31399956,0.7540697,0.75140864,-0.12884054,1.44622,-0.7104446,-0.08521177,-0.4651673,1.3476502,-0.24640054
-0.1,-0.2,0.7,0.5235987755982988,-0.5235987755982988,0,0.71893036,-0.8855225,0.04720082,-0.2839159,0.5806828,1.3608763,0.023116762,-0.0933145,1.4159584,-0.69651264,-0.02912558,0.025421795,1.2930663,-0.24075308
-0.1,-0.2,0.7,0.5235987755982988,-0.5235987755982988,0,-1.0933982,-0.5135971,-0.2383378,-0.1164661,0.8006284,1.0019867,0.7762755,-0.17220691,1.4056995,-0.7097669,-0.083038226,0.47940823,1.1473765,0.26368135
-0.1,-0.2,0.7,0.5235987755982988,-0.5235987755982988,0,-1.2463386,-0.580219,0.03969298,-0.24224311,0.48289803,0.91004044,1.2568592,-0.122955896,1.4086494,-0.70838034,-0.046243172,0.034708183,1.1925478,0.06821546
-0.1,-0.2,0.7,0.5235987755982988,-0.5235987755982988,0,-0.6902605,-0.43355608,-0.16785625,-0.40399045,-0.21427736,0.87245095,0.59562516,-0.08558743,1.4017688,-0.71511245,-0.004055024,-0.037810188,1.3074381,-0.37588143
-0.1,-0.2,0.7,0.5235987755982988,-0.5235987755982988,0,-0.63829714,-0.86149544,0.086470395,-0.30025423,0.30942324,0.90991205,1.1305857,-0.079385854,1.4030231,-0.6949058,-0.0050866385,-0.041107517,1.2549418,0.21906438
-0.1,-0.2,0.7,0.5235987755982988,-0.5235987755982988,0,-0.6588289,-0.89484555,-0.08044888,-0.21186483,0.35973397,0.7275213,0.52917224,-0.059426274,1.4258083,-0.7150687,-0.01318002,0.120409116,1.330723,0.590621
-0.1,-0.2,0.7,0.5235987755982988,-0.5235987755982988,0,0.32096398,-0.64081544,-0.22576317,-0.26243892,-0.17796026,0.91483265,1.181069,-0.12312642,1.3967019,-0.7332998,-0.029351853,0.7418454,1.0775245,0.42542678
-0.1,-0.2,0.7,0.5235987755982988,-0.5235987755982988,0,-1.083838,-0.76509917,-0.28488955,-0.194219,0.25690407,1.4683307,0.5064897,-0.098717816,1.4090785,-0.7090597,-0.027745673,-0.10807534,1.303548,0.033905104
-0.1,-0.2,0.7,0.5235987755982988,-0.5235987755982988,0,0.2532238,-1.1310303,-0.4533147,-0.23986472,0.43878874,0.64979136,-0.28477767,-0.15823026,1.3900439,-0.7183152,-0.06469369,0.3016601,1.3045813,0.047241446
-0.1,-0.2,0.7,0.5235987755982988,-0.5235987755982988,0,-0.737165,-1.0051407,0.059231937,-0.31922606,-0.12537098,1.0150846,1.325298,-0.11688213,1.364386,-0.6887243,-0.009428991,0.23013204,1.1788394,-1.7028843
-0.1,-0.2,0.7,0.5235987755982988,-0.5235987755982988,0,1.5958084,-0.73107135,0.0077868984,-0.21377419,0.22300293,1.1728902,0.17961128,-0.09718288,1.3961248,-0.69818646,-0.025389524,-0.11853978,1.2738682,-0.39745718
-0.1,-0.2,0.7,0.5235987755982988,-0.5235987755982988,0,0.6544201,-0.94075185,0.015837707,-0.183657,0.16123454,1.0970086,0.7483152,-0.10570843,1.4175358,-0.70100546,-0.043565113,0.38892812,1.174036,0.17924647
-0.1,-0.2,0.7,0.5235987755982988,-0.5235987755982988,0,-1.1425852,-0.9086692,-0.088441305,-0.17084563,0.38717037,1.1463528,0.71817476,-0.10031087,1.3995734,-0.725881,-0.019981526,-0.30417192,1.1870177,-0.91326874
-0.1,-0.2,0.7,0.5235987755982988,-0.5235987755982988,0,-1.4004556,-0.9475224,-0.020389881,-0.38918358,0.4292676,1.1228212,0.7319845,-0.15370016,1.3132796,-0.7197185,0.007065586,-0.4430198,1.1146553,-1.5440695
-0.1,-0.2,0.7,0.5235987755982988,-0.5235987755982988,0,-0.20337114,-0.98917276,-0.2661351,-0.14194569,-0.059571043,0.7261137,-0.0759063,-0.13324,1.3887317,-0.7257476,-0.054419298,-0.24723227,1.1301229,-0.5595255
-0.1,-0.2,0.7,0.5235987755982988,-0.5235987755982988,0,-0.4758575,-0.8354275,-0.057427227,-0.14303455,0.45658436,1.1123384,0.15551043,-0.12977014,1.3782881,-0.69015706,-0.028697975,0.2521076,1.2881501,-1.2322634
-0.1,-0.2,0.7,0.5235987755982988,-0.5235987755982988,0,0.07957259,-0.9802598,0.11241241,-0.28447977,-0.24733233,0.9557161,0.837811,-0.14241149,1.3998613,-0.6799058,-0.06213961,0.27183834,1.3340651,0.96503747
-0.1,-0.2,0.7,0.5235987755982988,-0.5235987755982988,0,-0.66921777,-0.7918204,-0.19660799,-0.2704324,-0.10365286,0.69611484,-0.11109477,-0.085919656,1.3969411,-0.6911328,-0.011662277,0.033966307,1.021648,-0.34562677
-0.1,-0.2,0.7,0.5235987755982988,-0.5235987755982988,0,1.0211235,-1.1256279,-0.2698675,-0.19684404,0.1375098,0.61773056,0.5355064,-0.07406411,1.3999981,-0.70497644,-0.013482805,-0.26465678,1.3063056,0.45640132
-0.1,-0.2,0.7,0.5235987755982988,-0.5235987755982988,0,-1.5942794,-0.6237236,-0.40596116,-0.24354918,0.379324,0.8730701,-0.23264292,-0.09208507,1.3966154,-0.7124566,-0.00055995444,0.48238868,1.1145757,-0.35618135
-0.1,-0.2,0.7,0.5235987755982988,-0.5235987755982988,0,0.23156524,-0.42974555,0.14944279,-0.18762371,0.6399583,1.0192052,0.2387519,-0.06477507,1.3848343,-0.72124493,-0.01693916,0.38160965,1.114203,-0.03789884
-0.1,-0.2,0.7,0.5235987755982988,-0.5235987755982988,0,0.32614508,-0.762165,-0.07315915,-0.17180847,0.19428116,0.8618234,0.55768085,-0.10864424,1.4036222,-0.741537,-0.024988262,-0.37557098,1.2091956,-0.90952456
-0.1,-0.2,0.7,0.5235987755982988,-0.5235987755982988,0,0.052330617,-0.7636476,0.025242595,-0.20599672,0.5903999,0.5942883,1.2707884,-0.13598044,1.3735257,-0.7217913,-0.03548656,-0.09271191,1.2472993,-0.16204335
-0.1,-0.2,0.7,0.5235987755982988,-0.5235987755982988,0,-0.972837,-0.5484577,-0.25475943,-0.24872996,0.56860393,0.7498801,0.05809243,-0.067221515,1.3965948,-0.71533877,-0.017391173,0.1157662,1.3756679,-0.29698864
-0.1,-0.2,0.7,0.5235987755982988,-0.5235987755982988,0,-0.28417003,-0.96203595,0.13289076,-0.31656012,0.47078103,0.94518745,0.07778759,-0.1062896,1.3909246,-0.71663505,-0.017628787,0.4158215,1.2370875,0.21518932
-0.1,-0.2,0.7,0.5235987755982988,-0.5235987755982988,0,-0.09462542,-0.7401052,-0.051261958,-0.39487624,0.44423357,1.0318018,-0.60026246,-0.08087413,1.3534625,-0.71885574,0.00088167907,0.4635343,1.1521515,-0.5887489
-0.1,-0.2,0.7,0.5235987755982988,-0.5235987755982988,0,0.1808381,-0.72712135,-0.017500248,-0.13630813,1.0216255,1.1113174,-0.10210309,-0.14303589,1.3726436,-0.69392556,-0.03406959,0.61493355,1.4476601,-0.27881205
-0.1,-0.2,0.7,0.5235987755982988,-0.5235987755982988,0,-0.9275447,-0.4201783,0.35799286,-0.34193972,0.47883952,1.0868013,1.2985791,-0.18326633,1.3827875,-0.69551986,-0.06199101,-0.35207984,1.1964698,-0.6911854
-0.1,-0.2,0.7,0.5235987755982988,-0.5235987755982988,0,-0.75530267,-0.67108625,-0.04128375,-0.4202726,-0.025786819,0.76238495,1.3904363,-0.10618392,1.3995347,-0.70015985,-0.020449743,0.27988958,1.2309308,0.78253645
-0.1,-0.2,0.7,0.5235987755982988,-0.5235987755982988,0,0.30818304,-0.624253,0.023275014,-0.35039955,0.51069486,1.4022502,-0.62031174,-0.11203999,1.3646197,-0.6789503,0.006090041,-0.13532789,1.1357987,-1.803884
-0.1,-0.2,0.7,0.5235987755982988,-0.5235987755982988,0,-0.7272893,-1.0337455,-0.115982674,-0.23673743,0.71760404,1.0073557,0.76356816,-0.03752835,1.4414425,-0.741128,-0.08548254,-0.27643535,1.2694751,-0.37828863
-0.1,-0.2,0.7,0.5235987755982988,-0.5235987755982988,0,-1.2701225,-1.0655988,-0.3283357,-0.27975067,-0.049522765,1.1024538,0.2595549,-0.09378971,1.4005438,-0.71231544,-0.02401308,-0.09974816,1.3342855,0.21041128
-0.1,-0.2,0.7,0.5235987755982988,-0.5235987755982988,0,-0.061656166,-0.89637053,0.009182982,-0.3671511,0.16229759,1.2094485,1.02588,-0.037013575,1.4101281,-0.7281231,0.018849593,0.16156003,1.2050871,0.8676179
-0.1,-0.2,0.7,0.5235987755982988,-0.5235987755982988,0,-0.03019555,-0.57822907,-0.11063021,-0.24357474,0.3441353,0.7100875,1.3078742,-0.12329529,1.4040973,-0.6837362,-0.005423995,0.42568853,1.3987763,-0.32400718
-0.1,-0.2,0.7,0.5235987755982988,-0.5235987755982988,0,-0.6457331,-0.69191957,0.11629076,-0.15990122,0.19261499,1.0868934,1.2750579,-0.124483034,1.4031031,-0.6754045,-0.040526714,-0.2782242,1.132771,-0.5358066
-0.1,-0.2,0.7,0.5235987755982988,-0.5235987755982988,0,-1.0724927,-0.9861983,-0.18966031,-0.13663872,-0.13515107,1.076999,0.74717295,-0.103687346,1.3979502,-0.714379,-0.02179361,0.3283614,1.2148578,-2.2035024
-0.1,-0.2,0.7,0.5235987755982988,-0.5235987755982988,0,0.652289,-0.45062986,0.12721965,-0.31492537,-0.0077985656,0.9651391,0.28140256,-0.05443644,1.349557,-0.72197497,-0.09192893,-0.40691847,1.3402042,0.9926268
-0.1,-0.2,0.7,0.5235987755982988,-0.5235987755982988,0,-1.0261222,-0.7199484,-0.36850882,-0.1611131,0.44437805,1.3125182,0.38020417,-0.090249196,1.3830429,-0.69809484,0.0012892869,0.77166665,1.2944599,-0.47333306
-0.1,-0.2,0.7,0.5235987755982988,-0.5235987755982988,0,0.08832936,-1.1732385,-0.12394,-0.41986,0.6224955,0.98349226,1.4472799,-0.09102034,1.2852879,-0.70803916,-0.020899402,-0.12916397,1.2928263,0.12623942
-0.1,-0.2,0.7,0.5235987755982988,-0.5235987755982988,0,-1.3998051,-0.47309065,0.2479645,-0.30059227,0.25386545,1.0967613,1.087125,-0.089631215,1.4072416,-0.729602,-0.0029280419,-0.06474222,1.3083441,-1.1940595
-0.1,-0.2,0.7,0.5235987755982988,-0.5235987755982988,0,0.1774509,-0.806254,-0.19234397,-0.118094034,0.040980466,0.82026345,0.1253917,-0.12401853,1.3768106,-0.71605265,-0.009506454,0.15919667,1.1114216,0.037146
-0.1,-0.2,0.7,0.5235987755982988,-0.5235987755982988,0,-0.73803866,-0.94916964,-0.2581511,-0.2681403,0.1286498,1.1174221,0.06581312,-0.13285199,1.387789,-0.71598864,-0.016485054,-0.53451794,1.1834861,-0.78323084
-0.1,-0.2,0.7,0.5235987755982988,-0.5235987755982988,0,-0.1117668,-0.6263039,0.055561606,-0.35529083,0.11473419,0.8815618,0.18673624,-0.105446726,1.3892167,-0.7320005,-0.0066474243,0.11874874,1.2375784,-0.21781652
-0.1,-0.2,0.7,0.5235987755982988,-0.5235987755982988,0,-0.79855245,-0.6869785,-0.20405255,-0.24529435,0.24002308,0.84205085,0.32826906,-0.08410988,1.3848201,-0.6843276,-0.010556161,0.4720656,1.1640439,-0.26531732
-0.1,-0.2,0.7,0.5235987755982988,-0.5235987755982988,0,-0.2498722,-0.4350183,0.18323296,-0.32995707,0.26150596,1.1642541,0.99406505,-0.10956162,1.4324796,-0.7407391,-0.06798607,0.013718326,1.2629327,-1.5504907
-0.1,-0.2,0.7,0.5235987755982988,-0.5235987755982988,0,-0.651264,-1.045427,-0.05227954,-0.12086764,0.7391512,0.9178426,0.3667681,-0.091054305,1.3667846,-0.67398244,-0.01917915,-0.3253054,1.3042264,1.2471907
-0.1,-0.2,0.7,0.5235987755982988,-0.5235987755982988,0,-0.51811504,-0.7489093,0.0069565237,-0.16475937,0.28390107,0.84725213,0.7778949,-0.10728596,1.3424168,-0.7379333,-0.010164724,-0.08477626,1.287293,-1.4627526
-0.1,-0.2,0.7,0.5235987755982988,-0.5235987755982988,0,-0.08290585,-0.43496063,0.091966785,-0.39823714,0.7274239,1.2621434,1.6510506,-0.18587576,1.4048116,-0.7088117,-0.08166608,-0.09462356,1.1309516,-1.2575437
-0.1,-0.2,0.7,0.5235987755982988,-0.5235987755982988,0,0.40547204,-0.941136,-0.058264542,-0.14933701,0.39246392,0.81573427,0.21096139,-0.08733436,1.4112785,-0.7458988,-0.0045034117,-0.62910235,1.2286706,-0.51148033
-0.1,-0.2,0.7,0.5235987755982988,-0.5235987755982988,0,-1.0957769,-1.0958257,-0.07302859,-0.30694976,-0.19192022,0.9911872,1.004201,-0.090624444,1.3807075,-0.68441564,-0.0077224267,0.046424888,1.1525472,-0.33584622
-0.1,-0.2,0.7,0.5235987755982988,-0.5235987755982988,0,-0.017949225,-1.0840316,-0.0852017,-0.32230067,0.51752996,0.83396816,-0.1947028,-0.17780557,1.3785067,-0.70966035,-0.055822514,0.17623816,1.0725259,0.7655801
-0.1,-0.2,0.7,0.5235987755982988,-0.5235987755982988,0,-0.48346895,-1.0058501,-0.053073738,-0.22848365,-0.0043814383,1.0165892,0.13164401,-0.11725829,1.3838271,-0.7147203,-0.025735758,0.009803213,1.0619313,-0.5013726
-0.1,-0.2,0.7,0.5235987755982988,-0.5235987755982988,0,-1.0425985,-1.066707,-0.05186132,-0.26843235,-0.20422922,0.91184163,0.089887105,-0.12914923,1.341056,-0.7340939,0.002277186,0.06543196,1.2559581,-0.2986572
-0.1,-0.2,0.7,0.5235987755982988,-0.5235987755982988,0,-0.13924634,-0.84370065,-0.2367843,-0.15138991,0.71974957,1.0787601,1.1597006,-0.08345696,1.3894881,-0.73570776,-0.004086076,0.050753884,1.2118816,-0.78054154
-0.1,-0.2,0.7,0.5235987755982988,-0.5235987755982988,0,-0.9028591,-1.09589,-0.60472333,-0.312285,0.34622484,0.8557967,0.18318841,-0.108773954,1.3840203,-0.7382079,-0.013504823,0.045754366,1.190348,0.5417178
-0.1,-0.2,0.7,0.5235987755982988,-0.5235987755982988,0,-1.030279,-1.0152692,0.0321343,-0.25243348,0.18388581,1.1959462,0.8669636,-0.050543327,1.432491,-0.7453785,-0.0347045,0.16879486,1.3296472,0.6062303
-0.1,-0.2,0.7,0.5235987755982988,-0.5235987755982988,0,-0.7290516,-0.81776357,0.13662113,-0.3356261,-0.37146708,0.9394452,0.48360476,-0.12805034,1.3068539,-0.6894461,-0.06864168,0.08309411,1.205826,-0.1244107
-0.1,-0.2,0.7,0.5235987755982988,-0.5235987755982988,0,-0.5379496,-1.0262214,-0.2131822,-0.24409105,0.13115449,0.8861786,-0.13112833,-0.10591402,1.4070768,-0.6967914,-0.035301734,-0.09415835,1.1338897,0.84562236
-0.1,-0.2,0.7,0.5235987755982988,-0.5235987755982988,0,0.70896596,-0.89772767,-0.05752429,-0.28086188,0.3497549,0.66078156,0.0910573,-0.13075462,1.3501669,-0.7171248,-0.005944526,0.22550844,1.341584,-0.58803594
-0.1,-0.2,0.7,0.5235987755982988,-0.5235987755982988,0,-0.2495551,-0.5637501,0.1959371,-0.1368772,0.24696109,0.87038684,1.0793005,-0.15653288,1.3798689,-0.7255557,-0.030892245,0.3342103,1.2787694,-2.184504
-0.1,-0.2,0.7,0.5235987755982988,-0.5235987755982988,0,0.07590466,-0.6437854,-0.25229868,-0.28340617,0.4335858,0.8809421,0.50319177,-0.13234887,1.3566569,-0.7260451,-0.0033312538,-0.6368584,1.1754817,0.5184442
-0.1,-0.2,0.7,0.5235987755982988,-0.5235987755982988,0,-0.053097364,-0.7480428,-0.31708956,-0.134304,0.033124432,1.0720499,1.019634,-0.07982846,1.3808349,-0.72251076,0.020474318,-0.092358574,1.285657,1.318463
-0.1,-0.2,0.7,0.5235987755982988,-0.5235987755982988,0,-1.6192992,-0.99340886,0.3385869,-0.25837466,1.0758351,1.0828663,0.22291832,-0.1218554,1.3689713,-0.72228885,-0.0070100073,-0.06513535,1.261792,-1.9395022
-0.1,-0.2,0.7,0.5235987755982988,-0.5235987755982988,0,0.6510301,-1.40045,0.0072975135,-0.20006265,0.11537271,0.960351,0.60760844,-0.07485615,1.407835,-0.6973072,-0.002215945,0.38386786,1.4321278,-0.29978028
-0.1,-0.2,0.7,0.5235987755982988,-0.5235987755982988,0,-0.7619187,-0.6328872,-0.13493925,-0.1663363,0.47936216,1.1343056,-0.77095735,-0.10301709,1.3884151,-0.7011483,-0.06302912,0.39739254,1.1988066,-0.2704432
-0.1,-0.2,0.7,0.5235987755982988,-0.5235987755982988,0,0.29903206,-0.68013084,0.06220114,-0.29142487,0.3845889,0.84700334,0.85105973,-0.12674831,1.3582383,-0.72442204,-0.01635739,-0.36842254,1.190242,-1.2236066
-0.1,-0.2,0.7,0.5235987755982988,-0.5235987755982988,0,-0.096659355,-0.9232232,-0.033043064,-0.1483178,0.7477812,0.8810571,0.087610476,-0.107741274,1.3836998,-0.71608853,-0.0059753233,0.361488,1.2200758,-0.9012581
-0.1,-0.2,0.7,0.5235987755982988,-0.5235987755982988,0,-1.413852,-1.1137344,0.70584345,-0.2496217,0.424973,1.2546849,0.07137092,-0.09938585,1.3873967,-0.72335285,-0.027517632,-0.38034156,1.3092083,-0.2278301
-0.1,-0.2,0.7,0.5235987755982988,-0.5235987755982988,0,0.04404091,-1.1467658,-0.5509118,-0.20205088,0.29931682,0.7219753,1.1266576,-0.10447411,1.4077812,-0.67193335,-0.047084488,-0.33018026,1.1424723,-0.69218856
-0.1,-0.2,0.7,0.5235987755982988,-0.5235987755982988,0,-0.6768341,-0.6806917,-0.05261817,-0.12602557,0.23060508,1.1958525,0.08694858,-0.14937899,1.369374,-0.67530674,-0.031634618,-0.22742538,1.1501054,-0.2848185
-0.1,-0.2,0.7,0.5235987755982988,-0.5235987755982988,0,-0.6332129,-0.64823735,0.06886052,-0.27344865,-0.1100966,1.0744228,0.7077286,-0.022960706,1.4172732,-0.6805229,-0.009953636,-0.13447602,1.2000726,-0.3252269
-0.1,-0.2,0.7,0.5235987755982988,-0.5235987755982988,0,0.79142463,-0.5004561,-0.10098813,-0.25506756,0.17643762,0.58248544,-0.19473659,-0.12185517,1.3782557,-0.70110494,-0.0445144,0.4329665,1.2681254,0.56158507
-0.1,-0.2,0.7,0.5235987755982988,-0.5235987755982988,0,-0.40855598,-0.92068803,0.13498811,-0.10674854,0.13494359,1.1389265,0.9306997,-0.11020633,1.3761398,-0.7073228,-0.003216396,-0.24628186,1.0261828,-0.43914676
-0.1,-0.2,0.7,0.5235987755982988,-0.5235987755982988,0,0.34938392,-1.0501896,-0.011228756,-0.3616151,0.55519325,1.2136627,-0.27490884,-0.13050917,1.3603369,-0.7163676,-0.0130353505,-0.22295204,1.1301138,-0.090329215
-0.1,-0.2,0.7,0.5235987755982988,-0.5235987755982988,0,0.898719,-0.9486055,0.072154306,-0.29437378,0.045496542,1.0327952,0.79576236,-0.11355816,1.4172643,-0.7266217,-0.0588852,0.35355324,1.0782098,-0.25663808
-0.1,-0.2,0.7,0.5235987755982988,-0.5235987755982988,0,-0.26396468,-0.95851916,-0.08626109,-0.2305388,0.15482649,1.0332502,0.65360713,-0.11726609,1.3762966,-0.7182961,-0.017836021,-0.6531814,1.198119,-0.114972994
-0.1,-0.2,0.7,0.5235987755982988,-0.5235987755982988,0,-0.3570319,-0.7882242,-0.026804067,-0.3296503,0.57506984,0.74152756,0.54147685,-0.1387543,1.389375,-0.72414654,-0.032982383,0.2252808,1.0973442,-0.9314553
-0.1,-0.2,0.7,0.5235987755982988,-0.5235987755982988,0,-1.4531332,-1.0200199,0.22011842,-0.35278332,0.5206634,0.64376163,0.6843971,-0.101622805,1.40276,-0.6794965,-0.022469237,-0.04539171,1.1032662,-0.112010494
-0.1,-0.2,0.7,0.5235987755982988,-0.5235987755982988,0,0.1668319,-0.9524181,-0.5040402,-0.35314626,0.29657236,0.9476018,0.5806195,-0.098192416,1.4005896,-0.667182,-0.0155652,0.09143739,1.0827805,-0.22409013
-0.1,-0.2,0.7,0.5235987755982988,-0.5235987755982988,0,-0.7903841,-0.85993046,0.009329246,-0.40731612,0.48088348,0.877235,1.1969919,-0.14717911,1.347651,-0.6841988,-0.020785647,-0.16298172,1.2174456,-0.8396542
-0.1,-0.2,0.7,0.5235987755982988,-0.5235987755982988,0,-0.2783427,-0.9338311,-0.5324909,-0.16250485,0.35131747,1.1123434,1.1347722,-0.05802184,1.4055485,-0.71866274,-0.046947856,-0.39612976,1.4002367,-0.98941666
-0.1,-0.2,0.7,0.5235987755982988,-0.5235987755982988,0,-1.2505744,-0.73751193,-0.33518413,-0.3783747,0.1175646,0.782024,1.0846872,-0.1297466,1.402379,-0.65992326,-0.052403398,0.052676097,1.2308737,-0.04008142
-0.1,-0.2,0.7,0.5235987755982988,-0.5235987755982988,0,0.028070342,-0.7963575,-0.0978395,-0.29112825,0.31872535,1.2346939,0.50936645,-0.1264366,1.3032755,-0.6899706,-0.022299727,0.14858185,1.1802423,-1.0413446
-0.1,-0.2,0.7,0.5235987755982988,-0.5235987755982988,0,0.3994619,-0.61723304,0.070182845,-0.25926763,0.27229112,0.88243496,0.13391091,-0.020085892,1.3623418,-0.7245006,0.033003595,0.0074320375,1.3153211,0.6793899
-0.1,-0.2,0.7,0.5235987755982988,-0.5235987755982988,0,-0.24426495,-0.635002,-0.026080308,-0.18160658,0.10051405,1.093144,1.1856568,-0.08183675,1.388622,-0.7406064,-0.007625847,-0.10819226,1.281454,0.04408449
-0.1,-0.2,0.7,0.5235987755982988,-0.5235987755982988,0,-1.2687778,-0.65823305,-0.055177443,-0.2527267,-0.23324962,0.7996318,0.716274,-0.11549987,1.3885225,-0.7233449,-0.022495082,0.6478629,1.2597361,-0.43521702
-0.1,-0.2,0.7,0.5235987755982988,-0.5235987755982988,0,-1.3429519,-1.1779424,-0.057424005,-0.33208546,0.22519806,0.92173535,-0.05016734,-0.14259593,1.381717,-0.7337363,0.019672947,-0.6263029,1.2227087,0.8716911
-0.1,-0.2,0.7,0.5235987755982988,-0.5235987755982988,0,0.14226605,-0.7100882,-0.37684157,-0.24911977,0.4279357,1.0572021,0.58180743,-0.102620155,1.40224,-0.7005959,-0.027961513,0.5494321,1.394871,0.66193706
-0.1,-0.2,0.7,0.5235987755982988,-0.5235987755982988,0,-0.011447274,-1.1756238,-0.010393194,-0.1039274,-0.2652674,0.7171005,1.0310223,-0.11386956,1.366516,-0.72970587,-0.005219375,0.25614858,1.2595068,-0.5291606
-0.1,-0.2,0.7,0.5235987755982988,-0.5235987755982988,0,0.39313072,-0.89801157,-0.32329753,-0.39472908,-0.03454645,0.82292044,0.5508237,-0.079670064,1.3091266,-0.70267946,-0.029655285,0.3065494,1.1573385,0.2461417
-0.1,-0.2,0.7,0.5235987755982988,-0.5235987755982988,0,0.18132518,-1.0870514,0.036389872,-0.32925266,1.0683031,1.224676,0.7192297,-0.080952965,1.3001705,-0.72722113,0.016249392,0.90676814,1.1369913,-0.26551673
-0.1,-0.2,0.7,0.5235987755982988,-0.5235987755982988,0,-0.53562987,-0.8146033,-0.08619108,-0.2573053,-0.16182409,0.7908387,0.78848755,-0.12768093,1.3755633,-0.71578544,-0.015380332,-0.023135496,1.21412,0.8152643
-0.1,-0.2,0.7,0.5235987755982988,-0.5235987755982988,0,-0.6496727,-0.77487516,0.20408392,-0.2518121,0.50483155,0.9798485,0.9200428,-0.08241749,1.3849418,-0.71803945,0.003182364,0.15778865,1.1082108,0.16305442
-0.1,-0.2,0.7,0.5235987755982988,-0.5235987755982988,0,-0.9062336,-1.074941,-0.1261369,-0.3869976,0.41280973,0.80694073,0.52953434,-0.081243254,1.4181566,-0.7350582,-0.028575137,0.17503013,1.4654146,0.48969263
-0.1,-0.2,0.7,0.5235987755982988,-0.5235987755982988,0,-0.55677307,-1.1931208,0.22448346,-0.3275259,0.035897844,0.8063169,0.0490807,-0.08306166,1.3955665,-0.7095354,-0.011033229,-0.16534775,1.1877253,-0.39779955
-0.1,-0.2,0.7,0.5235987755982988,-0.5235987755982988,0,1.1579303,-0.96578515,-0.1292062,-0.2612132,0.34341002,0.78305554,0.81403047,-0.13170269,1.361487,-0.70718217,-0.018995808,-0.06462382,1.2833247,-1.4524857
-0.1,-0.2,0.7,0.5235987755982988,-0.5235987755982988,0,0.08655314,-0.7694722,0.1253276,-0.2901972,0.6495976,0.8640327,0.15467638,-0.08341961,1.4063933,-0.6695015,-0.017083196,0.16813055,1.1260996,0.63676775
-0.1,-0.2,0.7,0.5235987755982988,-0.5235987755982988,0,-0.44355476,-0.5368775,-0.07569487,-0.3085116,-0.20891604,0.7587661,1.7181618,-0.093102716,1.4122163,-0.7163828,-0.056323938,-0.112559795,1.4006432,-1.0141517
-0.1,-0.2,0.7,0.5235987755982988,-0.5235987755982988,0,0.773126,-0.364134,-0.21364036,-0.3448705,0.44876674,0.8624008,-0.01408809,-0.07483172,1.4110936,-0.65023065,-0.039896287,-0.041457016,1.1140364,-0.0490001
-0.1,-0.2,0.7,0.5235987755982988,-0.5235987755982988,0,-0.2145877,-0.9270194,-0.014255749,-0.23288737,0.33262563,0.74042207,0.1963371,-0.08296493,1.4045964,-0.71052396,-0.021062251,0.073602125,1.2824979,-0.48871574
-0.1,-0.2,0.7,0.5235987755982988,-0.5235987755982988,0,0.04387621,-0.7862204,-0.03661148,-0.30057916,0.25025663,1.0849966,0.8409326,-0.051005714,1.4125603,-0.74180156,0.03686912,0.5042662,1.3200665,-0.5855306
-0.1,-0.2,0.7,0.5235987755982988,-0.5235987755982988,0,-0.10021794,-1.0293685,-0.2201152,-0.08507887,0.30144072,0.7639696,0.6840199,-0.054829974,1.413694,-0.6828668,0.0107347695,0.9588504,1.3966373,-0.070052266
-0.1,-0.2,0.7,0.5235987755982988,-0.5235987755982988,0,0.3743247,-0.81049055,0.05316363,-0.22533295,0.3562387,1.3794231,0.87070465,-0.089493,1.3814982,-0.7120555,0.006020154,-0.20950764,1.2967302,1.0242134
-0.1,-0.2,0.7,0.5235987755982988,-0.5235987755982988,0,-0.76450497,-0.6043984,-0.12749642,-0.2857821,0.256921,0.99092185,0.74635696,-0.08289524,1.3718971,-0.730293,-0.038666476,0.40581167,1.339031,-0.7554766
-0.1,-0.2,0.7,0.5235987755982988,-0.5235987755982988,0,-0.3643687,-0.738497,0.03536186,-0.28688395,0.27155286,1.0209916,0.33322975,-0.0916889,1.4017595,-0.737194,-0.017946592,0.55552113,1.4500251,-0.015560179
-0.1,-0.2,0.7,0.5235987755982988,-0.5235987755982988,0,0.57658243,-0.9495719,0.044040646,-0.27880496,0.27322328,1.0788231,-0.35293564,-0.099264264,1.3794408,-0.7080834,-0.0252958,-0.32791752,1.1718,0.46388933
-0.1,-0.2,0.7,0.5235987755982988,-0.5235987755982988,0,1.2844112,-0.6604583,-0.24404283,-0.06972697,0.5997245,1.2888548,0.45345825,-0.13018496,1.3901986,-0.69203115,-0.026504181,-0.1589428,1.2842947,-0.4785755
-0.1,-0.2,0.7,0.5235987755982988,-0.5235987755982988,0,0.7472576,-0.60516536,0.03336934,-0.13061789,0.11249934,1.1557661,0.9350505,-0.13397773,1.3439052,-0.7260253,-0.02172382,-0.24115007,1.2390083,-0.0124183055
-0.1,-0.2,0.7,0.5235987755982988,-0.5235987755982988,0,-0.16402686,-0.81243604,-0.15715107,-0.26879588,0.4929152,0.8779862,0.7414629,-0.16019334,1.3578712,-0.7148883,-0.027276305,0.15604703,1.1911614,0.1668935
-0.1,-0.2,0.7,0.5235987755982988,-0.5235987755982988,0,0.9403436,-0.67770654,-0.12885195,-0.18889914,0.015318158,1.0973265,0.6248479,-0.06760634,1.3969051,-0.7084829,0.010577975,0.18995774,1.1788774,0.20538917
-0.1,-0.2,0.7,0.5235987755982988,-0.5235987755982988,0,0.4733265,-0.89810944,0.18858737,-0.22977392,0.17189705,1.0995688,0.062263627,0.057608645,1.4078718,-0.71596104,0.0012339602,0.0806643,1.2839485,-0.5431301
-0.1,-0.2,0.7,0.5235987755982988,-0.5235987755982988,0,-1.093682,-0.69735837,-0.113204606,-0.2961638,0.07982233,0.63828856,-0.008229342,-0.10680345,1.4062978,-0.6770445,-0.044639368,0.25419286,1.1100308,-0.37049472
-0.1,-0.2,0.7,0.5235987755982988,-0.5235987755982988,0,-0.63454217,-0.799775,-0.07092946,-0.25994945,0.027837126,1.063261,0.44053212,-0.09981887,1.3761988,-0.71545714,-0.033471942,-0.06802556,1.3084219,-0.6688525
-0.1,-0.2,0.7,0.5235987755982988,-0.5235987755982988,0,0.14907578,-0.8627151,0.050213758,-0.34396774,0.16566713,1.3003067,0.30338225,-0.12016729,1.3799438,-0.72099996,-0.016679155,-0.03266791,1.266049,-0.51395804
-0.1,-0.2,0.7,0.5235987755982988,-0.5235987755982988,0,0.5265306,-0.9222738,-0.055388063,-0.40545323,0.48497593,1.0962964,0.022085303,-0.1098209,1.4048138,-0.7277573,-0.017180244,-0.3723808,1.4611093,-0.73859125
-0.1,-0.2,0.7,0.5235987755982988,-0.5235987755982988,0,0.1791355,-0.69122255,0.5007336,-0.25244337,0.7479918,0.9801837,0.4585345,-0.0964795,1.400951,-0.72339433,-0.048580065,-0.24831045,1.357621,-0.15036692
-0.1,-0.2,0.7,0.5235987755982988,-0.5235987755982988,0,-0.1263148,-1.0482528,0.03586455,-0.32736158,0.102632575,1.2874253,0.6976238,-0.15465805,1.3852104,-0.6982208,-0.041816995,-0.44565532,1.3072623,0.16877228
-0.1,-0.2,0.7,0.5235987755982988,-0.5235987755982988,0,0.1558438,-0.7278621,-0.26071483,-0.29693228,0.12562174,1.2170544,0.6656316,-0.066770524,1.4195923,-0.6954955,-0.04317853,0.3107428,1.143805,-0.5186308
-0.1,-0.2,0.7,0.5235987755982988,-0.5235987755982988,0,-1.1267813,-0.8155459,-0.17766242,-0.39174443,0.46041566,0.9625625,-0.3197881,-0.043159787,1.4249961,-0.74930584,0.0012159239,0.045546625,1.1741949,-1.0542318
-0.1,-0.2,0.7,0.5235987755982988,-0.5235987755982988,0,-0.48480448,-0.62965155,-0.311923,-0.01950855,0.15274279,1.1018958,0.8400369,-0.088740714,1.3924367,-0.71107566,-0.041329492,-0.050081596,1.2762789,-1.3125875
-0.1,-0.2,0.7,0.5235987755982988,-0.5235987755982988,0,0.006571556,-1.4436561,-0.13545218,-0.09629498,-0.13303103,0.3766857,0.2896453,-0.09734578,1.4127464,-0.717548,-0.04886864,0.033659983,1.1318353,-0.56814516
-0.1,-0.2,0.7,0.5235987755982988,-0.5235987755982988,0,-1.5310786,-0.5703908,0.10481944,-0.38647974,0.4157675,0.9360515,0.11992817,-0.12709372,1.3693247,-0.6932732,-0.025802892,0.746268,1.3275889,0.056803774
-0.1,-0.2,0.7,0.5235987755982988,-0.5235987755982988,0,-0.34882417,-0.5162771,-0.22971416,-0.20128536,0.35980734,0.81223685,0.535653,0.031930484,1.417591,-0.6852514,0.001464884,0.4103076,1.1356598,0.107452914
-0.1,-0.2,0.7,0.5235987755982988,-0.5235987755982988,0,-0.47094682,-0.6249879,-0.2241213,-0.17780013,-0.23599677,1.1615821,0.56411254,-0.17191163,1.3719753,-0.72118986,-0.03348307,-0.056960076,1.100493,0.018478071
-0.1,-0.2,0.7,0.5235987755982988,-0.5235987755982988,0,0.916328,-0.65783876,-0.06815403,-0.20659983,0.23997639,0.82174456,0.5049636,-0.12815683,1.3855562,-0.7243781,-0.006698535,-0.29123428,1.3175756,-1.6830354
-0.1,-0.2,0.7,0.5235987755982988,-0.5235987755982988,0,-2.1314824,-0.84945095,0.031859525,-0.22664602,0.08448279,0.6282588,1.2321671,-0.046074357,1.3758441,-0.7203337,0.00878215,-0.00089005055,1.3032342,0.6896534
-0.1,-0.2,0.7,0.5235987755982988,-0.5235987755982988,0,-0.29321545,-0.6904575,0.024281278,-0.23829234,-0.201595,1.1728259,0.66400343,-0.11083796,1.3566145,-0.71064204,0.02960404,0.39861938,1.0713866,-0.30564284
-0.1,-0.2,0.7,0.5235987755982988,-0.5235987755982988,0,1.0458686,-0.819197,-0.11040191,-0.31125176,0.21674663,1.0499141,0.3976112,-0.050615374,1.3949022,-0.7238204,-0.009806566,0.37193698,1.0069766,-0.18832731
-0.1,-0.2,0.7,0.5235987755982988,-0.5235987755982988,0,-1.9584605,-0.7256089,0.05699986,-0.2092481,0.06078246,0.88035315,0.77477205,-0.11007638,1.4179088,-0.6987944,-0.043030463,0.23921047,1.3533045,0.5849543
-0.1,-0.2,0.7,0.5235987755982988,-0.5235987755982988,0,1.1593983,-1.0195879,0.1375206,-0.13870376,0.32846665,0.94812286,0.4124832,-0.093235895,1.3683602,-0.6865104,0.01307436,-0.30010056,1.2149316,-0.27516475
-0.1,-0.2,0.7,0.5235987755982988,-0.5235987755982988,0,0.5779415,-0.75485295,-0.026368521,-0.25037166,0.29253787,1.102089,-0.968161,-0.08217095,1.4144392,-0.6873543,-0.0057389294,0.16032037,1.2296182,0.942311
-0.1,-0.2,0.7,0.5235987755982988,-0.5235987755982988,0,1.0714751,-0.7810433,-0.13136739,-0.0700569,0.02562989,0.73219323,0.5581445,-0.013368562,1.3818076,-0.68235713,0.012287244,0.0315009,1.343547,0.61543053
-0.1,-0.2,0.7,0.5235987755982988,-0.5235987755982988,0,0.29152521,-0.85259116,0.009951974,-0.25630605,0.50645393,0.94745153,0.7967099,-0.04985196,1.4057348,-0.71064544,-0.040283658,-0.037310764,1.2901088,-0.6836272
-0.1,-0.2,0.7,0.5235987755982988,-0.5235987755982988,0,-0.45278445,-0.7544194,0.115778714,-0.34997842,0.34614372,1.0570192,0.2115256,-0.07872827,1.3794785,-0.7084661,-0.06038251,-0.24522358,1.3336909,0.55558264
-0.1,-0.2,0.7,0.5235987755982988,-0.5235987755982988,0,0.3242959,-0.7105032,0.22867961,-0.31345496,0.12977944,0.9383836,0.3334379,-0.08977957,1.4181342,-0.6875931,-0.02861634,0.15300982,1.1465149,-0.041504953
-0.1,-0.2,0.7,0.5235987755982988,-0.5235987755982988,0,-0.34694973,-0.93495685,0.104768224,-0.19018827,0.2713286,0.6470736,0.60573655,-0.12970577,1.3834137,-0.73420805,-0.03293479,-0.16631757,1.195411,-0.047013156
-0.1,-0.2,0.7,0.5235987755982988,-0.5235987755982988,0,0.9254519,-0.647181,-0.13341713,-0.27076042,0.07404169,0.8368123,0.6205587,-0.12726577,1.3937304,-0.7202266,0.010184691,0.16039737,1.2131201,-0.39102495
-0.1,-0.2,0.7,0.5235987755982988,-0.5235987755982988,0,0.07309687,-0.64515257,-0.08629982,-0.2841522,-0.06949219,1.1928895,0.042409852,-0.04197791,1.4097747,-0.70701295,-0.013177526,-0.12336091,1.3686786,-1.3663088
-0.1,-0.2,0.7,0.5235987755982988,-0.5235987755982988,0,-1.7036988,-0.6201219,0.06383303,-0.27616718,-0.25209868,1.0767002,-0.36111274,-0.11748369,1.3629061,-0.7361311,0.013215737,-0.0669254,1.2182213,0.14222415
-0.1,-0.2,0.7,0.5235987755982988,-0.5235987755982988,0,-0.7323126,-0.6589088,-0.5563262,-0.3008552,0.460762,0.9476141,-0.102913275,-0.13779904,1.3659588,-0.69202226,-0.0053219497,0.3450993,1.2403655,-0.37507117
-0.1,-0.2,0.7,0.5235987755982988,-0.5235987755982988,0,-0.35918742,-0.5687806,-0.14822361,-0.25438803,0.0720607,1.559649,0.88286394,-0.11969359,1.3534298,-0.7018465,-0.024679635,-0.2159964,1.3141476,-0.44383428
-0.1,-0.2,0.7,0.5235987755982988,-0.5235987755982988,0,-0.6738568,-0.7393934,0.109888546,-0.21963938,0.2261889,1.0281986,0.85119903,-0.07460919,1.3980635,-0.69808865,0.015415045,-0.33458546,1.420074,-1.0503038
-0.1,-0.2,0.7,0.5235987755982988,-0.5235987755982988,0,-0.3210115,-0.77980345,0.34171537,-0.32227474,0.34526318,1.1050489,0.75518423,-0.059733205,1.4041568,-0.7317039,-0.00088477676,0.52569926,1.2553607,0.33067542
-0.1,-0.2,0.7,0.5235987755982988,-0.5235987755982988,0,0.037913267,-1.0563754,0.18416078,-0.2643328,0.057098515,0.72131413,0.54042166,-0.115489595,1.3790303,-0.69112,-0.055491924,0.32824498,1.2160136,-0.29155695
-0.1,-0.2,0.7,0.5235987755982988,-0.5235987755982988,0,-0.07651884,-0.67870885,-0.26282433,-0.36934647,0.5066662,0.84775406,-0.2787313,-0.014617558,1.3855817,-0.7329148,-0.018207751,-0.7147629,1.3958421,-0.7254184
-0.1,-0.2,0.7,0.5235987755982988,-0.5235987755982988,0,-0.9353807,-0.6368107,-0.094223246,-0.21204974,0.4270028,1.315964,0.13901493,3.8288376e-06,1.4125766,-0.7252544,0.027276048,0.2642531,1.1996427,-0.45605743
-0.1,-0.2,0.7,0.5235987755982988,-0.5235987755982988,0,-0.3572826,-0.9812393,-0.2220472,-0.27456704,-0.31243372,0.95226014,0.5671493,-0.16647081,1.407391,-0.7171261,-0.090923004,0.37390164,1.2773709,-0.32222757
-0.1,-0.2,0.7,0.5235987755982988,-0.5235987755982988,0,-1.5808083,-1.0181015,0.38838267,-0.05846545,0.034907304,0.9047232,0.12196429,-0.13827546,1.3879182,-0.70243084,-0.021814154,-0.8509299,1.3403705,-0.8821324
-0.1,-0.2,0.7,0.5235987755982988,-0.5235987755982988,0,-0.41670662,-0.4766464,-0.245367,-0.22613172,0.42070857,0.6787166,0.39534685,-0.09037774,1.3749752,-0.7137249,0.0027877204,-0.1312276,1.2999289,-1.5990168
-0.1,-0.2,0.7,0.5235987755982988,-0.5235987755982988,0,0.33694175,-1.0203559,0.27303907,-0.19903384,0.5755411,1.0358219,-0.1630253,-0.13034193,1.3811749,-0.7256671,-0.017909842,0.3537231,1.2966464,1.143124
-0.1,-0.2,0.7,0.5235987755982988,-0.5235987755982988,0,-0.5366205,-1.3431786,-0.08661937,-0.21053249,0.19587263,1.1323353,1.4003594,-0.06868276,1.3872914,-0.6832692,-0.005013364,-0.26912308,1.2047304,1.2710403
-0.1,-0.2,0.7,0.5235987755982988,-0.5235987755982988,0,-1.4340277,-0.72832537,-0.045464817,-0.36122742,0.28878084,1.0291454,-0.00031433647,-0.06778198,1.4029949,-0.71741444,-0.031945758,-0.44291967,1.314377,-0.79768455
-0.1,-0.2,0.7,0.5235987755982988,-0.5235987755982988,0,0.49745536,-0.8579207,0.28202963,-0.42653462,0.21200195,1.1270933,1.7494857,-0.043846227,1.4113945,-0.73152417,0.0208258,0.16935822,1.1429942,-0.4565331
-0.1,-0.2,0.7,0.5235987755982988,-0.5235987755982988,0,-1.8931955,-0.7174405,0.3011616,-0.22869013,0.13590378,0.6017071,0.9257107,-0.036529984,1.3953031,-0.7013711,-0.012131718,0.10659382,1.1095529,-0.45214173
-0.1,-0.2,0.7,0.5235987755982988,-0.5235987755982988,0,-0.18222335,-0.90015805,-0.29809418,-0.15117808,0.08799235,1.1770177,-0.25378224,-0.1364446,1.3890617,-0.6932789,-0.03103307,0.13591611,1.3212454,0.6357695
-0.1,-0.2,0.7,0.5235987755982988,-0.5235987755982988,0,0.6926644,-0.7868229,0.16326202,-0.37499785,0.0064116013,0.8386325,0.73492193,-0.13370071,1.3499374,-0.7348484,-0.03794236,0.37503833,1.3911881,0.33320805
-0.1,-0.2,0.7,0.5235987755982988,-0.5235987755982988,0,-0.96254957,-0.7857029,0.19486187,-0.12347941,0.16972136,0.91303086,0.24819618,-0.114422746,1.368338,-0.6882596,-0.012023263,0.5602309,1.4349846,-0.64698434
-0.1,-0.2,0.7,0.5235987755982988,-0.5235987755982988,0,-0.62441087,-0.9767695,-0.33260074,-0.1117501,0.08724824,1.4432033,0.26641235,-0.08281537,1.3689654,-0.7049322,0.0047447956,-0.15303479,1.155984,0.20694923
-0.1,-0.2,0.7,0.5235987755982988,-0.5235987755982988,0,-0.52231157,-0.85644776,0.14884852,-0.22923851,0.11232659,1.0208094,0.439444,-0.064880036,1.360539,-0.7132823,0.026288632,-0.81952786,1.0719969,1.1521336
-0.1,-0.2,0.7,0.5235987755982988,-0.5235987755982988,0,-0.95721364,-0.5415867,0.037817247,-0.15804842,0.23541903,0.86043453,1.027975,-0.1361679,1.358684,-0.68557084,-0.051708158,-0.067769036,1.4466649,0.37362614
-0.1,-0.2,0.7,0.5235987755982988,-0.5235987755982988,0,-0.1978239,-1.118751,0.10947499,-0.3906634,-0.24333993,0.7549705,0.3189209,-0.09455069,1.3778937,-0.71128327,-0.0072182347,0.058656394,1.4020947,0.04439967
-0.1,-0.2,0.7,0.5235987755982988,-0.5235987755982988,0,-0.9888168,-0.6812974,-0.1670778,-0.30505323,-0.06398587,0.59667355,0.8893311,-0.10730589,1.4149264,-0.7285941,-0.059732884,-0.22756793,1.1566811,0.30851865
-0.1,-0.2,0.7,0.5235987755982988,-0.5235987755982988,0,-0.43066132,-0.6221522,-0.031837873,-0.33151725,0.523019,0.84485054,0.6130493,-0.10286677,1.3908417,-0.7173459,0.014884072,0.3350063,1.090062,-0.74745744
-0.1,-0.2,0.7,0.5235987755982988,-0.5235987755982988,0,-0.024006307,-0.8898587,-0.116198406,-0.17737775,0.3890275,0.84536034,0.7328148,-0.030900044,1.4118264,-0.7022537,-0.0017175768,0.10996187,1.236803,0.35430688
-0.1,-0.2,0.7,0.5235987755982988,-0.5235987755982988,0,-1.2518182,-0.65991277,0.0382034,-0.067944646,0.3260255,0.7838627,0.45080557,-0.052968245,1.3579963,-0.6987162,-0.035489567,0.007434435,1.4215328,-0.37115908
-0.1,-0.2,0.7,0.5235987755982988,-0.5235987755982988,0,-0.4613896,-0.9462872,-0.14301153,-0.15972601,0.30057836,0.7565114,0.6499139,-0.067344494,1.3519427,-0.71540964,-0.0012662013,-0.5360457,1.0785344,-0.43988672
-0.1,-0.2,0.7,0.5235987755982988,-0.5235987755982988,0,0.5661827,-1.0729007,-0.1088507,-0.31957456,0.54513127,1.2003218,0.51132935,0.010964458,1.3761599,-0.73484164,-0.0022449878,0.18619768,1.4122883,-0.26051998
-0.1,-0.2,0.7,0.5235987755982988,-0.5235987755982988,0,0.43216488,-1.1504056,-0.11502127,-0.13008119,-0.17811961,1.0632279,-0.34307566,-0.12745398,1.3752367,-0.6734428,-0.033311266,0.5693711,1.1812449,-0.61975116
-0.1,-0.2,0.7,0.5235987755982988,-0.5235987755982988,0,0.2593478,-0.89052707,-0.6064834,-0.24004576,0.15454882,0.9144645,0.6546952,-0.09462554,1.3784019,-0.6803097,-0.014814671,0.5345079,1.149863,0.7426538
-0.1,-0.2,0.7,0.5235987755982988,-0.5235987755982988,0,-1.0456395,-0.8112952,-0.16278473,-0.19621453,-0.121015854,1.3077136,1.2345732,0.038675725,1.3788488,-0.7136048,0.03255629,0.3221503,1.2982163,-0.3970435
-0.1,-0.2,0.7,0.5235987755982988,-0.5235987755982988,0,1.2707973,-0.6521208,0.18175429,-0.13974114,0.5422429,0.82770175,0.97462934,-0.09841442,1.3641901,-0.7225278,-0.011157248,-0.43524572,1.2633995,-0.48742387
-0.1,-0.2,0.7,0.5235987755982988,-0.5235987755982988,0,-1.3743463,-0.95580435,0.093581304,-0.36342973,0.250547,0.56828135,0.49327123,-0.10427655,1.3734664,-0.72232234,-0.016857844,-0.648987,1.103387,-0.6192253
-0.1,-0.2,0.7,0.5235987755982988,-0.5235987755982988,0,-0.016924283,-0.87391114,-0.27344012,-0.06552647,-0.0951713,1.0203347,0.8000866,-0.057613563,1.3945272,-0.73487175,-0.024661649,-0.48637345,1.3548404,-1.7809169
-0.1,-0.2,0.7,0.5235987755982988,-0.5235987755982988,0,-0.05453652,-0.6790383,-0.38646078,-0.35142258,-0.00032802863,0.6576362,0.9693201,-0.093789965,1.3870088,-0.6860849,-0.012223204,-0.07023801,1.2945681,0.9460775
-0.1,-0.2,0.7,0.5235987755982988,-0.5235987755982988,0,-0.8979581,-0.9727659,0.2598575,-0.28376237,0.10169074,1.0448883,0.657781,-0.12605222,1.3526901,-0.7098096,0.00014507865,0.26014528,1.1370134,0.81658846
-0.1,-0.2,0.7,0.5235987755982988,-0.5235987755982988,0,0.23254944,-0.79958683,-0.65899915,-0.07212072,0.06791219,0.7509875,-0.13953087,-0.07819764,1.4051272,-0.7027411,-0.02564741,0.40312833,1.1618897,0.16145237
-0.1,-0.2,0.7,0.5235987755982988,-0.5235987755982988,0,-0.89031327,-0.81306976,-0.25753602,-0.34838262,-0.047627445,1.0988859,0.08854362,-0.078005835,1.3912753,-0.71569926,-0.012049544,-0.11669809,1.2229254,-1.8649143
-0.1,-0.2,0.7,0.5235987755982988,-0.5235987755982988,0,-0.062219042,-0.8540464,-0.17575443,-0.31252867,0.69326514,0.6419499,-0.111283705,-0.07392774,1.3940313,-0.7279931,-0.020914273,-0.42068386,1.2437342,0.5664307
-0.1,-0.2,0.7,0.5235987755982988,-0.5235987755982988,0,-0.08916591,-0.83733016,-0.048511855,-0.24869458,0.30984533,1.330611,1.1290065,-0.081992276,1.3961518,-0.7400172,0.0072343927,0.24735828,1.2534362,-0.52904826
-0.1,-0.2,0.7,0.5235987755982988,-0.5235987755982988,0,1.0573567,-0.5369447,-0.05778752,-0.4061687,0.24414374,1.000516,-0.087588064,-0.08380895,1.3765459,-0.7247086,-0.01145482,0.1538297,1.3038034,-0.09852211
-0.1,-0.2,0.7,0.5235987755982988,-0.5235987755982988,0,0.48079684,-0.80744976,0.07234019,-0.21970165,0.41729364,1.1446903,-0.139455,-0.08978549,1.3766694,-0.68241197,-0.01835559,-0.3876254,1.4390663,0.028031832
-0.1,-0.2,0.7,0.5235987755982988,-0.5235987755982988,0,-0.10411324,-0.5219796,-0.05313543,-0.25414827,0.15302274,0.7891156,0.24023682,-0.06332289,1.3928908,-0.720372,-0.0025229172,0.54801136,1.4746009,0.7755218
-0.1,-0.2,0.7,0.5235987755982988,-0.5235987755982988,0,-0.18077758,-0.6116838,0.077852696,-0.43048236,0.026484966,0.89530015,-0.02175588,-0.049127728,1.3583181,-0.69044185,0.017025642,-0.41504994,1.247983,-0.3126101
-0.1,-0.2,0.7,0.5235987755982988,-0.5235987755982988,0,-0.5108955,-0.57790947,-0.1270372,-0.33873224,0.6547633,1.1250004,0.43041098,-0.1070765,1.3838173,-0.7162592,-0.016213859,-0.63755596,1.1676307,-0.21223736
-0.1,-0.2,0.7,0.5235987755982988,-0.5235987755982988,0,-0.006531264,-0.6804388,-0.11534405,-0.33573756,0.6405075,1.215307,-0.28050268,-0.07030723,1.3913107,-0.7091148,-0.0052960026,-0.67712134,1.3151367,-0.9314609
-0.1,-0.2,0.7,0.5235987755982988,-0.5235987755982988,0,-0.40893778,-1.2661917,-0.3335026,-0.323737,0.56679386,0.98899215,1.2705948,-0.10325814,1.4019215,-0.6944372,-0.047186323,-0.42110065,1.2189641,0.30463126
-0.1,-0.2,0.7,0.5235987755982988,-0.5235987755982988,0,-0.9624931,-1.1311347,-0.34545577,-0.32258144,0.52630216,0.98472035,0.2609756,-0.11342827,1.3953545,-0.7211544,-0.04537577,-0.36578646,1.2015053,-0.44041044
-0.1,-0.2,0.7,0.5235987755982988,-0.5235987755982988,0,-0.2949199,-0.4930623,-0.11621983,-0.26444444,0.48575163,1.1621033,0.91287965,-0.11371489,1.3934416,-0.7060273,-0.04064312,0.5613554,1.0860909,-0.40781412
-0.1,-0.2,0.7,0.5235987755982988,-0.5235987755982988,0,0.4548804,-0.6982592,-0.042576604,-0.30705693,0.15200435,0.88285244,0.3565328,-0.03694125,1.4171447,-0.7126383,-0.010471697,0.075882435,1.2399668,-1.5533149
-0.1,-0.2,0.7,0.5235987755982988,-0.5235987755982988,0,-0.31654015,-1.3678743,-0.38339055,-0.2812507,0.3878492,0.75997823,0.07577426,-0.028807525,1.3875878,-0.7446034,0.03168319,-0.103970475,1.172427,1.3572247
-0.1,-0.2,0.7,0.5235987755982988,-0.5235987755982988,0,-0.5603187,-0.87085676,-0.15281072,-0.39631018,0.2662477,1.1030705,1.354508,-0.06714966,1.4173473,-0.7177697,-0.032132685,-0.043702014,1.2071416,0.39830413
-0.1,-0.2,0.7,0.5235987755982988,-0.5235987755982988,0,0.82760495,-0.68806857,-0.32425,-0.2433431,0.54771864,0.6833241,1.2979486,-0.0860852,1.3953594,-0.7225528,-0.016735114,-0.31307563,1.1829765,-0.40747902
-0.1,-0.2,0.7,0.5235987755982988,-0.5235987755982988,0,0.19274609,-0.74650896,0.12083189,-0.54187304,0.7338355,0.78971887,0.036973637,-0.07862612,1.4003011,-0.7032859,-0.015976194,-0.20655164,1.2054881,-0.26298073
-0.1,-0.2,0.7,0.5235987755982988,-0.5235987755982988,0,0.3643034,-0.59519726,0.113482594,-0.22774017,0.4494511,1.0675789,0.22133818,-0.090406634,1.3951268,-0.69490653,-0.011111312,0.28408542,1.1130455,0.06471638
-0.1,-0.2,0.7,0.5235987755982988,-0.5235987755982988,0,0.6013729,-0.71336716,0.38901612,-0.2775288,-0.29634207,0.7302093,0.47698927,-0.05174796,1.4115183,-0.7365716,-0.009249932,0.22521496,1.1236979,0.66418
-0.1,-0.2,0.7,0.5235987755982988,-0.5235987755982988,0,-1.0848498,-0.7347595,0.20391825,-0.34909835,0.27361944,1.0397042,0.6182095,-0.08554955,1.3944519,-0.7549382,-0.021123247,-0.15351157,1.1888478,0.8582567
-0.1,-0.2,0.7,0.5235987755982988,-0.5235987755982988,0,-0.52060485,-0.8756931,-0.426781,-0.17317401,0.58516526,1.371958,1.0782111,-0.062155202,1.4057989,-0.69615245,-0.023514178,-0.13200407,1.1700518,-0.11290842
-0.1,-0.2,0.7,0.5235987755982988,-0.5235987755982988,0,-0.8755459,-0.77241117,-0.03849694,-0.21537416,0.7187207,0.8385522,0.6463442,-0.06275269,1.4105428,-0.71293765,-0.009146178,0.33361363,1.0265136,-0.17481107
-0.1,-0.2,0.7,0.5235987755982988,-0.5235987755982988,0,0.4372528,-0.99428654,-0.2889262,-0.29959467,0.10810575,0.94096375,0.80490005,-0.03347868,1.4232092,-0.69555885,-0.017242463,-0.1321889,1.1194007,-0.29211056
-0.1,-0.2,0.7,0.5235987755982988,-0.5235987755982988,0,-0.48576137,-0.85926104,-0.22864896,-0.15735248,-0.10196206,1.2039965,0.25971144,-0.06362646,1.400485,-0.71297956,-0.010310803,0.100508206,1.3966177,-0.5014869
-0.1,-0.2,0.7,0.5235987755982988,-0.5235987755982988,0,-0.38356963,-0.8993956,-0.19606133,-0.35270846,0.28805923,0.87513983,-0.09484357,-0.20148024,1.3433361,-0.7295493,-0.054677647,-0.5655355,1.2139785,-0.6005166
-0.1,-0.2,0.7,0.5235987755982988,-0.5235987755982988,0,-0.16094996,-0.7264512,-0.251911,-0.20553245,0.46394807,1.3276242,0.113210306,-0.10592962,1.377186,-0.7357613,-0.0084459055,0.41899884,1.1360949,-1.1468992
-0.1,-0.2,0.7,0.5235987755982988,-0.5235987755982988,0,0.23752782,-0.79935485,-0.20461056,-0.27043563,-0.18385586,1.1313083,1.0031441,-0.028760798,1.3877907,-0.6798524,0.012311345,0.108351804,1.358945,-0.6081083
-0.1,-0.2,0.7,0.5235987755982988,-0.5235987755982988,0,-1.3541164,-0.7965064,0.20067845,-0.35967833,0.5814535,0.9637147,0.89209425,0.022984609,1.3999114,-0.71121526,0.045868147,-0.34098247,1.2360063,-0.0016230025
-0.1,-0.2,0.7,0.5235987755982988,-0.5235987755982988,0,0.20596637,-0.8287532,-0.121731356,-0.21803366,0.16627423,0.98254,0.16757043,-0.07705383,1.380797,-0.69826376,-0.020441065,0.35675016,1.3818845,0.26372647
-0.1,-0.2,0.7,0.5235987755982988,-0.5235987755982988,0,0.15861557,-0.66468674,-0.29566988,-0.24936073,0.6445497,0.9563252,0.71123,-0.10163268,1.3903651,-0.7423216,-0.027179984,0.17678177,1.1199763,0.13996924
-0.1,-0.2,0.7,0.5235987755982988,-0.5235987755982988,0,-0.24934307,-1.116135,-0.08279466,-0.30768883,0.5289892,0.93140775,-0.29314187,-0.06420839,1.3541209,-0.691654,0.031557105,0.13919707,1.2241226,0.86326325
-0.1,-0.2,0.7,0.5235987755982988,-0.5235987755982988,0,-0.12490111,-1.01618,-0.13773572,-0.1708222,0.5373061,1.058746,0.21924782,-0.0834207,1.4037312,-0.6950638,-0.03436232,0.4527311,1.2327145,-0.123178884
-0.1,-0.2,0.7,0.5235987755982988,-0.5235987755982988,0,1.226983,-0.4469236,-0.3958332,-0.29345566,0.12466701,0.9751802,-0.09286667,-0.083101265,1.3881361,-0.7079625,-0.019378604,-0.31041405,1.3182577,-0.38772652
-0.1,-0.2,0.7,0.5235987755982988,-0.5235987755982988,0,0.20805955,-0.8738827,-0.22761467,-0.3328611,0.40354,1.2176989,0.46143225,-0.05543077,1.394473,-0.72155845,-0.0060774228,0.16199763,1.1233252,-0.12547776
-0.1,-0.2,0.7,0.5235987755982988,-0.5235987755982988,0,-0.060669336,-1.264269,-0.83601475,-0.23573607,0.26697013,1.0441769,0.7940811,-0.09589373,1.3812705,-0.70152926,-0.04085547,-0.33295208,1.1911182,0.6137649
-0.1,-0.2,0.7,0.5235987755982988,-0.5235987755982988,0,0.23863316,-0.7551815,-0.020768592,-0.2190093,0.035058357,1.1973029,0.7836859,-0.12369967,1.3908688,-0.66764534,-0.04392792,0.12554194,1.1831917,-0.4935973
-0.1,-0.2,0.7,0.5235987755982988,-0.5235987755982988,0,0.18090403,-0.71074647,-0.18503007,-0.33028612,-0.15533601,0.5465638,0.7284179,-0.038113605,1.400452,-0.72628266,0.0106910085,0.31914788,1.2045357,0.9219725
-0.1,-0.2,0.7,0.5235987755982988,-0.5235987755982988,0,0.5861436,-0.9889382,0.0091972705,-0.12173653,0.57022095,1.003089,0.93478554,-0.07965697,1.3876454,-0.7169948,-0.010975397,0.26417994,1.2185975,-0.2709798
-0.1,-0.2,0.7,0.5235987755982988,-0.5235987755982988,0,-1.1687046,-0.981732,-0.394253,-0.037388027,0.38936076,1.1892319,0.3830752,-0.09759744,1.3747666,-0.71539736,-0.020876953,0.54851806,1.1846801,-0.76984644
-0.1,-0.2,0.7,0.5235987755982988,-0.5235987755982988,0,-0.060906723,-0.83258367,0.014047291,-0.22467384,0.6082463,0.60329896,0.28456897,-0.08820915,1.3700849,-0.7104445,-0.00244355,-0.44210985,1.2843003,0.4136125
-0.1,-0.2,0.7,0.5235987755982988,-0.5235987755982988,0,-1.3140123,-0.7508847,-0.14308423,-0.20827876,0.47989282,1.0674281,0.8928958,-0.084044315,1.3867685,-0.7100472,0.0053087655,0.11820035,1.1533812,-1.141462
-0.1,-0.2,0.7,0.5235987755982988,-0.5235987755982988,0,0.68023646,-0.98513186,-0.1788381,-0.04532806,0.23055132,1.0105251,0.64634234,-0.067551196,1.3787684,-0.6827942,0.0038653654,0.3913077,1.1169727,1.032197
-0.1,-0.2,0.7,0.5235987755982988,-0.5235987755982988,0,-0.36943027,-1.038944,-0.09672135,-0.15430841,0.4141804,1.21239,-0.16686152,-0.032067094,1.4143984,-0.69370395,0.012928665,0.26196307,1.1601704,-0.5240599
-0.1,-0.2,0.7,0.5235987755982988,-0.5235987755982988,0,-1.6421896,-0.68615985,-0.16750151,-0.05065171,0.66089773,0.66466165,0.4643909,-0.07237262,1.3857572,-0.73110473,0.007810707,0.2771098,1.2359419,0.8306028
-0.1,-0.2,0.7,0.5235987755982988,-0.5235987755982988,0,-0.24671878,-0.8027088,-0.12709157,-0.22990385,0.012933715,1.4214406,1.2993711,-0.1007816,1.3928696,-0.739829,-0.030528516,0.15824938,1.1361713,0.777189
-0.1,-0.2,0.7,0.5235987755982988,-0.5235987755982988,0,0.32663527,-0.84987557,-0.5060391,-0.28685516,-0.28177348,1.1626908,0.43795207,-0.02412039,1.3663696,-0.71441966,0.04055357,0.1593993,1.315274,-0.6028441
-0.1,-0.2,0.7,0.5235987755982988,-0.5235987755982988,0,0.71078545,-1.1853291,-0.1315568,-0.18720494,0.019046057,0.6566845,0.53098655,-0.08626379,1.3685873,-0.7524385,0.009625694,-0.104563534,1.2368536,0.57064986
-0.1,-0.2,0.7,0.5235987755982988,-0.5235987755982988,0,-1.4517672,-0.99991465,0.079987675,-0.34141964,0.47229066,0.915274,0.44263452,-0.037305407,1.394094,-0.7391889,-0.036338236,-0.12748423,1.1451739,-0.39086536
-0.1,-0.2,0.7,0.5235987755982988,-0.5235987755982988,0,-0.12368121,-0.7447267,0.20883653,-0.4124575,0.6438637,0.5975036,-0.24880321,-0.050307132,1.3951449,-0.7341027,-0.07807579,0.47688222,1.2730933,-0.5016352
-0.1,-0.2,0.7,0.5235987755982988,-0.5235987755982988,0,0.01553674,-0.8701196,-0.07237396,-0.20404115,0.041465607,1.0437617,0.17002037,-0.04515018,1.3960502,-0.7276022,-0.07284191,0.15314761,1.1807705,0.5914472
-0.1,-0.2,0.7,0.5235987755982988,-0.5235987755982988,0,0.74059963,-0.78628445,0.3694285,-0.25400442,0.3509334,1.0825934,0.29748765,-0.039721556,1.3775557,-0.71005505,-0.039316196,-0.52668405,1.236578,0.21052541
-0.1,-0.2,0.7,0.5235987755982988,-0.5235987755982988,0,0.44851965,-0.81906706,-0.2398358,-0.29956287,0.5146731,0.85169804,0.83833283,-0.06336174,1.3440496,-0.68884975,-0.03809603,0.25132287,1.3105564,-0.9213702
-0.1,-0.2,0.7,0.5235987755982988,-0.5235987755982988,0,0.5359252,-0.7563022,-0.47928798,-0.24142319,0.45157236,0.80004615,0.08864305,-0.05565793,1.3639704,-0.7351984,-0.025555478,0.2425418,1.2046922,0.49006516
-0.1,-0.2,0.7,0.5235987755982988,-0.5235987755982988,0,-0.8451941,-0.5549177,0.08552139,-0.21670637,0.5382775,0.77984273,0.033547062,-0.035096534,1.3545778,-0.7211308,0.011937353,0.44294187,1.360236,-0.04129264
-0.1,-0.2,0.7,0.5235987755982988,-0.5235987755982988,0,-0.976437,-1.1140301,0.07740086,-0.055181276,0.3849135,0.9130393,0.44706297,-0.033994608,1.3816915,-0.70999384,-0.028906247,0.08810046,1.1850753,0.54961276
-0.1,-0.2,0.7,0.5235987755982988,-0.5235987755982988,0,-0.86563766,-0.8853455,-0.096089564,-0.19883154,0.6113968,0.86095953,0.63825595,-0.021590272,1.394808,-0.73807573,-0.007378922,-0.24926384,1.2212974,-0.2320921
