sanky1234/BimanualDexCatch/isaacgymenvs/cem_results/football_pose_0.1_-0.1_1.0999999999999999_0.0_0.5235987755982988_0_2025-05-26.csv
x,y,z,roll,pitch,yaw,robot1/joint1,robot1/joint2,robot1/joint3,robot1/joint4,robot1/joint5,robot1/joint6,robot1/joint7,robot2/joint1,robot2/joint2,robot2/joint3,robot2/joint4,robot2/joint5,robot2/joint6,robot2/joint7
0.1,-0.1,1.0999999999999999,0.0,0.5235987755982988,0,-1.5628546,1.0076047,-0.5009549,0.53400993,-0.69900143,1.078565,0.058566753,0.9057201,-1.7224989,-0.1959932,0.08547731,-0.35228354,0.35829654,-0.08148195
0.1,-0.1,1.0999999999999999,0.0,0.5235987755982988,0,-1.574098,1.0128247,-0.4838578,0.5348775,-0.7362479,1.0878758,0.057256065,1.4112985,-1.4843044,-0.10610402,0.16092168,-0.3691148,0.98786205,-0.23364645
0.1,-0.1,1.0999999999999999,0.0,0.5235987755982988,0,-1.583396,0.99873424,-0.4984204,0.5341681,-0.72323,1.0848941,0.061137326,0.8864816,-1.5924544,-0.12557016,0.20743927,0.21517023,0.0883539,-0.7706172
0.1,-0.1,1.0999999999999999,0.0,0.5235987755982988,0,-1.5827881,1.0267966,-0.4922017,0.5301681,-0.72349036,1.079616,0.0754684,1.0906835,-1.0737184,-0.4937573,0.06713373,0.1442587,0.45488825,-0.28691965
0.1,-0.1,1.0999999999999999,0.0,0.5235987755982988,0,-1.5942143,1.0162258,-0.49289757,0.54388094,-0.690642,1.0878645,0.077904694,0.6563915,-1.7367759,-0.20182337,0.12599,0.0215716,0.58317906,0.041686375
0.1,-0.1,1.0999999999999999,0.0,0.5235987755982988,0,-1.5665542,1.0308945,-0.5020749,0.5322222,-0.72923523,1.0855372,0.04893171,1.0093069,-1.7884991,0.114698105,0.1518965,0.15459491,0.27266344,0.6595432
0.1,-0.1,1.0999999999999999,0.0,0.5235987755982988,0,-1.590862,1.0181199,-0.4852872,0.53742296,-0.7275479,1.0833472,0.09089583,0.6326235,-1.3411129,0.14011124,0.16765887,-0.16315846,0.23868763,1.2000253
0.1,-0.1,1.0999999999999999,0.0,0.5235987755982988,0,-1.5765752,1.0424163,-0.4777946,0.5335428,-0.71160924,1.0907848,0.077295065,1.2005752,-1.6851186,0.06376255,0.123907074,0.08027111,0.8389875,-0.07993815
0.1,-0.1,1.0999999999999999,0.0,0.5235987755982988,0,-1.5861382,0.9898927,-0.49215376,0.5344333,-0.7072116,1.0860292,0.05891479,0.8913884,-1.3186015,0.109979965,0.091051914,0.18952182,0.6575547,0.17514509
0.1,-0.1,1.0999999999999999,0.0,0.5235987755982988,0,-1.5752798,1.0132427,-0.50649416,0.5364947,-0.71932214,1.0762751,0.061419755,1.3059154,-1.802279,-0.43017942,0.33861485,-0.10146328,0.7076841,0.28515664
0.1,-0.1,1.0999999999999999,0.0,0.5235987755982988,0,-1.5920027,1.0242597,-0.49072963,0.5346125,-0.71651834,1.084364,0.05492667,1.157418,-1.508195,0.08067724,0.19873056,-0.56280464,0.21912621,0.14505832
0.1,-0.1,1.0999999999999999,0.0,0.5235987755982988,0,-1.5681428,1.0268644,-0.4934319,0.542467,-0.6936868,1.0793301,0.0762789,1.1700494,-1.1036477,0.3586821,0.09243217,-0.94913286,0.87185794,-1.5091326
0.1,-0.1,1.0999999999999999,0.0,0.5235987755982988,0,-1.5797693,1.0077604,-0.49305323,0.5420978,-0.7045294,1.0880301,0.04731294,0.91734725,-1.6327701,-0.12321595,0.24555166,0.4582492,0.6318255,0.60613173
0.1,-0.1,1.0999999999999999,0.0,0.5235987755982988,0,-1.5783757,1.0045625,-0.48853362,0.5325237,-0.69553727,1.0970664,0.06256835,0.9439514,-1.2677795,-0.20913757,0.084063455,0.1156268,0.67040324,-0.7206379
0.1,-0.1,1.0999999999999999,0.0,0.5235987755982988,0,-1.596879,1.0308846,-0.48612309,0.5321864,-0.722269,1.0815752,0.079595014,1.0521308,-1.0544446,-0.09088686,0.27055815,0.035374325,0.45975053,0.32891104
0.1,-0.1,1.0999999999999999,0.0,0.5235987755982988,0,-1.5787625,1.0302668,-0.48845112,0.53900975,-0.6962448,1.1011872,0.086081706,0.7629246,-1.3156953,-0.087026685,0.3514897,-0.23911257,0.17171313,-0.17788643
0.1,-0.1,1.0999999999999999,0.0,0.5235987755982988,0,-1.5804473,1.0248653,-0.49333963,0.5375497,-0.73044413,1.0923243,0.047245517,1.3423349,-1.6449637,-0.1506202,0.32277536,0.06278298,-0.5069791,0.546418
0.1,-0.1,1.0999999999999999,0.0,0.5235987755982988,0,-1.5851754,1.0091599,-0.49389824,0.53305703,-0.71997315,1.0868763,0.055735577,0.97640526,-1.4600298,-0.40561923,0.21908052,-0.15689482,0.25445738,0.62229306
0.1,-0.1,1.0999999999999999,0.0,0.5235987755982988,0,-1.6081876,1.0000935,-0.49894145,0.5327315,-0.70146275,1.0682017,0.041554436,1.3379616,-1.4083506,0.6186249,0.2830248,-1.0077922,0.5325247,0.8371418
0.1,-0.1,1.0999999999999999,0.0,0.5235987755982988,0,-1.573527,1.0353894,-0.47835878,0.5399694,-0.7351519,1.0769335,0.057654563,1.0853878,-1.5431486,-0.04452833,0.2220267,-0.16495006,0.8499035,-0.2958216
0.1,-0.1,1.0999999999999999,0.0,0.5235987755982988,0,-1.5855582,1.0241605,-0.49296358,0.5324927,-0.71741384,1.0867199,0.05824793,1.0944519,-1.1242262,0.29601964,0.28736255,0.023365363,0.6367757,-0.010697691
0.1,-0.1,1.0999999999999999,0.0,0.5235987755982988,0,-1.5784236,1.014746,-0.509054,0.53617704,-0.7284156,1.0687629,0.054600406,1.2075815,-1.256313,-0.18448879,0.124402545,-0.022808144,-0.010923253,-0.09263524
0.1,-0.1,1.0999999999999999,0.0,0.5235987755982988,0,-1.5893897,1.0205315,-0.5021749,0.5366893,-0.7181673,1.0802227,0.04466228,0.956683,-1.5584097,0.17783685,0.11045047,-0.5371978,-0.08531711,-0.7948016
0.1,-0.1,1.0999999999999999,0.0,0.5235987755982988,0,-1.5764405,1.0442649,-0.48674107,0.5275186,-0.7287095,1.0785205,0.054981347,0.68819934,-1.502768,-0.013153711,0.16160345,-0.17183802,0.5315142,0.50877494
0.1,-0.1,1.0999999999999999,0.0,0.5235987755982988,0,-1.5795474,1.0289083,-0.5019232,0.5373863,-0.6990183,1.0855219,0.085462905,1.4610286,-1.2727455,-0.008661302,0.09540623,-0.07886879,0.44791397,-1.0720668
0.1,-0.1,1.0999999999999999,0.0,0.5235987755982988,0,-1.5816822,1.0256397,-0.48674354,0.5368893,-0.7137705,1.0938414,0.041279636,1.0576257,-1.6222565,-0.21543176,0.21279772,-0.13932961,1.0222646,1.3238618
0.1,-0.1,1.0999999999999999,0.0,0.5235987755982988,0,-1.6075935,1.0268072,-0.4876962,0.5306041,-0.7155845,1.079897,0.04787292,1.0164543,-1.6067052,0.078870185,0.120208286,-0.38453254,0.38905686,-0.36844176
0.1,-0.1,1.0999999999999999,0.0,0.5235987755982988,0,-1.597732,1.0061603,-0.50816745,0.5408995,-0.7163821,1.0834905,0.06148808,0.7184188,-1.6992131,-0.3060551,0.14465407,0.03553349,0.2943067,-0.69514847
0.1,-0.1,1.0999999999999999,0.0,0.5235987755982988,0,-1.5862101,1.0181464,-0.5006945,0.5362058,-0.710762,1.071497,0.068086445,0.8484204,-1.6456119,-0.2600854,0.3628337,-0.16790658,0.24276064,1.3042572
0.1,-0.1,1.0999999999999999,0.0,0.5235987755982988,0,-1.5804493,1.0059865,-0.50042856,0.5362588,-0.7289644,1.086161,0.043152492,1.0738733,-1.4003165,-0.28792053,0.043205976,0.1676849,0.58893734,0.33403057
0.1,-0.1,1.0999999999999999,0.0,0.5235987755982988,0,-1.5995016,1.0363415,-0.48581874,0.5375452,-0.726581,1.0785048,0.07245929,1.2514753,-1.2975646,-0.118856244,0.1067836,0.2744286,0.3158278,0.3124485
0.1,-0.1,1.0999999999999999,0.0,0.5235987755982988,0,-1.5755212,1.0381817,-0.49752015,0.5373439,-0.7256101,1.08323,0.079176806,0.7691342,-1.0582852,-0.4499404,0.046128634,0.315294,0.25493228,-0.23358582
0.1,-0.1,1.0999999999999999,0.0,0.5235987755982988,0,-1.5852008,1.0291808,-0.50589854,0.533367,-0.7091762,1.078922,0.06974988,1.232043,-1.6093941,0.4673939,0.26090586,0.39468116,0.29398057,-0.96328336
0.1,-0.1,1.0999999999999999,0.0,0.5235987755982988,0,-1.5901415,1.0147753,-0.48935443,0.5358544,-0.714453,1.095327,0.095255256,1.1438215,-0.9907867,0.04495353,0.03334897,0.13815136,0.4304631,-0.068924
0.1,-0.1,1.0999999999999999,0.0,0.5235987755982988,0,-1.5808816,1.0155288,-0.5082045,0.52593136,-0.7233768,1.090483,0.059113458,1.3008523,-1.261512,-0.087552115,0.16571382,-0.5826459,0.16997658,-0.6001388
0.1,-0.1,1.0999999999999999,0.0,0.5235987755982988,0,-1.5710189,1.0194612,-0.49323466,0.5423581,-0.73724574,1.0847694,0.060995393,1.0424452,-1.7169442,-0.105873875,0.18877952,-0.5717009,0.6524887,-0.8856331
0.1,-0.1,1.0999999999999999,0.0,0.5235987755982988,0,-1.6029279,1.0408782,-0.47454298,0.53512084,-0.74663013,1.0865163,0.08618646,1.142925,-1.7674668,-0.09516698,-0.023057679,0.47434917,0.6314985,0.74229544
0.1,-0.1,1.0999999999999999,0.0,0.5235987755982988,0,-1.5802444,1.0195985,-0.483936,0.54331166,-0.7320204,1.0658731,0.07535838,1.0497037,-1.8510871,-0.18433644,0.16427843,-0.038330335,0.7922566,0.709023
0.1,-0.1,1.0999999999999999,0.0,0.5235987755982988,0,-1.5846179,1.018175,-0.48961422,0.534849,-0.7071943,1.0808195,0.11645505,0.7707839,-1.3380662,0.42338303,0.21560028,0.14970651,0.05117468,-0.4191954
0.1,-0.1,1.0999999999999999,0.0,0.5235987755982988,0,-1.5788608,1.0125123,-0.48334342,0.53827673,-0.7055064,1.0857061,0.054105483,0.76960593,-1.9739734,-0.020611562,0.25434986,0.68397987,0.28825414,-0.48090824
0.1,-0.1,1.0999999999999999,0.0,0.5235987755982988,0,-1.5787172,1.0420268,-0.49337208,0.54000676,-0.7094586,1.0987289,0.08117395,1.282902,-1.3896114,-0.22462092,0.042280093,0.19989888,0.27402154,0.30853683
0.1,-0.1,1.0999999999999999,0.0,0.5235987755982988,0,-1.588656,1.0393771,-0.50826013,0.53119797,-0.7028298,1.0772058,0.039388966,1.575143,-1.3481803,0.15218873,0.14919439,-0.082332864,0.17482173,0.49141607
0.1,-0.1,1.0999999999999999,0.0,0.5235987755982988,0,-1.5843495,1.0164301,-0.48281604,0.537513,-0.730083,1.0978359,0.073748425,1.374111,-1.3114033,0.32253,0.28083852,0.011029571,-0.046291564,0.80582684
0.1,-0.1,1.0999999999999999,0.0,0.5235987755982988,0,-1.5893397,1.0238472,-0.4924305,0.5321831,-0.7097074,1.0863914,0.06300765,1.1656172,-1.1524585,0.0010410892,0.06256996,0.25730452,1.3181213,0.5049127
0.1,-0.1,1.0999999999999999,0.0,0.5235987755982988,0,-1.5854088,1.0172974,-0.4987191,0.5318468,-0.74358726,1.076072,0.070838295,0.9224709,-1.6594958,0.537253,0.056849297,-0.3581963,1.0637293,0.53656125
0.1,-0.1,1.0999999999999999,0.0,0.5235987755982988,0,-1.5816336,1.0302739,-0.4976819,0.53785634,-0.71012497,1.0762268,0.060684673,1.0016767,-1.2742971,0.0858797,0.06952177,0.48492107,0.9001274,-0.43238533
0.1,-0.1,1.0999999999999999,0.0,0.5235987755982988,0,-1.5737046,1.0449889,-0.5025774,0.5269589,-0.72697574,1.0868561,0.065763794,1.3106706,-1.6668594,0.33970195,0.12817118,-0.025280826,0.48550305,-0.9462908
0.1,-0.1,1.0999999999999999,0.0,0.5235987755982988,0,-1.5727654,1.0093116,-0.5190499,0.5347687,-0.7186335,1.0886725,0.055642985,0.8883777,-1.4330536,0.2418858,0.071780264,-0.30543235,0.4553022,-0.44014922
0.1,-0.1,1.0999999999999999,0.0,0.5235987755982988,0,-1.5679283,1.0162743,-0.50662345,0.535055,-0.70544344,1.0884883,0.09487561,1.3029469,-1.5351739,-0.0030793757,0.22931087,0.51853234,0.18556893,-0.9493798
0.1,-0.1,1.0999999999999999,0.0,0.5235987755982988,0,-1.5937366,1.0111029,-0.507762,0.53926426,-0.7099842,1.0854763,0.07670459,1.174612,-1.2871357,0.2694597,0.1483508,-0.32398376,1.5010986,-0.55420166
0.1,-0.1,1.0999999999999999,0.0,0.5235987755982988,0,-1.5915619,1.0306792,-0.490988,0.5322381,-0.6787357,1.0767113,0.07107481,1.2833115,-1.4964416,-0.33030733,0.12133496,-0.3499461,0.2681819,-0.015854094
0.1,-0.1,1.0999999999999999,0.0,0.5235987755982988,0,-1.5966729,1.0259335,-0.49294123,0.5457965,-0.70284516,1.0803622,0.06476415,1.5711194,-1.48407,0.2602207,-0.05455899,-0.31173575,0.10431513,0.4865767
0.1,-0.1,1.0999999999999999,0.0,0.5235987755982988,0,-1.577733,1.0487489,-0.50049955,0.532455,-0.6949383,1.0905576,0.07964367,0.83436817,-1.0776498,-0.33835268,0.2710173,0.09632957,0.10737714,0.26799813
0.1,-0.1,1.0999999999999999,0.0,0.5235987755982988,0,-1.6011472,1.0357784,-0.49277148,0.53082037,-0.70977193,1.0692568,0.07453693,0.8697382,-1.6247181,-0.032269593,0.31427762,-0.32752645,0.36715275,0.22749865
0.1,-0.1,1.0999999999999999,0.0,0.5235987755982988,0,-1.5755932,1.0336537,-0.5173411,0.5324322,-0.7224925,1.0843059,0.079377756,1.1724612,-1.3171746,0.0167676,0.17504284,0.67545635,0.25339496,-1.8988224
0.1,-0.1,1.0999999999999999,0.0,0.5235987755982988,0,-1.5847491,1.0366755,-0.4907252,0.53430617,-0.7160353,1.0935723,0.07892208,1.1216005,-1.3785439,-0.05614995,0.01330336,-0.52594745,1.0497822,-0.05720099
0.1,-0.1,1.0999999999999999,0.0,0.5235987755982988,0,-1.5717092,1.008411,-0.51152223,0.5317858,-0.7321582,1.0907809,0.076260634,1.5253004,-1.8822277,-0.31969702,0.1608508,0.61493564,1.1907942,-0.09796466
0.1,-0.1,1.0999999999999999,0.0,0.5235987755982988,0,-1.5775079,1.041093,-0.4967645,0.53875166,-0.6912245,1.0726458,0.061275292,1.0218606,-1.5449133,-0.52636594,0.14014164,0.02728946,0.47682628,-0.6717789
0.1,-0.1,1.0999999999999999,0.0,0.5235987755982988,0,-1.6020685,1.0292872,-0.49397564,0.5328023,-0.70319545,1.0674562,0.07129644,1.0028709,-0.9924181,0.12042489,0.11918217,0.21548352,0.31790948,0.2784681
0.1,-0.1,1.0999999999999999,0.0,0.5235987755982988,0,-1.5879303,1.0295982,-0.50115657,0.53546447,-0.70230705,1.0829536,0.057905704,1.2901274,-1.5294508,-0.1682915,0.1979962,-0.023255406,1.1052423,-0.031763285
0.1,-0.1,1.0999999999999999,0.0,0.5235987755982988,0,-1.5870873,1.0192775,-0.49428096,0.53259516,-0.70915735,1.0983081,0.0496962,1.1502385,-1.5453655,0.32021928,0.11061942,0.123999365,0.11140989,-1.2399765
0.1,-0.1,1.0999999999999999,0.0,0.5235987755982988,0,-1.5851179,1.0524464,-0.49316722,0.52989095,-0.72505045,1.0994931,0.079632185,1.6823634,-1.0894899,0.25000542,0.23051986,-0.32912248,0.4306412,-0.53815645
0.1,-0.1,1.0999999999999999,0.0,0.5235987755982988,0,-1.5824281,1.0114602,-0.48967835,0.53335756,-0.7252416,1.1097779,0.07758318,1.1557044,-1.472708,-0.045341685,0.058121923,0.022145942,0.43965837,-0.8299669
0.1,-0.1,1.0999999999999999,0.0,0.5235987755982988,0,-1.606592,1.0191605,-0.5009522,0.53727543,-0.7284111,1.0763961,0.06257706,0.74554956,-1.1845894,-0.24011807,0.029836198,0.5452419,0.2926171,-0.4792097
0.1,-0.1,1.0999999999999999,0.0,0.5235987755982988,0,-1.5769005,1.0218955,-0.4933719,0.5316832,-0.7095714,1.0929743,0.06768616,0.8624714,-1.7755591,0.1503568,0.099289306,-0.38337806,1.4642901,0.047428917
0.1,-0.1,1.0999999999999999,0.0,0.5235987755982988,0,-1.5729598,1.0143813,-0.50501454,0.5357533,-0.6729182,1.0784642,0.09731459,0.8969301,-1.3590897,0.0026110702,0.27048454,-0.3387398,0.5883878,0.28312692
0.1,-0.1,1.0999999999999999,0.0,0.5235987755982988,0,-1.5700729,1.0276028,-0.5053256,0.5311667,-0.70246977,1.100121,0.041737475,1.3970691,-1.4379483,-0.39630333,0.14407615,0.2805029,0.6869232,0.6206327
0.1,-0.1,1.0999999999999999,0.0,0.5235987755982988,0,-1.5757289,1.0361612,-0.49172452,0.5420047,-0.68875,1.0864296,0.04407708,1.4481189,-1.7717485,0.3905287,0.13064937,0.4549009,0.66599345,-0.6170433
0.1,-0.1,1.0999999999999999,0.0,0.5235987755982988,0,-1.5979022,1.0137653,-0.49956354,0.5343306,-0.68708384,1.0888171,0.057556354,0.96546924,-1.0994217,-0.12891375,0.082808875,-0.037141528,-0.24665925,-0.028406471
0.1,-0.1,1.0999999999999999,0.0,0.5235987755982988,0,-1.5735233,1.0283158,-0.4962758,0.5432997,-0.69855285,1.0866357,0.05637117,1.5650427,-1.3845539,0.2222047,0.18740916,0.31804046,0.8393614,0.43229738
0.1,-0.1,1.0999999999999999,0.0,0.5235987755982988,0,-1.5749885,1.0411363,-0.50763863,0.52983403,-0.70144165,1.091008,0.06792736,1.182827,-1.7455528,-0.008662918,0.053630993,0.043520324,1.0319664,-0.7232259
0.1,-0.1,1.0999999999999999,0.0,0.5235987755982988,0,-1.585981,1.0147219,-0.49767628,0.53196746,-0.7084979,1.1030734,0.10010062,0.8986599,-1.5173924,-0.4050732,0.099951036,-0.21858892,0.2851619,-0.2802228
0.1,-0.1,1.0999999999999999,0.0,0.5235987755982988,0,-1.5925324,1.0587183,-0.49911654,0.5387897,-0.725252,1.0842853,0.072786674,0.9888206,-1.4082389,0.30804685,0.17297679,0.044671606,0.48079327,-0.3098787
0.1,-0.1,1.0999999999999999,0.0,0.5235987755982988,0,-1.5757816,1.0311943,-0.50429755,0.53137213,-0.7193741,1.0776592,0.083259635,1.2294699,-1.1275171,-0.5181742,0.11395519,0.55973464,0.102991216,0.3864444
0.1,-0.1,1.0999999999999999,0.0,0.5235987755982988,0,-1.572758,1.0219148,-0.50011766,0.5386937,-0.7015255,1.0797795,0.07853707,1.3486754,-1.4885174,-0.46670845,0.14638588,-0.14390764,-0.12012031,0.5075918
0.1,-0.1,1.0999999999999999,0.0,0.5235987755982988,0,-1.5833173,1.0080953,-0.49986213,0.5390763,-0.68825305,1.0932361,0.07220681,0.81173843,-1.4001458,0.023400377,0.34021544,0.08638245,-0.17720397,-0.0048655565
0.1,-0.1,1.0999999999999999,0.0,0.5235987755982988,0,-1.5810803,1.0270684,-0.4985753,0.5313448,-0.716219,1.082397,0.084684215,0.6299169,-1.0199723,0.24094066,0.074060515,0.5612531,0.081584774,-0.51695853
0.1,-0.1,1.0999999999999999,0.0,0.5235987755982988,0,-1.5696051,1.0192671,-0.5113752,0.5381151,-0.7136202,1.0827618,0.07400404,1.0588089,-1.1560793,0.4730327,0.13423504,-0.26463172,0.31247813,-0.03837384
0.1,-0.1,1.0999999999999999,0.0,0.5235987755982988,0,-1.5985888,1.0282522,-0.48489133,0.5303259,-0.70419353,1.0795057,0.09239116,1.0786406,-1.3293035,-0.003651509,0.16258943,-0.6639835,0.7364636,1.1474457
0.1,-0.1,1.0999999999999999,0.0,0.5235987755982988,0,-1.5890524,1.0283364,-0.48954108,0.5365141,-0.7541981,1.095211,0.07075068,1.2890007,-1.5980537,0.03767855,0.06760264,-0.46307302,0.31669447,1.6899812
0.1,-0.1,1.0999999999999999,0.0,0.5235987755982988,0,-1.5835207,1.0273116,-0.49846488,0.53480965,-0.69956964,1.0865748,0.10029963,1.3691559,-1.3959188,0.300383,0.21709499,0.44484025,0.70451695,0.0054380447
0.1,-0.1,1.0999999999999999,0.0,0.5235987755982988,0,-1.5831494,1.0214261,-0.49511346,0.540003,-0.7034745,1.0804609,0.09520442,0.9302973,-1.5031059,-0.08164705,0.07761053,-0.030035214,0.17173778,0.20067243
0.1,-0.1,1.0999999999999999,0.0,0.5235987755982988,0,-1.5972469,1.0177711,-0.49134284,0.53667605,-0.7238452,1.0876107,0.05004566,0.8658519,-1.5160366,-0.045656037,0.19043903,0.5078554,0.8770239,-0.19505304
0.1,-0.1,1.0999999999999999,0.0,0.5235987755982988,0,-1.5921085,1.0111046,-0.48256102,0.54438365,-0.71570927,1.081954,0.1138349,1.2550135,-1.5674485,-0.005496873,0.14716485,0.17219852,0.38461596,-0.5831076
0.1,-0.1,1.0999999999999999,0.0,0.5235987755982988,0,-1.5607246,1.004292,-0.47474426,0.53417265,-0.73133886,1.0799052,0.06147263,0.95776,-0.84809554,0.41026875,0.27923757,0.37366143,-0.12042276,-0.6004849
0.1,-0.1,1.0999999999999999,0.0,0.5235987755982988,0,-1.5618955,1.0228434,-0.4858332,0.5404745,-0.7247116,1.0864769,0.06954615,1.3082317,-1.4705818,-0.005860175,0.31982955,0.22031675,0.16173936,-0.023491135
0.1,-0.1,1.0999999999999999,0.0,0.5235987755982988,0,-1.5696357,1.0222758,-0.49788162,0.54254746,-0.6972062,1.0798979,0.07769171,1.3480313,-1.0092069,0.092708535,0.21455689,0.40431795,0.047150247,-1.7199045
0.1,-0.1,1.0999999999999999,0.0,0.5235987755982988,0,-1.5937445,1.0242729,-0.48790514,0.5334359,-0.7066734,1.0821267,0.058139984,1.50504,-0.8297908,-0.61256015,0.26585984,0.07230478,-0.12900719,-1.2209136
0.1,-0.1,1.0999999999999999,0.0,0.5235987755982988,0,-1.5747683,1.02962,-0.4987313,0.53083134,-0.7306461,1.0706587,0.0726427,1.217117,-1.3329854,-0.010880513,0.085777394,-0.031998415,0.22524646,0.15832198
0.1,-0.1,1.0999999999999999,0.0,0.5235987755982988,0,-1.5570953,1.0212297,-0.51211923,0.5308308,-0.725187,1.0905075,0.050161373,1.2158601,-1.3558211,-0.056185126,0.10504431,0.0710105,0.11838413,-0.19689967
0.1,-0.1,1.0999999999999999,0.0,0.5235987755982988,0,-1.6020796,1.0149473,-0.4905067,0.53643656,-0.70201486,1.08996,0.045842934,1.6206218,-1.1078118,0.20075844,0.06728887,0.11508023,-0.24040483,-0.8893631
0.1,-0.1,1.0999999999999999,0.0,0.5235987755982988,0,-1.5732183,1.0300579,-0.4832079,0.5378227,-0.7005273,1.0822604,0.09647098,1.2935426,-1.1945646,-0.39451063,0.28113052,0.35905346,0.6258356,1.5443645
0.1,-0.1,1.0999999999999999,0.0,0.5235987755982988,0,-1.5884688,0.9818479,-0.48904726,0.53773123,-0.7242194,1.0772604,0.091570236,1.0771759,-1.6229907,-0.16076829,0.041484404,0.35459626,0.37325543,1.959692
0.1,-0.1,1.0999999999999999,0.0,0.5235987755982988,0,-1.5644206,1.0146105,-0.49673414,0.530734,-0.6870942,1.0845529,0.075758316,1.5660216,-1.418428,-0.22696003,0.29741764,0.4049756,0.78597146,0.48046702
0.1,-0.1,1.0999999999999999,0.0,0.5235987755982988,0,-1.5903449,1.0160223,-0.4811789,0.5364384,-0.6967642,1.0869108,0.07897403,0.8032224,-1.4822633,0.49562714,0.253542,-0.12146906,-0.11664227,-0.008891185
0.1,-0.1,1.0999999999999999,0.0,0.5235987755982988,0,-1.5741596,1.0251595,-0.47902098,0.53026736,-0.7234297,1.0886502,0.047382176,1.552093,-1.762321,-0.37062186,0.10006271,-0.106589586,0.4914582,-0.14044645
0.1,-0.1,1.0999999999999999,0.0,0.5235987755982988,0,-1.550191,1.025676,-0.5018734,0.53443533,-0.75364846,1.0920923,0.06306466,1.283404,-1.579834,-0.4366266,0.070913516,-0.11111183,0.01879646,-0.3624015
0.1,-0.1,1.0999999999999999,0.0,0.5235987755982988,0,-1.5914595,1.0128491,-0.48012847,0.5381958,-0.7115932,1.087987,0.055870276,1.3566854,-1.1549772,0.072413005,0.09925799,-0.26429647,0.63927174,-0.2429276
0.1,-0.1,1.0999999999999999,0.0,0.5235987755982988,0,-1.5870472,1.0009954,-0.49613133,0.5275438,-0.6866379,1.0937918,0.06521813,1.2375854,-1.8641413,0.037972677,0.24018648,-0.092900954,-0.12083697,-0.2744878
0.1,-0.1,1.0999999999999999,0.0,0.5235987755982988,0,-1.5603333,1.0224239,-0.5108762,0.54446745,-0.70142835,1.0831643,0.060119804,1.2604729,-1.6382966,0.23695716,0.09093568,-0.47694921,0.26815972,-0.31305593
0.1,-0.1,1.0999999999999999,0.0,0.5235987755982988,0,-1.5514325,1.0426644,-0.48782256,0.53320515,-0.7363534,1.0896822,0.044741385,1.1206493,-1.3842013,0.7519989,0.081815414,-0.46648976,0.6391695,0.3337727
0.1,-0.1,1.0999999999999999,0.0,0.5235987755982988,0,-1.5913374,1.0132345,-0.5005115,0.5391046,-0.70965606,1.090996,0.050666083,1.1014857,-1.2223938,-0.16879295,0.22910902,-0.19737019,0.75258,0.35071808
0.1,-0.1,1.0999999999999999,0.0,0.5235987755982988,0,-1.5861872,1.0253699,-0.48255122,0.5347943,-0.73071325,1.0879143,0.08781444,0.73898476,-1.5870813,-0.34521315,0.3623154,-0.43142816,0.37732232,0.035095535
0.1,-0.1,1.0999999999999999,0.0,0.5235987755982988,0,-1.5962325,1.0157973,-0.4932884,0.5406755,-0.6819894,1.080797,0.043725483,1.3891096,-1.0845263,0.13683325,0.13008733,-0.26754797,1.2380319,0.03399554
0.1,-0.1,1.0999999999999999,0.0,0.5235987755982988,0,-1.6032828,0.9873943,-0.46276948,0.5336541,-0.70247155,1.1081975,0.046026275,0.49500093,-1.259045,-0.4702163,0.08855095,-0.124157004,0.89902526,-1.5644684
0.1,-0.1,1.0999999999999999,0.0,0.5235987755982988,0,-1.5727521,1.036224,-0.4834595,0.5310948,-0.69679177,1.0889341,0.083066575,0.9066421,-1.6271465,-0.08154034,0.18579587,-0.1776393,1.0558795,0.9454502
0.1,-0.1,1.0999999999999999,0.0,0.5235987755982988,0,-1.5760857,1.0110316,-0.5083242,0.5349817,-0.71368945,1.0911083,0.074011534,1.1132123,-1.3531576,0.0045755967,0.0834388,0.23102495,0.5731681,-0.30072713
0.1,-0.1,1.0999999999999999,0.0,0.5235987755982988,0,-1.5790904,1.0145165,-0.49481174,0.537049,-0.71057165,1.0826242,0.056843054,0.83363515,-1.8319942,0.26290646,0.031987354,0.05906837,0.8618058,-0.3382935
0.1,-0.1,1.0999999999999999,0.0,0.5235987755982988,0,-1.597757,1.0465237,-0.49738902,0.5288863,-0.7268035,1.0886922,0.08254925,1.1625558,-1.419981,0.023102544,0.04770972,0.08344164,0.7095514,0.74849194
0.1,-0.1,1.0999999999999999,0.0,0.5235987755982988,0,-1.5880373,1.0153599,-0.51018983,0.52955383,-0.7202036,1.0890075,0.058098268,0.64700556,-1.391351,-0.09032856,0.057294127,-0.03792639,0.8264526,-1.0810544
0.1,-0.1,1.0999999999999999,0.0,0.5235987755982988,0,-1.5873725,1.0326751,-0.45498517,0.53799284,-0.7119891,1.0942482,0.057518117,1.2195436,-1.1874931,0.053943794,0.19598278,0.2465429,0.06849076,0.39873847
0.1,-0.1,1.0999999999999999,0.0,0.5235987755982988,0,-1.5925987,1.0466356,-0.51187634,0.52481484,-0.7142321,1.092305,0.06458568,1.4610856,-1.40461,0.045375124,0.09158394,0.0007690691,-0.45810002,0.45357132
0.1,-0.1,1.0999999999999999,0.0,0.5235987755982988,0,-1.5730996,0.98961455,-0.512526,0.5365991,-0.7047363,1.0781806,0.07672206,1.2309009,-1.1110055,0.21384008,0.20263147,0.34362411,0.81315625,-0.019632855
0.1,-0.1,1.0999999999999999,0.0,0.5235987755982988,0,-1.6050429,1.0361356,-0.50244826,0.53908354,-0.74085754,1.0828235,0.078431785,0.8987819,-1.1300614,0.078595884,0.09066838,-0.35271406,0.5292768,0.28637502
0.1,-0.1,1.0999999999999999,0.0,0.5235987755982988,0,-1.5930773,1.0141015,-0.49290842,0.5382784,-0.6952861,1.0875599,0.07997964,1.4566804,-1.3940406,-0.20968068,0.08366847,-0.14157201,0.1837782,0.19746359
0.1,-0.1,1.0999999999999999,0.0,0.5235987755982988,0,-1.5828024,1.0081592,-0.5021574,0.54602814,-0.68781036,1.0856644,0.075143926,1.0458306,-1.3335614,-0.17635082,0.2489594,0.3976586,0.43516633,-0.52530175
0.1,-0.1,1.0999999999999999,0.0,0.5235987755982988,0,-1.5913271,1.0184425,-0.4797117,0.5452311,-0.68616724,1.0703626,0.09165943,1.5508986,-1.5830883,0.077437565,0.33576208,0.10657891,0.800671,-0.47194684
0.1,-0.1,1.0999999999999999,0.0,0.5235987755982988,0,-1.5732025,1.0002034,-0.4885008,0.5288215,-0.6824583,1.0853134,0.0572324,1.5821514,-1.5234683,0.5822514,-0.013111947,-0.12046403,-0.5103997,-0.81302303
0.1,-0.1,1.0999999999999999,0.0,0.5235987755982988,0,-1.5646732,1.0458858,-0.48787868,0.54078764,-0.7100124,1.0950472,0.078250505,0.89321476,-1.7908058,-0.40024468,0.22613107,-0.20370558,-0.5578646,0.18269497
0.1,-0.1,1.0999999999999999,0.0,0.5235987755982988,0,-1.5760568,1.0073696,-0.48996603,0.5346421,-0.7223717,1.0766418,0.07451299,1.1842984,-1.72799,-0.19305722,0.07242291,0.33568648,-0.32071963,-0.072624765
0.1,-0.1,1.0999999999999999,0.0,0.5235987755982988,0,-1.5718122,1.032429,-0.4879392,0.5336545,-0.7332905,1.0781711,0.066559814,1.044542,-1.3913369,0.08880116,0.26432028,0.21870022,-0.042728063,0.005138258
0.1,-0.1,1.0999999999999999,0.0,0.5235987755982988,0,-1.5559565,1.0401986,-0.50183886,0.5428304,-0.724507,1.0670738,0.05542585,0.97063214,-1.0773762,-0.40525943,0.3820544,-0.7070354,0.62941283,0.16559534
0.1,-0.1,1.0999999999999999,0.0,0.5235987755982988,0,-1.5692635,1.0240986,-0.48883656,0.53463024,-0.6992397,1.0906562,0.08983729,0.7882703,-1.1685649,-0.2215523,0.018682584,-0.09919047,0.105872236,-1.1140051
0.1,-0.1,1.0999999999999999,0.0,0.5235987755982988,0,-1.5648413,1.0122147,-0.4947543,0.53409445,-0.7051145,1.0900865,0.057292968,0.735548,-1.1642523,-0.026082732,0.118851945,0.41359285,-0.046314072,-1.3775775
0.1,-0.1,1.0999999999999999,0.0,0.5235987755982988,0,-1.5612341,1.0260901,-0.48774037,0.53326494,-0.7127094,1.0769092,0.058858372,0.93167734,-1.5332596,0.4307672,0.1365203,0.28354323,-0.41763657,-1.0119996
0.1,-0.1,1.0999999999999999,0.0,0.5235987755982988,0,-1.5949471,1.0056385,-0.50428087,0.5338057,-0.7188723,1.0872092,0.070278384,1.6978256,-1.1826737,0.15482895,0.12435204,-0.2687797,-0.15567285,-0.087159626
0.1,-0.1,1.0999999999999999,0.0,0.5235987755982988,0,-1.5847636,1.0056633,-0.49446386,0.5365673,-0.71525717,1.0881882,0.06936149,1.1762686,-1.7356471,-0.13600974,0.31255677,0.099011354,0.57668984,0.28466278
0.1,-0.1,1.0999999999999999,0.0,0.5235987755982988,0,-1.5791248,1.0098594,-0.48499733,0.5355101,-0.6974153,1.0918897,0.074396126,1.4272225,-1.0074161,-0.06851352,0.28210023,0.12737694,0.9795995,-0.9118044
0.1,-0.1,1.0999999999999999,0.0,0.5235987755982988,0,-1.5707927,1.0114024,-0.48903465,0.5381154,-0.68785316,1.0790546,0.066148475,1.692282,-1.4171951,0.03755461,0.2438349,0.21643448,0.040212158,-0.3846151
0.1,-0.1,1.0999999999999999,0.0,0.5235987755982988,0,-1.5758433,1.0345639,-0.4884511,0.5286425,-0.7306612,1.0943646,0.06426611,1.3187499,-0.99444306,-0.099244446,0.1474113,-0.13469891,0.40075198,0.74663144
0.1,-0.1,1.0999999999999999,0.0,0.5235987755982988,0,-1.5718689,1.0390728,-0.4933649,0.5378983,-0.72331905,1.0835236,0.083706915,1.2504001,-1.2762002,0.1315432,0.15401731,0.08111824,0.1240686,-0.4577288
0.1,-0.1,1.0999999999999999,0.0,0.5235987755982988,0,-1.5825368,1.0224988,-0.510942,0.5381226,-0.6880674,1.0915527,0.04260153,1.5767447,-1.0726017,0.056766953,0.12678692,-0.3375953,0.51049215,-0.5594114
0.1,-0.1,1.0999999999999999,0.0,0.5235987755982988,0,-1.575666,0.98861283,-0.47832686,0.53689027,-0.72333807,1.0787997,0.06344701,1.2953132,-1.5692298,-0.16010286,0.09753712,0.048732314,0.8332889,0.15206866
0.1,-0.1,1.0999999999999999,0.0,0.5235987755982988,0,-1.5833445,1.0140808,-0.48193488,0.5257135,-0.7138619,1.0735457,0.051964,1.2353745,-1.452556,-0.34887075,0.031096043,-0.32743174,0.37403098,-0.7909926
0.1,-0.1,1.0999999999999999,0.0,0.5235987755982988,0,-1.5643101,1.0295025,-0.5165228,0.531022,-0.7126469,1.0991375,0.08504525,1.0280169,-1.1062354,-0.43675148,0.23250449,0.17688486,0.5845035,-0.0669968
0.1,-0.1,1.0999999999999999,0.0,0.5235987755982988,0,-1.5748154,1.0249176,-0.49049017,0.5336611,-0.7165745,1.0786421,0.086067595,1.0470093,-1.207532,0.50644684,-0.03425885,-0.5161935,0.41215178,-0.12989366
0.1,-0.1,1.0999999999999999,0.0,0.5235987755982988,0,-1.5861597,1.022273,-0.50095975,0.54503274,-0.7442237,1.091217,0.06132739,1.2058215,-1.1905015,-0.46715626,0.0789592,0.2891275,0.18349004,0.047473572
0.1,-0.1,1.0999999999999999,0.0,0.5235987755982988,0,-1.5666019,1.0251582,-0.5037767,0.5406432,-0.6852151,1.0852456,0.078662656,1.1561735,-1.891526,0.0568952,0.13087921,-0.31075746,-0.3888679,-0.20826998
0.1,-0.1,1.0999999999999999,0.0,0.5235987755982988,0,-1.5735334,1.0071267,-0.48442325,0.5331788,-0.70912707,1.0797411,0.06940577,1.1835493,-1.6206163,-0.3984253,-0.008484876,-0.1902603,0.24991758,0.075032
0.1,-0.1,1.0999999999999999,0.0,0.5235987755982988,0,-1.5760374,1.0220083,-0.4950744,0.53658146,-0.7081441,1.0908796,0.0728397,1.0205841,-1.3804264,0.13245864,0.054277375,0.33955887,-0.10560241,-0.36733416
0.1,-0.1,1.0999999999999999,0.0,0.5235987755982988,0,-1.5810394,1.0067871,-0.48068762,0.5355362,-0.69011146,1.0918554,0.076582305,1.3501227,-1.1467025,-0.05590279,0.18434855,-0.17085938,0.7153384,0.33098343
0.1,-0.1,1.0999999999999999,0.0,0.5235987755982988,0,-1.574988,1.009384,-0.48136482,0.54135215,-0.6994097,1.0923191,0.060461808,0.8197803,-1.5870932,-0.08733917,0.29252046,0.4270076,0.41584182,0.2649073
0.1,-0.1,1.0999999999999999,0.0,0.5235987755982988,0,-1.5759984,1.0085514,-0.49682158,0.53483206,-0.719319,1.0908653,0.08099232,0.94490236,-0.7941036,0.06329831,0.069689974,0.3357531,0.426725,0.14900695
0.1,-0.1,1.0999999999999999,0.0,0.5235987755982988,0,-1.5764134,1.051126,-0.5044928,0.5327417,-0.7216764,1.0697476,0.0648028,1.4377979,-1.653438,0.11717649,0.12596776,-0.60532856,-0.09765449,0.008379226
0.1,-0.1,1.0999999999999999,0.0,0.5235987755982988,0,-1.5759659,1.0246831,-0.5060977,0.54014885,-0.6975978,1.092197,0.073972575,1.0585155,-1.7775463,0.21170148,0.02976415,0.60920817,0.0053584,-1.1082822
0.1,-0.1,1.0999999999999999,0.0,0.5235987755982988,0,-1.5743151,1.0396304,-0.48780409,0.53641444,-0.70501643,1.079061,0.05706983,1.1752945,-1.2481701,0.23868394,0.18607059,0.36261582,0.45783594,-0.14411648
0.1,-0.1,1.0999999999999999,0.0,0.5235987755982988,0,-1.5764534,1.0125346,-0.5015273,0.53346246,-0.7282057,1.0727617,0.07820637,1.2406969,-1.4569341,0.033300415,0.12674466,-0.8305233,0.46210214,-0.1351503
0.1,-0.1,1.0999999999999999,0.0,0.5235987755982988,0,-1.5865935,1.0391686,-0.4995713,0.5258682,-0.69001085,1.0773536,0.047273554,1.3700653,-1.5445209,-0.056935146,0.06611245,-0.19945772,-0.42888954,-0.35283154
0.1,-0.1,1.0999999999999999,0.0,0.5235987755982988,0,-1.5649717,1.008731,-0.506267,0.53161395,-0.7110932,1.0856543,0.09291037,1.1276174,-1.2523551,0.071238056,0.08771636,-0.25010616,0.28648946,-0.34717757
0.1,-0.1,1.0999999999999999,0.0,0.5235987755982988,0,-1.569471,1.0216466,-0.48213926,0.54013234,-0.70326155,1.087445,0.056934547,1.2003397,-1.6386504,-0.20848055,0.10921696,0.2370106,0.17749296,-1.0255725
0.1,-0.1,1.0999999999999999,0.0,0.5235987755982988,0,-1.5713837,1.0118277,-0.49338475,0.5347172,-0.7033157,1.0876199,0.06665074,0.9384323,-1.9243304,0.35610652,0.07427051,-0.24845426,0.2870998,0.54625535
0.1,-0.1,1.0999999999999999,0.0,0.5235987755982988,0,-1.5737153,1.0098982,-0.4888717,0.53390086,-0.7139576,1.0890625,0.0938369,1.3376743,-1.6441311,-0.017503144,-0.0733536,-0.01048842,0.29875445,-0.49394217
0.1,-0.1,1.0999999999999999,0.0,0.5235987755982988,0,-1.5873022,1.0242208,-0.5061921,0.5370888,-0.7176022,1.0847062,0.039433148,0.8984816,-1.4262409,0.2706123,0.33005318,-0.025016168,1.0000105,0.21484134
0.1,-0.1,1.0999999999999999,0.0,0.5235987755982988,0,-1.5666972,1.0310944,-0.48495167,0.53539693,-0.6885139,1.0775299,0.07313236,1.0126073,-1.5522074,0.37933326,0.26129526,-0.34605792,0.62319595,-0.017482521
0.1,-0.1,1.0999999999999999,0.0,0.5235987755982988,0,-1.571935,0.9897989,-0.49439582,0.52367073,-0.7165279,1.0764774,0.07086795,1.1288123,-1.7402332,-0.36642206,0.03786157,-0.19201657,1.1535597,1.0625349
0.1,-0.1,1.0999999999999999,0.0,0.5235987755982988,0,-1.5810632,1.0196728,-0.49591258,0.53451425,-0.7049669,1.095961,0.08115155,1.3242885,-0.93327105,-0.20742835,0.20295306,-0.19707203,0.10994927,-0.50366783
0.1,-0.1,1.0999999999999999,0.0,0.5235987755982988,0,-1.5892923,1.0373906,-0.5037293,0.5403095,-0.7257588,1.0992824,0.044447787,1.4805087,-1.3535109,0.045544907,0.081683844,0.062232967,0.5074764,0.18060543
0.1,-0.1,1.0999999999999999,0.0,0.5235987755982988,0,-1.5967189,1.031346,-0.50005126,0.52552074,-0.70662105,1.0874304,0.039329033,0.87693346,-1.4034691,0.018454202,0.20329122,0.14061809,0.43820828,-0.7160926
0.1,-0.1,1.0999999999999999,0.0,0.5235987755982988,0,-1.6158568,1.0213424,-0.48901635,0.5334633,-0.69748706,1.0858326,0.07449449,1.1885825,-1.1808481,-0.05731475,0.17440994,-0.12444663,0.14055313,-0.24557681
0.1,-0.1,1.0999999999999999,0.0,0.5235987755982988,0,-1.57721,1.0301692,-0.49444568,0.5384686,-0.7180535,1.0764631,0.041092787,1.3351905,-1.6333485,0.013511949,0.35566097,0.028898094,-0.4179405,0.55135626
0.1,-0.1,1.0999999999999999,0.0,0.5235987755982988,0,-1.583327,1.0374997,-0.4934786,0.5321403,-0.71084124,1.0944655,0.024607895,1.6338122,-1.1323717,0.01079872,-0.06904915,0.55859303,0.18243186,1.3595126
0.1,-0.1,1.0999999999999999,0.0,0.5235987755982988,0,-1.5817118,1.0421844,-0.5074529,0.5309659,-0.6910298,1.0774959,0.061735056,0.8748863,-1.7476566,-0.17490833,0.16204175,0.551116,0.5857439,0.017684339
0.1,-0.1,1.0999999999999999,0.0,0.5235987755982988,0,-1.5824932,1.0218861,-0.4804279,0.5355558,-0.7086144,1.0802486,0.07747069,0.959664,-1.3641098,-0.4181408,0.057386205,-0.14695059,0.6201935,0.3822712
0.1,-0.1,1.0999999999999999,0.0,0.5235987755982988,0,-1.5718254,1.0303853,-0.49904114,0.53333974,-0.71778595,1.0885656,0.071096845,0.8303618,-1.3829337,-0.19009294,0.16166969,0.42860237,0.5924916,-0.51838857
0.1,-0.1,1.0999999999999999,0.0,0.5235987755982988,0,-1.5775952,1.0285891,-0.4992917,0.5329007,-0.7209251,1.084692,0.08904771,1.3792244,-1.7339315,-0.39140576,0.07612508,0.24988621,0.1120122,1.2988133
0.1,-0.1,1.0999999999999999,0.0,0.5235987755982988,0,-1.5688972,1.0160729,-0.49230585,0.54230917,-0.7172076,1.0827193,0.060520403,0.6834285,-1.3998109,-0.41452003,0.20573826,-0.16096976,0.44010052,-0.41604245
0.1,-0.1,1.0999999999999999,0.0,0.5235987755982988,0,-1.5755334,1.0114464,-0.4854312,0.5331618,-0.7071175,1.0859693,0.047258474,1.2380509,-1.6613086,-0.44081423,0.060804483,-0.0721506,0.5691571,-0.33182552
0.1,-0.1,1.0999999999999999,0.0,0.5235987755982988,0,-1.5760776,1.0272619,-0.4857033,0.54280525,-0.6929594,1.0859004,0.051983755,1.1517656,-1.3387129,-0.10916591,0.1258066,-0.32989913,0.4641828,1.3431522
0.1,-0.1,1.0999999999999999,0.0,0.5235987755982988,0,-1.5848243,1.0167544,-0.482858,0.5376572,-0.69929105,1.0753659,0.0710904,0.6764591,-0.91803056,-0.10938118,0.06463848,0.017989691,0.42022613,0.18242162
0.1,-0.1,1.0999999999999999,0.0,0.5235987755982988,0,-1.5749481,1.0138211,-0.50319815,0.5302141,-0.6913954,1.0970215,0.06404683,1.2136284,-1.3859602,-0.2742119,0.32069552,-0.16092063,-0.5213041,-0.17231713
0.1,-0.1,1.0999999999999999,0.0,0.5235987755982988,0,-1.5765455,1.0254197,-0.48995972,0.5380341,-0.7217167,1.0807388,0.064654104,1.0447091,-1.5050119,-0.00037068652,0.0501927,-0.42907935,0.62231594,0.62239605
0.1,-0.1,1.0999999999999999,0.0,0.5235987755982988,0,-1.5900246,1.0172997,-0.49451974,0.52891433,-0.7131919,1.0909939,0.05241083,1.4301367,-1.4242234,-0.1449225,0.07870122,0.09551659,-0.0035184307,0.38572043
0.1,-0.1,1.0999999999999999,0.0,0.5235987755982988,0,-1.5965996,1.0216184,-0.49047777,0.5362128,-0.71467185,1.0772417,0.08772901,1.5554417,-1.1057103,0.34831974,0.0872214,0.58889246,0.39371648,0.98314446
0.1,-0.1,1.0999999999999999,0.0,0.5235987755982988,0,-1.5694262,1.0474247,-0.4946569,0.5452102,-0.7014585,1.0756721,0.0794738,1.3636272,-1.5171839,-0.11587522,0.27242038,0.07493861,0.59257925,-0.17930973
0.1,-0.1,1.0999999999999999,0.0,0.5235987755982988,0,-1.574152,1.0229498,-0.50140566,0.5257143,-0.71415836,1.0797818,0.06540323,1.42715,-1.4550531,0.043672796,0.101285934,-0.7193266,0.36891708,0.42406893
0.1,-0.1,1.0999999999999999,0.0,0.5235987755982988,0,-1.592807,1.0319257,-0.49871013,0.53299445,-0.72742754,1.0799564,0.068042934,1.421947,-1.0961394,-0.07182315,0.18783127,-0.2561886,0.3964121,-0.54698807
0.1,-0.1,1.0999999999999999,0.0,0.5235987755982988,0,-1.5847768,1.0425322,-0.48650876,0.53523815,-0.72617954,1.0906856,0.07883458,1.4769582,-1.326217,0.14058743,0.088006295,-0.12883165,-0.069181725,0.6734898
0.1,-0.1,1.0999999999999999,0.0,0.5235987755982988,0,-1.5927445,1.053363,-0.49783647,0.535799,-0.75123537,1.0862356,0.05915147,1.1304376,-1.172356,0.18753041,0.20041765,-0.104242176,0.15456986,-0.32881895
0.1,-0.1,1.0999999999999999,0.0,0.5235987755982988,0,-1.5865488,1.026614,-0.49355158,0.5353481,-0.6880802,1.0941074,0.06977076,1.1657189,-1.1070796,0.26058903,0.056145117,-0.18919528,-0.2096359,-0.44088495
0.1,-0.1,1.0999999999999999,0.0,0.5235987755982988,0,-1.5751725,1.0396533,-0.49325028,0.5311982,-0.7048593,1.0728252,0.062002357,1.4961113,-1.258596,-0.08919707,0.2073703,-0.087055326,1.0936497,-0.46773157
0.1,-0.1,1.0999999999999999,0.0,0.5235987755982988,0,-1.583536,0.9904391,-0.50879157,0.52786565,-0.73021674,1.0844032,0.055743717,1.0998758,-1.5875528,0.19691497,0.33382335,0.26942042,0.73682785,-1.7869996
0.1,-0.1,1.0999999999999999,0.0,0.5235987755982988,0,-1.5942936,1.0389326,-0.49321133,0.53163105,-0.7098436,1.0863625,0.046567,1.5935054,-1.2223259,-0.48632038,0.3296182,0.46624348,0.79309535,0.53454995
0.1,-0.1,1.0999999999999999,0.0,0.5235987755982988,0,-1.5761513,0.9994795,-0.4885524,0.52906054,-0.70786715,1.0822728,0.051866822,1.3945497,-1.3049948,-0.054494932,0.11838374,-0.25457683,1.1740745,0.2681138
0.1,-0.1,1.0999999999999999,0.0,0.5235987755982988,0,-1.573328,1.0045254,-0.493214,0.5383764,-0.69837624,1.0749334,0.088417016,1.2207545,-1.2025168,-0.09736299,0.07881385,0.1445961,0.27246332,0.14645241
0.1,-0.1,1.0999999999999999,0.0,0.5235987755982988,0,-1.5690482,1.0421427,-0.4964102,0.5449142,-0.69180894,1.0829177,0.078296654,1.2405267,-1.5437938,-0.042782046,-0.058209028,-0.03628573,0.77521414,-0.88478965
0.1,-0.1,1.0999999999999999,0.0,0.5235987755982988,0,-1.5762907,1.0135789,-0.49616387,0.53708875,-0.7003601,1.0740305,0.070905395,1.0208848,-1.2127496,0.022797583,0.231762,0.18511315,0.4678441,-1.5349221
0.1,-0.1,1.0999999999999999,0.0,0.5235987755982988,0,-1.599709,1.043418,-0.50576955,0.54477644,-0.7248308,1.0900394,0.088748775,1.298177,-1.3790745,0.18096842,0.14619932,-0.2577505,0.4351827,0.02517836
0.1,-0.1,1.0999999999999999,0.0,0.5235987755982988,0,-1.590916,1.0158504,-0.47610477,0.53251004,-0.74292654,1.0856558,0.08871519,1.1169432,-1.2018077,-0.044247124,0.034031443,-0.27309313,0.5623282,-0.011215969
0.1,-0.1,1.0999999999999999,0.0,0.5235987755982988,0,-1.5833516,1.0236268,-0.48354626,0.5341241,-0.7118835,1.0912048,0.059637304,0.9994424,-1.220019,0.14293444,0.060481243,0.55389494,0.66589004,-0.13296743
0.1,-0.1,1.0999999999999999,0.0,0.5235987755982988,0,-1.5879971,1.0083346,-0.49575335,0.5391411,-0.68725526,1.0824486,0.046777353,1.299228,-1.4803225,0.25926086,0.3399199,0.030784566,0.42677045,-0.44094312
0.1,-0.1,1.0999999999999999,0.0,0.5235987755982988,0,-1.5863782,1.0103893,-0.5005856,0.5300282,-0.7376035,1.0762022,0.03641723,1.737252,-1.6363846,-0.4145816,0.18489404,-0.32635152,0.4057539,-0.2085113
0.1,-0.1,1.0999999999999999,0.0,0.5235987755982988,0,-1.5774672,1.0218145,-0.47581953,0.5311784,-0.72420496,1.0791005,0.06461627,1.1607801,-1.5566409,0.019558925,0.004792552,-0.005216459,1.0701935,-0.36709574
0.1,-0.1,1.0999999999999999,0.0,0.5235987755982988,0,-1.5823036,1.0005461,-0.48838708,0.5305238,-0.70942444,1.0753244,0.07855135,1.1703572,-1.3502446,0.23977688,0.13981453,-0.39995083,0.6279263,-0.82865
0.1,-0.1,1.0999999999999999,0.0,0.5235987755982988,0,-1.5818973,1.0316986,-0.4868287,0.5417374,-0.70435655,1.0794011,0.058516923,0.96769834,-1.9338733,0.3582616,0.02508821,-0.40561414,0.19701372,-1.0223325
0.1,-0.1,1.0999999999999999,0.0,0.5235987755982988,0,-1.597766,1.0260036,-0.49069244,0.5378913,-0.74525386,1.0848687,0.05768841,1.0744851,-1.4483889,-0.12609802,0.1692472,-0.6332628,0.56652266,-1.1366
0.1,-0.1,1.0999999999999999,0.0,0.5235987755982988,0,-1.5980225,0.9980073,-0.48663005,0.5347005,-0.7255992,1.0875437,0.085025415,0.9873312,-1.4727772,-0.37308943,0.011305879,-0.05184862,0.32396853,-0.27249888
0.1,-0.1,1.0999999999999999,0.0,0.5235987755982988,0,-1.5734736,1.0250496,-0.49425614,0.5373876,-0.7068582,1.0957471,0.030738043,1.2602708,-1.7731203,0.238872,0.08626769,-0.3031414,0.8045581,0.014891498
0.1,-0.1,1.0999999999999999,0.0,0.5235987755982988,0,-1.5823948,1.0412515,-0.48981237,0.5428033,-0.7332398,1.0835859,0.07745964,1.2396836,-1.3719625,-0.121956825,0.09426545,-0.040207937,0.44394827,0.35068783
0.1,-0.1,1.0999999999999999,0.0,0.5235987755982988,0,-1.5652152,1.021384,-0.49581525,0.53182477,-0.726996,1.088219,0.071112104,1.3023255,-1.3837937,0.0019012276,0.113010086,-0.16619815,0.74895823,-1.1146102
0.1,-0.1,1.0999999999999999,0.0,0.5235987755982988,0,-1.5831157,1.034131,-0.48467296,0.5433978,-0.71793467,1.0891689,0.07386677,1.4345609,-1.3236135,0.008049606,0.21321478,-0.10258613,0.5004901,-0.9983848
0.1,-0.1,1.0999999999999999,0.0,0.5235987755982988,0,-1.5975329,1.0117484,-0.50283337,0.5398807,-0.7076236,1.0921178,0.054586947,1.5527978,-1.4285026,-0.00411187,0.15241121,-0.5031675,0.8661006,0.08312019
0.1,-0.1,1.0999999999999999,0.0,0.5235987755982988,0,-1.5879421,1.0355595,-0.48193404,0.54422855,-0.703568,1.0964948,0.052167818,1.2686667,-1.6489484,-0.063458756,0.079499625,-0.5773497,0.08484008,0.2006419
0.1,-0.1,1.0999999999999999,0.0,0.5235987755982988,0,-1.5870157,1.022663,-0.4884886,0.5278163,-0.70139575,1.0711204,0.07695694,0.9179125,-1.305262,0.0790947,0.19370532,-0.08057385,0.4501019,-0.9572874
0.1,-0.1,1.0999999999999999,0.0,0.5235987755982988,0,-1.5824872,1.0082967,-0.48724034,0.5338798,-0.7049903,1.0891445,0.059224762,0.74731874,-1.3061693,0.31044742,0.14531836,0.10964696,0.7192876,-1.4907113
0.1,-0.1,1.0999999999999999,0.0,0.5235987755982988,0,-1.5798352,1.0155823,-0.48924476,0.53296936,-0.68432176,1.0884091,0.06794109,1.0763001,-1.354317,-0.47754925,0.09707705,-0.2764233,0.6210241,0.3954465
0.1,-0.1,1.0999999999999999,0.0,0.5235987755982988,0,-1.5989138,1.0299486,-0.50065655,0.5390304,-0.6855969,1.0827509,0.06254341,1.2691406,-1.2886504,-0.32331628,0.22878502,-0.2785205,0.9131461,-1.1647799
0.1,-0.1,1.0999999999999999,0.0,0.5235987755982988,0,-1.5859426,1.0048368,-0.48481038,0.52330786,-0.7090726,1.0841765,0.035609588,1.0486627,-1.507877,0.08072863,0.20934476,0.1010311,0.74779093,-0.3166258
0.1,-0.1,1.0999999999999999,0.0,0.5235987755982988,0,-1.574536,1.0022258,-0.497846,0.52792346,-0.7038825,1.0847564,0.062826365,1.1908767,-1.3433247,-0.3522739,0.19325839,0.1840355,0.932826,-0.025223136
0.1,-0.1,1.0999999999999999,0.0,0.5235987755982988,0,-1.5852292,1.0182555,-0.488663,0.5414083,-0.7295635,1.090401,0.07992255,1.2414701,-1.4224846,0.0017995294,0.16586834,0.27565676,-0.0939242,-0.5314949
0.1,-0.1,1.0999999999999999,0.0,0.5235987755982988,0,-1.5906532,1.025454,-0.4843213,0.53082687,-0.72844243,1.0899743,0.0683166,1.0267385,-1.4302713,-0.12015977,0.22271329,-0.6364129,0.36536255,0.39290348
0.1,-0.1,1.0999999999999999,0.0,0.5235987755982988,0,-1.5976515,1.0176977,-0.4774095,0.5359355,-0.7078091,1.0772176,0.07248117,1.4896972,-1.2806513,-0.006548222,0.25447112,-0.22657782,0.9340004,0.7462082
0.1,-0.1,1.0999999999999999,0.0,0.5235987755982988,0,-1.5992297,1.0407016,-0.49380577,0.5354572,-0.6966942,1.0843321,0.059814643,0.59727764,-1.4109015,-0.03501714,0.07161174,-0.00046744943,0.10866617,0.040778905
0.1,-0.1,1.0999999999999999,0.0,0.5235987755982988,0,-1.579912,1.0368409,-0.502167,0.54486626,-0.72134036,1.076642,0.09301388,1.1996435,-1.5111419,0.057064284,0.13163587,0.4683623,-0.2090837,-0.25547895
0.1,-0.1,1.0999999999999999,0.0,0.5235987755982988,0,-1.5758728,1.0337515,-0.5033107,0.532347,-0.70130223,1.0833583,0.059389804,0.92680466,-1.6276077,-0.021265572,0.06263775,0.4435587,0.75362647,1.0225385
0.1,-0.1,1.0999999999999999,0.0,0.5235987755982988,0,-1.5676594,1.0258578,-0.5118121,0.5291471,-0.70790434,1.076278,0.07778512,1.097479,-1.707213,-0.5360807,0.3403225,-0.23412561,0.69438565,-0.25391024
0.1,-0.1,1.0999999999999999,0.0,0.5235987755982988,0,-1.5789285,1.0162274,-0.50605917,0.52859694,-0.73083246,1.0803027,0.05869543,0.87929773,-1.1793251,-0.221281,0.13519892,-0.21491773,0.4857695,-0.6328355
0.1,-0.1,1.0999999999999999,0.0,0.5235987755982988,0,-1.5930555,1.0061816,-0.4782427,0.54019934,-0.70576656,1.0820403,0.07401317,0.94546825,-1.4092927,-0.066966616,0.23149973,0.102821745,1.240349,0.5650762
0.1,-0.1,1.0999999999999999,0.0,0.5235987755982988,0,-1.5884043,1.0422488,-0.49267444,0.52568275,-0.7325572,1.0865761,0.03609943,1.2565312,-1.6417772,0.15422112,-0.011432375,-0.08578971,0.41438422,-0.6796999
0.1,-0.1,1.0999999999999999,0.0,0.5235987755982988,0,-1.584131,1.0479779,-0.4978048,0.5275737,-0.70851725,1.0914053,0.080412716,1.2490773,-1.6096073,-0.20711857,0.20381236,0.5602751,0.70038235,-0.13038519
0.1,-0.1,1.0999999999999999,0.0,0.5235987755982988,0,-1.5797547,1.0428973,-0.50133383,0.5364339,-0.7401173,1.093658,0.065560006,1.0378888,-1.4204551,0.236864,0.23404053,-0.30677232,1.0932082,-0.35313788
0.1,-0.1,1.0999999999999999,0.0,0.5235987755982988,0,-1.5719225,1.0260442,-0.5093575,0.5372238,-0.69072485,1.0765716,0.073644035,1.5217046,-1.520067,-0.14297283,-0.0027793108,0.68112123,0.7548071,-0.1543269
0.1,-0.1,1.0999999999999999,0.0,0.5235987755982988,0,-1.5828838,1.0144048,-0.49347857,0.5303299,-0.6980918,1.0743417,0.05687682,0.9240847,-1.294313,0.023931809,0.08029874,-0.0665847,0.9114882,-0.6053113
0.1,-0.1,1.0999999999999999,0.0,0.5235987755982988,0,-1.5787913,1.0266117,-0.49540418,0.5376609,-0.7099776,1.0888948,0.07601113,1.0950438,-1.5869749,0.30755904,0.3128895,-0.12583417,0.39842167,-0.16331221
0.1,-0.1,1.0999999999999999,0.0,0.5235987755982988,0,-1.5824631,1.0065935,-0.49858922,0.5377396,-0.73520875,1.0843221,0.056507107,1.0056347,-1.3793893,0.15233386,0.095831186,0.06349415,0.23279126,-0.4701212
0.1,-0.1,1.0999999999999999,0.0,0.5235987755982988,0,-1.5837593,0.997251,-0.49795285,0.5387476,-0.72523856,1.0733683,0.06143513,1.1804245,-1.4834989,-0.17363879,0.020504652,0.002811118,0.23874362,0.83627623
0.1,-0.1,1.0999999999999999,0.0,0.5235987755982988,0,-1.5883486,1.0110848,-0.50281733,0.53314584,-0.7213214,1.0759469,0.059795998,0.73749036,-1.3284879,0.27324542,0.24019729,0.039882366,0.2219382,-0.5656006
0.1,-0.1,1.0999999999999999,0.0,0.5235987755982988,0,-1.5863805,1.0188588,-0.48283723,0.53825843,-0.7270242,1.1023049,0.065090455,1.2104629,-1.4398346,0.007305772,-0.0067103053,-0.08092671,1.0863892,-0.32627332
0.1,-0.1,1.0999999999999999,0.0,0.5235987755982988,0,-1.6048605,1.0081818,-0.504503,0.53191435,-0.7097666,1.0670632,0.06955142,1.0572267,-1.8736968,0.19073582,0.19597812,0.10955395,1.15125,-1.231942
0.1,-0.1,1.0999999999999999,0.0,0.5235987755982988,0,-1.5837424,1.0006052,-0.48632818,0.54026836,-0.72416407,1.0839255,0.077132635,0.7850764,-1.6211059,0.24339604,0.18649241,0.2007672,0.41635406,-0.8162322
0.1,-0.1,1.0999999999999999,0.0,0.5235987755982988,0,-1.5862755,1.0006024,-0.49117956,0.53509986,-0.69608444,1.08053,0.056042165,1.4692701,-1.6429316,0.03341018,0.2338243,-0.34936935,0.9651049,1.3238637
0.1,-0.1,1.0999999999999999,0.0,0.5235987755982988,0,-1.5894997,1.0222219,-0.48798084,0.53641146,-0.73924255,1.0917206,0.03346547,1.4346437,-1.7406034,0.24301574,0.2645301,-0.012512218,0.30283618,-1.5842663
0.1,-0.1,1.0999999999999999,0.0,0.5235987755982988,0,-1.5777625,1.0245688,-0.4945548,0.5294948,-0.71723443,1.084098,0.0584195,0.8372209,-1.512827,-0.03759981,-0.013996708,-0.11923873,0.80795556,-0.21249844
0.1,-0.1,1.0999999999999999,0.0,0.5235987755982988,0,-1.5831108,1.0443923,-0.49876124,0.53143364,-0.6925287,1.0891006,0.082206145,0.9731452,-1.6993495,0.02593153,0.06253604,-0.19082059,0.5970379,0.1640721
0.1,-0.1,1.0999999999999999,0.0,0.5235987755982988,0,-1.5915729,1.0463194,-0.4771843,0.52479744,-0.69899863,1.0891793,0.08227654,1.1621442,-1.561624,0.04213814,0.11596838,0.008528478,1.2785698,1.1855415
0.1,-0.1,1.0999999999999999,0.0,0.5235987755982988,0,-1.6032256,1.0310571,-0.4946872,0.54074186,-0.71707714,1.0951169,0.09354939,0.529663,-1.6784906,-0.23249154,0.27306676,-0.121713035,0.6262637,0.51290256
0.1,-0.1,1.0999999999999999,0.0,0.5235987755982988,0,-1.5659871,1.0027304,-0.49551523,0.53293645,-0.6898128,1.095223,0.07821693,1.1390425,-1.3735968,-0.11093454,0.17786516,0.08221571,0.24597906,-0.73576415
0.1,-0.1,1.0999999999999999,0.0,0.5235987755982988,0,-1.5755365,1.013953,-0.497481,0.53290933,-0.70262593,1.0788924,0.043903925,1.2437896,-1.3312413,-0.07999122,0.20600381,0.06257886,-0.13111654,-1.529739
0.1,-0.1,1.0999999999999999,0.0,0.5235987755982988,0,-1.5823479,1.0288712,-0.50440925,0.5276434,-0.71964633,1.0778247,0.06420575,1.1409038,-1.1862433,-0.08962738,0.20882061,0.25560674,-0.19695367,0.44312668
0.1,-0.1,1.0999999999999999,0.0,0.5235987755982988,0,-1.581834,1.0350677,-0.47518203,0.5409444,-0.69261765,1.0894142,0.09313796,0.8627148,-1.0960728,0.033548225,0.050101537,-0.27259895,0.3697047,-0.6532909
0.1,-0.1,1.0999999999999999,0.0,0.5235987755982988,0,-1.5930767,1.026779,-0.49333698,0.5312727,-0.68772346,1.0846438,0.07377458,1.7479768,-1.0709847,0.13920897,0.20650432,-0.025525229,1.1130913,-0.5984449
0.1,-0.1,1.0999999999999999,0.0,0.5235987755982988,0,-1.5956591,1.0081211,-0.47671264,0.5353075,-0.71146816,1.0929804,0.05675144,0.89094657,-1.503923,0.13285926,0.06965536,-0.27193832,0.51958495,0.007698811
0.1,-0.1,1.0999999999999999,0.0,0.5235987755982988,0,-1.5849738,1.0379238,-0.49049023,0.53759474,-0.70867765,1.0997173,0.0771783,1.3203951,-1.4101734,-0.5132084,0.3078288,0.31945768,0.5587427,-0.03570425
0.1,-0.1,1.0999999999999999,0.0,0.5235987755982988,0,-1.5642304,1.0086966,-0.51072997,0.53749454,-0.7306514,1.0905591,0.08605969,0.7443567,-1.5320575,-0.10034695,0.087705776,0.3742231,1.0393239,-0.6051116
0.1,-0.1,1.0999999999999999,0.0,0.5235987755982988,0,-1.5781565,1.0219109,-0.492888,0.52823395,-0.7063903,1.1005096,0.06182609,0.84376353,-1.9963086,0.06430427,0.17889677,-0.5096054,0.84486645,0.67260516
0.1,-0.1,1.0999999999999999,0.0,0.5235987755982988,0,-1.5740747,1.021643,-0.50087655,0.5381633,-0.7120656,1.0898321,0.05829324,1.4231111,-1.2393368,-0.12413952,0.35069242,0.4429906,0.5199103,0.48266557
0.1,-0.1,1.0999999999999999,0.0,0.5235987755982988,0,-1.5800527,1.0157344,-0.4947193,0.53322715,-0.6973919,1.0793676,0.056321044,0.6086906,-1.3788209,-0.4947748,0.08446432,0.50407314,0.38693434,-0.88731194
0.1,-0.1,1.0999999999999999,0.0,0.5235987755982988,0,-1.5828209,1.0335197,-0.49762636,0.5321536,-0.67368877,1.076149,0.089418486,0.784096,-1.5503293,0.058801718,0.32137936,0.32234246,0.15473351,-0.49048048
0.1,-0.1,1.0999999999999999,0.0,0.5235987755982988,0,-1.5804391,1.0276684,-0.49350184,0.5312836,-0.7203738,1.0803068,0.082700334,1.0127647,-1.1931659,-0.18328606,0.12350219,-0.18643077,0.43191338,0.23482923
0.1,-0.1,1.0999999999999999,0.0,0.5235987755982988,0,-1.5864683,1.0227333,-0.4869811,0.53416324,-0.7050472,1.0973277,0.09215937,1.2619363,-1.1870883,0.37316763,0.20482823,0.53674704,0.8817061,-0.38351446
0.1,-0.1,1.0999999999999999,0.0,0.5235987755982988,0,-1.5856347,1.0521412,-0.48544636,0.53836966,-0.7166001,1.0900574,0.08623611,1.0882007,-1.1852775,-0.18182236,0.15367408,0.338647,0.86432123,-0.35641477
0.1,-0.1,1.0999999999999999,0.0,0.5235987755982988,0,-1.5649344,1.008152,-0.48916918,0.5363427,-0.69756657,1.0826889,0.058129665,0.79981464,-1.342609,-0.11888552,0.15143892,-0.33485687,0.06297634,0.53780705
0.1,-0.1,1.0999999999999999,0.0,0.5235987755982988,0,-1.6050564,1.0291221,-0.49261624,0.53592265,-0.707229,1.0934149,0.037696734,1.206711,-1.5343289,-0.0552955,0.010496104,0.047406666,0.24388075,-0.5219846
0.1,-0.1,1.0999999999999999,0.0,0.5235987755982988,0,-1.572863,1.0391939,-0.50206095,0.53055066,-0.7175947,1.0891906,0.064296216,0.7653043,-1.236122,0.19760448,0.22775818,-0.122382134,0.7139124,0.72844625
0.1,-0.1,1.0999999999999999,0.0,0.5235987755982988,0,-1.6004107,1.0287211,-0.48901424,0.5358656,-0.72283185,1.0938681,0.07979788,1.4217988,-1.2832654,-0.058813434,-0.020135071,0.16474544,0.8988365,-1.0607333
0.1,-0.1,1.0999999999999999,0.0,0.5235987755982988,0,-1.5660772,1.0105634,-0.49063042,0.5414402,-0.682337,1.0761328,0.07551586,1.1480522,-1.3409407,-0.1702344,0.12698655,-0.117354006,0.42390633,0.0026141724
0.1,-0.1,1.0999999999999999,0.0,0.5235987755982988,0,-1.5795878,1.0257857,-0.4919936,0.5389817,-0.7120157,1.0869375,0.061577246,0.7065386,-1.4980671,0.4277774,0.1582794,0.060380217,0.3801252,0.17290215
