sanky1234/BimanualDexCatch/isaacgymenvs/cem_results/football_pose_0.1_0.0_1.2999999999999998_0.0_0.5235987755982988_0_2025-05-26.csv
x,y,z,roll,pitch,yaw,robot1/joint1,robot1/joint2,robot1/joint3,robot1/joint4,robot1/joint5,robot1/joint6,robot1/joint7,robot2/joint1,robot2/joint2,robot2/joint3,robot2/joint4,robot2/joint5,robot2/joint6,robot2/joint7
0.1,0.0,1.2999999999999998,0.0,0.5235987755982988,0,-0.72951084,0.45255497,-0.5953206,0.66784537,-0.7785064,0.8462993,0.25780442,-0.033532366,1.1790029,0.2662737,-0.034812506,-1.2448378,-1.5567621,0.4771461
0.1,0.0,1.2999999999999998,0.0,0.5235987755982988,0,-0.72711295,0.45022592,-0.5959216,0.66819024,-0.77887106,0.8473575,0.2582492,-0.2521729,1.3164531,-0.03126955,0.04217405,-1.7272176,-1.5096172,0.32225612
0.1,0.0,1.2999999999999998,0.0,0.5235987755982988,0,-0.7286989,0.45042092,-0.59582675,0.6681263,-0.7790611,0.8481658,0.25819716,0.5737238,0.8720191,-0.22828959,-0.02748412,-0.9623559,-1.4856201,-0.2793419
0.1,0.0,1.2999999999999998,0.0,0.5235987755982988,0,-0.72897804,0.4515799,-0.5954128,0.66721404,-0.7789913,0.8481045,0.25613692,-0.12806493,1.1537029,0.07974046,0.03241709,-1.2442156,-1.5178238,0.9703788
0.1,0.0,1.2999999999999998,0.0,0.5235987755982988,0,-0.7289277,0.451397,-0.59555894,0.66713655,-0.7791682,0.8469524,0.26269847,0.70738244,1.2059029,-0.06844261,0.0123395035,-1.0772257,-1.4728975,1.9551965
0.1,0.0,1.2999999999999998,0.0,0.5235987755982988,0,-0.7289162,0.45087573,-0.5953879,0.66721267,-0.7799404,0.84688044,0.2608841,0.839928,1.2932442,0.04589383,-0.049416546,-1.8354605,-1.4327193,1.924975
0.1,0.0,1.2999999999999998,0.0,0.5235987755982988,0,-0.7288218,0.4547439,-0.59413445,0.6678861,-0.77991885,0.8465072,0.25587898,0.19000503,1.0053059,0.011509503,0.009626705,0.8481848,-1.4968346,0.16747016
0.1,0.0,1.2999999999999998,0.0,0.5235987755982988,0,-0.72813976,0.4520465,-0.59567106,0.66758776,-0.77863705,0.84590733,0.25905222,0.06743119,1.1621476,-0.0076446175,-0.051633343,-0.016020687,-1.4741788,0.43739384
0.1,0.0,1.2999999999999998,0.0,0.5235987755982988,0,-0.7285332,0.45084706,-0.59626967,0.6673265,-0.77702856,0.84694743,0.2597715,-0.018821549,1.1936461,-0.13963507,-0.04044534,0.16426487,-1.5259024,1.015922
0.1,0.0,1.2999999999999998,0.0,0.5235987755982988,0,-0.72955436,0.45184627,-0.5959654,0.6671747,-0.77840376,0.848219,0.25894088,-0.59243006,1.0505904,-0.09203855,-0.009081215,1.0062099,-1.4785322,0.42260706
0.1,0.0,1.2999999999999998,0.0,0.5235987755982988,0,-0.7298948,0.4515275,-0.5961317,0.6676345,-0.77818257,0.8464204,0.25751942,-0.4190206,1.0112199,-0.26415905,-0.099410996,-0.44805261,-1.4706155,0.4690603
0.1,0.0,1.2999999999999998,0.0,0.5235987755982988,0,-0.7297456,0.45263,-0.59577453,0.667765,-0.77848744,0.84643143,0.25808266,0.042182878,1.2739077,0.10615938,0.03750681,-1.3352348,-1.4076766,0.095813125
0.1,0.0,1.2999999999999998,0.0,0.5235987755982988,0,-0.728595,0.45081314,-0.5964993,0.66794366,-0.7774791,0.8474179,0.2576289,-0.0748243,1.0321093,-0.12805161,-0.105912335,-0.0044146637,-1.4780431,0.67145616
0.1,0.0,1.2999999999999998,0.0,0.5235987755982988,0,-0.72916585,0.45011374,-0.5960779,0.66755366,-0.7788689,0.84643775,0.25808302,-0.1376461,1.1857076,0.016741635,-0.0008759643,0.18712026,-1.5241781,1.2051582
0.1,0.0,1.2999999999999998,0.0,0.5235987755982988,0,-0.72908634,0.4542159,-0.59558344,0.66723657,-0.77760565,0.8463244,0.25749612,-0.12704703,1.093586,0.018315203,-0.046190772,-2.0914533,-1.4539199,0.31126484
0.1,0.0,1.2999999999999998,0.0,0.5235987755982988,0,-0.72893447,0.4521575,-0.59569126,0.66705376,-0.77801096,0.84837776,0.25931466,0.67507493,1.0664053,0.27720398,-0.037063774,-1.0506823,-1.48672,0.22346209
0.1,0.0,1.2999999999999998,0.0,0.5235987755982988,0,-0.72957325,0.45036495,-0.596103,0.66757166,-0.7781213,0.84717065,0.25587595,0.053331695,1.0621983,-0.22081548,-0.05269122,-1.8728963,-1.4616008,0.63407195
0.1,0.0,1.2999999999999998,0.0,0.5235987755982988,0,-0.72875774,0.45100057,-0.5953421,0.6673702,-0.7786331,0.84819907,0.2602335,0.50184286,1.0731449,0.13254179,-0.17600696,0.73725885,-1.4413453,0.91652375
0.1,0.0,1.2999999999999998,0.0,0.5235987755982988,0,-0.72907186,0.45130193,-0.59623754,0.66744524,-0.7778959,0.8459224,0.26073745,0.099647716,1.2374586,0.19393052,0.0029714976,-0.8738665,-1.4620157,0.43659252
0.1,0.0,1.2999999999999998,0.0,0.5235987755982988,0,-0.72809225,0.45113754,-0.5953402,0.66717386,-0.7793989,0.84775347,0.2620906,-0.39251027,1.2683853,-0.2746886,0.069586106,-1.3780634,-1.4493597,1.6081146
0.1,0.0,1.2999999999999998,0.0,0.5235987755982988,0,-0.7293938,0.45305446,-0.5961355,0.66770303,-0.7794851,0.8469276,0.2597127,0.43163842,0.9563081,-0.31465518,0.04400996,-0.42015293,-1.5554217,-0.14848146
0.1,0.0,1.2999999999999998,0.0,0.5235987755982988,0,-0.7292591,0.4514417,-0.59516495,0.6678103,-0.7789101,0.84787333,0.25749093,0.56353927,1.1954236,0.024333036,-0.07030328,-1.0154511,-1.5216074,1.0258394
0.1,0.0,1.2999999999999998,0.0,0.5235987755982988,0,-0.7292829,0.451646,-0.596336,0.66771096,-0.7779765,0.84614307,0.2578445,0.4008971,1.0895156,-0.026161077,-0.110777296,-0.4673884,-1.4967467,0.8717501
0.1,0.0,1.2999999999999998,0.0,0.5235987755982988,0,-0.72950935,0.45467404,-0.5951988,0.66762674,-0.7791997,0.8470859,0.25753367,-0.5263616,1.2148318,-0.3014044,-0.001324961,0.54531616,-1.5102643,1.4445504
0.1,0.0,1.2999999999999998,0.0,0.5235987755982988,0,-0.7290598,0.45393854,-0.59642327,0.6678175,-0.77906543,0.8467445,0.25940287,0.5662596,1.2318623,-0.1986194,-0.048504498,-0.6093053,-1.4095745,0.69194955
0.1,0.0,1.2999999999999998,0.0,0.5235987755982988,0,-0.7288194,0.45253438,-0.5961759,0.6674472,-0.77968156,0.8459558,0.25617254,0.26014528,1.19134,0.032004394,0.045273148,-1.2972304,-1.4758373,-0.060527075
0.1,0.0,1.2999999999999998,0.0,0.5235987755982988,0,-0.72879195,0.45676094,-0.5945604,0.6669298,-0.7785759,0.8468064,0.2567074,0.091489114,1.3652927,-0.28434348,-0.020539926,-1.1016521,-1.5364234,0.5364255
0.1,0.0,1.2999999999999998,0.0,0.5235987755982988,0,-0.72853345,0.45633465,-0.59593046,0.6675732,-0.7790734,0.8467808,0.25842142,0.31886137,1.1014361,0.088803805,0.016301831,-1.390157,-1.5128999,1.2192925
0.1,0.0,1.2999999999999998,0.0,0.5235987755982988,0,-0.7291574,0.45458412,-0.5957248,0.66747594,-0.7789871,0.8465847,0.2580747,0.3436017,1.2671965,-0.11091625,-0.07042022,-1.0907688,-1.5313593,0.79017365
0.1,0.0,1.2999999999999998,0.0,0.5235987755982988,0,-0.72911286,0.4540985,-0.5957013,0.6674312,-0.77754337,0.8467501,0.2602929,1.4893955,1.1890752,0.03625237,-0.02304379,-0.08678249,-1.502076,1.1102828
0.1,0.0,1.2999999999999998,0.0,0.5235987755982988,0,-0.72978026,0.4515139,-0.59566194,0.6674201,-0.77883816,0.8477189,0.25963855,0.27650306,1.2536949,-0.23897137,-0.02859532,-1.395729,-1.4313916,1.1979027
0.1,0.0,1.2999999999999998,0.0,0.5235987755982988,0,-0.72889495,0.45076835,-0.59644777,0.66756165,-0.77709454,0.84766114,0.2630597,0.2819973,1.0219748,-0.12317064,-0.1147123,0.49232227,-1.3366638,0.72815377
0.1,0.0,1.2999999999999998,0.0,0.5235987755982988,0,-0.72966737,0.4543119,-0.59660333,0.66662735,-0.77803135,0.8476821,0.25697872,0.70840096,1.0690955,-0.14440008,-0.023452617,0.5106356,-1.4409193,0.15685943
0.1,0.0,1.2999999999999998,0.0,0.5235987755982988,0,-0.7286119,0.45164138,-0.5954307,0.6673238,-0.77963847,0.8468631,0.25985467,0.014354393,1.1498535,-0.021845898,-0.09628168,-1.8475094,-1.4739677,-0.38177708
0.1,0.0,1.2999999999999998,0.0,0.5235987755982988,0,-0.72807395,0.45258856,-0.5955888,0.6675351,-0.7777505,0.8461424,0.2583961,0.13590468,1.1536921,0.07218752,-0.050864674,-1.884195,-1.4824971,1.1179618
0.1,0.0,1.2999999999999998,0.0,0.5235987755982988,0,-0.7292189,0.45333377,-0.5957146,0.6673853,-0.77930355,0.84659106,0.25571573,0.08667339,1.2447796,0.13623366,-0.1424754,-0.285725,-1.4879771,0.039318416
0.1,0.0,1.2999999999999998,0.0,0.5235987755982988,0,-0.72827554,0.45381004,-0.5956387,0.66803044,-0.7780752,0.84644854,0.25853556,-0.041174326,1.1810888,-0.07854731,-0.020135941,0.35084406,-1.3914381,1.6728624
0.1,0.0,1.2999999999999998,0.0,0.5235987755982988,0,-0.72852933,0.45202178,-0.5964465,0.66705817,-0.779311,0.8474969,0.25870374,-0.027753016,1.2057977,0.042440604,-0.13952196,-1.6812328,-1.4644746,1.4580251
0.1,0.0,1.2999999999999998,0.0,0.5235987755982988,0,-0.72928363,0.45005533,-0.59624845,0.66715413,-0.7791883,0.84775096,0.25922018,-0.2630438,1.0910519,-0.0577625,-0.05856754,-0.39143398,-1.4673468,1.378845
0.1,0.0,1.2999999999999998,0.0,0.5235987755982988,0,-0.72958577,0.4511289,-0.59611064,0.6675003,-0.7783316,0.8476785,0.2586735,0.6492835,1.0024695,0.035840757,-0.03488713,-1.5960408,-1.4612229,0.3465407
0.1,0.0,1.2999999999999998,0.0,0.5235987755982988,0,-0.72908455,0.45191905,-0.59562176,0.6675408,-0.77803105,0.8478073,0.25815922,0.32815036,1.130204,-0.153274,-0.082226895,-0.7725299,-1.4899875,0.49714494
0.1,0.0,1.2999999999999998,0.0,0.5235987755982988,0,-0.7297572,0.4518973,-0.5955183,0.66758883,-0.77937686,0.8467214,0.26004997,0.3409084,1.1681403,-0.034724467,0.03168281,-1.3710854,-1.5562338,0.043282814
0.1,0.0,1.2999999999999998,0.0,0.5235987755982988,0,-0.72999644,0.45155942,-0.59638417,0.6669164,-0.77899295,0.84791094,0.25564355,0.83531827,1.130984,0.040413473,-0.0076411893,-0.94875014,-1.5348498,0.86532235
0.1,0.0,1.2999999999999998,0.0,0.5235987755982988,0,-0.72837603,0.45122403,-0.59639263,0.6674801,-0.77752614,0.8472751,0.26094887,0.3242195,1.1043036,0.3022871,-0.018402154,0.27350503,-1.4664882,-0.06198588
0.1,0.0,1.2999999999999998,0.0,0.5235987755982988,0,-0.72833014,0.4500984,-0.5967017,0.66746,-0.7785602,0.84751785,0.25862086,0.5393676,1.219233,-0.23107387,-0.07207621,-2.0146472,-1.458846,0.48437384
0.1,0.0,1.2999999999999998,0.0,0.5235987755982988,0,-0.7302677,0.45127103,-0.5954492,0.6669902,-0.77834517,0.8475747,0.2617504,0.7147806,1.3150837,-0.09653208,-0.047835745,-0.50710493,-1.416647,0.5189027
0.1,0.0,1.2999999999999998,0.0,0.5235987755982988,0,-0.7297271,0.45177415,-0.5960856,0.66693443,-0.7792071,0.8483725,0.2604291,0.6180547,1.0563968,-0.27295673,-0.09510498,0.94777274,-1.4724227,-0.18461971
0.1,0.0,1.2999999999999998,0.0,0.5235987755982988,0,-0.7286256,0.45287848,-0.59599984,0.66746104,-0.77817696,0.8472409,0.2613543,0.9810405,1.1825901,0.041152354,-0.0856642,-1.2983048,-1.5508736,1.4295673
0.1,0.0,1.2999999999999998,0.0,0.5235987755982988,0,-0.7282467,0.45155883,-0.59603876,0.66732466,-0.7789157,0.8477083,0.2624172,0.07635961,1.1916509,-0.11478363,-0.045896865,1.9123967,-1.4230185,1.6217968
0.1,0.0,1.2999999999999998,0.0,0.5235987755982988,0,-0.7293326,0.4533867,-0.59669685,0.6668973,-0.778117,0.8477029,0.25776204,0.5171699,1.0879562,0.02462213,-0.07970318,-1.3626642,-1.5255746,0.9441931
0.1,0.0,1.2999999999999998,0.0,0.5235987755982988,0,-0.72942567,0.45440164,-0.59483314,0.6673569,-0.78049654,0.84667706,0.26228908,0.35067126,1.1651258,0.12797496,-0.02250514,-2.4282417,-1.4058952,0.5263586
0.1,0.0,1.2999999999999998,0.0,0.5235987755982988,0,-0.7298908,0.45373726,-0.5957699,0.6677265,-0.7788561,0.8458755,0.25591215,0.4791865,1.1514012,0.04061906,-0.036476105,-0.12147458,-1.4709486,1.15433
0.1,0.0,1.2999999999999998,0.0,0.5235987755982988,0,-0.729975,0.45420086,-0.59653306,0.6675964,-0.7786991,0.84623444,0.2583669,0.1903728,1.2741221,0.41097087,-0.20743999,0.3275337,-1.4527007,1.0705725
0.1,0.0,1.2999999999999998,0.0,0.5235987755982988,0,-0.7281871,0.4551312,-0.59537905,0.6673854,-0.77850103,0.8474579,0.2580222,0.7534257,1.300948,-0.069366165,-0.034543384,-1.3800534,-1.4745798,1.1580328
0.1,0.0,1.2999999999999998,0.0,0.5235987755982988,0,-0.72972846,0.4525889,-0.5964164,0.66744065,-0.7790235,0.84692305,0.26079118,-0.2322691,1.0847147,-0.29068938,0.030207314,0.6757328,-1.4915658,0.1877339
0.1,0.0,1.2999999999999998,0.0,0.5235987755982988,0,-0.7293506,0.45207605,-0.5953208,0.6677648,-0.7792994,0.84674436,0.25835207,0.13911997,1.1358709,0.06511425,0.04752457,-0.5812052,-1.4439384,-0.23553221
0.1,0.0,1.2999999999999998,0.0,0.5235987755982988,0,-0.728707,0.45414606,-0.5955725,0.66744643,-0.7794667,0.84750193,0.2590765,0.0699299,1.1264521,0.23533241,-0.0002451984,-1.7400308,-1.4824446,0.771106
0.1,0.0,1.2999999999999998,0.0,0.5235987755982988,0,-0.7300643,0.45378882,-0.5960115,0.66727805,-0.77825254,0.8468495,0.2629937,0.33618304,1.105109,-0.030977665,0.0073180767,-1.4682773,-1.4378849,0.41907117
0.1,0.0,1.2999999999999998,0.0,0.5235987755982988,0,-0.72819304,0.45295587,-0.5961281,0.66768575,-0.77875257,0.84633225,0.25577527,0.4841474,1.1540574,-0.038719147,0.049757496,-1.2881364,-1.451478,0.67418355
0.1,0.0,1.2999999999999998,0.0,0.5235987755982988,0,-0.7280151,0.45267788,-0.5952016,0.6668607,-0.77852434,0.84519345,0.25514123,0.3715248,0.8928622,-0.20995481,-0.0783937,0.92410755,-1.4552581,-0.013120308
0.1,0.0,1.2999999999999998,0.0,0.5235987755982988,0,-0.7283275,0.45328802,-0.5944985,0.66707057,-0.7791413,0.84552455,0.2558964,0.70546556,1.1596422,0.053568434,-0.009658676,0.72892,-1.4537873,0.5441011
0.1,0.0,1.2999999999999998,0.0,0.5235987755982988,0,-0.7282205,0.45090294,-0.5951431,0.6671142,-0.78028864,0.84578496,0.2574507,-0.22169709,0.99008095,0.0329851,-0.07128247,-0.09136082,-1.4323336,1.7472014
0.1,0.0,1.2999999999999998,0.0,0.5235987755982988,0,-0.7281526,0.4531638,-0.59406143,0.66739905,-0.7774254,0.8465192,0.258411,0.71253395,1.1572863,-0.0438313,-0.019949703,0.7509582,-1.3662779,0.059316095
0.1,0.0,1.2999999999999998,0.0,0.5235987755982988,0,-0.7277275,0.45314556,-0.5942161,0.667672,-0.77795297,0.84678936,0.25680357,0.30402362,1.0730008,0.005138376,-0.10573524,-1.3534093,-1.4689674,0.5114923
0.1,0.0,1.2999999999999998,0.0,0.5235987755982988,0,-0.72877383,0.4508601,-0.5952755,0.66727763,-0.7782651,0.8467574,0.2582551,0.20801705,1.2169495,-0.122860126,0.061308187,-0.6732734,-1.3837706,1.8006835
0.1,0.0,1.2999999999999998,0.0,0.5235987755982988,0,-0.7288382,0.4526662,-0.59538126,0.66770136,-0.778772,0.84535617,0.2563581,0.5424017,1.0829424,0.19737121,-0.12116797,-0.4638494,-1.4693495,0.682962
0.1,0.0,1.2999999999999998,0.0,0.5235987755982988,0,-0.72827387,0.4522736,-0.59486055,0.6676453,-0.7794384,0.84700704,0.25926447,0.2753808,0.8751941,-0.1087809,-0.14297189,-0.7133752,-1.3781918,-0.025971927
0.1,0.0,1.2999999999999998,0.0,0.5235987755982988,0,-0.72953194,0.4521523,-0.5951199,0.6670397,-0.7794379,0.8460671,0.25990942,-0.07460485,1.1463127,-0.16800183,-0.105489984,-0.2406787,-1.4265653,0.042989723
0.1,0.0,1.2999999999999998,0.0,0.5235987755982988,0,-0.72710675,0.45189062,-0.5956428,0.66694486,-0.77971,0.8469229,0.25572002,0.21139795,1.3081149,0.21466108,0.032520007,0.062037915,-1.4785993,0.48925585
0.1,0.0,1.2999999999999998,0.0,0.5235987755982988,0,-0.72868186,0.4511619,-0.5951198,0.6672758,-0.7779595,0.84596354,0.25921538,0.46186107,1.0874143,-0.09995026,-0.09542919,-0.7909094,-1.4368141,0.5456759
0.1,0.0,1.2999999999999998,0.0,0.5235987755982988,0,-0.72912055,0.4530369,-0.595359,0.66715467,-0.7794516,0.8456141,0.2591983,0.8505871,0.99584603,-0.08278754,-0.13656941,-0.2815741,-1.4295343,0.6544301
0.1,0.0,1.2999999999999998,0.0,0.5235987755982988,0,-0.72792935,0.4541567,-0.5949446,0.66777366,-0.778603,0.8461667,0.2564648,-0.07015115,1.4512484,-0.16101529,0.015342764,-1.0007393,-1.4269191,1.1809318
0.1,0.0,1.2999999999999998,0.0,0.5235987755982988,0,-0.72810006,0.45068398,-0.59570485,0.66734177,-0.77780294,0.84579015,0.26012295,-0.0025917923,1.212581,-0.03270238,0.005040964,-2.0941708,-1.4117695,-0.28248638
0.1,0.0,1.2999999999999998,0.0,0.5235987755982988,0,-0.728902,0.45276567,-0.5948397,0.6670242,-0.77974224,0.8469396,0.2593326,0.95514154,1.0482742,0.0072424365,-0.07672423,0.19923897,-1.4080344,0.90947443
0.1,0.0,1.2999999999999998,0.0,0.5235987755982988,0,-0.72809935,0.45162597,-0.59451187,0.6675606,-0.7788694,0.8469133,0.25555888,0.7106853,1.226933,-0.29004368,0.029216476,0.8014999,-1.4877704,1.1851268
0.1,0.0,1.2999999999999998,0.0,0.5235987755982988,0,-0.7275165,0.45298016,-0.5959293,0.6681156,-0.7776332,0.8459544,0.25701195,0.4937898,1.0425822,-0.1208943,-0.07900968,-1.1960291,-1.4439627,0.6154857
0.1,0.0,1.2999999999999998,0.0,0.5235987755982988,0,-0.729993,0.45127505,-0.59484357,0.666766,-0.7767765,0.8462031,0.25463337,0.20660205,1.0329807,0.09894664,-0.023722034,-1.1639963,-1.4663887,0.34974912
0.1,0.0,1.2999999999999998,0.0,0.5235987755982988,0,-0.72717327,0.45221427,-0.5957133,0.6684479,-0.77860427,0.8472277,0.25625607,-0.16924906,1.1956012,0.11960485,0.05990064,-0.17527558,-1.4410087,-0.5993439
0.1,0.0,1.2999999999999998,0.0,0.5235987755982988,0,-0.7291648,0.45503703,-0.5946008,0.6673185,-0.7776703,0.8463174,0.25608286,0.8707303,1.2135495,0.16592693,-0.045473628,-0.41458488,-1.4421594,0.19666286
0.1,0.0,1.2999999999999998,0.0,0.5235987755982988,0,-0.7289353,0.45191804,-0.59523386,0.66720337,-0.7777874,0.8458304,0.2557335,0.5797623,1.2149296,0.02902186,-0.07950935,1.1316003,-1.4075303,0.4884941
0.1,0.0,1.2999999999999998,0.0,0.5235987755982988,0,-0.7291523,0.45146766,-0.5945471,0.66716415,-0.77814054,0.84758407,0.25705197,0.16952574,1.0463132,0.013061501,-0.11593612,-0.10773808,-1.4056848,0.7284219
0.1,0.0,1.2999999999999998,0.0,0.5235987755982988,0,-0.7287136,0.45229304,-0.5943117,0.6677293,-0.7790325,0.84594554,0.26087824,0.97178304,1.0931184,0.13661855,-0.06405009,-1.2214409,-1.445666,0.07545957
0.1,0.0,1.2999999999999998,0.0,0.5235987755982988,0,-0.7278629,0.45344025,-0.5955759,0.6671552,-0.7789748,0.84532714,0.25758907,0.7666042,1.3056151,0.0020765641,-0.0680686,-0.6591421,-1.5664011,0.66482085
0.1,0.0,1.2999999999999998,0.0,0.5235987755982988,0,-0.7281892,0.452252,-0.5957819,0.66767246,-0.77885413,0.8465117,0.25620103,0.92536414,1.4365819,0.12266038,-0.047009826,-0.7985622,-1.4534518,0.7340619
0.1,0.0,1.2999999999999998,0.0,0.5235987755982988,0,-0.72810924,0.45201817,-0.59422827,0.66773474,-0.7783577,0.8466138,0.25815144,0.4744905,1.2766273,0.012593804,-0.062148653,-0.027006572,-1.4833437,-0.26539904
0.1,0.0,1.2999999999999998,0.0,0.5235987755982988,0,-0.7283331,0.4538738,-0.595655,0.6679163,-0.7796693,0.8464383,0.258232,-0.21119286,1.092515,0.006049314,-0.09260805,-0.40658763,-1.355276,1.3821622
0.1,0.0,1.2999999999999998,0.0,0.5235987755982988,0,-0.72857314,0.4513435,-0.5957351,0.6676174,-0.7781461,0.8473224,0.25216714,0.14107653,1.0973997,0.043518174,-0.0045419433,-0.522595,-1.4573685,-0.02867588
0.1,0.0,1.2999999999999998,0.0,0.5235987755982988,0,-0.7297152,0.45263344,-0.5947621,0.66721934,-0.778336,0.845286,0.25877672,0.117059655,1.0255898,0.08234496,-0.10685109,-1.562061,-1.5005305,0.5250607
0.1,0.0,1.2999999999999998,0.0,0.5235987755982988,0,-0.7282509,0.4526155,-0.5961293,0.66702473,-0.7790129,0.8462103,0.25875026,-0.112494245,1.1755093,-0.081900485,0.014644896,-0.06915789,-1.4487848,1.4383812
0.1,0.0,1.2999999999999998,0.0,0.5235987755982988,0,-0.72836107,0.4514845,-0.59526503,0.6674851,-0.777705,0.8458179,0.25844222,0.09796582,1.3096435,0.15456925,-0.044489518,0.8924383,-1.4377242,-0.48880482
0.1,0.0,1.2999999999999998,0.0,0.5235987755982988,0,-0.7293216,0.4490912,-0.59577435,0.6677669,-0.7772417,0.84701145,0.2578162,-0.014281386,0.92014796,-0.25448078,-0.1755712,0.48684964,-1.4120327,0.35332286
0.1,0.0,1.2999999999999998,0.0,0.5235987755982988,0,-0.7285315,0.45234466,-0.5955772,0.66739404,-0.7791308,0.8474298,0.25465328,-0.026801467,0.96309733,0.17044298,-0.12914494,0.12818839,-1.4890659,0.5370633
0.1,0.0,1.2999999999999998,0.0,0.5235987755982988,0,-0.7281958,0.45251757,-0.5956332,0.6670633,-0.7793555,0.8459857,0.26085457,-0.034518115,1.180731,0.015198674,0.024097139,-1.1504127,-1.485172,1.030285
0.1,0.0,1.2999999999999998,0.0,0.5235987755982988,0,-0.7278874,0.4519023,-0.5956589,0.66715527,-0.7786651,0.8459177,0.26024446,0.1975857,1.2024224,-0.11668875,-0.13762163,0.43248716,-1.4296345,-0.3847924
0.1,0.0,1.2999999999999998,0.0,0.5235987755982988,0,-0.7284119,0.4512795,-0.5945836,0.66742915,-0.7784021,0.84680486,0.25838196,0.13828965,1.1166824,0.13459013,-0.04999061,-0.5069869,-1.450013,0.21443321
0.1,0.0,1.2999999999999998,0.0,0.5235987755982988,0,-0.72809005,0.45240355,-0.59618795,0.6674745,-0.7790608,0.8461931,0.25642672,0.24569133,0.99230915,0.12088086,-0.095985085,-0.15644318,-1.3926636,0.9054982
0.1,0.0,1.2999999999999998,0.0,0.5235987755982988,0,-0.72951066,0.4535194,-0.59462607,0.66698515,-0.77824056,0.84708464,0.25715765,0.48253274,1.2149551,-0.20294733,-0.008970204,-0.87122506,-1.4244075,1.305988
0.1,0.0,1.2999999999999998,0.0,0.5235987755982988,0,-0.72858083,0.45389077,-0.59534883,0.6670831,-0.77881414,0.84729326,0.2590449,-0.055071063,1.2364417,-0.28671575,0.018976877,-0.3787649,-1.4186646,1.764577
0.1,0.0,1.2999999999999998,0.0,0.5235987755982988,0,-0.7290339,0.44993582,-0.595276,0.667175,-0.778448,0.8456402,0.25661328,0.1786706,1.1526495,0.09128068,-0.08441525,-1.0085107,-1.4399943,0.7461408
0.1,0.0,1.2999999999999998,0.0,0.5235987755982988,0,-0.7290807,0.45026016,-0.59534156,0.66660315,-0.7781218,0.8468716,0.25675818,-0.089535646,1.2392104,0.13240963,-0.038568385,-0.2569911,-1.4990078,0.15207465
0.1,0.0,1.2999999999999998,0.0,0.5235987755982988,0,-0.7291822,0.4522412,-0.5954683,0.66766816,-0.77980274,0.84607375,0.25937515,0.28533566,1.4495509,0.21452914,-0.11749052,-0.999462,-1.4645185,0.8585129
0.1,0.0,1.2999999999999998,0.0,0.5235987755982988,0,-0.7294271,0.45160833,-0.5952892,0.6677562,-0.7786112,0.84681493,0.25804862,0.48522544,0.9834888,-0.48632506,-0.044769358,-0.67171764,-1.4813133,0.94794106
0.1,0.0,1.2999999999999998,0.0,0.5235987755982988,0,-0.72824985,0.45250386,-0.5958609,0.66703475,-0.77927375,0.84703153,0.25843713,0.5111809,0.9576298,-0.01925096,-0.09289028,0.51443714,-1.3942386,-0.34237832
0.1,0.0,1.2999999999999998,0.0,0.5235987755982988,0,-0.72871083,0.45086715,-0.59553885,0.667377,-0.7773136,0.8460222,0.25723416,0.4989929,1.2954085,-0.035462137,-0.0014694423,-0.20136227,-1.4106104,1.3892937
0.1,0.0,1.2999999999999998,0.0,0.5235987755982988,0,-0.72788,0.45268893,-0.5942846,0.66731274,-0.77865875,0.847764,0.2575186,0.7339019,1.2171082,-0.03763861,-0.0537938,-2.091123,-1.47828,1.3052433
0.1,0.0,1.2999999999999998,0.0,0.5235987755982988,0,-0.72804445,0.45184618,-0.5960268,0.6678712,-0.7784611,0.84565103,0.25562072,-0.16328152,1.1761241,-0.05854211,0.0042450405,-0.10887802,-1.4316491,0.5406517
0.1,0.0,1.2999999999999998,0.0,0.5235987755982988,0,-0.72950596,0.4521771,-0.5951675,0.66747475,-0.7795815,0.84620976,0.25879157,-0.41688707,1.0413314,-0.16915339,-0.07632898,-0.32732597,-1.4650661,1.0607306
0.1,0.0,1.2999999999999998,0.0,0.5235987755982988,0,-0.728531,0.45271406,-0.59551406,0.66750103,-0.77794087,0.8460464,0.258681,0.21703131,1.2767893,0.22437444,-0.045940623,-0.4303377,-1.4372034,0.105521165
0.1,0.0,1.2999999999999998,0.0,0.5235987755982988,0,-0.7285009,0.45216012,-0.5957319,0.6669977,-0.77826667,0.84612876,0.25974834,0.119889855,1.0843624,-0.13197652,-0.04677834,-0.9116026,-1.4873997,1.6505836
0.1,0.0,1.2999999999999998,0.0,0.5235987755982988,0,-0.729211,0.4522801,-0.59467673,0.6674145,-0.778127,0.8462653,0.25910228,0.28281468,1.0304306,-0.16193464,-0.011765524,-0.64336807,-1.4229325,-0.7357638
0.1,0.0,1.2999999999999998,0.0,0.5235987755982988,0,-0.7290678,0.4533698,-0.5946888,0.667417,-0.7784489,0.8469367,0.25702247,-0.070971265,1.2330185,-0.033849284,-0.13691981,-0.47941667,-1.4753997,1.5229127
0.1,0.0,1.2999999999999998,0.0,0.5235987755982988,0,-0.72834516,0.45395765,-0.59528464,0.6675939,-0.7766449,0.8474004,0.2580824,0.42674208,1.0158767,-0.20754147,-0.057295747,-0.61942023,-1.5182947,1.4759613
0.1,0.0,1.2999999999999998,0.0,0.5235987755982988,0,-0.7282896,0.45214608,-0.5963631,0.66710204,-0.7787739,0.84705055,0.25680295,0.57288617,1.1617852,-0.048365653,-0.13673334,-0.4223194,-1.3928368,-0.46981335
0.1,0.0,1.2999999999999998,0.0,0.5235987755982988,0,-0.7282333,0.45339313,-0.59552765,0.667399,-0.7797329,0.8469316,0.2591333,-0.31018576,1.19955,-0.06674633,-0.07180801,0.57087994,-1.4571443,-0.031286903
0.1,0.0,1.2999999999999998,0.0,0.5235987755982988,0,-0.7272595,0.4496749,-0.5959671,0.6679123,-0.77865493,0.84701353,0.2574072,0.6631613,1.1492182,0.010525525,-0.06736566,0.010945445,-1.5235792,-0.119684614
0.1,0.0,1.2999999999999998,0.0,0.5235987755982988,0,-0.7284272,0.45271266,-0.5957606,0.66697836,-0.77916026,0.8463229,0.25985283,0.7021799,1.1070666,-0.22596298,-0.15302636,-0.04498768,-1.4797132,0.8454957
0.1,0.0,1.2999999999999998,0.0,0.5235987755982988,0,-0.7287288,0.45277792,-0.5956426,0.6674765,-0.77768755,0.8473569,0.26068637,0.23773615,1.0240482,-0.18126804,-0.093933664,-0.42183462,-1.3978044,1.3851488
0.1,0.0,1.2999999999999998,0.0,0.5235987755982988,0,-0.7280802,0.4516949,-0.5956524,0.66724855,-0.778529,0.8465251,0.25825548,-0.34943867,0.9913743,-0.26021218,-0.021929916,0.19081062,-1.5173166,0.99132407
0.1,0.0,1.2999999999999998,0.0,0.5235987755982988,0,-0.7281779,0.45013535,-0.59561545,0.6681142,-0.7790575,0.8473225,0.25900432,0.6463407,0.8727723,-0.1382639,-0.077862054,0.23952264,-1.4825827,1.2356824
0.1,0.0,1.2999999999999998,0.0,0.5235987755982988,0,-0.72819716,0.45272037,-0.5962064,0.6675553,-0.7786297,0.8460519,0.25732082,0.53054893,1.1401465,-0.18201122,-0.044198643,0.93529725,-1.5164934,0.92451775
0.1,0.0,1.2999999999999998,0.0,0.5235987755982988,0,-0.7287228,0.4525793,-0.5955236,0.6680868,-0.77927935,0.84578526,0.2560271,0.17382447,1.1375098,-0.07074838,-0.17497529,0.9624073,-1.5098649,0.3495063
0.1,0.0,1.2999999999999998,0.0,0.5235987755982988,0,-0.7268662,0.4532478,-0.5969131,0.66697603,-0.7787642,0.8460162,0.25816593,0.23918651,1.051149,-0.1321356,-0.037025828,-0.84453714,-1.5120659,0.6947573
0.1,0.0,1.2999999999999998,0.0,0.5235987755982988,0,-0.7280411,0.45270696,-0.595571,0.6670706,-0.77906245,0.84635293,0.2575122,0.11813782,1.1119068,-0.19600268,0.0017842996,-1.0706764,-1.4853532,0.64746255
0.1,0.0,1.2999999999999998,0.0,0.5235987755982988,0,-0.7281383,0.45414463,-0.59549487,0.66777897,-0.7782237,0.84712416,0.2568898,0.7641198,0.9625775,-0.028356096,0.014066608,-0.28064612,-1.4700236,0.6883295
0.1,0.0,1.2999999999999998,0.0,0.5235987755982988,0,-0.7291168,0.45323968,-0.5957298,0.6676193,-0.77846754,0.8461951,0.25615305,0.7545732,1.2297337,0.020386094,-0.045972098,-0.50600445,-1.4364088,0.8299611
0.1,0.0,1.2999999999999998,0.0,0.5235987755982988,0,-0.7284178,0.45145655,-0.5951003,0.6677477,-0.77795905,0.8469874,0.26085705,0.2587962,1.1686325,-0.28694302,-0.106434725,-0.91302294,-1.4268641,0.62151647
0.1,0.0,1.2999999999999998,0.0,0.5235987755982988,0,-0.7277821,0.45452586,-0.5957971,0.6680842,-0.7787375,0.8466781,0.26054907,0.1903963,1.2739856,-0.14082779,-0.08683498,-0.869203,-1.4131776,1.1415814
0.1,0.0,1.2999999999999998,0.0,0.5235987755982988,0,-0.7285049,0.4517993,-0.59560126,0.667474,-0.7790931,0.8461761,0.2631354,0.4294839,0.9809352,0.053127047,0.04170237,-1.5629555,-1.4152902,1.0409522
0.1,0.0,1.2999999999999998,0.0,0.5235987755982988,0,-0.72797143,0.45181984,-0.5961069,0.6669665,-0.77978647,0.8467306,0.2607167,-0.09497981,1.2013599,-0.05621929,0.02488145,0.5924297,-1.4918916,0.9512009
0.1,0.0,1.2999999999999998,0.0,0.5235987755982988,0,-0.72899157,0.45067066,-0.5947086,0.66817164,-0.77932423,0.8464823,0.25833,0.29700217,1.0426126,0.080164865,0.059195515,-1.1389824,-1.4110843,0.19046102
0.1,0.0,1.2999999999999998,0.0,0.5235987755982988,0,-0.7292449,0.45185438,-0.59534204,0.66796595,-0.7783061,0.84766895,0.26050118,0.45368308,0.98178005,-0.08404844,-0.08145593,0.059319116,-1.47122,-0.55863196
0.1,0.0,1.2999999999999998,0.0,0.5235987755982988,0,-0.7282435,0.45104548,-0.595519,0.66712624,-0.77783287,0.84700066,0.25897738,0.51331174,0.9305099,-0.080689125,-0.061742336,0.16353075,-1.4621398,1.2074875
0.1,0.0,1.2999999999999998,0.0,0.5235987755982988,0,-0.728837,0.45268494,-0.59579206,0.66794056,-0.7783286,0.84632325,0.25625685,0.52845407,1.1156048,-0.09213334,0.05993741,-1.7560904,-1.4903249,-0.86327213
0.1,0.0,1.2999999999999998,0.0,0.5235987755982988,0,-0.72935855,0.45150903,-0.5966184,0.6673945,-0.778248,0.8452642,0.25821975,-0.1402777,1.3005512,-0.049275603,-0.022477655,-0.46330407,-1.4678919,0.75784594
0.1,0.0,1.2999999999999998,0.0,0.5235987755982988,0,-0.7288207,0.45399722,-0.5966124,0.6672605,-0.77807766,0.84712213,0.2548313,0.8599428,1.1501322,-0.11448497,0.047823504,0.64166695,-1.4456409,0.12555604
0.1,0.0,1.2999999999999998,0.0,0.5235987755982988,0,-0.72868115,0.45262024,-0.59601206,0.66731685,-0.7790167,0.84679306,0.25397965,-0.36967283,1.1330218,-0.03502908,-0.10609897,-1.3912959,-1.4680439,-0.12467458
0.1,0.0,1.2999999999999998,0.0,0.5235987755982988,0,-0.7285049,0.45039666,-0.5952526,0.6674598,-0.77814037,0.84642106,0.25866207,0.38499084,1.0860054,0.07511951,-0.09716908,-0.72471166,-1.4219471,1.3212227
0.1,0.0,1.2999999999999998,0.0,0.5235987755982988,0,-0.72886515,0.4529697,-0.59645635,0.6670468,-0.7778831,0.8469111,0.25347894,0.060654838,1.1444817,0.18693866,-0.043263312,-0.6623892,-1.4478407,-0.28783748
0.1,0.0,1.2999999999999998,0.0,0.5235987755982988,0,-0.72890925,0.45275518,-0.5956433,0.667994,-0.77893025,0.8471726,0.25656715,-0.43788654,1.0278378,-0.13544312,-0.055393912,-1.0548525,-1.4689411,0.5395533
0.1,0.0,1.2999999999999998,0.0,0.5235987755982988,0,-0.7285397,0.4502952,-0.5952286,0.6676797,-0.777867,0.84665054,0.26000077,0.2867085,1.2080666,0.2474944,-0.03795829,-1.3707006,-1.4062535,0.8870876
0.1,0.0,1.2999999999999998,0.0,0.5235987755982988,0,-0.72735274,0.45175996,-0.5962054,0.6672875,-0.7780663,0.84706867,0.26153573,0.6412718,1.1615025,0.077853,-0.12767722,-1.0853283,-1.5021433,0.6391362
0.1,0.0,1.2999999999999998,0.0,0.5235987755982988,0,-0.7295714,0.44922948,-0.5950866,0.6679227,-0.7789709,0.84625274,0.26053616,0.3484885,1.1081793,0.11146403,0.016438141,-0.4329854,-1.4837202,0.4302165
0.1,0.0,1.2999999999999998,0.0,0.5235987755982988,0,-0.7288649,0.45210722,-0.5960523,0.66769046,-0.77845323,0.8467725,0.25775477,-0.15105823,1.2667781,0.10496907,-0.043159474,0.26268464,-1.4042032,1.2573593
0.1,0.0,1.2999999999999998,0.0,0.5235987755982988,0,-0.72969294,0.45096767,-0.59523636,0.6675313,-0.7790575,0.8470564,0.26046664,0.6989456,0.9764329,-0.29154754,0.04098493,0.34241682,-1.47851,0.813436
0.1,0.0,1.2999999999999998,0.0,0.5235987755982988,0,-0.7295346,0.45287254,-0.59504807,0.6668002,-0.7783663,0.84717005,0.2542265,-0.6144688,1.1470774,0.1320811,-0.15368812,0.11248085,-1.4798526,1.1920925
0.1,0.0,1.2999999999999998,0.0,0.5235987755982988,0,-0.72808784,0.45340464,-0.59564024,0.66713774,-0.77916753,0.84682745,0.25700125,0.97160333,0.92058676,-0.09769472,-0.0048495247,0.059873663,-1.4961045,1.7534869
0.1,0.0,1.2999999999999998,0.0,0.5235987755982988,0,-0.7290777,0.4526418,-0.5951964,0.667323,-0.7784026,0.847186,0.2596566,0.25276706,1.0451374,-0.32897142,-0.06436256,-1.2803828,-1.4371414,0.33687866
0.1,0.0,1.2999999999999998,0.0,0.5235987755982988,0,-0.7286442,0.45344302,-0.5954215,0.66788435,-0.77959305,0.8477361,0.25810224,0.1226849,0.98474824,0.03293154,0.032171167,-1.6154364,-1.3990079,0.8762417
0.1,0.0,1.2999999999999998,0.0,0.5235987755982988,0,-0.72749865,0.45210323,-0.595484,0.6673787,-0.7788874,0.84712076,0.2594351,0.37009275,1.348618,-0.03655712,-0.054369215,-0.5261463,-1.4919473,-0.2809933
0.1,0.0,1.2999999999999998,0.0,0.5235987755982988,0,-0.72861975,0.45113945,-0.59561527,0.6678295,-0.7798626,0.84626,0.26041204,0.17832927,1.0280892,-0.00265997,0.043711916,-0.8424049,-1.4213254,0.527517
0.1,0.0,1.2999999999999998,0.0,0.5235987755982988,0,-0.7289075,0.45304844,-0.5956434,0.6678085,-0.7781612,0.8459408,0.2588152,0.35626587,1.1173638,-0.017348899,-0.14120999,-1.0977663,-1.4128939,0.0026386718
0.1,0.0,1.2999999999999998,0.0,0.5235987755982988,0,-0.7282571,0.45289308,-0.5954492,0.6678903,-0.7777454,0.8466389,0.25785077,0.09389757,1.2298902,-0.054823764,-0.07797059,-0.41565338,-1.4628807,0.40826225
0.1,0.0,1.2999999999999998,0.0,0.5235987755982988,0,-0.72840106,0.4503978,-0.5955007,0.6670708,-0.77857393,0.847348,0.2587467,0.39104953,1.0349532,0.09776705,-0.028540852,-0.76221865,-1.4746245,0.025656719
0.1,0.0,1.2999999999999998,0.0,0.5235987755982988,0,-0.7284967,0.4497394,-0.5963351,0.66839164,-0.77779996,0.84617716,0.2558542,-0.08772211,1.0396175,0.0991221,-0.0639372,0.076683305,-1.4422537,0.36741963
0.1,0.0,1.2999999999999998,0.0,0.5235987755982988,0,-0.7285749,0.4519833,-0.59561,0.6676195,-0.77809083,0.8471436,0.2598794,0.21822342,1.2115308,0.059621315,-0.049443565,0.104474925,-1.44092,0.020977153
0.1,0.0,1.2999999999999998,0.0,0.5235987755982988,0,-0.7285699,0.45068654,-0.5966671,0.66725844,-0.77924156,0.84654856,0.25794277,0.89869636,1.2136436,-0.019936912,-0.017055765,-0.3515343,-1.4625062,0.9576795
0.1,0.0,1.2999999999999998,0.0,0.5235987755982988,0,-0.7285081,0.45213076,-0.5956169,0.6675146,-0.7798194,0.84757,0.2580516,0.3770835,1.1703128,-0.38151455,-0.096716724,0.47109637,-1.5323243,1.339161
0.1,0.0,1.2999999999999998,0.0,0.5235987755982988,0,-0.7286845,0.45067352,-0.5955871,0.667941,-0.7785997,0.8480487,0.2566858,0.07692598,1.2532358,0.025512602,-0.03136999,-0.7671336,-1.4245576,0.051159978
0.1,0.0,1.2999999999999998,0.0,0.5235987755982988,0,-0.72899324,0.4501861,-0.59578484,0.6677066,-0.7795301,0.8463609,0.2568898,0.34398615,1.1338644,0.23877275,-0.13688481,0.2580263,-1.5302498,0.6448428
0.1,0.0,1.2999999999999998,0.0,0.5235987755982988,0,-0.7294756,0.45187843,-0.5951635,0.6675042,-0.77934706,0.8466969,0.257872,0.663708,1.2504114,0.048735693,-0.04336106,-1.4762906,-1.4456877,1.1882619
0.1,0.0,1.2999999999999998,0.0,0.5235987755982988,0,-0.7288511,0.45027572,-0.5962004,0.6681388,-0.77814806,0.84707403,0.25585932,0.04472185,0.86700743,-0.15571605,-0.029899962,-0.832733,-1.4843135,0.34349135
0.1,0.0,1.2999999999999998,0.0,0.5235987755982988,0,-0.72798455,0.45143223,-0.5952479,0.66728514,-0.7781793,0.846717,0.2598959,0.25456563,1.0653061,-0.06644514,0.0031232648,-1.7083266,-1.5440308,0.44183818
0.1,0.0,1.2999999999999998,0.0,0.5235987755982988,0,-0.7289852,0.45241886,-0.5967456,0.6671566,-0.7790861,0.84648,0.25827286,0.19877808,1.2811762,-0.040406562,-0.16968584,-0.94352376,-1.4418112,-0.44294962
0.1,0.0,1.2999999999999998,0.0,0.5235987755982988,0,-0.7278072,0.4542597,-0.5960493,0.6674057,-0.7768903,0.8471652,0.2593519,0.0014644309,1.1724229,0.13770445,-0.048536252,-0.56177515,-1.4688616,1.0435637
0.1,0.0,1.2999999999999998,0.0,0.5235987755982988,0,-0.72870684,0.45128682,-0.5961331,0.6682829,-0.77903575,0.8469539,0.25736743,0.700241,1.0567816,0.07740207,-0.08516423,-0.15987715,-1.4027327,-0.56090176
0.1,0.0,1.2999999999999998,0.0,0.5235987755982988,0,-0.7277567,0.45011574,-0.59525985,0.6680126,-0.7788218,0.8482286,0.25866717,0.5089143,1.1984053,0.075896986,-0.05874063,0.07279927,-1.4523455,1.2051363
0.1,0.0,1.2999999999999998,0.0,0.5235987755982988,0,-0.72880626,0.45114794,-0.5961917,0.66780967,-0.77808326,0.84656125,0.25907806,-0.26058584,1.3097156,0.04912454,-0.12362117,-0.7334006,-1.4077339,1.08331
0.1,0.0,1.2999999999999998,0.0,0.5235987755982988,0,-0.73011297,0.44961894,-0.59509367,0.66770273,-0.7787902,0.8467,0.2618769,0.2023524,1.2417561,0.052852236,-0.09905425,-0.26590174,-1.4898527,0.6754381
0.1,0.0,1.2999999999999998,0.0,0.5235987755982988,0,-0.72909105,0.45077184,-0.5958581,0.66780406,-0.7803864,0.8468112,0.25853118,0.19115548,1.3663527,0.091573685,-0.07078671,0.5725878,-1.4645922,1.0234224
0.1,0.0,1.2999999999999998,0.0,0.5235987755982988,0,-0.72925353,0.4507612,-0.59543526,0.66767836,-0.7790189,0.8471729,0.25844067,0.43600947,1.1660067,-0.34129316,-0.08255763,-1.081555,-1.454274,0.30752462
0.1,0.0,1.2999999999999998,0.0,0.5235987755982988,0,-0.7288916,0.45069924,-0.595215,0.6671171,-0.7780081,0.8468748,0.25946411,-0.68877965,1.1480694,-0.0019829404,0.00036167912,-0.6331908,-1.4663222,1.2339969
0.1,0.0,1.2999999999999998,0.0,0.5235987755982988,0,-0.7284059,0.45182595,-0.596053,0.6673639,-0.7806678,0.84794796,0.26048046,0.27157927,1.1165727,-0.14880726,-0.06568681,-1.2614477,-1.41416,0.14273927
0.1,0.0,1.2999999999999998,0.0,0.5235987755982988,0,-0.7280726,0.45196533,-0.59603983,0.6681482,-0.7783876,0.84710413,0.2574699,0.29793257,1.2176658,0.2692782,-0.08740847,-0.9044557,-1.4612467,0.5235467
0.1,0.0,1.2999999999999998,0.0,0.5235987755982988,0,-0.72878176,0.4510258,-0.5969325,0.6676265,-0.7774649,0.84627455,0.25607488,0.6204949,1.1445906,0.14520419,0.0056628915,-0.8976679,-1.4456381,0.43869805
0.1,0.0,1.2999999999999998,0.0,0.5235987755982988,0,-0.7290572,0.45072952,-0.59568256,0.6673818,-0.77795917,0.8471291,0.2582577,-0.7137126,1.2025889,-0.25702098,-0.108130574,-0.9096075,-1.4588776,1.2149502
0.1,0.0,1.2999999999999998,0.0,0.5235987755982988,0,-0.7281167,0.4531428,-0.5962249,0.6668579,-0.7786967,0.84761184,0.258874,-0.2500833,1.2627974,0.25242457,-0.05733349,-1.4198831,-1.4327854,0.46828875
0.1,0.0,1.2999999999999998,0.0,0.5235987755982988,0,-0.7287171,0.45421144,-0.5955263,0.6675183,-0.77852577,0.846202,0.2604943,-0.079986565,1.2686372,0.08156521,-0.053078264,-0.79609454,-1.5239809,1.0698366
0.1,0.0,1.2999999999999998,0.0,0.5235987755982988,0,-0.72962487,0.45141435,-0.5964995,0.6677349,-0.7787758,0.84681696,0.25721893,-0.010588185,1.1796288,-0.15061474,-0.048824918,0.7257379,-1.4246204,0.10632797
0.1,0.0,1.2999999999999998,0.0,0.5235987755982988,0,-0.72817713,0.45316496,-0.5960663,0.6678944,-0.7769547,0.8464195,0.25792253,0.82976425,1.1201832,-0.16980726,-0.068096235,-1.1060171,-1.5281947,0.27756763
0.1,0.0,1.2999999999999998,0.0,0.5235987755982988,0,-0.7281322,0.4534668,-0.5953607,0.6681818,-0.7784014,0.84790426,0.25769728,0.08093576,1.2091345,0.010161008,-0.03694964,-1.2113214,-1.4559774,0.9938725
0.1,0.0,1.2999999999999998,0.0,0.5235987755982988,0,-0.728937,0.45078757,-0.5963229,0.6673943,-0.7793263,0.84682924,0.25923327,-0.023747128,1.0245796,0.037749056,-0.072432354,-1.5861201,-1.4023999,0.69997704
0.1,0.0,1.2999999999999998,0.0,0.5235987755982988,0,-0.727778,0.45163563,-0.59503144,0.66765106,-0.77934,0.8466849,0.25781825,1.0027446,1.2287018,-0.48129162,-0.037136924,-2.2878764,-1.4111892,0.087575965
0.1,0.0,1.2999999999999998,0.0,0.5235987755982988,0,-0.7287963,0.45098126,-0.5953806,0.6674021,-0.7784704,0.8491286,0.2596582,0.31751123,1.2301677,-0.12456993,-0.09736173,-0.505294,-1.461239,-0.7305079
0.1,0.0,1.2999999999999998,0.0,0.5235987755982988,0,-0.7291473,0.45142177,-0.59586763,0.6669617,-0.7784838,0.84718275,0.25800702,-0.35369942,1.1200322,0.025735062,-0.08704402,-1.6542122,-1.5150423,1.9334266
0.1,0.0,1.2999999999999998,0.0,0.5235987755982988,0,-0.7285769,0.45261905,-0.596004,0.66740507,-0.7786903,0.84822243,0.26017934,0.10785334,1.2056196,0.06406285,-0.10733476,-0.7506133,-1.3725832,1.4595776
0.1,0.0,1.2999999999999998,0.0,0.5235987755982988,0,-0.7278536,0.45426443,-0.59540987,0.6677826,-0.77965444,0.84642196,0.25518635,0.17045313,1.1059657,0.17593862,-0.04069087,-1.7075706,-1.5270715,1.1094265
0.1,0.0,1.2999999999999998,0.0,0.5235987755982988,0,-0.72839856,0.45124856,-0.596902,0.66753024,-0.7792105,0.8480414,0.2579774,0.4188231,1.2566485,-0.03925738,-0.068453245,0.44267416,-1.479936,2.0706034
0.1,0.0,1.2999999999999998,0.0,0.5235987755982988,0,-0.72891134,0.45185912,-0.59596515,0.66732556,-0.778459,0.84687316,0.25769794,0.38279945,1.2408074,-0.1661237,-0.059017505,-0.939267,-1.4563438,0.18405427
0.1,0.0,1.2999999999999998,0.0,0.5235987755982988,0,-0.72909606,0.451492,-0.5970487,0.66728294,-0.77805376,0.8467154,0.25629142,0.3382219,1.1961081,0.08320136,-0.10949215,-1.1360948,-1.4133676,1.4295791
0.1,0.0,1.2999999999999998,0.0,0.5235987755982988,0,-0.7294595,0.45131284,-0.59498554,0.66763407,-0.7788939,0.84869516,0.26056463,-0.074792214,1.0915486,0.33151263,-0.14124565,-1.5319537,-1.5366404,2.3729148
0.1,0.0,1.2999999999999998,0.0,0.5235987755982988,0,-0.7296233,0.45103955,-0.59568495,0.6678002,-0.77834773,0.84706,0.25526267,0.63852924,1.0895195,0.11969465,-0.13833027,0.24227935,-1.5268024,0.6610693
0.1,0.0,1.2999999999999998,0.0,0.5235987755982988,0,-0.72880054,0.44851592,-0.59613675,0.66786563,-0.7776721,0.84784704,0.25503814,0.36394626,1.2455069,-0.23058365,-0.17318425,-2.0663905,-1.4433333,0.81016916
0.1,0.0,1.2999999999999998,0.0,0.5235987755982988,0,-0.72866076,0.45364332,-0.59534854,0.66777587,-0.7793171,0.8476422,0.26003256,0.28897136,1.2473145,0.05367701,-0.08055695,1.0837836,-1.5402596,0.74557793
0.1,0.0,1.2999999999999998,0.0,0.5235987755982988,0,-0.7285866,0.4539241,-0.59552145,0.6676524,-0.7774303,0.8460951,0.25809142,0.76508003,1.2012255,-0.31027502,-0.0008562501,-0.087222844,-1.4484198,2.1618426
0.1,0.0,1.2999999999999998,0.0,0.5235987755982988,0,-0.7288958,0.45167932,-0.59607136,0.6669571,-0.77875227,0.8472219,0.26065,0.63609153,1.1567302,0.11847007,-0.05585123,-0.65954614,-1.5057216,1.4372479
0.1,0.0,1.2999999999999998,0.0,0.5235987755982988,0,-0.72758484,0.45317405,-0.59511435,0.6676661,-0.7783291,0.84689635,0.2611359,0.016638514,1.1674945,0.023479734,-0.0501864,1.6020472,-1.501221,0.52182305
0.1,0.0,1.2999999999999998,0.0,0.5235987755982988,0,-0.72841305,0.45243186,-0.5969289,0.6675149,-0.7785712,0.8482068,0.2550069,-0.17198347,1.0186777,-0.096476264,-0.073266804,-0.93070364,-1.4312345,0.9893745
0.1,0.0,1.2999999999999998,0.0,0.5235987755982988,0,-0.7289931,0.45207492,-0.59621745,0.6679224,-0.77824783,0.84694463,0.26038614,0.14088447,1.2010388,-0.054976616,-0.009785491,-1.3850064,-1.4654098,-0.15551634
0.1,0.0,1.2999999999999998,0.0,0.5235987755982988,0,-0.7288508,0.45167127,-0.59595877,0.6672444,-0.77901185,0.8483463,0.2569542,-0.5867088,0.9912074,-0.048718635,0.056119543,-1.0647569,-1.5026959,1.2267092
0.1,0.0,1.2999999999999998,0.0,0.5235987755982988,0,-0.7291698,0.45133588,-0.595719,0.6676253,-0.7799064,0.8484096,0.2555431,0.22618523,1.2137727,-0.26642632,-0.048272662,-0.06993063,-1.5133747,0.59624773
0.1,0.0,1.2999999999999998,0.0,0.5235987755982988,0,-0.7275411,0.4543166,-0.5966279,0.66779995,-0.77914065,0.8474931,0.2605444,0.9880289,1.2709082,-0.20015994,0.054485574,-0.4602147,-1.4623828,0.22855008
0.1,0.0,1.2999999999999998,0.0,0.5235987755982988,0,-0.7281425,0.45404097,-0.5956941,0.6667732,-0.7780572,0.84778535,0.26006708,0.24662997,1.0883995,-0.112669855,-0.072852194,-1.6973478,-1.4384009,0.807748
0.1,0.0,1.2999999999999998,0.0,0.5235987755982988,0,-0.7291928,0.4499619,-0.5960306,0.6672886,-0.778575,0.8477258,0.25876597,0.9750989,1.1063693,0.06421199,-0.08641204,-1.3311117,-1.5429311,1.2439429
0.1,0.0,1.2999999999999998,0.0,0.5235987755982988,0,-0.72857827,0.45301053,-0.5959825,0.6672388,-0.7788477,0.848379,0.25790372,0.48837698,1.3279511,0.0804657,-0.11001782,-1.6851323,-1.5023061,0.37175545
0.1,0.0,1.2999999999999998,0.0,0.5235987755982988,0,-0.7279502,0.45448777,-0.59547955,0.6674721,-0.7783118,0.8471936,0.25812468,0.7766808,1.0695153,-0.17634892,-0.12883356,0.16646211,-1.3789989,-1.0446645
0.1,0.0,1.2999999999999998,0.0,0.5235987755982988,0,-0.72754747,0.4530273,-0.59518546,0.6673495,-0.77790344,0.847552,0.25688532,0.7026474,1.2232202,-0.07091736,-0.040375944,-0.2833995,-1.422955,-0.9490183
0.1,0.0,1.2999999999999998,0.0,0.5235987755982988,0,-0.7293054,0.45014802,-0.5953893,0.66700137,-0.7779831,0.8466511,0.25718343,0.28797954,1.1662146,-0.42558333,-0.03577117,-0.12073883,-1.409898,1.528565
0.1,0.0,1.2999999999999998,0.0,0.5235987755982988,0,-0.7282705,0.45122665,-0.59500146,0.6676488,-0.77954596,0.8461551,0.25694475,0.20979233,1.022427,-0.07470641,-0.102931134,-1.2718383,-1.4708326,0.028640313
0.1,0.0,1.2999999999999998,0.0,0.5235987755982988,0,-0.72835517,0.4548584,-0.5952006,0.66759884,-0.77964646,0.8468696,0.25509548,0.39164454,1.105738,-0.08266219,-0.09832137,-0.77910954,-1.467537,0.8673295
0.1,0.0,1.2999999999999998,0.0,0.5235987755982988,0,-0.72914207,0.4516889,-0.595399,0.6669035,-0.77806866,0.84693855,0.25824866,0.51802105,0.9804653,-0.025445925,-0.031312816,0.6975978,-1.4525135,0.88324195
0.1,0.0,1.2999999999999998,0.0,0.5235987755982988,0,-0.7291872,0.45183763,-0.59513587,0.6672043,-0.7781488,0.8475497,0.25865412,0.22278391,1.2123777,-0.12730716,-0.049861174,-0.261622,-1.4186854,1.7717384
0.1,0.0,1.2999999999999998,0.0,0.5235987755982988,0,-0.7284658,0.45016885,-0.5963912,0.66717106,-0.7792632,0.84622276,0.25899577,0.28918365,1.2030251,-0.17151476,-0.15796615,1.1985906,-1.4384044,-0.52400583
0.1,0.0,1.2999999999999998,0.0,0.5235987755982988,0,-0.72917414,0.4502193,-0.5949288,0.6671657,-0.7784174,0.8471112,0.26122102,0.2044074,1.0757577,-0.084793776,-0.11515606,-0.337772,-1.3967026,-0.3569622
0.1,0.0,1.2999999999999998,0.0,0.5235987755982988,0,-0.72923374,0.45002866,-0.595276,0.6679302,-0.7789268,0.8468839,0.2559187,0.6058731,1.3201765,-0.22876257,-0.08774388,0.27408457,-1.4394804,-0.18465151
0.1,0.0,1.2999999999999998,0.0,0.5235987755982988,0,-0.72840255,0.45410308,-0.59614676,0.6676224,-0.7778073,0.84598684,0.25690696,0.4909335,1.1575338,-0.21204934,0.029278388,0.49303922,-1.4632894,0.66670007
0.1,0.0,1.2999999999999998,0.0,0.5235987755982988,0,-0.728246,0.45191494,-0.59638023,0.66736853,-0.779478,0.84627956,0.25774816,1.0929047,1.1384649,0.12576406,-0.07261585,-0.51612777,-1.4532384,0.7395031
0.1,0.0,1.2999999999999998,0.0,0.5235987755982988,0,-0.7297249,0.45110294,-0.5946738,0.66689694,-0.77923924,0.8467472,0.2597289,-0.08156675,1.1858197,-0.052860137,0.039759334,-0.6794695,-1.457792,-0.32474077
0.1,0.0,1.2999999999999998,0.0,0.5235987755982988,0,-0.72876424,0.45139334,-0.59572715,0.66783416,-0.77733904,0.8464231,0.25756693,0.22604248,0.99708635,0.017089533,-0.08177709,-1.059482,-1.4145222,1.4730775
0.1,0.0,1.2999999999999998,0.0,0.5235987755982988,0,-0.72796273,0.45272738,-0.595804,0.66692424,-0.7784734,0.8485162,0.2584207,-0.13950302,1.309354,0.08235714,0.10245244,0.08838318,-1.4953014,0.24305758
0.1,0.0,1.2999999999999998,0.0,0.5235987755982988,0,-0.7284548,0.45184132,-0.5956228,0.66790736,-0.7792783,0.84669393,0.2588482,-0.065945454,1.1175716,-0.15085581,0.017982448,-0.45420876,-1.3938693,0.5142585
0.1,0.0,1.2999999999999998,0.0,0.5235987755982988,0,-0.7290393,0.45445308,-0.59577,0.66692305,-0.77799124,0.8466184,0.25738078,0.29072762,1.2455359,-0.062687725,-0.11761742,1.0062567,-1.3953187,-0.089330256
0.1,0.0,1.2999999999999998,0.0,0.5235987755982988,0,-0.72841984,0.45221543,-0.5960698,0.667736,-0.7794513,0.8463105,0.2562531,-0.34600198,1.0760713,-0.34300452,-0.14183547,-0.8903453,-1.4736073,-0.49182856
0.1,0.0,1.2999999999999998,0.0,0.5235987755982988,0,-0.7291086,0.45141494,-0.5946351,0.6678041,-0.7793806,0.8480627,0.2581278,0.7284083,1.0215638,-0.22407314,-0.019472467,-0.24997231,-1.5044698,1.0308417
0.1,0.0,1.2999999999999998,0.0,0.5235987755982988,0,-0.7277244,0.45288044,-0.5952747,0.6676389,-0.77962506,0.8470358,0.25860575,-0.0873291,1.2563953,0.21063384,-0.1455913,-1.2003716,-1.4760458,0.69919664
0.1,0.0,1.2999999999999998,0.0,0.5235987755982988,0,-0.72882915,0.45321265,-0.5949826,0.6677687,-0.7784753,0.84715354,0.26011354,0.31607082,1.2184676,0.046051085,-0.029679215,-0.55774736,-1.4900942,0.33242038
0.1,0.0,1.2999999999999998,0.0,0.5235987755982988,0,-0.72806627,0.4519365,-0.59597635,0.6674273,-0.77841574,0.8472304,0.2580263,0.3037398,1.0743126,-0.14072557,-0.035333943,-0.73090893,-1.4677997,0.28216255
0.1,0.0,1.2999999999999998,0.0,0.5235987755982988,0,-0.7280042,0.45160973,-0.5949671,0.6669013,-0.7785815,0.84797305,0.26161835,0.8982075,1.0766132,0.113278344,-0.05616684,-1.2101983,-1.4991838,1.1259701
0.1,0.0,1.2999999999999998,0.0,0.5235987755982988,0,-0.7287244,0.4515174,-0.5967006,0.66742086,-0.77794117,0.8473008,0.25361663,-0.2068736,1.0811012,0.09373806,-0.103073835,-1.08895,-1.5080923,-0.3932194
0.1,0.0,1.2999999999999998,0.0,0.5235987755982988,0,-0.7294973,0.4493558,-0.5953614,0.6673627,-0.77864456,0.8481241,0.25851285,0.21577229,1.0510583,-0.16962773,-0.21165465,1.0385368,-1.4699169,0.58907634
0.1,0.0,1.2999999999999998,0.0,0.5235987755982988,0,-0.728327,0.45162243,-0.5957449,0.6673118,-0.7793526,0.8468175,0.25965315,-0.85181195,1.0826666,0.07507266,-0.039378107,-0.58871853,-1.4074757,0.7847881
0.1,0.0,1.2999999999999998,0.0,0.5235987755982988,0,-0.72808784,0.45196086,-0.59606427,0.6677744,-0.77959716,0.84724075,0.25780284,0.77621436,1.1175201,0.09510382,-0.085672975,-1.9620451,-1.4669646,0.58970815
0.1,0.0,1.2999999999999998,0.0,0.5235987755982988,0,-0.7293323,0.4497794,-0.59455395,0.6673879,-0.778386,0.8471396,0.25921404,-0.34752184,1.3389009,0.10531344,-0.1484415,-0.09034458,-1.4913434,-0.0029395488
0.1,0.0,1.2999999999999998,0.0,0.5235987755982988,0,-0.7284945,0.45201594,-0.5950997,0.667054,-0.7772999,0.8462214,0.25599152,-0.567251,1.1345577,0.15087831,-0.10597216,-2.5638962,-1.3742529,1.0130436
0.1,0.0,1.2999999999999998,0.0,0.5235987755982988,0,-0.7284697,0.45361143,-0.5968804,0.66716385,-0.77951884,0.84802556,0.25799495,0.023276191,1.1666758,-0.2102442,-0.11077235,-0.88694113,-1.4728314,-0.35483685
0.1,0.0,1.2999999999999998,0.0,0.5235987755982988,0,-0.7282278,0.45540103,-0.59565127,0.6679024,-0.77816546,0.8467814,0.26084208,0.742346,1.325745,-0.1126297,-0.031303268,0.50517964,-1.489039,1.1882848
0.1,0.0,1.2999999999999998,0.0,0.5235987755982988,0,-0.72844875,0.45305023,-0.59591925,0.66757846,-0.7789273,0.84689367,0.260945,0.43597373,1.218985,-0.14284559,-0.16166475,-0.18814269,-1.5090841,1.084244
0.1,0.0,1.2999999999999998,0.0,0.5235987755982988,0,-0.72889674,0.45056212,-0.59531397,0.6678032,-0.7798996,0.8473637,0.26044127,0.06158198,1.3312771,-0.15487216,-0.046626892,-0.18035011,-1.4895036,-0.3327072
0.1,0.0,1.2999999999999998,0.0,0.5235987755982988,0,-0.72953653,0.4504965,-0.59528536,0.6682882,-0.7788198,0.846914,0.25918174,0.8228061,1.3235943,-0.22809505,-0.026614591,0.48847917,-1.4710823,0.48148632
0.1,0.0,1.2999999999999998,0.0,0.5235987755982988,0,-0.7298343,0.45190394,-0.5957298,0.6677861,-0.77812403,0.8471795,0.25928643,0.11358122,1.1799289,-0.09494503,0.020156614,-0.111360274,-1.461305,0.3775056
0.1,0.0,1.2999999999999998,0.0,0.5235987755982988,0,-0.73003954,0.4528917,-0.5959749,0.66718835,-0.77996826,0.8480756,0.2565112,0.34568352,1.0017067,0.14388749,-0.021858495,-1.1964332,-1.4528518,1.6557456
0.1,0.0,1.2999999999999998,0.0,0.5235987755982988,0,-0.7289468,0.4501589,-0.5963932,0.6674036,-0.7790614,0.84752166,0.25843102,-0.14235815,1.1621869,-0.063693896,-0.115788065,-0.5139893,-1.4909308,0.21489507
0.1,0.0,1.2999999999999998,0.0,0.5235987755982988,0,-0.72843915,0.45324296,-0.59616524,0.66695267,-0.77997506,0.84514004,0.25826392,0.0072806925,1.1361625,0.09693834,0.080607876,-0.8491614,-1.439704,-0.8251137
0.1,0.0,1.2999999999999998,0.0,0.5235987755982988,0,-0.7277553,0.451435,-0.5949762,0.66795105,-0.7777978,0.8464853,0.2569204,0.36475486,1.0286613,0.042708248,-0.1080235,-0.05705725,-1.3992355,-0.36349258
0.1,0.0,1.2999999999999998,0.0,0.5235987755982988,0,-0.7282033,0.45267406,-0.5953331,0.6675404,-0.7774981,0.84560215,0.25834322,0.14122687,1.0501465,-0.08527764,-0.10848772,-0.87311935,-1.4543418,0.21922769
0.1,0.0,1.2999999999999998,0.0,0.5235987755982988,0,-0.7283292,0.4530049,-0.59520423,0.667906,-0.77972513,0.8471352,0.25909775,0.6485054,0.9413744,-0.16767153,-0.11522754,0.50970453,-1.5095898,0.6704103
0.1,0.0,1.2999999999999998,0.0,0.5235987755982988,0,-0.7292573,0.45228058,-0.5941138,0.6676585,-0.7776245,0.8456925,0.2587105,0.050080135,1.0426728,-0.09629435,-0.16972351,-1.3633507,-1.4753896,1.3612033
0.1,0.0,1.2999999999999998,0.0,0.5235987755982988,0,-0.728914,0.4522928,-0.59564376,0.66756606,-0.77924234,0.8454165,0.25997475,0.16535345,1.0348265,0.19883831,-0.037271712,0.8556552,-1.4612938,1.4137688
0.1,0.0,1.2999999999999998,0.0,0.5235987755982988,0,-0.7290654,0.4525225,-0.5965254,0.6670757,-0.7787387,0.8469798,0.25752315,0.6567306,1.0641929,-0.20834008,-0.10133468,-0.3286017,-1.3952365,-0.33354807
0.1,0.0,1.2999999999999998,0.0,0.5235987755982988,0,-0.72775096,0.45257065,-0.5951362,0.66814786,-0.77890563,0.8468298,0.25717807,0.15156421,1.0761414,-0.09759193,-0.046077676,-1.5054536,-1.4603186,1.7870177
0.1,0.0,1.2999999999999998,0.0,0.5235987755982988,0,-0.7288862,0.45171624,-0.59571403,0.6673065,-0.7786461,0.8465665,0.25544086,0.3096813,1.4030123,-0.11472616,-0.16364557,-1.3955102,-1.4810196,1.4785749
0.1,0.0,1.2999999999999998,0.0,0.5235987755982988,0,-0.72860146,0.452105,-0.59573257,0.6675423,-0.77905613,0.84657335,0.25665733,0.5706735,1.053909,0.21215919,-0.07819919,-0.4003857,-1.5093572,1.4140532
0.1,0.0,1.2999999999999998,0.0,0.5235987755982988,0,-0.7289365,0.45110634,-0.59446687,0.66745484,-0.7785026,0.84702027,0.25783822,-0.32873625,1.067461,0.17895848,-0.03054597,-2.3764565,-1.4543382,-0.02219796
0.1,0.0,1.2999999999999998,0.0,0.5235987755982988,0,-0.7281419,0.45118228,-0.5958454,0.6669059,-0.77764624,0.84717375,0.25789785,-0.12176096,1.2896023,0.14902858,-0.13361953,0.4810061,-1.4833752,1.2367339
0.1,0.0,1.2999999999999998,0.0,0.5235987755982988,0,-0.7282367,0.45162675,-0.59471214,0.66736543,-0.7800902,0.847549,0.26207435,-0.03425983,1.2142886,-0.07832391,-0.16808958,0.541314,-1.5001827,0.76988375
0.1,0.0,1.2999999999999998,0.0,0.5235987755982988,0,-0.7288784,0.4508606,-0.59526587,0.66770345,-0.7787587,0.8470198,0.25861767,0.2834966,1.3304132,0.061379742,-0.12789369,-0.2743125,-1.4747057,-0.09943271
0.1,0.0,1.2999999999999998,0.0,0.5235987755982988,0,-0.7286756,0.4507707,-0.5952115,0.6672286,-0.77853906,0.8471127,0.26039097,0.4573814,1.1111871,-0.21395244,-0.044210423,-0.9979196,-1.4153054,0.47168052
