sanky1234/BimanualDexCatch/isaacgymenvs/cem_results/football_pose_0.1_0.1_0.7_-0.5235987755982988_0.0_0_2025-05-27.csv
x,y,z,roll,pitch,yaw,robot1/joint1,robot1/joint2,robot1/joint3,robot1/joint4,robot1/joint5,robot1/joint6,robot1/joint7,robot2/joint1,robot2/joint2,robot2/joint3,robot2/joint4,robot2/joint5,robot2/joint6,robot2/joint7
0.1,0.1,0.7,-0.5235987755982988,0.0,0,-0.7429171,1.2984067,-0.19212389,0.026981995,0.02902232,1.5384316,-0.8733393,-0.31835496,-1.6548499,0.1986433,-0.046832435,-0.05123806,1.1808426,-1.0301731
0.1,0.1,0.7,-0.5235987755982988,0.0,0,-0.7498691,1.2815995,-0.18601297,0.036473665,0.040188078,1.5471022,-0.8840976,0.0058032707,-1.7865261,-0.10291344,-0.018990988,0.0019964704,1.1152513,-0.3147201
0.1,0.1,0.7,-0.5235987755982988,0.0,0,-0.74481076,1.2844298,-0.1930763,0.034712635,0.03934908,1.5554551,-0.9314203,0.5791484,-1.787021,0.36994252,-0.09908944,-0.054570388,1.1460414,0.7369877
0.1,0.1,0.7,-0.5235987755982988,0.0,0,-0.74935675,1.2935833,-0.19439624,0.023928132,0.023501815,1.5482655,-0.8744822,-0.4605532,-1.6096994,0.06012581,-0.082229525,-0.06814211,1.1205868,0.27663508
0.1,0.1,0.7,-0.5235987755982988,0.0,0,-0.7490144,1.2813904,-0.18421309,0.03698787,0.026585927,1.5479397,-0.872858,-0.4326463,-1.7045538,0.078513846,-0.023248259,0.011613974,1.182755,-0.17096214
0.1,0.1,0.7,-0.5235987755982988,0.0,0,-0.7482508,1.3002026,-0.19127864,0.0136864325,0.037349258,1.5409607,-0.8885449,-0.3152486,-1.6766696,-0.32715133,-0.06928113,-0.031111833,1.2179536,1.2086592
0.1,0.1,0.7,-0.5235987755982988,0.0,0,-0.75145817,1.2953029,-0.16794035,0.027217966,0.04042558,1.5419497,-0.8705519,-0.960728,-1.6690873,-0.16008416,-0.105666384,-0.031832345,1.0902961,0.9685347
0.1,0.1,0.7,-0.5235987755982988,0.0,0,-0.7450707,1.2804193,-0.1792213,0.037004586,0.04494714,1.5441033,-0.8854053,0.5757275,-1.6781423,-0.5963186,-0.06422088,-0.0083963545,1.1604712,-1.2151045
0.1,0.1,0.7,-0.5235987755982988,0.0,0,-0.7521335,1.2844664,-0.19191775,0.030653499,0.05314805,1.5349368,-0.88658744,-0.54215896,-1.7052479,-0.11979865,-0.06323341,0.044901457,1.0885162,-0.33767626
0.1,0.1,0.7,-0.5235987755982988,0.0,0,-0.7468496,1.2822311,-0.20141342,0.043014552,0.034380045,1.5477102,-0.8725606,0.16623668,-1.5686742,0.8463346,-0.0941164,0.057112865,1.1468323,-0.1797504
0.1,0.1,0.7,-0.5235987755982988,0.0,0,-0.7457597,1.2980655,-0.1879329,0.022375077,0.03538869,1.5345238,-0.87158144,-0.140348,-1.5592216,0.36884353,-0.08934734,-0.14627981,1.1308991,0.9363609
0.1,0.1,0.7,-0.5235987755982988,0.0,0,-0.7446975,1.2795149,-0.18285911,0.041719466,0.045545656,1.5471675,-0.9195493,0.21303317,-1.8272774,0.041229412,0.042950254,-0.022600362,1.1835632,0.8704152
0.1,0.1,0.7,-0.5235987755982988,0.0,0,-0.7454766,1.2857397,-0.18098603,0.030668616,0.044324126,1.5604929,-0.8915918,-0.65948355,-1.7697921,0.04227845,-0.09907004,0.09938551,1.1185995,-1.2556343
0.1,0.1,0.7,-0.5235987755982988,0.0,0,-0.7532098,1.2934005,-0.17680593,0.031483244,0.043951057,1.5453461,-0.83999366,0.101403154,-1.7667902,0.620407,-0.028883094,0.0022135077,1.1582971,-0.46559328
0.1,0.1,0.7,-0.5235987755982988,0.0,0,-0.7487975,1.2860198,-0.18921159,0.043184966,0.02899612,1.5476029,-0.88248855,0.16151501,-1.706545,0.56061226,-0.05655494,-0.019757334,1.235622,-0.572986
0.1,0.1,0.7,-0.5235987755982988,0.0,0,-0.7453824,1.2940176,-0.19841005,0.034497645,0.031212235,1.5411657,-0.86921126,-0.3010463,-1.6484647,-0.33678597,-0.064227216,0.0419655,1.160879,0.08864637
0.1,0.1,0.7,-0.5235987755982988,0.0,0,-0.7540081,1.2934818,-0.1839651,0.026460385,0.019848423,1.5493016,-0.8737973,-0.06755957,-1.6043183,-0.27593338,-0.06042831,0.1253987,1.0659552,-0.45867798
0.1,0.1,0.7,-0.5235987755982988,0.0,0,-0.74326634,1.2977899,-0.18494625,0.020533808,0.016381655,1.5408399,-0.8969242,-0.63820285,-1.7404064,0.33533,-0.043321464,0.2293202,1.172679,-0.81129944
0.1,0.1,0.7,-0.5235987755982988,0.0,0,-0.74076414,1.2831255,-0.18914135,0.037798766,0.0381361,1.5496181,-0.9089983,-0.21590029,-1.711894,-0.027821733,-0.06979715,0.11362332,1.0857831,-0.9019083
0.1,0.1,0.7,-0.5235987755982988,0.0,0,-0.74948037,1.2966895,-0.18062918,0.030933354,0.043802373,1.53714,-0.898573,0.1818152,-1.7232981,-0.62594974,-0.035875767,0.15148842,1.1094637,0.35142702
0.1,0.1,0.7,-0.5235987755982988,0.0,0,-0.75174177,1.2980024,-0.17966233,0.013965347,0.03455846,1.5478226,-0.9122997,-0.10396448,-1.7894313,0.31784397,-0.06862109,-0.0829039,1.0978311,0.48167726
0.1,0.1,0.7,-0.5235987755982988,0.0,0,-0.7481279,1.2728223,-0.18769802,0.048075058,0.023740979,1.5377855,-0.8563267,-1.051654,-1.6823486,-0.0071150395,-0.09659529,-0.054073177,1.2062634,-0.52765965
0.1,0.1,0.7,-0.5235987755982988,0.0,0,-0.74968076,1.2731035,-0.1859409,0.047931623,0.041664395,1.5385174,-0.9259706,-0.23107989,-1.8028555,0.2613942,-0.06272704,0.17193727,1.226402,-0.54924476
0.1,0.1,0.7,-0.5235987755982988,0.0,0,-0.7461952,1.2772027,-0.18450972,0.044094265,0.049596164,1.5479809,-0.89889055,-0.29735255,-1.6611333,0.07687751,-0.08747183,0.112933174,1.1560545,-0.2081521
0.1,0.1,0.7,-0.5235987755982988,0.0,0,-0.7428342,1.2800907,-0.1855643,0.04477797,0.030622032,1.5480937,-0.93031687,-0.30632865,-1.7255667,0.56549114,-0.03562253,0.007313792,1.1960214,0.25505468
0.1,0.1,0.7,-0.5235987755982988,0.0,0,-0.7434303,1.2847408,-0.19227281,0.04288483,0.025574105,1.5369401,-0.87200665,-0.4086647,-1.5617728,0.41503564,-0.09037266,-0.17979245,1.1457715,-0.03186408
0.1,0.1,0.7,-0.5235987755982988,0.0,0,-0.7516304,1.2952144,-0.18558197,0.026978616,0.03595262,1.536501,-0.9312367,-0.59047145,-1.6744789,0.051506773,-0.05144151,0.13591374,1.1637133,1.8951472
0.1,0.1,0.7,-0.5235987755982988,0.0,0,-0.7454773,1.2947301,-0.179505,0.0226053,0.037338786,1.5568649,-0.87218916,-0.041950528,-1.6775049,0.16054894,-0.11526328,0.106009245,1.1509349,0.15425758
0.1,0.1,0.7,-0.5235987755982988,0.0,0,-0.74028724,1.2958273,-0.19860701,0.021174414,0.026117388,1.5414536,-0.901387,-0.83274984,-1.674262,0.5837916,-0.0969225,0.14012884,1.1920165,-0.7915498
0.1,0.1,0.7,-0.5235987755982988,0.0,0,-0.74742264,1.3019884,-0.1939254,0.022894641,0.016128255,1.5351645,-0.8793213,-0.66262156,-1.8166196,-0.15822329,-0.011232053,0.04883731,1.2302263,-0.9620319
0.1,0.1,0.7,-0.5235987755982988,0.0,0,-0.7520016,1.2854301,-0.18147661,0.038231503,0.033212878,1.5400447,-0.8736794,0.010843932,-1.7389153,-0.1408147,-0.0714579,-0.03625376,1.2153705,0.14252967
0.1,0.1,0.7,-0.5235987755982988,0.0,0,-0.73737526,1.2826294,-0.18946289,0.042560384,0.033364344,1.5448911,-0.90219766,-0.30469126,-1.7224709,-0.22958587,-0.05857617,-0.04730886,1.0370406,0.14377469
0.1,0.1,0.7,-0.5235987755982988,0.0,0,-0.7450471,1.2944959,-0.18330096,0.03317179,0.040440023,1.5308787,-0.90672046,0.1514825,-1.6911135,0.48094893,-0.08226225,-0.041936383,1.2040681,-2.0363262
0.1,0.1,0.7,-0.5235987755982988,0.0,0,-0.745609,1.2811838,-0.18042481,0.042647254,0.03134828,1.5376986,-0.87242514,-0.29956505,-1.7312737,0.4233708,-0.0339606,0.01610852,1.0963635,-0.7323043
0.1,0.1,0.7,-0.5235987755982988,0.0,0,-0.7515326,1.2921963,-0.18649466,0.027990399,0.05026076,1.5505615,-0.8769547,0.09458087,-1.7390085,-0.10201516,-0.0010269068,0.019087454,1.1606491,0.55248475
0.1,0.1,0.7,-0.5235987755982988,0.0,0,-0.74771667,1.2931443,-0.16743177,0.02953466,0.030887233,1.5366923,-0.8891058,0.04205181,-1.814473,0.47365445,-0.05397661,0.13573502,1.1445758,-0.7580036
0.1,0.1,0.7,-0.5235987755982988,0.0,0,-0.7412483,1.301221,-0.18718015,0.026840832,0.026587537,1.535355,-0.9019896,0.080391034,-1.7489171,0.30993944,-0.098962,0.08032674,1.2174766,-0.81579286
0.1,0.1,0.7,-0.5235987755982988,0.0,0,-0.7464142,1.2862505,-0.19386572,0.03834197,0.051571324,1.5281961,-0.92824906,-1.4963365,-1.7928964,-0.5302394,-0.07445924,-0.15074964,1.1787932,0.40890545
0.1,0.1,0.7,-0.5235987755982988,0.0,0,-0.7466658,1.2861791,-0.19174553,0.036932033,0.037149776,1.5419135,-0.8801818,-0.5491931,-1.6702696,-0.6155123,-0.10285956,0.0044487217,1.2697431,-0.31398103
0.1,0.1,0.7,-0.5235987755982988,0.0,0,-0.74583775,1.2912735,-0.19191274,0.025521582,0.029617578,1.5493802,-0.8676578,-0.082565844,-1.7113492,0.28869954,-0.056536485,0.12943262,1.2289784,0.29941267
0.1,0.1,0.7,-0.5235987755982988,0.0,0,-0.75099516,1.2940964,-0.18104039,0.028016679,0.044409994,1.5378746,-0.89247864,-0.48280343,-1.6838915,0.04293064,-0.06728007,-0.17089443,1.0637724,0.8259228
0.1,0.1,0.7,-0.5235987755982988,0.0,0,-0.74733317,1.2958151,-0.18552522,0.036904547,0.02247626,1.5390947,-0.8401102,-0.11877203,-1.6734905,-0.49375308,-0.061013475,0.09523732,1.1596373,-0.09115553
0.1,0.1,0.7,-0.5235987755982988,0.0,0,-0.7449131,1.2906207,-0.18143064,0.03665274,0.050274663,1.5421739,-0.8643512,0.2570664,-1.7253592,0.5040428,-0.07852589,0.060235817,1.0823145,0.51674134
0.1,0.1,0.7,-0.5235987755982988,0.0,0,-0.7452273,1.2833928,-0.1968531,0.04394734,0.0329062,1.5476704,-0.89534026,0.30362487,-1.690731,-0.4935875,-0.0830148,0.010404606,1.1944674,0.21574254
0.1,0.1,0.7,-0.5235987755982988,0.0,0,-0.74811244,1.2929711,-0.18371938,0.03374126,0.053865217,1.5405685,-0.90188324,-0.3141699,-1.7294328,-0.003579291,-0.04102607,0.12439568,1.2378527,0.5670727
0.1,0.1,0.7,-0.5235987755982988,0.0,0,-0.7428496,1.2755073,-0.19429474,0.048325222,0.02232838,1.5401156,-0.79652303,-0.53700703,-1.6971611,0.19982237,-0.010500563,0.10945817,1.2081317,-0.21418962
0.1,0.1,0.7,-0.5235987755982988,0.0,0,-0.74997294,1.2816485,-0.1876697,0.040908962,0.02505638,1.525078,-0.8646911,-0.5573133,-1.7088969,-0.19095989,-0.017836204,0.0014534158,1.1064752,0.09409349
0.1,0.1,0.7,-0.5235987755982988,0.0,0,-0.74352306,1.292538,-0.19185518,0.04013608,0.03203231,1.5311061,-0.8745102,-0.1870651,-1.7181462,0.5870869,-0.04771754,0.07044694,1.0808945,-0.97419053
0.1,0.1,0.7,-0.5235987755982988,0.0,0,-0.7518181,1.2886261,-0.17901233,0.038625304,0.052418057,1.5322151,-0.8700526,0.16936564,-1.7280792,-0.45720106,-0.07033451,0.004225535,1.0261629,-0.98860604
0.1,0.1,0.7,-0.5235987755982988,0.0,0,-0.74805874,1.2950122,-0.18563908,0.030657467,0.049510513,1.5498981,-0.8906732,-0.6341534,-1.6778526,-0.19311641,-0.111588895,-0.113456205,1.1644766,1.4022002
0.1,0.1,0.7,-0.5235987755982988,0.0,0,-0.7409306,1.2918395,-0.18363652,0.032773033,0.016452113,1.5304747,-0.8771512,0.1989314,-1.6287857,0.34021926,-0.053138647,0.00023381792,1.1473756,0.207902
0.1,0.1,0.7,-0.5235987755982988,0.0,0,-0.7470526,1.2984092,-0.18967828,0.026359871,0.041827124,1.5450457,-0.92625993,-0.15765634,-1.7298121,-0.12421654,-0.06936175,-0.0151322875,1.2349328,-0.3504873
0.1,0.1,0.7,-0.5235987755982988,0.0,0,-0.74556667,1.2893915,-0.17425776,0.040308002,0.031853855,1.531824,-0.86775094,0.08177298,-1.6265354,0.13108124,-0.10606506,0.07028969,1.1778928,0.078543946
0.1,0.1,0.7,-0.5235987755982988,0.0,0,-0.74478364,1.293993,-0.17959125,0.03484623,0.036925036,1.5422462,-0.8659953,-0.31146327,-1.6488569,0.25326845,-0.047762737,-0.19247513,1.1887243,-1.4222717
0.1,0.1,0.7,-0.5235987755982988,0.0,0,-0.7507269,1.30354,-0.19298367,0.028715493,0.02593776,1.5398184,-0.8551639,0.23844759,-1.5846672,-0.17790349,-0.03992652,0.18897767,1.1267234,0.95092064
0.1,0.1,0.7,-0.5235987755982988,0.0,0,-0.75255543,1.2862267,-0.18809427,0.03319848,0.047866825,1.5559324,-0.8480606,-0.71010345,-1.7582045,0.11886676,-0.0721939,-0.04905014,1.1252065,-0.67452586
0.1,0.1,0.7,-0.5235987755982988,0.0,0,-0.74774563,1.2899284,-0.174524,0.032424666,0.04365572,1.5383003,-0.88508815,-0.07771155,-1.6884965,0.09023331,-0.07107534,-0.04975264,1.1453115,-0.597049
0.1,0.1,0.7,-0.5235987755982988,0.0,0,-0.74265766,1.28611,-0.19176418,0.036157697,0.04271332,1.5266677,-0.880283,0.41088545,-1.6719066,0.12160945,-0.017542932,-0.045619283,1.2497032,-0.07421986
0.1,0.1,0.7,-0.5235987755982988,0.0,0,-0.74289364,1.2935063,-0.18081999,0.038512703,0.04754478,1.5343409,-0.84984785,-0.68358666,-1.6894536,-0.22265509,0.020349456,-0.003427323,1.2236745,0.46382478
0.1,0.1,0.7,-0.5235987755982988,0.0,0,-0.740145,1.2845534,-0.18997546,0.05544968,0.03680789,1.5255233,-0.90045285,-0.13053685,-1.6681472,-0.12969372,-0.01392254,-0.042942554,1.2104672,-0.09851219
0.1,0.1,0.7,-0.5235987755982988,0.0,0,-0.7494032,1.2879848,-0.18793994,0.033634074,0.041608058,1.5400058,-0.9024907,-0.57373375,-1.8218681,-0.3577592,-0.06737919,0.038356233,1.1462541,-0.9136381
0.1,0.1,0.7,-0.5235987755982988,0.0,0,-0.74455255,1.2962067,-0.18640378,0.030109482,0.0112161655,1.5423936,-0.9186378,0.056394793,-1.748671,-0.008031538,-0.06803879,-0.07549524,1.2385364,-1.2726219
0.1,0.1,0.7,-0.5235987755982988,0.0,0,-0.7395286,1.2898432,-0.18243836,0.036950596,0.015310348,1.5311112,-0.90394825,-0.61354065,-1.775453,0.19520055,-0.120103054,0.07557527,1.1495112,-1.4503407
0.1,0.1,0.7,-0.5235987755982988,0.0,0,-0.7461321,1.2847103,-0.1796893,0.037251204,0.03090375,1.5453221,-0.9177707,-0.036099054,-1.7529645,0.17169282,-0.054135047,-0.07367393,1.1173909,1.925207
0.1,0.1,0.7,-0.5235987755982988,0.0,0,-0.74274373,1.2793828,-0.18885924,0.046270985,0.025061581,1.5423334,-0.87945294,0.115570515,-1.6825821,-0.70361537,-0.037213024,0.07085643,1.1928293,-1.6335856
0.1,0.1,0.7,-0.5235987755982988,0.0,0,-0.74574685,1.2990248,-0.19341066,0.025316948,0.026762975,1.5439308,-0.8688868,-0.07513164,-1.8383939,0.09849808,-0.071603924,-0.00484734,1.2047156,-0.11872689
0.1,0.1,0.7,-0.5235987755982988,0.0,0,-0.7494231,1.2866012,-0.19301584,0.035775885,0.04457505,1.5410597,-0.8655963,-1.1592152,-1.8055186,-0.05571475,-0.028384646,0.10275459,1.2410575,0.61398894
0.1,0.1,0.7,-0.5235987755982988,0.0,0,-0.74463546,1.2728955,-0.17841686,0.052324336,0.029992433,1.5445614,-0.9063923,-0.0342099,-1.6450863,0.46009642,-0.08466766,0.20765828,1.0497919,-0.23441304
0.1,0.1,0.7,-0.5235987755982988,0.0,0,-0.74521863,1.295552,-0.18488571,0.02497041,0.038398553,1.5447261,-0.87975806,-0.99745834,-1.6921914,0.36743078,-0.067172095,-0.013771743,1.0756911,0.43870354
0.1,0.1,0.7,-0.5235987755982988,0.0,0,-0.75605524,1.2847317,-0.18245625,0.03436808,0.046711672,1.5443524,-0.8692683,-0.6378723,-1.676765,0.34435537,-0.08214371,0.02905306,1.1946876,-1.0937735
0.1,0.1,0.7,-0.5235987755982988,0.0,0,-0.7383975,1.2952543,-0.18599582,0.03758016,0.034554936,1.5442069,-0.8578429,-0.50170285,-1.5806988,0.4750229,-0.053592533,0.107874505,1.188668,-1.0983397
0.1,0.1,0.7,-0.5235987755982988,0.0,0,-0.7443674,1.2952642,-0.19549832,0.022964355,0.036813032,1.5497779,-0.8879984,-0.37564805,-1.6888337,0.28004304,-0.04174214,-0.021836357,1.1040643,-0.7486865
0.1,0.1,0.7,-0.5235987755982988,0.0,0,-0.74862325,1.2779157,-0.1887361,0.04767717,0.032327566,1.547164,-0.8940661,0.0033181321,-1.6824583,-0.25611192,-0.06292399,0.08924394,1.1697131,-1.3406115
0.1,0.1,0.7,-0.5235987755982988,0.0,0,-0.74490654,1.2816844,-0.19483073,0.046838205,0.027641533,1.5272003,-0.8817557,0.0028845747,-1.7065232,-0.36443862,0.06589994,-0.102449216,1.1863027,-1.1246161
0.1,0.1,0.7,-0.5235987755982988,0.0,0,-0.7381021,1.303971,-0.1865875,0.009653978,0.014389249,1.5465621,-0.91505194,-0.13170213,-1.6654403,-0.24573626,-0.040850297,0.045994233,1.152026,0.5258127
0.1,0.1,0.7,-0.5235987755982988,0.0,0,-0.75013685,1.3032992,-0.1815813,0.01789148,0.037116848,1.5498365,-0.91211104,-0.379666,-1.7442409,0.26635554,-0.065642074,0.03651027,1.1569996,0.4689638
0.1,0.1,0.7,-0.5235987755982988,0.0,0,-0.748685,1.2948351,-0.18548363,0.032135703,0.045572083,1.5371667,-0.8728112,-0.39737892,-1.7425541,-0.1760181,-0.08503174,0.011342725,1.1530187,0.3703324
0.1,0.1,0.7,-0.5235987755982988,0.0,0,-0.7404517,1.3026251,-0.19306287,0.027927497,0.04561013,1.545022,-0.8810178,-0.23295395,-1.7574639,0.1745966,-0.01936588,-0.067708746,1.1955076,-0.12540922
0.1,0.1,0.7,-0.5235987755982988,0.0,0,-0.748668,1.2859629,-0.18367884,0.038008194,0.023058811,1.5355752,-0.87583804,0.9578845,-1.7634593,0.6880435,-0.038665015,0.09488651,1.2072722,-0.22034967
0.1,0.1,0.7,-0.5235987755982988,0.0,0,-0.75033104,1.2946343,-0.19067249,0.025392031,0.03531375,1.5348924,-0.88227665,0.28292772,-1.701259,-0.23311955,-0.041623898,0.074660994,1.128421,0.35530835
0.1,0.1,0.7,-0.5235987755982988,0.0,0,-0.7497729,1.2906228,-0.19272347,0.046186805,0.04065687,1.5331945,-0.90209997,0.99440694,-1.6875726,1.0337886,-0.08868509,-0.16212933,1.1746927,0.03577258
0.1,0.1,0.7,-0.5235987755982988,0.0,0,-0.7497882,1.2807382,-0.18499954,0.041986164,0.03532415,1.560075,-0.8781257,0.08070714,-1.7198865,0.22174595,-0.0049020224,0.2394692,1.1568711,-0.7228006
0.1,0.1,0.7,-0.5235987755982988,0.0,0,-0.7395505,1.2820165,-0.185007,0.041117404,0.03143544,1.5511239,-0.8743997,-0.28284875,-1.7928845,0.05772507,-0.14826874,0.032009304,1.1818948,-1.5152581
0.1,0.1,0.7,-0.5235987755982988,0.0,0,-0.7432518,1.2995087,-0.19381894,0.033714995,0.03677436,1.5375158,-0.87728924,-1.221233,-1.728509,0.08704114,-0.041526176,0.030051857,1.111345,0.25205463
0.1,0.1,0.7,-0.5235987755982988,0.0,0,-0.7457861,1.276934,-0.18941903,0.046919767,0.024280583,1.5528401,-0.85667133,0.37300542,-1.6630256,-0.56288165,-0.07440479,0.075372875,1.1484463,0.70099485
0.1,0.1,0.7,-0.5235987755982988,0.0,0,-0.74480826,1.3036982,-0.18668127,0.02857221,0.044188462,1.5504,-0.89355403,-0.28540316,-1.5895185,0.009473931,-0.0824559,-0.12887411,1.2722498,-0.95504844
0.1,0.1,0.7,-0.5235987755982988,0.0,0,-0.74738973,1.2965357,-0.18557677,0.03702768,0.025444316,1.528779,-0.90590763,-0.20439091,-1.7009832,-0.16447535,-0.042210497,-0.05533781,1.1609795,0.32221022
0.1,0.1,0.7,-0.5235987755982988,0.0,0,-0.75222814,1.2911314,-0.19148666,0.03591652,0.04272957,1.5455343,-0.87096393,-0.44264,-1.7170528,-0.3838713,-0.072887115,0.086052984,1.1056799,-1.5703334
0.1,0.1,0.7,-0.5235987755982988,0.0,0,-0.74457455,1.2883943,-0.18291089,0.035439987,0.03202216,1.5513669,-0.8841594,-0.84824985,-1.83391,-0.474088,-0.102221854,-0.023787865,1.0961645,0.82920957
0.1,0.1,0.7,-0.5235987755982988,0.0,0,-0.7421845,1.2862319,-0.18870395,0.039593402,0.043441754,1.5397061,-0.8906843,-0.3437797,-1.7859493,0.31854925,-0.089682825,0.063427046,1.2391956,1.6760213
0.1,0.1,0.7,-0.5235987755982988,0.0,0,-0.75003815,1.289691,-0.18215542,0.030952273,0.029858166,1.5434425,-0.8454879,-0.73416805,-1.8127798,-0.071199834,-0.06954995,-0.008560465,1.153753,-1.0810506
0.1,0.1,0.7,-0.5235987755982988,0.0,0,-0.7423594,1.2950703,-0.18799314,0.025972702,0.026024306,1.5519321,-0.88632333,0.123748876,-1.6730764,0.4583523,-0.045624778,-0.03754311,1.1713834,-0.77282625
0.1,0.1,0.7,-0.5235987755982988,0.0,0,-0.7434471,1.2885184,-0.18894966,0.044228844,0.051068157,1.5279232,-0.8689839,-0.97242653,-1.7484818,0.061334096,-0.06477713,0.023259122,1.149324,1.1100512
0.1,0.1,0.7,-0.5235987755982988,0.0,0,-0.74775004,1.2765785,-0.1847942,0.045368396,0.036300562,1.5448272,-0.88669956,-0.33452588,-1.7962515,-0.13367073,-0.046790734,-0.013098909,1.1629075,-0.1890931
0.1,0.1,0.7,-0.5235987755982988,0.0,0,-0.74053955,1.2970669,-0.18772292,0.025940396,0.026948076,1.5504191,-0.8779766,-0.4071168,-1.6981169,0.4906505,-0.01533407,-0.067118235,1.1258038,0.020581841
0.1,0.1,0.7,-0.5235987755982988,0.0,0,-0.7488207,1.2983768,-0.18556745,0.028206429,0.04779609,1.5598452,-0.91188985,-0.15728459,-1.7293957,-0.04020331,-0.017889671,0.1254361,1.1563778,-0.3589326
0.1,0.1,0.7,-0.5235987755982988,0.0,0,-0.7472583,1.2909659,-0.17580716,0.030836415,0.027421704,1.550048,-0.87074727,-0.118847124,-1.6906146,-0.53287685,-0.04133672,0.053510718,1.1530211,-0.48149416
0.1,0.1,0.7,-0.5235987755982988,0.0,0,-0.75578094,1.2953914,-0.18958609,0.032823026,0.043919187,1.5395036,-0.8962525,0.3044991,-1.7243339,-0.26783988,-0.007805213,0.041839246,1.0738821,-0.15680908
0.1,0.1,0.7,-0.5235987755982988,0.0,0,-0.7421897,1.2901324,-0.18894039,0.04045057,0.014101097,1.5442003,-0.88126403,0.20451184,-1.693783,0.3834329,-0.06262868,0.2069279,1.1438761,-0.06601918
0.1,0.1,0.7,-0.5235987755982988,0.0,0,-0.74860674,1.3021061,-0.18368849,0.0248621,0.008854455,1.5498871,-0.8971907,-0.047607627,-1.681501,-0.57658386,-0.043636348,0.042768862,1.1669756,0.46625742
0.1,0.1,0.7,-0.5235987755982988,0.0,0,-0.74587077,1.2860484,-0.19257711,0.043039557,0.033610493,1.5400096,-0.8713466,-0.29975083,-1.7003835,0.38450167,-0.04008588,0.0066285096,1.0915049,0.35150978
0.1,0.1,0.7,-0.5235987755982988,0.0,0,-0.73908097,1.2854787,-0.18616943,0.041670594,0.047552932,1.5482855,-0.85724634,0.0663356,-1.7893662,-0.25792098,-0.081696995,-0.04190888,1.192298,0.6569049
0.1,0.1,0.7,-0.5235987755982988,0.0,0,-0.74137205,1.2987167,-0.19053459,0.056458063,0.022030443,1.5348526,-0.8625919,-0.025636194,-1.7367983,0.50420785,-0.046665773,0.12724301,1.199764,-1.2296658
0.1,0.1,0.7,-0.5235987755982988,0.0,0,-0.7490105,1.3027246,-0.188728,0.029129678,0.050217737,1.5348715,-0.88969016,-0.5443651,-1.7111661,-0.11748942,-0.04773324,-0.0367891,1.1648785,-0.19085601
0.1,0.1,0.7,-0.5235987755982988,0.0,0,-0.7503323,1.3090168,-0.17634434,0.025562221,0.033089276,1.5387684,-0.91915447,0.14344382,-1.6928263,-0.24808085,-0.06163814,0.037985664,1.1340102,-0.2802601
0.1,0.1,0.7,-0.5235987755982988,0.0,0,-0.7460263,1.2935051,-0.18828157,0.029481122,0.04163941,1.5301415,-0.91772896,-0.2811448,-1.5712492,-0.14591284,-0.03888899,-0.06526466,1.1988549,0.22664161
0.1,0.1,0.7,-0.5235987755982988,0.0,0,-0.7471704,1.2801592,-0.18852302,0.048330955,0.018106861,1.5331104,-0.88411033,-1.1469526,-1.671243,0.6039571,-0.02260987,-0.004796955,1.1854386,-0.015344635
0.1,0.1,0.7,-0.5235987755982988,0.0,0,-0.7516533,1.2896574,-0.18856403,0.04101406,0.037151255,1.538834,-0.85080105,0.03663026,-1.6794045,-0.30163908,-0.090903156,0.09251283,1.1395516,-1.1424004
0.1,0.1,0.7,-0.5235987755982988,0.0,0,-0.7513406,1.2912099,-0.18051071,0.031902216,0.036191843,1.5543803,-0.8691281,0.40434134,-1.7228805,0.5253826,-0.05217363,-0.1256554,1.130119,-1.4992696
0.1,0.1,0.7,-0.5235987755982988,0.0,0,-0.7457076,1.2888566,-0.18390678,0.037786614,0.03758772,1.5493026,-0.8464657,-0.502973,-1.8407141,-0.36933607,-0.07278336,0.07457655,1.1885649,0.48199126
0.1,0.1,0.7,-0.5235987755982988,0.0,0,-0.74540085,1.290906,-0.18730347,0.041692328,0.040198985,1.5406406,-0.91542625,-0.6203064,-1.6765931,-0.32560948,-0.003977603,0.004700034,1.1503009,-1.5742143
0.1,0.1,0.7,-0.5235987755982988,0.0,0,-0.7446997,1.286701,-0.18305431,0.042014994,0.038487114,1.540234,-0.85104346,-0.348013,-1.726249,0.0700689,-0.08320688,0.04655935,1.1988218,-0.7269411
0.1,0.1,0.7,-0.5235987755982988,0.0,0,-0.74296993,1.2976904,-0.18905224,0.03245321,0.052413877,1.5428734,-0.8871037,-0.005334598,-1.7004762,0.14031507,-0.086390086,0.024064774,1.1436828,-1.9105004
0.1,0.1,0.7,-0.5235987755982988,0.0,0,-0.7527821,1.2769188,-0.18069552,0.052969858,0.025483364,1.5381281,-0.86883605,-0.7179183,-1.6431638,-0.3361299,-0.016210172,0.00615078,1.1515915,0.960567
0.1,0.1,0.7,-0.5235987755982988,0.0,0,-0.74826235,1.290982,-0.20220944,0.031446233,0.014241383,1.5345902,-0.88941544,0.06672312,-1.7173773,-0.3337066,-0.028376102,0.028103253,1.1584197,0.034738585
0.1,0.1,0.7,-0.5235987755982988,0.0,0,-0.7474878,1.293083,-0.19702789,0.037441973,0.04354456,1.5357225,-0.9132801,0.09312475,-1.7758728,0.41707644,-0.041667104,-0.047366124,1.1429528,-0.43532136
0.1,0.1,0.7,-0.5235987755982988,0.0,0,-0.74675006,1.299317,-0.1882356,0.030336995,0.038019147,1.5460062,-0.88135463,0.13810182,-1.8189107,0.54080427,-0.03539945,0.05917075,1.1629139,-1.3328277
0.1,0.1,0.7,-0.5235987755982988,0.0,0,-0.7520562,1.3007962,-0.18163538,0.02942602,0.02304658,1.5428376,-0.8853379,-0.36851266,-1.6020046,0.17807852,-0.021166926,0.04542804,1.1450111,-1.6348299
0.1,0.1,0.7,-0.5235987755982988,0.0,0,-0.74484926,1.2884572,-0.18855758,0.04565966,0.032770526,1.5417905,-0.881315,-0.13222215,-1.6967189,0.34976938,-0.054122057,0.22951092,1.2433318,0.49229434
0.1,0.1,0.7,-0.5235987755982988,0.0,0,-0.7399372,1.2983876,-0.17793028,0.027695268,0.0290794,1.5589243,-0.8878591,-0.81536245,-1.6564969,0.85190344,-0.090158366,-0.13888818,1.1614269,-0.09611466
0.1,0.1,0.7,-0.5235987755982988,0.0,0,-0.7539564,1.2946876,-0.2021913,0.030646093,0.04323648,1.5551343,-0.86805356,0.30242735,-1.7926165,0.040696725,-0.040605936,0.076243855,1.1636711,0.2153751
0.1,0.1,0.7,-0.5235987755982988,0.0,0,-0.73605657,1.2991359,-0.18646261,0.03702344,0.028366784,1.5450906,-0.8754223,-0.22852513,-1.765929,0.25326112,-0.061352164,0.034009032,1.2107912,-1.7241347
0.1,0.1,0.7,-0.5235987755982988,0.0,0,-0.7490862,1.2971225,-0.18903996,0.02322656,0.045970622,1.5357851,-0.8588452,-0.71246564,-1.7536004,0.5250479,-0.012570243,0.13585421,1.1352237,-0.34344757
0.1,0.1,0.7,-0.5235987755982988,0.0,0,-0.7460566,1.2912543,-0.18313883,0.030671654,0.041535255,1.5466089,-0.9523241,0.12908266,-1.7028855,-0.031923413,-0.07596881,0.08703566,1.1341043,-0.197795
0.1,0.1,0.7,-0.5235987755982988,0.0,0,-0.7511895,1.2976624,-0.19509535,0.029658169,0.03015606,1.5495871,-0.884162,-0.13029727,-1.8398468,-0.14477672,-0.06466201,-7.639635e-05,1.1365304,0.3368392
0.1,0.1,0.7,-0.5235987755982988,0.0,0,-0.7491509,1.2897676,-0.1829762,0.056247696,0.021866912,1.5486625,-0.92598957,0.18608417,-1.5323634,-0.15772073,-0.08460017,-0.010684997,1.1789815,-0.9401345
0.1,0.1,0.7,-0.5235987755982988,0.0,0,-0.7408535,1.2843107,-0.18945548,0.045431912,0.02226568,1.5435792,-0.9770753,-0.032258794,-1.6625912,0.7124815,-0.10720431,0.06982082,1.1767739,0.4216074
0.1,0.1,0.7,-0.5235987755982988,0.0,0,-0.75383437,1.2910646,-0.19435254,0.03414004,0.041513912,1.5391823,-0.9263405,-1.4110562,-1.8224871,0.03069858,-0.015578605,0.19270584,1.1798495,0.19228558
0.1,0.1,0.7,-0.5235987755982988,0.0,0,-0.74078155,1.3066634,-0.1960252,0.030354265,0.024342762,1.547308,-0.8937606,0.24337716,-1.764058,-0.29838407,-0.044335175,-0.032254513,1.1368638,-1.4805713
0.1,0.1,0.7,-0.5235987755982988,0.0,0,-0.74958867,1.2847638,-0.19023265,0.042198833,0.036016073,1.5411359,-0.95169723,-0.54468066,-1.7118373,-0.3924835,-0.09658625,0.09570044,1.1379046,-0.93583715
0.1,0.1,0.7,-0.5235987755982988,0.0,0,-0.7511584,1.277633,-0.19508438,0.04814013,0.03901186,1.5397286,-0.89675695,0.10836471,-1.8215303,0.31617635,-0.020234767,-0.015303178,1.2105175,0.45405942
0.1,0.1,0.7,-0.5235987755982988,0.0,0,-0.74071574,1.2888137,-0.18276353,0.03843225,0.024219755,1.5413567,-0.8846007,-0.20881961,-1.7776589,0.6104648,-0.051470153,-0.07092656,1.1527764,0.6749597
0.1,0.1,0.7,-0.5235987755982988,0.0,0,-0.7487798,1.2939651,-0.19223285,0.04037575,0.044862512,1.5311122,-0.88775015,-0.18525305,-1.7134789,0.404148,-0.110101484,-0.039559234,1.1198262,1.3808873
0.1,0.1,0.7,-0.5235987755982988,0.0,0,-0.74545246,1.2855836,-0.1899524,0.04838208,0.015738428,1.5525794,-0.8975198,-0.2971938,-1.7027355,0.071748786,-0.04326464,-0.034021977,1.1822116,-1.4837848
0.1,0.1,0.7,-0.5235987755982988,0.0,0,-0.74806595,1.2871386,-0.18609601,0.0411288,0.038990483,1.541834,-0.92337316,-0.3597433,-1.7152365,0.29996413,-0.061390646,0.07559743,1.2004678,0.8264955
0.1,0.1,0.7,-0.5235987755982988,0.0,0,-0.75222284,1.2875714,-0.18673667,0.041459206,0.020167388,1.5436003,-0.860662,0.2915095,-1.7707978,0.8620015,-0.05037741,0.17120728,1.2175566,-0.4810489
0.1,0.1,0.7,-0.5235987755982988,0.0,0,-0.7465428,1.3036883,-0.1897473,0.03088093,0.033642408,1.5403572,-0.8835843,-0.8171363,-1.7259306,-0.43367282,-0.1354139,0.2135769,1.202449,-0.14919357
0.1,0.1,0.7,-0.5235987755982988,0.0,0,-0.7460676,1.3081422,-0.19105473,0.023507714,0.024558129,1.545135,-0.90999454,-1.0558326,-1.7160968,-0.36973694,-0.031446636,0.065702125,1.180367,1.7211173
0.1,0.1,0.7,-0.5235987755982988,0.0,0,-0.74079823,1.2861013,-0.19566484,0.046504952,0.046488296,1.5521243,-0.90539706,-0.05562533,-1.7247016,-0.798403,-0.06763381,-0.10322855,1.2138327,-0.03852023
0.1,0.1,0.7,-0.5235987755982988,0.0,0,-0.74825156,1.3068116,-0.18262711,0.027947657,0.037043467,1.5447742,-0.9102761,0.13787557,-1.8278875,0.14001396,-0.049349323,-0.15315793,1.1920565,0.09348001
0.1,0.1,0.7,-0.5235987755982988,0.0,0,-0.7445313,1.2992644,-0.18833746,0.033388417,0.025172736,1.5449256,-0.9019407,-0.9666287,-1.6818922,0.7220426,-0.044006884,0.07170776,1.1127734,-0.41271496
0.1,0.1,0.7,-0.5235987755982988,0.0,0,-0.74000704,1.29341,-0.1893225,0.036707018,0.041099958,1.5496783,-0.9116965,-0.33419177,-1.7550014,0.54939854,-0.11448741,0.0109962905,1.2249393,-1.1945859
0.1,0.1,0.7,-0.5235987755982988,0.0,0,-0.74405086,1.3008838,-0.18455969,0.031978514,0.03011091,1.5516621,-0.93219113,0.080480404,-1.697723,-0.17582417,-0.10026332,-0.04300453,1.1360428,-0.16666745
0.1,0.1,0.7,-0.5235987755982988,0.0,0,-0.74028254,1.290577,-0.1832965,0.039131455,0.019353168,1.5427903,-0.8480034,-0.70840716,-1.7081555,0.26533034,-0.045469195,-0.04462159,1.2227589,-0.015016522
0.1,0.1,0.7,-0.5235987755982988,0.0,0,-0.74528784,1.2656225,-0.18873578,0.062850915,0.03852141,1.5416343,-0.87237185,0.27525252,-1.7269012,0.056082625,-0.05247498,0.010120366,1.1603268,-0.54573226
0.1,0.1,0.7,-0.5235987755982988,0.0,0,-0.7418324,1.2991172,-0.18445505,0.03483347,0.013238604,1.537241,-0.9255985,-0.16105576,-1.7379682,-0.16510785,-0.051328108,0.041874614,1.1930363,-0.28374034
0.1,0.1,0.7,-0.5235987755982988,0.0,0,-0.74876976,1.2980818,-0.1889568,0.04000257,0.027101316,1.5481132,-0.8733596,-0.6335145,-1.7743008,-0.057006862,-0.14672653,-0.05292092,1.1474711,-0.019153776
0.1,0.1,0.7,-0.5235987755982988,0.0,0,-0.74299175,1.2906665,-0.1819219,0.045402862,0.0323537,1.5488657,-0.8968353,0.46817058,-1.6777083,-0.3927134,-0.05534527,-0.04707868,1.2548819,-1.2729037
0.1,0.1,0.7,-0.5235987755982988,0.0,0,-0.7478989,1.2940801,-0.18390785,0.039888375,0.033349995,1.5560421,-0.92014337,-0.13843106,-1.6882374,0.35335118,-0.098026104,0.20246889,1.1874621,-1.3929688
0.1,0.1,0.7,-0.5235987755982988,0.0,0,-0.7457809,1.2854074,-0.2042068,0.04055849,0.03912315,1.5368845,-0.9270707,0.2690143,-1.7100538,0.29795378,-0.09557898,0.06563215,1.1518353,0.30547398
0.1,0.1,0.7,-0.5235987755982988,0.0,0,-0.74907464,1.2875489,-0.18822314,0.035192862,0.035463605,1.531017,-0.941578,-0.7906149,-1.7166381,-0.35738778,-0.09637024,-0.0027535218,1.1902789,-0.9592498
0.1,0.1,0.7,-0.5235987755982988,0.0,0,-0.7422775,1.2951369,-0.1893876,0.034458246,0.019727176,1.5395843,-0.9616547,-0.23354779,-1.7225062,0.19488378,-0.06132102,0.09617039,1.1629832,-2.2246902
0.1,0.1,0.7,-0.5235987755982988,0.0,0,-0.75497127,1.2765697,-0.1891903,0.019397719,0.03624462,1.545354,-0.9073571,0.085431136,-1.5770779,0.0835004,-0.01269114,-0.0036062875,1.1751578,0.5777056
0.1,0.1,0.7,-0.5235987755982988,0.0,0,-0.7433082,1.2892368,-0.19309258,0.015299235,0.0509261,1.5374185,-0.8945492,-0.827974,-1.6497673,0.6904927,-0.109121785,-0.046174016,1.1296003,0.20967801
0.1,0.1,0.7,-0.5235987755982988,0.0,0,-0.74716765,1.2812657,-0.1814152,0.023603566,0.021749048,1.535548,-0.87930155,-0.028419042,-1.588045,0.4804961,-0.073112726,0.06660688,1.1113234,-0.79590243
0.1,0.1,0.7,-0.5235987755982988,0.0,0,-0.74361545,1.2796605,-0.17377989,0.02724489,0.047232617,1.5468144,-0.9474807,-0.43573156,-1.7974939,-0.39437902,0.008657364,0.03109171,1.1928785,1.9460596
0.1,0.1,0.7,-0.5235987755982988,0.0,0,-0.7423459,1.2742245,-0.19482985,0.03321037,0.034387924,1.5441785,-0.8933342,-0.45476413,-1.7420105,0.077776976,-0.084570974,0.18653606,1.1529266,-0.4900493
0.1,0.1,0.7,-0.5235987755982988,0.0,0,-0.744193,1.2950207,-0.18576857,0.0061208685,0.04281803,1.5432923,-0.88413024,-0.09947549,-1.6358112,-0.32570136,-0.045205213,-0.010916569,1.1621696,0.18379833
0.1,0.1,0.7,-0.5235987755982988,0.0,0,-0.7431373,1.2692026,-0.17762177,0.042795803,0.033657096,1.5472684,-0.943572,-1.1500807,-1.770746,0.3360046,-0.041547276,0.015101274,1.1168116,0.19367842
0.1,0.1,0.7,-0.5235987755982988,0.0,0,-0.7482906,1.2967412,-0.18612385,0.0036789908,0.017927846,1.5321306,-0.8703376,-0.52119905,-1.6818148,0.08413582,-0.10091391,0.076176256,1.1925719,-0.13487777
0.1,0.1,0.7,-0.5235987755982988,0.0,0,-0.744684,1.27065,-0.18663064,0.04343523,0.0350226,1.5375004,-0.8522444,-0.16483398,-1.6558908,0.66259223,-0.052580323,0.029251004,1.0629691,-1.4899373
0.1,0.1,0.7,-0.5235987755982988,0.0,0,-0.74869287,1.2877231,-0.18419772,0.02066808,0.035972614,1.5462285,-0.89066386,-0.7437096,-1.775715,0.29823303,-0.027632376,0.011344062,1.1951747,0.93944293
0.1,0.1,0.7,-0.5235987755982988,0.0,0,-0.7474767,1.2705659,-0.19026302,0.04149632,0.053346787,1.5513884,-0.88506943,-0.91898954,-1.7353776,0.2803369,-0.047905903,0.08476783,1.1683474,0.5233298
0.1,0.1,0.7,-0.5235987755982988,0.0,0,-0.74668163,1.2702912,-0.18928403,0.04625994,0.040040933,1.5435234,-0.87573665,-0.115556784,-1.7063253,0.12901905,-0.028627107,-0.048921928,1.10433,-0.42108816
0.1,0.1,0.7,-0.5235987755982988,0.0,0,-0.74687755,1.2732462,-0.18480884,0.007196961,0.037502345,1.5453231,-0.8844427,0.3733049,-1.7079198,0.09746415,-0.06120239,0.07150548,1.1220157,-1.2715539
0.1,0.1,0.7,-0.5235987755982988,0.0,0,-0.73956525,1.2762891,-0.18377525,0.02787083,0.011569045,1.5407438,-0.85001296,-0.5813414,-1.6672046,0.04949284,-0.033752624,0.060696974,1.1758893,-0.7450171
0.1,0.1,0.7,-0.5235987755982988,0.0,0,-0.7369464,1.2922955,-0.17676595,0.026178861,0.029814973,1.5453161,-0.9338515,-0.24806334,-1.5805805,0.06510488,-0.041643012,0.05289672,1.1720695,-0.6421852
0.1,0.1,0.7,-0.5235987755982988,0.0,0,-0.73960483,1.2853113,-0.18486108,0.032778814,0.043253895,1.545557,-0.88664144,-0.26942512,-1.8013706,0.026114987,0.011850942,-0.041749857,1.1826774,-1.5849247
0.1,0.1,0.7,-0.5235987755982988,0.0,0,-0.74070215,1.284508,-0.18470609,0.019728618,0.031673927,1.5443462,-0.9059379,-0.59817845,-1.7812349,0.51268125,-0.041910473,0.055871923,1.1172634,0.8769025
0.1,0.1,0.7,-0.5235987755982988,0.0,0,-0.747746,1.2683806,-0.19425,0.02757495,0.023145402,1.5461602,-0.96461946,-0.43565497,-1.7341635,0.072084114,-0.008523472,-0.023895865,1.1767979,-0.53745556
0.1,0.1,0.7,-0.5235987755982988,0.0,0,-0.7497444,1.3012904,-0.17995363,-0.013665835,0.036355827,1.5513068,-0.88482994,-0.056935247,-1.7488296,0.076918915,-0.07841767,0.029988317,1.1162688,1.2213676
0.1,0.1,0.7,-0.5235987755982988,0.0,0,-0.7393231,1.2922258,-0.18229315,0.037517432,0.010579472,1.5373101,-0.8740249,-0.15955123,-1.6188504,-0.062806405,-0.008264214,-0.04376488,1.194907,-0.5002939
0.1,0.1,0.7,-0.5235987755982988,0.0,0,-0.7470205,1.2890891,-0.18189141,0.030567367,0.039842553,1.5452319,-0.89660746,0.15453787,-1.6417326,0.1049477,-0.10959354,-0.032720525,1.1424099,0.6317384
0.1,0.1,0.7,-0.5235987755982988,0.0,0,-0.7491105,1.2841027,-0.18900667,0.03356451,0.017167471,1.5466299,-0.90652776,0.3155003,-1.7234113,-0.2078999,-0.009581223,-0.07055591,1.1193415,0.31694925
0.1,0.1,0.7,-0.5235987755982988,0.0,0,-0.7434261,1.2856547,-0.18520848,0.032776907,0.049060248,1.5404688,-0.8949561,-0.6923642,-1.7287636,-0.106651425,-0.057529293,-0.08256168,1.1595335,-0.30208832
0.1,0.1,0.7,-0.5235987755982988,0.0,0,-0.73962283,1.295695,-0.17736687,0.030860756,0.030863443,1.5363584,-0.9039701,0.15703739,-1.6645927,0.45815536,-0.05095525,-0.1284532,1.173453,-1.248291
0.1,0.1,0.7,-0.5235987755982988,0.0,0,-0.74849564,1.2839093,-0.17870027,0.0313674,0.040358394,1.5439663,-0.8873894,-0.6731525,-1.6896836,-0.3618601,-0.11952753,-0.14753129,1.194674,-0.4341312
0.1,0.1,0.7,-0.5235987755982988,0.0,0,-0.7421792,1.2793264,-0.18998887,0.04281215,0.035644617,1.5486498,-0.8931188,0.62773937,-1.65752,0.38807407,-0.078502536,-0.08380011,1.2671975,-0.37700272
0.1,0.1,0.7,-0.5235987755982988,0.0,0,-0.7426125,1.2847896,-0.18817095,0.036130495,0.025710452,1.5436733,-0.8616263,-0.60182834,-1.7992364,-0.47021028,-0.04135268,-0.059998367,1.1146923,-0.20748554
0.1,0.1,0.7,-0.5235987755982988,0.0,0,-0.7409816,1.2921071,-0.19464494,0.028129043,0.046720795,1.5334277,-0.8689173,-0.9332226,-1.7282773,0.4271893,-0.08645034,0.19693494,1.0912576,-0.0755492
0.1,0.1,0.7,-0.5235987755982988,0.0,0,-0.7452143,1.2953718,-0.1844956,0.017765349,0.025506925,1.5558128,-0.85376865,-0.21687892,-1.8076692,-0.078946635,-0.052199323,-0.021970062,1.2186426,-0.67643034
0.1,0.1,0.7,-0.5235987755982988,0.0,0,-0.7432203,1.288141,-0.18874606,0.03500565,0.023151293,1.5362713,-0.87011904,0.13364998,-1.6743137,0.017790942,-0.102331534,0.19924411,1.1278485,0.5580945
0.1,0.1,0.7,-0.5235987755982988,0.0,0,-0.74762255,1.2958083,-0.17200491,0.025945969,0.030073043,1.5600733,-0.89632434,-0.23975478,-1.8120912,0.46600404,0.02340933,0.03947438,1.0727334,-0.31390044
0.1,0.1,0.7,-0.5235987755982988,0.0,0,-0.742363,1.3028579,-0.17591311,0.023817679,0.03478529,1.5312289,-0.90969884,0.38992116,-1.8095502,0.1804379,-0.15257633,0.03943212,1.1436833,0.41389203
0.1,0.1,0.7,-0.5235987755982988,0.0,0,-0.74016356,1.2854332,-0.18769896,0.031914607,0.040146135,1.552401,-0.8628355,-0.039594296,-1.8057625,0.3845241,-0.032959167,0.0011012563,1.2244424,-1.7559986
0.1,0.1,0.7,-0.5235987755982988,0.0,0,-0.7469294,1.2867962,-0.1911234,0.03298561,0.04630319,1.5507091,-0.8945592,-0.24343681,-1.604155,-0.052274667,-0.08149435,0.21872383,1.1264349,0.12803958
0.1,0.1,0.7,-0.5235987755982988,0.0,0,-0.74568254,1.2791673,-0.19279288,0.0430671,0.031745415,1.5507177,-0.8743664,-0.14962018,-1.8175983,-0.27962834,0.031633005,0.13628045,1.2084483,0.88528377
0.1,0.1,0.7,-0.5235987755982988,0.0,0,-0.74755293,1.2914295,-0.1839105,0.029070603,0.03137256,1.5357784,-0.9462095,0.3588746,-1.6548643,0.16577749,-0.10684719,0.09806284,1.1983267,0.27508888
0.1,0.1,0.7,-0.5235987755982988,0.0,0,-0.74301755,1.3032717,-0.18907104,0.012020813,0.039615363,1.537145,-0.9296063,0.10733104,-1.63303,-0.8041709,-0.070751615,-0.03260299,1.1687741,-0.86196995
0.1,0.1,0.7,-0.5235987755982988,0.0,0,-0.74581504,1.2895172,-0.18616788,0.040570024,0.031997655,1.5447544,-0.90682656,-0.42504713,-1.7159702,-0.46774545,-0.0022544018,0.029213758,1.2103733,-0.85147864
0.1,0.1,0.7,-0.5235987755982988,0.0,0,-0.74477255,1.291719,-0.18770863,0.03709279,0.049200486,1.5306381,-0.9039782,-0.8094045,-1.806913,0.2341051,-0.06365276,-0.12472835,1.1472882,-0.7736954
0.1,0.1,0.7,-0.5235987755982988,0.0,0,-0.7474646,1.2857392,-0.1950964,0.02554859,0.022420757,1.5470581,-0.8536463,-0.63871455,-1.728296,-0.31072548,-0.100795716,0.12006555,1.1057874,-0.081143595
0.1,0.1,0.7,-0.5235987755982988,0.0,0,-0.74234843,1.3013023,-0.19024225,0.031873345,0.039700087,1.5494463,-0.9311914,-0.20529674,-1.6647272,-0.4315698,-0.07934111,0.11549716,1.151322,-0.19393916
0.1,0.1,0.7,-0.5235987755982988,0.0,0,-0.747086,1.2842655,-0.18414563,0.022724869,0.034668546,1.5320894,-0.90998703,0.7187352,-1.6626836,0.15591486,-0.0633552,-0.10922148,1.1103606,0.0745292
0.1,0.1,0.7,-0.5235987755982988,0.0,0,-0.7451836,1.2771397,-0.18342493,0.046917543,0.051046427,1.546789,-0.903279,-0.21750993,-1.7622863,0.060102675,-0.069744445,0.11583015,1.2061646,1.1917672
0.1,0.1,0.7,-0.5235987755982988,0.0,0,-0.7474555,1.2896974,-0.19138566,0.034845635,0.04491694,1.536388,-0.9177493,1.0096079,-1.6680688,-0.2583579,-0.109649174,-0.016509425,1.1289558,-0.41056484
0.1,0.1,0.7,-0.5235987755982988,0.0,0,-0.7456302,1.2827253,-0.19555108,0.042860504,0.036322888,1.5382465,-0.85798657,-0.82947016,-1.6979557,-0.5299157,-0.077223726,0.11022952,1.1525122,0.9608937
0.1,0.1,0.7,-0.5235987755982988,0.0,0,-0.7499639,1.2873577,-0.19129838,0.028036684,0.036280222,1.5454389,-0.8941684,0.04095053,-1.7352515,-0.11017969,-0.031538587,0.04678731,1.0818534,0.45338026
0.1,0.1,0.7,-0.5235987755982988,0.0,0,-0.741794,1.288267,-0.18487652,0.05029828,0.042161446,1.5409096,-0.85881424,-0.16338632,-1.744692,0.6537157,-0.08071011,0.03999931,1.1767297,1.0601908
0.1,0.1,0.7,-0.5235987755982988,0.0,0,-0.7467968,1.2873592,-0.18476102,0.024950676,0.038859516,1.5304052,-0.91190463,0.60995203,-1.5978061,-0.41088727,-0.005790519,0.023413807,1.1733174,0.18790098
0.1,0.1,0.7,-0.5235987755982988,0.0,0,-0.74213755,1.2957643,-0.19267716,0.025578208,0.03204406,1.5432862,-0.95433235,-0.29573986,-1.8443184,-0.47267082,-0.06330322,-0.09610591,1.2214992,-0.46613872
0.1,0.1,0.7,-0.5235987755982988,0.0,0,-0.74918485,1.2870752,-0.19578551,0.03517457,0.040600576,1.5486763,-0.9122284,0.17669077,-1.6984016,-0.1529191,-0.030911162,-0.005429186,1.0962967,-1.6028416
0.1,0.1,0.7,-0.5235987755982988,0.0,0,-0.7481573,1.2913314,-0.17844105,0.028844954,0.028545395,1.557437,-0.9121275,-0.16190168,-1.6715823,0.32281187,-0.07434507,0.020689575,1.2324431,0.676812
0.1,0.1,0.7,-0.5235987755982988,0.0,0,-0.74323994,1.2937781,-0.19256487,0.032676302,0.008178495,1.5214595,-0.9038667,-0.50820076,-1.844687,0.86018467,-0.04666914,0.035568684,1.0803363,0.69929993
0.1,0.1,0.7,-0.5235987755982988,0.0,0,-0.7407109,1.2991046,-0.18022372,0.033396825,0.029038215,1.5470164,-0.8856846,-0.7233818,-1.6215577,-0.4374982,-0.07635508,0.050912414,1.1680719,1.8132201
0.1,0.1,0.7,-0.5235987755982988,0.0,0,-0.748768,1.2850096,-0.18624055,0.035885222,0.029646598,1.5395863,-0.8759142,0.37873593,-1.69018,-0.21902865,-0.04281982,-0.0039978344,1.1673517,-0.85159856
0.1,0.1,0.7,-0.5235987755982988,0.0,0,-0.7465678,1.2933774,-0.188988,0.0268104,0.031924464,1.5461212,-0.8682704,-0.5045354,-1.5447325,-0.74122596,-0.017499417,0.19915505,1.148853,-0.11014058
0.1,0.1,0.7,-0.5235987755982988,0.0,0,-0.75059694,1.2908707,-0.18937619,0.034797624,0.042749047,1.5422242,-0.88343,0.20268658,-1.7400596,-0.4488217,-0.07275686,-0.057043716,1.2023795,0.37534013
0.1,0.1,0.7,-0.5235987755982988,0.0,0,-0.7448349,1.309372,-0.18849957,0.015249105,0.038886804,1.5450536,-0.8918829,-0.6708919,-1.7305316,-0.52519035,-0.0671677,-0.16752169,1.1803402,-0.36064413
0.1,0.1,0.7,-0.5235987755982988,0.0,0,-0.7431356,1.2945688,-0.1844914,0.014753652,0.0299186,1.5338728,-0.9105764,0.7367072,-1.6975331,-0.11738433,-0.08222744,0.23297615,1.2392766,-1.7013879
0.1,0.1,0.7,-0.5235987755982988,0.0,0,-0.7457415,1.2922463,-0.1843661,0.043556955,0.034300484,1.5538023,-0.8346904,-0.34784293,-1.684657,0.21934491,-0.019354736,0.1237164,1.1330448,-0.24203141
0.1,0.1,0.7,-0.5235987755982988,0.0,0,-0.7521613,1.2946217,-0.18962796,0.027770637,0.02618773,1.5461316,-0.87001294,0.05259788,-1.7217548,0.31726494,-0.062780745,0.04169636,1.1594651,-1.187336
0.1,0.1,0.7,-0.5235987755982988,0.0,0,-0.7489318,1.2946898,-0.18630727,0.030438565,0.026083428,1.5408986,-0.94579494,-0.3541418,-1.7560924,-0.038978107,-0.02403996,0.036077153,1.1529846,0.30739263
0.1,0.1,0.7,-0.5235987755982988,0.0,0,-0.7448574,1.286449,-0.1952067,0.052276094,0.023434874,1.5397894,-0.8854859,-0.67297584,-1.6684972,-0.08871759,-0.059118394,0.12541725,1.1969663,-0.06339438
0.1,0.1,0.7,-0.5235987755982988,0.0,0,-0.7469597,1.2763219,-0.20038377,0.03189538,0.045735393,1.5353177,-0.8689665,-0.02815198,-1.6513647,-0.5115147,-0.055020172,0.032943476,1.15006,-0.9126025
0.1,0.1,0.7,-0.5235987755982988,0.0,0,-0.75572234,1.2836118,-0.18223953,0.027525388,0.023694608,1.5390753,-0.84684604,-0.3547759,-1.6225652,0.042765033,-0.050097715,0.025209691,1.1797976,0.39945537
0.1,0.1,0.7,-0.5235987755982988,0.0,0,-0.7477106,1.2886376,-0.19309507,0.03382761,0.038012523,1.5486623,-0.8743247,-0.26742384,-1.7418474,0.2277447,-0.04985926,-0.034755334,1.1688324,-0.002533147
0.1,0.1,0.7,-0.5235987755982988,0.0,0,-0.74299896,1.3012255,-0.19569518,0.03557961,0.041485105,1.5415643,-0.8844195,-0.30510098,-1.687182,0.11193262,-0.059021,-0.17235614,1.164164,0.15248369
0.1,0.1,0.7,-0.5235987755982988,0.0,0,-0.747066,1.3000102,-0.18327796,0.040381223,0.024840904,1.5384928,-0.8717761,-0.063598394,-1.7248496,-0.17353727,-0.120452054,-0.08721887,1.1555954,-0.42681688
0.1,0.1,0.7,-0.5235987755982988,0.0,0,-0.7487652,1.2991723,-0.17897017,0.031834483,0.04216328,1.5444137,-0.923047,-0.16571917,-1.6279198,-0.05045241,-0.030474436,-0.010497375,1.1343067,0.38860717
0.1,0.1,0.7,-0.5235987755982988,0.0,0,-0.7526889,1.2774312,-0.18195716,0.04073102,0.03093332,1.5290047,-0.8972905,0.34959847,-1.8648168,0.08853081,-0.034940008,0.021978054,1.205552,0.9736269
0.1,0.1,0.7,-0.5235987755982988,0.0,0,-0.7499188,1.2833426,-0.18778065,0.03803503,0.02014727,1.5518435,-0.9027021,0.39730483,-1.6021972,-0.12962624,-0.019941062,0.14614394,1.1689394,-1.2612327
0.1,0.1,0.7,-0.5235987755982988,0.0,0,-0.74574715,1.2979935,-0.18607551,0.012857659,0.02907036,1.5493131,-0.87235796,0.29911909,-1.7292588,0.193027,-0.07325329,0.025910374,1.2111146,-0.07466846
0.1,0.1,0.7,-0.5235987755982988,0.0,0,-0.7498401,1.2866001,-0.19155723,0.042824656,0.03742855,1.5519986,-0.8971906,-0.90288925,-1.6487677,-0.18623471,-0.007442773,-0.022492053,1.1211646,-0.04599646
0.1,0.1,0.7,-0.5235987755982988,0.0,0,-0.74815685,1.2858505,-0.1838518,0.051049642,0.04991293,1.5609545,-0.87209946,0.059826277,-1.7087272,-0.1966052,-0.037975352,-0.024873849,1.1606396,-0.9124134
0.1,0.1,0.7,-0.5235987755982988,0.0,0,-0.7475727,1.2985871,-0.19150661,0.03369008,0.03586177,1.5326906,-0.9171539,0.14553346,-1.7589462,0.13133083,-0.039715335,-0.0072987056,1.1400374,-0.23048948
0.1,0.1,0.7,-0.5235987755982988,0.0,0,-0.747972,1.3030983,-0.18863302,0.030289317,0.03914893,1.534238,-0.89535475,0.0316077,-1.6555654,0.3054493,-0.08683505,-0.19208924,1.1297337,-1.5454997
0.1,0.1,0.7,-0.5235987755982988,0.0,0,-0.7519703,1.2902938,-0.1957712,0.037601016,0.02101693,1.5392401,-0.86495525,-0.35814106,-1.6671689,1.1153201,-0.052637216,-0.15607455,1.1079428,0.41066855
0.1,0.1,0.7,-0.5235987755982988,0.0,0,-0.75778,1.2929611,-0.18970962,0.03866406,0.029701598,1.5456002,-0.8922794,-0.16713807,-1.6418918,0.21393418,-0.087907195,0.083545975,1.1446402,0.3461492
0.1,0.1,0.7,-0.5235987755982988,0.0,0,-0.7526459,1.2966462,-0.18839462,0.023045028,0.042398483,1.5469267,-0.8817366,-0.3667583,-1.6879855,-0.10409027,-0.09248287,0.11469527,1.1291935,-0.7263875
0.1,0.1,0.7,-0.5235987755982988,0.0,0,-0.74617624,1.28638,-0.19372779,0.045110483,0.03442056,1.5354469,-0.9243799,-0.33740726,-1.9105167,-0.17509204,0.005292331,-0.010985865,1.1055487,0.12344511
0.1,0.1,0.7,-0.5235987755982988,0.0,0,-0.74605435,1.2863258,-0.18803956,0.034174044,0.034831226,1.5428151,-0.8955391,-0.077112444,-1.6920936,-0.21644284,-0.042103205,0.11336216,1.2112763,-0.4969069
0.1,0.1,0.7,-0.5235987755982988,0.0,0,-0.7422512,1.2961107,-0.17860898,-0.0037028769,0.04051636,1.5440141,-0.869344,-1.1404332,-1.7519442,-0.6751182,-0.086690575,0.067829736,1.2017677,0.44599542
0.1,0.1,0.7,-0.5235987755982988,0.0,0,-0.7575793,1.3052548,-0.19072439,0.019496974,0.030439453,1.5512898,-0.9080218,0.15071242,-1.5899004,0.26756003,-0.045889862,0.0044003343,1.1262989,-0.09693788
0.1,0.1,0.7,-0.5235987755982988,0.0,0,-0.7499181,1.3081591,-0.19256046,0.03389401,0.044709664,1.5342726,-0.8987261,-0.5113374,-1.666489,0.012369975,-0.024727019,-0.007948475,1.1885507,0.74011296
0.1,0.1,0.7,-0.5235987755982988,0.0,0,-0.7465871,1.2939912,-0.1919098,0.013400471,0.010783743,1.5442624,-0.8745852,-0.8429147,-1.6019831,0.026877498,-0.08048056,-0.027168013,1.1497384,-0.4132087
0.1,0.1,0.7,-0.5235987755982988,0.0,0,-0.74227667,1.2865701,-0.18130766,0.004178383,0.049823523,1.5456351,-0.8881493,-0.31363046,-1.7223171,0.41370353,-0.088251375,-0.023511525,1.2106532,0.27537754
0.1,0.1,0.7,-0.5235987755982988,0.0,0,-0.74932605,1.2879602,-0.17816493,0.02553455,0.038127355,1.5330023,-0.9012519,0.09940515,-1.6380314,-0.32978684,-0.07689323,0.048652306,1.1327177,-0.24322565
0.1,0.1,0.7,-0.5235987755982988,0.0,0,-0.7452159,1.2922778,-0.18597308,0.03216044,0.0512778,1.5513875,-0.89079595,0.08779234,-1.7046124,0.3519411,-0.08277252,-0.039433036,1.1564096,0.16730976
0.1,0.1,0.7,-0.5235987755982988,0.0,0,-0.74399614,1.3048859,-0.19261906,0.033291433,0.044581756,1.554678,-0.8979327,0.0878523,-1.7460793,0.012970398,-0.05750453,0.10235379,1.1391472,-1.5969862
0.1,0.1,0.7,-0.5235987755982988,0.0,0,-0.7531437,1.2937458,-0.18186454,0.039512556,0.043336134,1.5444131,-0.90577346,-1.1814816,-1.6976465,0.38439557,0.021044252,-0.032670557,1.1713747,-1.569044
0.1,0.1,0.7,-0.5235987755982988,0.0,0,-0.7484902,1.3043033,-0.19157101,0.02916127,0.041815773,1.544448,-0.91114277,0.7401073,-1.6847568,-0.7242189,-0.063801065,0.17857596,1.0856054,-0.045203816
0.1,0.1,0.7,-0.5235987755982988,0.0,0,-0.7483413,1.2964883,-0.1908842,0.062083658,0.033721257,1.538651,-0.83494043,-0.08032816,-1.6529189,0.4217312,-0.07887,0.14717257,1.2033638,-0.0018607983
0.1,0.1,0.7,-0.5235987755982988,0.0,0,-0.7461152,1.2884617,-0.17814107,0.02147146,0.035495676,1.5450915,-0.83527684,-0.24915338,-1.7822143,0.26033297,-0.02333812,-0.020349901,1.1608988,2.0235186
0.1,0.1,0.7,-0.5235987755982988,0.0,0,-0.74273,1.2937049,-0.18706582,0.019727703,0.045009926,1.5496583,-0.88044715,-0.47305074,-1.7401259,0.8012956,-0.054917064,-0.046747237,1.1943741,0.5631948
0.1,0.1,0.7,-0.5235987755982988,0.0,0,-0.7444499,1.2888604,-0.18531518,0.02562122,0.040717203,1.539145,-0.88884574,-0.30481237,-1.8053734,0.99990046,-0.023910493,0.1514992,1.1305182,-1.4683146
0.1,0.1,0.7,-0.5235987755982988,0.0,0,-0.74417084,1.2931913,-0.18291083,0.031418014,0.047474157,1.542571,-0.922508,-0.40191394,-1.6559745,0.24171306,-0.036303658,0.004928534,1.0626737,-0.026192794
0.1,0.1,0.7,-0.5235987755982988,0.0,0,-0.74155843,1.3030123,-0.19216818,0.010870894,0.032058705,1.5520934,-0.912643,0.42730385,-1.7350876,0.7063152,-0.07789334,0.24864674,1.1830053,-0.86196333
0.1,0.1,0.7,-0.5235987755982988,0.0,0,-0.74917644,1.2830263,-0.18016466,0.03465207,0.03977035,1.5584229,-0.90088207,-0.7252596,-1.7629354,0.21955962,-0.08258791,0.09214657,1.1337372,0.0747176
0.1,0.1,0.7,-0.5235987755982988,0.0,0,-0.74783134,1.282312,-0.18871124,0.039269503,0.024848877,1.54126,-0.8884566,0.5653012,-1.7763171,-0.7418886,-0.10366708,0.11317934,1.1546419,-0.054030508
0.1,0.1,0.7,-0.5235987755982988,0.0,0,-0.7416491,1.2893518,-0.19023377,0.045729995,0.021188352,1.5530088,-0.8916138,-0.1276963,-1.7323647,0.15353487,-0.069100775,0.106347166,1.1689198,0.35737953
0.1,0.1,0.7,-0.5235987755982988,0.0,0,-0.74328214,1.2924675,-0.19210398,0.03218019,0.02480768,1.547954,-0.85650283,-0.5042266,-1.7070028,0.3806917,-0.08756286,0.11629263,1.2883378,-0.3226813
0.1,0.1,0.7,-0.5235987755982988,0.0,0,-0.7469372,1.289327,-0.19849737,0.04907156,0.03576058,1.5425417,-0.87313306,0.042449243,-1.6855491,-0.5663055,-0.058068577,-0.02711883,1.1759151,-0.18343396
0.1,0.1,0.7,-0.5235987755982988,0.0,0,-0.74138117,1.2799375,-0.18055075,0.019674214,0.04739063,1.5470215,-0.8862057,0.06977972,-1.7936656,-0.0035487674,0.04453246,-0.062043034,1.1959897,-0.36651906
0.1,0.1,0.7,-0.5235987755982988,0.0,0,-0.7478966,1.2883719,-0.18678905,0.045866806,0.03580712,1.5331842,-0.91048914,-0.13479888,-1.5703633,-0.23412967,-0.03678989,0.059252925,1.133386,-0.6856148
0.1,0.1,0.7,-0.5235987755982988,0.0,0,-0.73830473,1.2895298,-0.19062541,0.025768425,0.050994635,1.5488601,-0.86581486,-0.70228964,-1.659079,-0.15326051,-0.084281,-0.052454747,1.2050421,-0.3066891
