sanky1234/BimanualDexCatch/isaacgymenvs/cem_results/football_pose_-0.2_-0.2_0.8999999999999999_0.5235987755982988_0.0_0_2025-05-24.csv
x,y,z,roll,pitch,yaw,robot1/joint1,robot1/joint2,robot1/joint3,robot1/joint4,robot1/joint5,robot1/joint6,robot1/joint7,robot2/joint1,robot2/joint2,robot2/joint3,robot2/joint4,robot2/joint5,robot2/joint6,robot2/joint7
-0.2,-0.2,0.8999999999999999,0.5235987755982988,0.0,0,-0.58234894,1.2214174,-0.23362963,-0.07555924,0.02779102,1.3217767,-1.3102648,0.19892086,0.220516,-0.9416209,0.45824242,-0.7048422,0.6819951,-0.14854665
-0.2,-0.2,0.8999999999999999,0.5235987755982988,0.0,0,0.2531382,1.4307898,0.0986718,-0.06075255,-0.0020861127,1.2472508,-0.8471827,0.19924633,0.21883167,-0.94229287,0.45792308,-0.7018607,0.6815878,-0.16120535
-0.2,-0.2,0.8999999999999999,0.5235987755982988,0.0,0,-0.56640977,1.3905137,0.4845145,-0.02863075,-0.11051248,1.1444359,-0.21475115,0.19889507,0.22592674,-0.94195384,0.45766088,-0.6981393,0.68118286,-0.1603026
-0.2,-0.2,0.8999999999999999,0.5235987755982988,0.0,0,-0.47780675,1.5164533,0.4383671,-0.007987968,0.05299279,1.2354267,-0.93478805,0.19884144,0.21839128,-0.9424629,0.45841557,-0.70522505,0.68167245,-0.15259786
-0.2,-0.2,0.8999999999999999,0.5235987755982988,0.0,0,0.8052302,1.4054265,0.20331804,0.021577427,0.10705922,1.2878479,0.44949508,0.19751912,0.22109091,-0.94175965,0.45744622,-0.702608,0.68101,-0.16189614
-0.2,-0.2,0.8999999999999999,0.5235987755982988,0.0,0,-0.12674494,1.3792742,0.101083145,-0.06475029,-0.123965785,1.1989559,-0.9478024,0.1989837,0.22023503,-0.9421767,0.4581465,-0.7077032,0.6811117,-0.15764202
-0.2,-0.2,0.8999999999999999,0.5235987755982988,0.0,0,0.24431084,1.5018767,0.32390738,0.046347376,0.04732811,1.2643335,-0.9185253,0.19788098,0.21899424,-0.94213814,0.45763713,-0.70561725,0.68268085,-0.14737192
-0.2,-0.2,0.8999999999999999,0.5235987755982988,0.0,0,-0.7413107,1.1926459,-0.0968936,-0.10303997,-0.046387598,1.23717,-1.2427578,0.19850533,0.22067124,-0.9426753,0.45727932,-0.6991468,0.68166965,-0.14914086
-0.2,-0.2,0.8999999999999999,0.5235987755982988,0.0,0,0.9351904,1.4052452,0.097932555,-0.05322314,0.020160215,1.2072113,-0.6464972,0.1978539,0.21725745,-0.94223905,0.457966,-0.7052547,0.680837,-0.15609021
-0.2,-0.2,0.8999999999999999,0.5235987755982988,0.0,0,-0.65897423,1.3039544,0.17586575,0.034879267,-0.008819678,1.2332579,-0.89403105,0.19966026,0.22296508,-0.94250375,0.45743632,-0.7020469,0.6825471,-0.15058081
-0.2,-0.2,0.8999999999999999,0.5235987755982988,0.0,0,0.12770416,1.2911401,0.50838524,-0.053488206,0.14450666,1.3132455,-1.5684781,0.19984818,0.2203927,-0.9429258,0.45747748,-0.7063487,0.683142,-0.1521123
-0.2,-0.2,0.8999999999999999,0.5235987755982988,0.0,0,1.0951331,1.1870382,0.3803613,-0.006009289,-0.029784836,1.1456951,0.3456344,0.19927064,0.21784733,-0.94282925,0.45779556,-0.7071424,0.6828302,-0.15300423
-0.2,-0.2,0.8999999999999999,0.5235987755982988,0.0,0,-0.061913762,1.258967,-0.2392575,-0.033693567,-0.16578694,1.1917057,-1.0131998,0.19959256,0.21648505,-0.9425275,0.4587873,-0.7072871,0.6809957,-0.15403332
-0.2,-0.2,0.8999999999999999,0.5235987755982988,0.0,0,0.35264066,1.4643279,-0.09614824,-0.11991567,0.07552889,1.3302648,-0.6467783,0.19731522,0.21993215,-0.9415298,0.45895132,-0.7012889,0.6797222,-0.16262867
-0.2,-0.2,0.8999999999999999,0.5235987755982988,0.0,0,-0.4726572,1.268506,-0.06915711,-0.074193224,0.10169951,1.2812313,-0.2341061,0.19707273,0.22083616,-0.9416703,0.45799056,-0.70223594,0.68022263,-0.15683427
-0.2,-0.2,0.8999999999999999,0.5235987755982988,0.0,0,0.49050716,1.3300052,-0.21607561,-0.030728377,-0.15117344,1.1969283,-0.8787042,0.19807129,0.2218378,-0.9418403,0.45831236,-0.70130366,0.68093264,-0.15865141
-0.2,-0.2,0.8999999999999999,0.5235987755982988,0.0,0,0.22432359,1.355191,-0.50912493,-0.030914031,-0.019289827,1.2953675,-1.9972715,0.19931327,0.21738529,-0.9434929,0.45843524,-0.7026002,0.68136275,-0.15895057
-0.2,-0.2,0.8999999999999999,0.5235987755982988,0.0,0,-0.39666283,1.2192414,0.67655736,-0.023956368,0.198509,1.1952223,-0.826505,0.19989093,0.22016421,-0.942441,0.45745736,-0.7062591,0.6785081,-0.15150857
-0.2,-0.2,0.8999999999999999,0.5235987755982988,0.0,0,0.2115175,1.3674066,0.0769685,-0.06442317,0.038305927,1.1829168,0.8088436,0.19884022,0.22284791,-0.9423797,0.45812696,-0.70150626,0.6809746,-0.14637642
-0.2,-0.2,0.8999999999999999,0.5235987755982988,0.0,0,0.06892182,1.2708395,-0.045893673,0.04634184,-0.11355502,1.2605319,0.72677284,0.19907475,0.22202475,-0.9421923,0.45796782,-0.6986213,0.68348205,-0.14637882
-0.2,-0.2,0.8999999999999999,0.5235987755982988,0.0,0,-0.25317627,1.3349714,-0.32414424,-0.04599257,-0.10636244,1.0782716,-0.43442184,0.19707099,0.22073795,-0.94249123,0.4574598,-0.70901275,0.68175614,-0.15365778
-0.2,-0.2,0.8999999999999999,0.5235987755982988,0.0,0,0.09932469,1.4269489,0.026045425,0.027856356,-0.048701588,1.2687184,0.51404333,0.19664226,0.21849324,-0.94179136,0.45769808,-0.70112896,0.6811114,-0.17204875
-0.2,-0.2,0.8999999999999999,0.5235987755982988,0.0,0,0.43008563,1.3610318,-0.09428763,-0.037971087,0.15115082,1.3049691,-1.4933577,0.19893621,0.21953094,-0.94257665,0.45848382,-0.70092833,0.6829373,-0.14450915
-0.2,-0.2,0.8999999999999999,0.5235987755982988,0.0,0,-0.1010139,1.3325456,0.2880884,0.020064292,-0.2117513,1.3055426,-0.38651407,0.19993617,0.22244455,-0.9417947,0.45764595,-0.7100135,0.679079,-0.14538795
-0.2,-0.2,0.8999999999999999,0.5235987755982988,0.0,0,-0.7978882,1.5284066,0.21473639,0.018827697,0.10312903,1.276067,-0.5335519,0.19780219,0.22053157,-0.942813,0.4579004,-0.70295566,0.6825946,-0.1569284
-0.2,-0.2,0.8999999999999999,0.5235987755982988,0.0,0,-0.46271545,1.4279704,-0.049503792,-0.02695027,0.16153252,1.2372061,-0.78305405,0.19948703,0.2183596,-0.94112885,0.4570548,-0.7087033,0.6795903,-0.16010366
-0.2,-0.2,0.8999999999999999,0.5235987755982988,0.0,0,0.09808323,1.3083341,-0.16393034,0.002584297,-0.1263455,1.2800912,-0.31290632,0.19862467,0.21938822,-0.9424566,0.4584356,-0.7033372,0.682084,-0.164357
-0.2,-0.2,0.8999999999999999,0.5235987755982988,0.0,0,-0.901398,1.2981356,0.4047172,-0.038129997,0.013049876,1.2910739,0.40793023,0.19921483,0.21926689,-0.9410599,0.4572465,-0.70866716,0.6798238,-0.14869232
-0.2,-0.2,0.8999999999999999,0.5235987755982988,0.0,0,-0.6449729,1.2645187,0.103922226,-0.025625112,0.19210395,1.2295908,-0.3238836,0.19895175,0.22078286,-0.9426659,0.45840693,-0.7017923,0.6819944,-0.14473677
-0.2,-0.2,0.8999999999999999,0.5235987755982988,0.0,0,1.1642642,1.4438164,-0.48628685,-0.003640119,0.037591446,1.2619131,0.15431058,0.19991273,0.21919733,-0.9416252,0.45791385,-0.70539194,0.6793577,-0.15598117
-0.2,-0.2,0.8999999999999999,0.5235987755982988,0.0,0,-0.6000811,1.4085358,0.24150413,-0.07863896,-0.03391334,1.2283974,0.0056974646,0.19913235,0.21423526,-0.9412705,0.45730323,-0.70490605,0.67935634,-0.16345221
-0.2,-0.2,0.8999999999999999,0.5235987755982988,0.0,0,-0.17910658,1.3340569,-0.12916227,-0.073212095,-0.1307918,1.2389736,0.31953534,0.1984982,0.22082372,-0.94249594,0.45788953,-0.7045756,0.68270904,-0.14844677
-0.2,-0.2,0.8999999999999999,0.5235987755982988,0.0,0,0.67392606,1.4088024,0.2810918,-0.076954074,-0.14983314,1.2607113,-0.9004431,0.19927813,0.21893795,-0.9425421,0.45774066,-0.7044057,0.67865556,-0.15699495
-0.2,-0.2,0.8999999999999999,0.5235987755982988,0.0,0,-0.64538085,1.2713412,-0.100220375,-0.010695666,0.038651492,1.3500123,-0.74512804,0.20070986,0.2186741,-0.94138604,0.45758918,-0.70647323,0.6810042,-0.15669887
-0.2,-0.2,0.8999999999999999,0.5235987755982988,0.0,0,-0.9953028,1.3752698,-0.09509017,-0.05507961,-0.098173566,1.3958527,0.120935455,0.19843403,0.21806115,-0.9431545,0.4574679,-0.7054365,0.67979825,-0.14308795
-0.2,-0.2,0.8999999999999999,0.5235987755982988,0.0,0,0.37256947,1.4105439,-0.16086179,-0.006677076,0.113081865,1.2474174,-0.7286933,0.1994792,0.22028886,-0.9420201,0.45781144,-0.70924157,0.6793888,-0.1482482
-0.2,-0.2,0.8999999999999999,0.5235987755982988,0.0,0,-0.5604317,1.3863947,-0.19466051,-0.06540481,-0.29870722,1.3250678,-0.52267945,0.19796175,0.2192314,-0.9421587,0.45893982,-0.70494676,0.6823884,-0.16803646
-0.2,-0.2,0.8999999999999999,0.5235987755982988,0.0,0,0.68698066,1.374489,0.13551104,0.076216206,0.004860932,1.2517887,-0.39730182,0.19885427,0.21878302,-0.94024545,0.45821002,-0.70603347,0.68032366,-0.1695213
-0.2,-0.2,0.8999999999999999,0.5235987755982988,0.0,0,0.27673542,1.3067055,-0.18504323,-0.061982047,-0.17078929,1.2302123,-0.91016406,0.19933674,0.22074714,-0.94128793,0.4581039,-0.7090355,0.6786018,-0.14713226
-0.2,-0.2,0.8999999999999999,0.5235987755982988,0.0,0,0.51183903,1.2759087,0.13187142,0.004985615,0.008399894,1.2663858,-0.80945843,0.19905685,0.21827152,-0.942056,0.45747948,-0.7040842,0.6796526,-0.15627623
-0.2,-0.2,0.8999999999999999,0.5235987755982988,0.0,0,0.103990905,1.1883842,-0.49314263,-0.029012363,0.17659089,1.2170097,0.034917884,0.19923508,0.22155006,-0.9412291,0.4585824,-0.7017341,0.6789108,-0.15709192
-0.2,-0.2,0.8999999999999999,0.5235987755982988,0.0,0,0.40842506,1.3829668,0.25914228,0.08021382,-0.06219967,1.251302,-0.027226947,0.19979142,0.22112386,-0.9419494,0.45777178,-0.70402706,0.6805352,-0.15740661
-0.2,-0.2,0.8999999999999999,0.5235987755982988,0.0,0,-0.0025442445,1.3806136,-0.0058260243,0.029958759,0.033731494,1.2633938,-1.7925633,0.19819643,0.2175466,-0.94137853,0.4576411,-0.70221,0.67979807,-0.15717998
-0.2,-0.2,0.8999999999999999,0.5235987755982988,0.0,0,-0.5740362,1.3584402,0.08537713,-0.04550311,0.006526799,1.2978435,-0.2083721,0.19812104,0.22254322,-0.94261175,0.45867226,-0.70388097,0.6817975,-0.1501155
-0.2,-0.2,0.8999999999999999,0.5235987755982988,0.0,0,0.7050348,1.5922779,-0.05025992,-0.038410474,-0.1764761,1.2163639,-1.040095,0.19941756,0.21798919,-0.94218606,0.4579441,-0.70288956,0.67984146,-0.15275775
-0.2,-0.2,0.8999999999999999,0.5235987755982988,0.0,0,-0.06503881,1.3281939,0.22183064,-0.017384354,0.15547396,1.2333882,-1.1542839,0.19884004,0.2177157,-0.9417361,0.4570913,-0.7107888,0.68075866,-0.15671632
-0.2,-0.2,0.8999999999999999,0.5235987755982988,0.0,0,0.65794235,1.3099443,0.4273826,-0.034099452,0.057647645,1.1606358,-0.57441384,0.19955987,0.22097899,-0.9421889,0.45754927,-0.70452815,0.6798968,-0.159269
-0.2,-0.2,0.8999999999999999,0.5235987755982988,0.0,0,0.7655041,1.4936104,-0.05309177,-0.049175337,0.03226886,1.2348863,-1.8966924,0.19896424,0.21997161,-0.9417298,0.45782042,-0.7009799,0.6798533,-0.1555324
-0.2,-0.2,0.8999999999999999,0.5235987755982988,0.0,0,0.027957935,1.4764007,-0.28498936,0.007818706,0.06734882,1.2562236,-0.7621593,0.1990416,0.22158529,-0.9411575,0.45723855,-0.70598596,0.6820335,-0.15367074
-0.2,-0.2,0.8999999999999999,0.5235987755982988,0.0,0,-0.26220903,1.4641685,0.079599015,-0.014989946,0.03408367,1.23114,-1.3942227,0.19979237,0.21885116,-0.9425134,0.45757186,-0.7036284,0.68081266,-0.15896724
-0.2,-0.2,0.8999999999999999,0.5235987755982988,0.0,0,-0.91042614,1.4706511,-0.55390453,-0.014023098,0.16999383,1.2063048,0.28534186,0.1994416,0.2172196,-0.94116104,0.45776775,-0.7017711,0.68106455,-0.14179502
-0.2,-0.2,0.8999999999999999,0.5235987755982988,0.0,0,0.3305574,1.2885863,0.22381268,-0.08245127,-0.2304905,1.2625053,1.2020577,0.19971266,0.22361518,-0.9425323,0.4576273,-0.7062516,0.6795493,-0.14112084
-0.2,-0.2,0.8999999999999999,0.5235987755982988,0.0,0,-0.046501596,1.3625015,0.04113387,-0.060990438,0.077391766,1.2714362,-0.9189992,0.19953102,0.21711192,-0.94176316,0.4582504,-0.70762175,0.678997,-0.14363784
-0.2,-0.2,0.8999999999999999,0.5235987755982988,0.0,0,0.7489062,1.3357892,0.028219283,-0.067356996,0.15686584,1.3620945,0.7793146,0.19984107,0.21996447,-0.94134206,0.45804223,-0.7093443,0.68112165,-0.15896305
-0.2,-0.2,0.8999999999999999,0.5235987755982988,0.0,0,-0.7581955,1.361986,0.009164078,0.011948598,-0.02697454,1.1756654,-0.7453289,0.19990635,0.21949185,-0.9417867,0.45797247,-0.7033887,0.68072486,-0.16191016
-0.2,-0.2,0.8999999999999999,0.5235987755982988,0.0,0,-0.2868565,1.244866,-0.3487795,-0.047865592,0.13388033,1.3249574,-0.91001135,0.19928114,0.22048016,-0.94218373,0.45818165,-0.7096012,0.68118876,-0.15267706
-0.2,-0.2,0.8999999999999999,0.5235987755982988,0.0,0,-0.20208187,1.4384869,0.051149316,-0.04771478,-0.004587699,1.2648426,-0.6895372,0.19816753,0.22121549,-0.9418465,0.4580345,-0.70574284,0.6790834,-0.17208461
-0.2,-0.2,0.8999999999999999,0.5235987755982988,0.0,0,-0.7941799,1.2569169,0.46469143,-0.04386069,0.008035096,1.1537057,-1.7699845,0.19922435,0.22218463,-0.94135374,0.4581053,-0.7101332,0.6801114,-0.1693617
-0.2,-0.2,0.8999999999999999,0.5235987755982988,0.0,0,0.3966759,1.4847751,0.01903803,-0.11623621,0.23952438,1.2531896,-1.0283874,0.19850779,0.22072221,-0.9422933,0.45752048,-0.70894957,0.6792056,-0.1623534
-0.2,-0.2,0.8999999999999999,0.5235987755982988,0.0,0,-0.1882006,1.2159402,-0.00095642736,0.022060035,0.0031404626,1.3328305,-0.49106082,0.1989793,0.21723667,-0.9421521,0.4575948,-0.7048903,0.6808827,-0.15621525
-0.2,-0.2,0.8999999999999999,0.5235987755982988,0.0,0,-0.28651488,1.2400157,-0.31468946,-0.037253685,-0.0046487353,1.2314935,-1.4542164,0.20093374,0.2171259,-0.94358957,0.45748925,-0.7023648,0.680199,-0.14423645
-0.2,-0.2,0.8999999999999999,0.5235987755982988,0.0,0,0.6984114,1.4353818,0.18641244,0.0563719,0.04906703,1.1235064,1.050298,0.19846511,0.216173,-0.9417259,0.45848283,-0.7077807,0.679609,-0.16276072
-0.2,-0.2,0.8999999999999999,0.5235987755982988,0.0,0,-0.29336777,1.3722984,0.10772362,-0.0047864155,-0.13305514,1.3712536,-0.9278488,0.19937414,0.21734217,-0.9423672,0.4576588,-0.70207053,0.6804072,-0.1600206
-0.2,-0.2,0.8999999999999999,0.5235987755982988,0.0,0,-0.29495448,1.2506589,-0.13899572,-0.07305066,-0.17454694,1.2110692,-0.6547121,0.19727042,0.21781984,-0.9422276,0.45764863,-0.7055735,0.6784466,-0.14448483
-0.2,-0.2,0.8999999999999999,0.5235987755982988,0.0,0,-0.17260273,1.4017382,0.055053297,-0.030252269,-0.16347763,1.2606988,-0.40781793,0.19834298,0.21778847,-0.9414199,0.45853096,-0.70332503,0.6790773,-0.16453843
-0.2,-0.2,0.8999999999999999,0.5235987755982988,0.0,0,-0.030241525,1.399316,-0.7600858,-0.02225219,-0.079659216,1.334617,0.63691664,0.20018266,0.22154269,-0.9438544,0.45784223,-0.70376754,0.67987126,-0.15185949
-0.2,-0.2,0.8999999999999999,0.5235987755982988,0.0,0,0.9396317,1.3153414,0.017658874,0.004923539,-0.061722845,1.2897704,-0.7037122,0.19904497,0.21743204,-0.9430899,0.45743266,-0.6996054,0.6796879,-0.14372556
-0.2,-0.2,0.8999999999999999,0.5235987755982988,0.0,0,-0.11003774,1.3348511,-0.002215794,-0.052995168,0.17532814,1.3634769,-1.3646129,0.19970565,0.21852462,-0.94142365,0.45779446,-0.70178276,0.6816679,-0.15657558
-0.2,-0.2,0.8999999999999999,0.5235987755982988,0.0,0,0.22374779,1.2336338,-0.3244328,-0.027514039,0.121289946,1.3502064,-1.2221766,0.19806632,0.21966356,-0.9411699,0.4576015,-0.70443225,0.6806786,-0.18397108
-0.2,-0.2,0.8999999999999999,0.5235987755982988,0.0,0,-0.33241743,1.2789909,-0.31357148,-0.058740582,-0.07330331,1.2739714,-1.7503641,0.19868469,0.21896385,-0.94214827,0.45739162,-0.7032189,0.67970324,-0.15163653
-0.2,-0.2,0.8999999999999999,0.5235987755982988,0.0,0,0.95772403,1.434629,0.15301973,0.018985298,0.36840576,1.2379714,-1.0031681,0.19987905,0.2208632,-0.9414207,0.45797667,-0.70876914,0.68240273,-0.14629905
-0.2,-0.2,0.8999999999999999,0.5235987755982988,0.0,0,-0.9136967,1.2546384,0.02845934,0.014381358,-0.06681634,1.2611756,-0.59958583,0.19892623,0.2190663,-0.9419239,0.4571801,-0.71060634,0.68091935,-0.1601167
-0.2,-0.2,0.8999999999999999,0.5235987755982988,0.0,0,0.23982964,1.428684,-0.0991033,-0.0053373273,-0.17631963,1.1836587,0.14401133,0.1994049,0.22204502,-0.94341123,0.458576,-0.7012123,0.67968464,-0.16991411
-0.2,-0.2,0.8999999999999999,0.5235987755982988,0.0,0,-0.45193985,1.3394554,-0.211407,-0.0088592805,-0.09237164,1.2335913,-0.8078622,0.19971648,0.2184774,-0.94247633,0.45785752,-0.7063348,0.6800667,-0.16538028
-0.2,-0.2,0.8999999999999999,0.5235987755982988,0.0,0,0.005343856,1.4240148,0.04836654,-0.0063036983,-0.048105717,1.2709775,-0.9586021,0.2005439,0.21962334,-0.94233114,0.45831105,-0.7028924,0.6814994,-0.14909533
-0.2,-0.2,0.8999999999999999,0.5235987755982988,0.0,0,0.07878353,1.3020974,-0.27674487,0.011089373,-0.05444427,1.2060763,-0.55038816,0.1989717,0.21716791,-0.94319415,0.45766556,-0.70769197,0.6789426,-0.16916525
-0.2,-0.2,0.8999999999999999,0.5235987755982988,0.0,0,-0.4509731,1.2380335,0.10731398,-0.043591663,0.035750188,1.1426885,-0.0067043616,0.1985882,0.21699138,-0.9418169,0.4577559,-0.7019802,0.68089795,-0.15235417
-0.2,-0.2,0.8999999999999999,0.5235987755982988,0.0,0,-0.141912,1.4199778,-0.42741194,-0.063751265,-0.0040259776,1.3047876,-2.3827684,0.19786836,0.21535876,-0.9417459,0.45753,-0.70579636,0.68287885,-0.16651899
-0.2,-0.2,0.8999999999999999,0.5235987755982988,0.0,0,0.20956422,1.4536178,0.2524326,0.01217818,-0.09522487,1.1054809,-0.34942758,0.19909197,0.22249122,-0.94189185,0.45815107,-0.7049724,0.68105286,-0.15518339
-0.2,-0.2,0.8999999999999999,0.5235987755982988,0.0,0,0.8545898,1.5247526,0.18043917,0.02490806,-0.05407142,1.2056767,0.6516855,0.1991371,0.22039814,-0.9413734,0.45857126,-0.7078524,0.68131477,-0.1566151
-0.2,-0.2,0.8999999999999999,0.5235987755982988,0.0,0,-0.3122415,1.3355808,-0.309061,0.060921833,0.023294857,1.2215245,-0.94772464,0.19894141,0.21843497,-0.94206166,0.45758697,-0.70697355,0.6812223,-0.15400091
-0.2,-0.2,0.8999999999999999,0.5235987755982988,0.0,0,1.1584842,1.4851372,0.061635587,-0.03763831,-0.083421074,1.1959819,0.3839413,0.19786295,0.21977924,-0.9408059,0.45912033,-0.70877385,0.6795808,-0.1505374
-0.2,-0.2,0.8999999999999999,0.5235987755982988,0.0,0,-0.2870513,1.2899814,0.003009168,-0.063724704,0.009784441,1.2695117,-0.6402722,0.19942082,0.22293237,-0.94363946,0.45743746,-0.6994939,0.6807596,-0.16523103
-0.2,-0.2,0.8999999999999999,0.5235987755982988,0.0,0,-0.5850512,1.3201724,-0.09690798,-0.014870486,0.11834844,1.2354382,-0.19306146,0.20095679,0.22150257,-0.94132656,0.4584983,-0.701459,0.6817592,-0.15608005
-0.2,-0.2,0.8999999999999999,0.5235987755982988,0.0,0,0.05364486,1.4796468,0.04449864,-0.09839753,0.014760978,1.1412586,-0.91772765,0.19827956,0.21824235,-0.94380075,0.45853615,-0.7022729,0.6793278,-0.15763511
-0.2,-0.2,0.8999999999999999,0.5235987755982988,0.0,0,-0.18396144,1.2329515,0.30801466,-0.019069847,-0.15524666,1.2824742,0.0015470821,0.1994749,0.21555714,-0.94193155,0.4584891,-0.7048243,0.6813723,-0.15743762
-0.2,-0.2,0.8999999999999999,0.5235987755982988,0.0,0,-0.5065166,1.3465313,0.26428476,0.0549596,-0.1101017,1.1801422,-1.8378234,0.19849831,0.22312649,-0.94257396,0.45755157,-0.7069894,0.680187,-0.15988179
-0.2,-0.2,0.8999999999999999,0.5235987755982988,0.0,0,-0.067976646,1.2761002,-0.019522741,-0.1392219,-0.058447585,1.2738656,-1.2936704,0.1988544,0.2184229,-0.94306093,0.4574817,-0.7075915,0.6792816,-0.16484562
-0.2,-0.2,0.8999999999999999,0.5235987755982988,0.0,0,0.88659006,1.4688396,-0.18894583,-0.08496384,0.01192322,1.2044413,-0.7212345,0.19972426,0.21827495,-0.9423834,0.45870104,-0.6998284,0.6803746,-0.1382661
-0.2,-0.2,0.8999999999999999,0.5235987755982988,0.0,0,0.2081704,1.2082798,-0.071857065,0.0023308008,-0.18666853,1.2265917,-0.018822499,0.20000856,0.22112189,-0.94348806,0.45726106,-0.7084629,0.6800191,-0.1721613
-0.2,-0.2,0.8999999999999999,0.5235987755982988,0.0,0,-0.15948552,1.4741448,0.12157941,-0.0388608,0.046791308,1.2298635,-1.6245257,0.1980314,0.21857132,-0.942112,0.4578612,-0.69775367,0.67946255,-0.15310551
-0.2,-0.2,0.8999999999999999,0.5235987755982988,0.0,0,0.42875755,1.2279153,0.048252013,-0.09135874,-0.12812074,1.1220553,0.47402987,0.19886215,0.21791239,-0.9423324,0.45791787,-0.6999326,0.6802685,-0.14074163
-0.2,-0.2,0.8999999999999999,0.5235987755982988,0.0,0,0.13754225,1.3119458,-0.15162583,0.042205893,0.084817074,1.3001382,-0.90762365,0.19915655,0.22006707,-0.942489,0.45876035,-0.700105,0.6815862,-0.16052394
-0.2,-0.2,0.8999999999999999,0.5235987755982988,0.0,0,0.787374,1.2755026,-0.065981634,0.085222505,0.03152715,1.2451454,-0.96088743,0.19836518,0.2200196,-0.9424665,0.4584629,-0.7047507,0.68072975,-0.14874357
-0.2,-0.2,0.8999999999999999,0.5235987755982988,0.0,0,-0.6269446,1.4055264,-0.31903934,-0.0010772257,-0.013718486,1.2336667,1.1761855,0.19892442,0.21794331,-0.9415186,0.45806444,-0.70074606,0.6811457,-0.17510042
-0.2,-0.2,0.8999999999999999,0.5235987755982988,0.0,0,-0.55360883,1.2988877,0.15378141,-0.024764905,-0.10791855,1.2427535,-0.072788805,0.19914153,0.2195888,-0.9430247,0.45759782,-0.7015587,0.6807828,-0.15449916
-0.2,-0.2,0.8999999999999999,0.5235987755982988,0.0,0,0.1746037,1.3964715,0.25498685,0.013139269,0.026439013,1.2707049,-1.3841419,0.19900218,0.21996729,-0.9412044,0.45826042,-0.70515764,0.68081796,-0.1580428
-0.2,-0.2,0.8999999999999999,0.5235987755982988,0.0,0,0.2984097,1.3046656,0.04051162,-0.046256103,-0.18578368,1.1955588,-0.97237885,0.19931835,0.22211604,-0.9424865,0.4578326,-0.70515937,0.67971444,-0.17298362
-0.2,-0.2,0.8999999999999999,0.5235987755982988,0.0,0,-0.06515832,1.4373623,-0.06451995,-0.04085984,-0.049127884,1.2618856,-1.3172524,0.19935709,0.21873052,-0.9420746,0.4579419,-0.7026038,0.68163586,-0.14539866
-0.2,-0.2,0.8999999999999999,0.5235987755982988,0.0,0,-0.059363283,1.3415439,0.11426588,-0.086861596,0.1416508,1.2378294,0.09465095,0.19872285,0.22074759,-0.941849,0.4582689,-0.7024839,0.6802222,-0.14192843
-0.2,-0.2,0.8999999999999999,0.5235987755982988,0.0,0,-0.13819022,1.2719183,-0.096519396,-0.05236323,-0.093099214,1.2674723,0.11055108,0.19955596,0.21998914,-0.94222224,0.4580894,-0.69925714,0.68087804,-0.14405644
-0.2,-0.2,0.8999999999999999,0.5235987755982988,0.0,0,-0.044115473,1.5040745,0.024404587,-0.02692591,-0.092978306,1.2448562,0.74480975,0.19892031,0.21741761,-0.94267046,0.45821095,-0.7000549,0.6808512,-0.15866587
-0.2,-0.2,0.8999999999999999,0.5235987755982988,0.0,0,0.116067715,1.3220987,0.23928447,-0.06638375,-0.11134586,1.2160968,-0.13053314,0.19954398,0.2214781,-0.94390875,0.45784163,-0.70438814,0.67993057,-0.14085352
-0.2,-0.2,0.8999999999999999,0.5235987755982988,0.0,0,-0.55074495,1.3260729,-0.08985466,-0.027309272,0.06792542,1.1939248,-1.051702,0.19717982,0.22151367,-0.9424088,0.45794472,-0.70147115,0.6782825,-0.14856064
-0.2,-0.2,0.8999999999999999,0.5235987755982988,0.0,0,0.26840279,1.4359374,0.23832023,-0.061142083,-0.15320916,1.2423476,-1.2702918,0.19865121,0.22110796,-0.9420877,0.45776144,-0.71136904,0.67934775,-0.17283776
-0.2,-0.2,0.8999999999999999,0.5235987755982988,0.0,0,1.4799666,1.3894321,-0.12940173,0.05906028,-0.19722019,1.2814941,-0.59837514,0.19931209,0.22138816,-0.9425583,0.45826858,-0.6953331,0.68006283,-0.15128383
-0.2,-0.2,0.8999999999999999,0.5235987755982988,0.0,0,-0.2265081,1.3350546,-0.020466382,-0.052053172,0.076730736,1.3116587,-1.1390826,0.19921869,0.21979779,-0.9427333,0.45850512,-0.70012957,0.6800237,-0.15359874
-0.2,-0.2,0.8999999999999999,0.5235987755982988,0.0,0,-0.3078016,1.411309,-0.14974178,-0.03613828,-0.07536435,1.2313132,-0.18286282,0.19961028,0.22248267,-0.94353527,0.4573269,-0.70261604,0.68182504,-0.14918096
-0.2,-0.2,0.8999999999999999,0.5235987755982988,0.0,0,0.33640063,1.2783364,0.009289157,-0.03652874,-0.16336556,1.1990359,-2.5217354,0.1984319,0.22133623,-0.94180846,0.45801267,-0.70965874,0.6804157,-0.16180713
-0.2,-0.2,0.8999999999999999,0.5235987755982988,0.0,0,0.42365158,1.490582,0.428108,-0.068919696,-0.11331013,1.2707502,-1.3908614,0.19872849,0.21777439,-0.94368565,0.45823002,-0.7050051,0.6795482,-0.14866734
-0.2,-0.2,0.8999999999999999,0.5235987755982988,0.0,0,-0.05423155,1.3938016,-0.07093297,-0.07703508,-0.060728487,1.3152444,-0.25045872,0.19841729,0.2208114,-0.9409376,0.45873123,-0.7086042,0.681436,-0.14570192
-0.2,-0.2,0.8999999999999999,0.5235987755982988,0.0,0,-0.036644544,1.3237482,0.057666674,0.0016454039,-0.03302707,1.2377505,0.5201579,0.19859394,0.21746877,-0.9416612,0.4578887,-0.6941718,0.6813162,-0.16325761
-0.2,-0.2,0.8999999999999999,0.5235987755982988,0.0,0,-0.30156356,1.2117635,-0.09110998,-0.05404897,0.04409701,1.28223,0.38361332,0.19886516,0.21965007,-0.942046,0.4578864,-0.6990896,0.6810984,-0.14178187
-0.2,-0.2,0.8999999999999999,0.5235987755982988,0.0,0,0.29232535,1.2903103,0.14500691,-0.09384628,0.15120636,1.2364037,0.25002488,0.19763061,0.22031082,-0.9409269,0.4582809,-0.70163554,0.68087524,-0.161896
-0.2,-0.2,0.8999999999999999,0.5235987755982988,0.0,0,-0.522948,1.4501535,-0.15431264,-0.042961724,-0.10992088,1.214323,-2.4193852,0.19847175,0.22113143,-0.9411562,0.45837358,-0.7063177,0.6818764,-0.15931956
-0.2,-0.2,0.8999999999999999,0.5235987755982988,0.0,0,0.26025397,1.345641,0.12829721,-0.03786847,0.061169844,1.231518,-1.0344429,0.20051621,0.21649225,-0.9441092,0.45781636,-0.70406085,0.6812774,-0.14602564
-0.2,-0.2,0.8999999999999999,0.5235987755982988,0.0,0,0.40360302,1.354037,-0.09371347,-0.06476507,0.11172027,1.2912617,-0.31375065,0.1988475,0.2221437,-0.94253373,0.45761487,-0.7074819,0.68147814,-0.1328901
-0.2,-0.2,0.8999999999999999,0.5235987755982988,0.0,0,0.9650993,1.3471311,0.46492362,-0.0685696,-0.041091807,1.3043054,-1.2379172,0.19865218,0.21807778,-0.9428959,0.45792788,-0.70876217,0.6808884,-0.15299676
-0.2,-0.2,0.8999999999999999,0.5235987755982988,0.0,0,0.34113228,1.2055442,0.1735033,-0.08068846,0.0051920568,1.29111,-2.006327,0.1980258,0.2190127,-0.9408208,0.45833725,-0.7017559,0.6813908,-0.15788773
-0.2,-0.2,0.8999999999999999,0.5235987755982988,0.0,0,0.7690248,1.1749772,-0.21703851,0.02799151,0.13559689,1.2675607,0.12557758,0.19827725,0.2197988,-0.9416484,0.45783076,-0.702494,0.6823033,-0.15416402
-0.2,-0.2,0.8999999999999999,0.5235987755982988,0.0,0,-0.57685167,1.3605075,0.3105813,0.031385265,0.010366701,1.2142553,-2.1816602,0.19886735,0.21874478,-0.94371915,0.45816827,-0.7010211,0.67980146,-0.14171912
-0.2,-0.2,0.8999999999999999,0.5235987755982988,0.0,0,0.16503564,1.4071506,0.17299804,-0.089719735,-0.12777515,1.1734924,-1.1311365,0.20009814,0.22156805,-0.94298977,0.45832667,-0.7067404,0.68139046,-0.13906495
-0.2,-0.2,0.8999999999999999,0.5235987755982988,0.0,0,-0.24222502,1.3832638,-0.014794042,-0.03495397,-0.026866317,1.2628436,0.76466113,0.19903241,0.2196025,-0.9416328,0.45799404,-0.70605284,0.68246436,-0.15068467
-0.2,-0.2,0.8999999999999999,0.5235987755982988,0.0,0,-0.058907647,1.3743767,0.19270898,-0.08083802,0.06596356,1.254232,-1.230205,0.19850846,0.22000712,-0.9427574,0.45818385,-0.70890665,0.68237424,-0.16810597
-0.2,-0.2,0.8999999999999999,0.5235987755982988,0.0,0,-0.12220443,1.1434711,0.48697948,-0.056988053,0.10786066,1.2384862,-0.71748775,0.19768462,0.21770953,-0.9416112,0.45849106,-0.70411915,0.681231,-0.15480073
-0.2,-0.2,0.8999999999999999,0.5235987755982988,0.0,0,-0.20941103,1.2776784,-0.06795355,-0.085895605,0.025841162,1.2080305,-0.46847364,0.19920975,0.21928044,-0.9427432,0.45790055,-0.70531166,0.6807947,-0.15593047
-0.2,-0.2,0.8999999999999999,0.5235987755982988,0.0,0,-0.49125406,1.2969024,0.14070368,-0.01252532,0.067075506,1.3006864,0.15080641,0.19805062,0.2207,-0.9415762,0.4575085,-0.70540214,0.6820865,-0.15012833
-0.2,-0.2,0.8999999999999999,0.5235987755982988,0.0,0,0.07371211,1.2781687,-0.14083907,-0.04520775,-0.00058058987,1.3318528,0.1400617,0.19842306,0.22259031,-0.9419287,0.45802683,-0.706176,0.68077296,-0.16749494
-0.2,-0.2,0.8999999999999999,0.5235987755982988,0.0,0,-0.3982601,1.2918434,0.07426746,-0.007428489,0.09160213,1.3574516,0.58826953,0.19847363,0.21938668,-0.9420483,0.45816955,-0.7081636,0.6810803,-0.1608116
-0.2,-0.2,0.8999999999999999,0.5235987755982988,0.0,0,-0.43884492,1.2222902,-0.03058755,-0.00018688112,0.07535055,1.4294153,-1.9978614,0.19841436,0.21814397,-0.9425115,0.45730716,-0.7046654,0.68278277,-0.1511305
-0.2,-0.2,0.8999999999999999,0.5235987755982988,0.0,0,-0.25394115,1.4862106,0.35357705,-0.040055715,-0.12121179,1.2494191,-1.3214209,0.19810821,0.21789207,-0.9420542,0.45792797,-0.6996934,0.68198794,-0.16142106
-0.2,-0.2,0.8999999999999999,0.5235987755982988,0.0,0,-0.024464274,1.2418941,-0.052608863,0.009375855,-0.15366942,1.2699804,0.078679286,0.1985615,0.22212434,-0.9420659,0.45824328,-0.70332927,0.6810171,-0.15845214
-0.2,-0.2,0.8999999999999999,0.5235987755982988,0.0,0,-0.00861842,1.2349131,-0.056986228,0.014873502,0.12898241,1.2554486,-1.5348252,0.19964097,0.21645936,-0.94319767,0.4583071,-0.704042,0.6810134,-0.1633043
-0.2,-0.2,0.8999999999999999,0.5235987755982988,0.0,0,0.45255712,1.376252,0.1333327,-0.057744153,0.011399589,1.2823287,-0.15807644,0.19837238,0.22301748,-0.94167393,0.4578982,-0.7062666,0.6820046,-0.15435556
-0.2,-0.2,0.8999999999999999,0.5235987755982988,0.0,0,0.5562751,1.2109866,0.28404215,0.0071994434,-0.18575427,1.2040472,-1.5534116,0.19821104,0.21935381,-0.94135916,0.45819265,-0.7081837,0.67979956,-0.17181389
-0.2,-0.2,0.8999999999999999,0.5235987755982988,0.0,0,-0.22994961,1.3229351,0.14529784,-0.03639738,0.061285958,1.2270553,-2.028698,0.19884601,0.22082171,-0.9430343,0.4577864,-0.70777565,0.68109393,-0.15937503
-0.2,-0.2,0.8999999999999999,0.5235987755982988,0.0,0,-0.057442218,1.3751206,-0.514035,-0.12594278,-0.012745131,1.3221415,-1.0393833,0.1994102,0.21850374,-0.94244194,0.45892546,-0.7047079,0.68131614,-0.14734963
-0.2,-0.2,0.8999999999999999,0.5235987755982988,0.0,0,-0.4597976,1.436602,0.37041712,-0.075107425,0.16351934,1.1544883,-0.17706238,0.1976975,0.21947631,-0.9415875,0.4581978,-0.70089304,0.6813583,-0.1453905
-0.2,-0.2,0.8999999999999999,0.5235987755982988,0.0,0,1.0392629,1.2043313,0.24385074,0.01642047,-0.04486541,1.2417727,-1.0980674,0.19776313,0.2210388,-0.94177973,0.45857403,-0.707177,0.681174,-0.15265456
-0.2,-0.2,0.8999999999999999,0.5235987755982988,0.0,0,-1.1194955,1.415672,-0.11784715,-0.031428527,-0.09203489,1.1973057,-0.8432427,0.1984927,0.21867728,-0.9419099,0.45782524,-0.700697,0.6821678,-0.14464794
-0.2,-0.2,0.8999999999999999,0.5235987755982988,0.0,0,-0.25865057,1.2770159,0.18321525,-0.05116165,-0.12583223,1.2348787,-0.9929606,0.19941975,0.21667828,-0.9424557,0.45804593,-0.7118667,0.6813454,-0.15545407
-0.2,-0.2,0.8999999999999999,0.5235987755982988,0.0,0,-0.77370864,1.2096932,-0.08729343,-0.04183297,0.05632083,1.2791427,0.89391965,0.19868098,0.22214948,-0.9430057,0.45868796,-0.6996698,0.6801204,-0.15654893
-0.2,-0.2,0.8999999999999999,0.5235987755982988,0.0,0,-0.086536355,1.1484882,0.04539164,-0.028042821,0.08717854,1.1585394,0.019487422,0.19812378,0.21900423,-0.94196177,0.4586956,-0.70237494,0.68105197,-0.16316038
-0.2,-0.2,0.8999999999999999,0.5235987755982988,0.0,0,0.27943185,1.3561938,-0.16732304,-0.052898217,0.21091549,1.1631784,0.11556643,0.19794978,0.22124478,-0.9420816,0.45822534,-0.7025534,0.68135464,-0.15327613
-0.2,-0.2,0.8999999999999999,0.5235987755982988,0.0,0,-0.5915234,1.3820664,0.19632627,0.08855186,-0.06331006,1.2806417,0.47172454,0.20020893,0.22370109,-0.9434511,0.45839223,-0.7105612,0.68034923,-0.16815716
-0.2,-0.2,0.8999999999999999,0.5235987755982988,0.0,0,0.108934306,1.2398112,-0.216206,-0.06895582,0.040831164,1.280398,-1.6728808,0.19957027,0.21979436,-0.9420692,0.45807996,-0.707417,0.6825673,-0.163771
-0.2,-0.2,0.8999999999999999,0.5235987755982988,0.0,0,-0.5268787,1.4506149,0.15891849,-0.050990924,-0.024079511,1.2067229,-1.7484969,0.19959058,0.21828796,-0.9420314,0.4588076,-0.7084103,0.68321514,-0.15121844
-0.2,-0.2,0.8999999999999999,0.5235987755982988,0.0,0,0.3459348,1.27703,-0.060721584,0.07340263,0.14309014,1.1727232,-1.1440455,0.19880316,0.22121511,-0.94252485,0.45794547,-0.70729476,0.6819068,-0.15059277
-0.2,-0.2,0.8999999999999999,0.5235987755982988,0.0,0,-0.69740087,1.3024292,0.068715915,-0.016860368,0.10184411,1.2764271,0.10322383,0.198424,0.22030434,-0.9438969,0.45794603,-0.70290804,0.68020356,-0.14771192
-0.2,-0.2,0.8999999999999999,0.5235987755982988,0.0,0,-0.15213658,1.4709481,-0.06905999,-0.08046745,0.22038637,1.3094192,-2.5444617,0.19907448,0.22186488,-0.942438,0.45774633,-0.71000755,0.68072695,-0.17317943
-0.2,-0.2,0.8999999999999999,0.5235987755982988,0.0,0,-0.5221091,1.3126163,0.0055644466,0.009031387,-0.0330578,1.0860895,0.6924468,0.19734062,0.21982485,-0.9423723,0.45774877,-0.6997913,0.68152416,-0.14172597
-0.2,-0.2,0.8999999999999999,0.5235987755982988,0.0,0,-0.65175056,1.5125028,0.20897116,0.03528621,-0.10488172,1.3272398,-1.3717833,0.19892886,0.21943931,-0.94236445,0.45858046,-0.71099466,0.6815603,-0.16533041
-0.2,-0.2,0.8999999999999999,0.5235987755982988,0.0,0,0.064380035,1.3331542,-0.2518535,-0.017828433,-0.052003756,1.2722596,-1.5225085,0.19834927,0.22063933,-0.9421082,0.45879552,-0.7042049,0.68117446,-0.14728983
-0.2,-0.2,0.8999999999999999,0.5235987755982988,0.0,0,1.1999485,1.2528057,-0.011048732,0.010726468,-0.09148024,1.2828711,-1.359946,0.1986101,0.22207871,-0.94188726,0.45865864,-0.70368105,0.6816897,-0.14501561
-0.2,-0.2,0.8999999999999999,0.5235987755982988,0.0,0,-0.38476765,1.3294889,0.26244378,-0.06262329,-0.04361282,1.2774861,0.085482955,0.19883452,0.22022785,-0.9425391,0.45812348,-0.7010703,0.680871,-0.17804344
-0.2,-0.2,0.8999999999999999,0.5235987755982988,0.0,0,0.66723037,1.5302879,-0.17575455,-0.043179955,0.008123065,1.1855388,-1.2737806,0.1992682,0.21981025,-0.94296575,0.45889762,-0.7029308,0.68191856,-0.14650267
-0.2,-0.2,0.8999999999999999,0.5235987755982988,0.0,0,-1.3102348,1.2994932,-0.17599225,-0.10179187,0.04494972,1.2268746,1.3068154,0.1980375,0.22200158,-0.94306576,0.45812026,-0.7079653,0.6788058,-0.16731946
-0.2,-0.2,0.8999999999999999,0.5235987755982988,0.0,0,0.72218084,1.3286065,0.4874658,-0.022817817,0.1061312,1.3183563,-0.5499196,0.1973933,0.22261056,-0.9416107,0.45825616,-0.7070778,0.6810421,-0.16515087
-0.2,-0.2,0.8999999999999999,0.5235987755982988,0.0,0,-0.47098976,1.4018779,0.23984864,0.031658396,-0.031300586,1.2249283,-0.17829162,0.19869575,0.222178,-0.9416406,0.4581502,-0.7096989,0.6832895,-0.15536961
-0.2,-0.2,0.8999999999999999,0.5235987755982988,0.0,0,-0.29593456,1.2202765,-0.23038188,-0.050075706,0.040695574,1.2420174,-1.8967487,0.19799373,0.2182885,-0.9424355,0.4574712,-0.6988096,0.6827917,-0.15015906
-0.2,-0.2,0.8999999999999999,0.5235987755982988,0.0,0,0.11681033,1.2487953,0.15229255,-0.010887423,0.067765795,1.2458884,-1.5911901,0.19854547,0.22013198,-0.9421818,0.45833325,-0.70708317,0.6802922,-0.17434442
-0.2,-0.2,0.8999999999999999,0.5235987755982988,0.0,0,-0.40754592,1.2464453,-0.12251954,0.019780947,-0.12550588,1.2994372,-1.5444454,0.19767071,0.21956173,-0.9427047,0.45779142,-0.70768416,0.6809953,-0.15785226
-0.2,-0.2,0.8999999999999999,0.5235987755982988,0.0,0,0.44378805,1.4327549,0.102411054,-0.021687109,0.09327483,1.2299408,-2.564695,0.19730116,0.21959017,-0.94183975,0.45748487,-0.7087538,0.68135875,-0.17588106
-0.2,-0.2,0.8999999999999999,0.5235987755982988,0.0,0,-0.6885438,1.3564757,0.13420913,0.05703973,-0.18442929,1.1978515,-1.3958611,0.19777682,0.2176149,-0.94226784,0.4579492,-0.7002475,0.68172354,-0.16769923
-0.2,-0.2,0.8999999999999999,0.5235987755982988,0.0,0,-0.070826486,1.2978804,0.4495042,0.027165445,0.053969726,1.2914348,-0.5981737,0.19851695,0.2217367,-0.9420899,0.4576351,-0.7074904,0.68264985,-0.17928022
-0.2,-0.2,0.8999999999999999,0.5235987755982988,0.0,0,0.5068687,1.3340089,0.14802805,-0.048984546,0.016131977,1.2231016,-1.1296428,0.19973229,0.22080502,-0.9426211,0.457976,-0.7099041,0.68269366,-0.16339757
-0.2,-0.2,0.8999999999999999,0.5235987755982988,0.0,0,0.8666695,1.2284974,-0.44748986,-0.0015528946,0.20863925,1.3138999,-1.3939883,0.1983243,0.21986668,-0.94197136,0.45839182,-0.70852995,0.68284386,-0.14950122
-0.2,-0.2,0.8999999999999999,0.5235987755982988,0.0,0,-0.43027678,1.4014819,-0.058585577,-0.075937845,-0.045430895,1.2530142,0.06380556,0.19665036,0.22052743,-0.94202477,0.4576642,-0.6987079,0.6805419,-0.17012994
-0.2,-0.2,0.8999999999999999,0.5235987755982988,0.0,0,0.0013491007,1.2987101,-0.22534484,-0.018623345,0.07089546,1.2852478,-0.21525496,0.19846618,0.22079982,-0.9417217,0.45793623,-0.7076342,0.68322545,-0.15908046
-0.2,-0.2,0.8999999999999999,0.5235987755982988,0.0,0,-0.8331355,1.4653655,-0.13098899,0.04876778,0.033040766,1.1737423,-1.6409832,0.19683118,0.22188593,-0.94309473,0.45813513,-0.70482844,0.6808276,-0.15588729
-0.2,-0.2,0.8999999999999999,0.5235987755982988,0.0,0,-0.16422224,1.3967836,-0.17959036,0.011051956,0.030935215,1.2969134,-2.0030968,0.1974192,0.22155818,-0.94341475,0.45819086,-0.70548266,0.681429,-0.14344116
-0.2,-0.2,0.8999999999999999,0.5235987755982988,0.0,0,-0.20403884,1.3725462,-0.3579886,-0.013719946,0.06986474,1.211658,0.76983076,0.19720733,0.22033186,-0.94282,0.45825,-0.7092756,0.6820787,-0.14814694
-0.2,-0.2,0.8999999999999999,0.5235987755982988,0.0,0,0.5652401,1.3208052,0.15623938,-0.026664557,-0.07426918,1.2929578,-0.14777203,0.19595091,0.21787989,-0.94296986,0.45725003,-0.7040201,0.6814938,-0.16119364
-0.2,-0.2,0.8999999999999999,0.5235987755982988,0.0,0,-0.58297145,1.2775948,0.24967884,-0.030985212,0.011833098,1.2613025,0.76255316,0.19810446,0.22065775,-0.9433714,0.45829147,-0.709682,0.6812381,-0.16901587
-0.2,-0.2,0.8999999999999999,0.5235987755982988,0.0,0,0.63067657,1.4166149,-0.20479226,0.01505719,0.0012636575,1.2673861,-1.2454176,0.19802046,0.21989611,-0.9439351,0.4579904,-0.7004595,0.6815148,-0.15980983
-0.2,-0.2,0.8999999999999999,0.5235987755982988,0.0,0,-0.05259999,1.2949129,0.3115355,0.07155202,-0.038365323,1.1953613,-0.41478804,0.19737227,0.22219273,-0.94229054,0.45878997,-0.7048432,0.6818968,-0.15532608
-0.2,-0.2,0.8999999999999999,0.5235987755982988,0.0,0,0.090468794,1.3541801,0.07284384,-0.067649975,0.04325864,1.320465,-0.8185455,0.19930099,0.21922143,-0.9433129,0.4583826,-0.70703745,0.683371,-0.16552769
-0.2,-0.2,0.8999999999999999,0.5235987755982988,0.0,0,-0.1632419,1.3466079,-0.121814154,-0.063993275,0.15890679,1.2402644,-1.1220673,0.19816124,0.22319348,-0.9429783,0.45837095,-0.7090422,0.6818533,-0.17330691
-0.2,-0.2,0.8999999999999999,0.5235987755982988,0.0,0,0.04164097,1.3120911,0.149227,0.06741104,-0.07128836,1.2728188,0.9212684,0.19791067,0.22173536,-0.94251406,0.45889044,-0.7079895,0.68233275,-0.15799415
-0.2,-0.2,0.8999999999999999,0.5235987755982988,0.0,0,0.4873781,1.3411436,-0.07616148,0.03212599,0.02891412,1.2358451,-0.8820263,0.19834721,0.2212662,-0.94331044,0.45845637,-0.7062807,0.6831258,-0.14543276
-0.2,-0.2,0.8999999999999999,0.5235987755982988,0.0,0,1.0621573,1.3365663,-0.23416032,-0.053173177,0.12060398,1.2034608,0.76531357,0.1959596,0.22054528,-0.9422583,0.45814282,-0.70886815,0.6817035,-0.16047731
-0.2,-0.2,0.8999999999999999,0.5235987755982988,0.0,0,-0.5599187,1.361622,-0.2569305,-0.02949449,0.021631317,1.2041395,-0.6076927,0.19985943,0.2219763,-0.94440967,0.45824015,-0.70745504,0.68387777,-0.15580577
-0.2,-0.2,0.8999999999999999,0.5235987755982988,0.0,0,0.31168407,1.3235223,0.13035631,-0.07278881,0.098437406,1.2070687,0.9447769,0.19775094,0.22045878,-0.9418928,0.4583055,-0.7045229,0.6842592,-0.15588659
-0.2,-0.2,0.8999999999999999,0.5235987755982988,0.0,0,0.12701333,1.2646415,0.2532743,-0.014580653,0.15066865,1.2853955,-1.7981678,0.19714427,0.22196563,-0.9431099,0.45747793,-0.70491683,0.6836046,-0.16324095
-0.2,-0.2,0.8999999999999999,0.5235987755982988,0.0,0,-0.29454523,1.3322377,-0.11352247,-0.034844063,0.060747217,1.1604475,-0.32463044,0.19719104,0.22188476,-0.9417479,0.45907888,-0.70863634,0.6828562,-0.16386808
-0.2,-0.2,0.8999999999999999,0.5235987755982988,0.0,0,-0.15293011,1.3117701,-0.06268656,0.052468598,0.06558877,1.232891,-1.7965636,0.19965427,0.22448683,-0.9421957,0.45776144,-0.70674133,0.6783881,-0.15756817
-0.2,-0.2,0.8999999999999999,0.5235987755982988,0.0,0,-0.4768278,1.3777002,0.44305438,-0.054340366,-0.23589812,1.2804191,-1.0079141,0.19818446,0.22095023,-0.9416686,0.45758957,-0.702054,0.68062025,-0.16042453
-0.2,-0.2,0.8999999999999999,0.5235987755982988,0.0,0,-1.4456036,1.4315631,0.08522559,-0.0027040602,-0.07147307,1.1983284,-1.1110369,0.2006053,0.21780124,-0.9437623,0.45720193,-0.69765294,0.6796605,-0.15440583
-0.2,-0.2,0.8999999999999999,0.5235987755982988,0.0,0,0.79685813,1.1771505,-0.053057503,-0.027961347,-0.056695677,1.2430354,-2.2467506,0.19972241,0.22351743,-0.94111,0.45803514,-0.70529604,0.6782878,-0.14875911
-0.2,-0.2,0.8999999999999999,0.5235987755982988,0.0,0,-0.45196262,1.2193245,0.13471857,-0.053068757,0.16227745,1.3336648,0.22523062,0.19830921,0.22214636,-0.94235003,0.45750573,-0.70293814,0.6802512,-0.16459915
-0.2,-0.2,0.8999999999999999,0.5235987755982988,0.0,0,-0.3641799,1.299585,0.37172544,0.03601252,-0.02686158,1.2625152,-0.55361784,0.19857384,0.21826637,-0.94216037,0.45806468,-0.7042935,0.68087715,-0.14594719
-0.2,-0.2,0.8999999999999999,0.5235987755982988,0.0,0,-0.56009763,1.3316782,0.03073166,0.0009400826,0.076855555,1.2417005,-0.49584356,0.19867703,0.22508383,-0.9413675,0.45763037,-0.70675945,0.68198705,-0.14206079
-0.2,-0.2,0.8999999999999999,0.5235987755982988,0.0,0,-1.0129004,1.2918229,0.062396497,-0.09584491,0.074273,1.1845104,-0.92589116,0.19978434,0.22085421,-0.9433786,0.45810544,-0.7049502,0.6814793,-0.14907971
-0.2,-0.2,0.8999999999999999,0.5235987755982988,0.0,0,0.13316225,1.3840677,-0.23355775,0.054974876,0.14917932,1.2606921,-0.48933303,0.1977081,0.22173436,-0.9439326,0.45800266,-0.70328873,0.6818931,-0.1550417
-0.2,-0.2,0.8999999999999999,0.5235987755982988,0.0,0,1.1437901,1.2765515,-0.088407606,-0.05488613,0.12740429,1.1819783,-0.4112409,0.19880249,0.2216284,-0.9402895,0.45749286,-0.70921576,0.68025285,-0.15411662
-0.2,-0.2,0.8999999999999999,0.5235987755982988,0.0,0,-0.08706633,1.4176341,0.07658028,-0.123370685,0.0038174272,1.2558284,-0.55869377,0.19931693,0.2173047,-0.9420102,0.45789444,-0.7007816,0.67897,-0.15172458
-0.2,-0.2,0.8999999999999999,0.5235987755982988,0.0,0,0.370362,1.250571,0.35471871,-0.044427425,0.1372601,1.2720988,-0.9536636,0.19886602,0.21907553,-0.94152033,0.45777643,-0.69779235,0.67984706,-0.16046007
-0.2,-0.2,0.8999999999999999,0.5235987755982988,0.0,0,0.008637064,1.3246942,-0.02920819,-0.07477128,0.14751075,1.302501,-0.9545939,0.19970968,0.21810617,-0.9427241,0.45748618,-0.702203,0.67911947,-0.15419795
-0.2,-0.2,0.8999999999999999,0.5235987755982988,0.0,0,-0.019539865,1.1889901,0.11077165,0.03807017,0.15319157,1.2733421,-1.2444204,0.19925782,0.22049265,-0.9419701,0.4580076,-0.70567864,0.68053854,-0.15111375
-0.2,-0.2,0.8999999999999999,0.5235987755982988,0.0,0,-0.45368963,1.3578309,-0.233691,-0.03063766,-0.030411119,1.29164,0.86635315,0.19910662,0.21468787,-0.9421558,0.4572732,-0.70366454,0.68277293,-0.1470349
-0.2,-0.2,0.8999999999999999,0.5235987755982988,0.0,0,-0.060195155,1.2760048,0.06695165,-0.036827467,-0.08188069,1.2351261,-0.6385645,0.19941676,0.2204101,-0.94184256,0.458736,-0.7064075,0.6801288,-0.14997196
-0.2,-0.2,0.8999999999999999,0.5235987755982988,0.0,0,-0.56917655,1.2689341,0.10376786,0.020124516,0.036796942,1.261527,-0.4666623,0.20026132,0.22279666,-0.94313735,0.45887935,-0.7027392,0.6816884,-0.15772301
-0.2,-0.2,0.8999999999999999,0.5235987755982988,0.0,0,-0.9613431,1.3885156,-0.020673519,-0.14433531,0.12859896,1.2843695,-1.154113,0.19834863,0.22088969,-0.9420112,0.4573622,-0.70773166,0.67820096,-0.15581554
-0.2,-0.2,0.8999999999999999,0.5235987755982988,0.0,0,-0.6828701,1.2575237,-0.019532248,-0.021406408,-0.072339475,1.244413,-1.1786546,0.19925396,0.22193275,-0.94220424,0.4576522,-0.71101224,0.6790533,-0.15548086
-0.2,-0.2,0.8999999999999999,0.5235987755982988,0.0,0,0.40793848,1.4868538,-0.10690724,-0.022232482,0.06109095,1.2813663,0.06425142,0.19919223,0.22273442,-0.9430966,0.45779204,-0.7051833,0.6803911,-0.15275878
-0.2,-0.2,0.8999999999999999,0.5235987755982988,0.0,0,-0.05079945,1.5509527,-0.17937838,-0.045106657,0.12916952,1.1737707,-0.24675976,0.19984755,0.22033845,-0.94204104,0.45755094,-0.7076539,0.6820001,-0.14396535
-0.2,-0.2,0.8999999999999999,0.5235987755982988,0.0,0,-0.15074676,1.4891088,0.35803026,0.02934171,0.07975202,1.3076328,-1.4431306,0.19831826,0.22069557,-0.94229454,0.45835495,-0.7084038,0.67913127,-0.15312447
-0.2,-0.2,0.8999999999999999,0.5235987755982988,0.0,0,-0.8824013,1.3706114,0.30747318,-0.028128777,-0.13561718,1.2234106,0.10584197,0.19884822,0.22097033,-0.9415653,0.45729896,-0.7034693,0.6802093,-0.16529855
-0.2,-0.2,0.8999999999999999,0.5235987755982988,0.0,0,0.4230044,1.3182204,0.34884375,-0.08524302,0.00075349835,1.2760844,-0.81434566,0.19978362,0.21856761,-0.9418341,0.4576793,-0.70844096,0.68188494,-0.1470487
-0.2,-0.2,0.8999999999999999,0.5235987755982988,0.0,0,-0.23913883,1.238006,0.2299928,-0.01817083,0.077830866,1.242582,-1.2782329,0.19875692,0.21934508,-0.9420148,0.45780098,-0.70278454,0.6802897,-0.15140665
-0.2,-0.2,0.8999999999999999,0.5235987755982988,0.0,0,0.6496359,1.3230284,-0.16709396,-0.022307578,-0.01462251,1.3452489,-0.28722048,0.19842005,0.22368011,-0.9413764,0.45768094,-0.7050983,0.6801042,-0.13694002
-0.2,-0.2,0.8999999999999999,0.5235987755982988,0.0,0,-0.15184344,1.3340167,0.21211219,-0.017804142,-0.034215204,1.2724072,-0.40639707,0.19919595,0.22137517,-0.9420227,0.45807788,-0.70415777,0.67962635,-0.14557382
-0.2,-0.2,0.8999999999999999,0.5235987755982988,0.0,0,0.28425914,1.3748055,0.121978685,-0.05207616,-0.09231556,1.2105719,-0.18543087,0.19844937,0.21688801,-0.9418106,0.45845827,-0.70527714,0.67941904,-0.15438122
-0.2,-0.2,0.8999999999999999,0.5235987755982988,0.0,0,0.26989833,1.2488968,-0.34765178,-0.030959463,-0.021861086,1.1563846,-0.41894832,0.19947,0.22205123,-0.94118345,0.45825973,-0.7101868,0.68129206,-0.15973835
-0.2,-0.2,0.8999999999999999,0.5235987755982988,0.0,0,-0.40467152,1.3140827,-0.2014148,-0.027806528,0.1304128,1.2461386,-0.9055164,0.1975731,0.21786492,-0.9413278,0.4573076,-0.7027324,0.6808307,-0.15219885
-0.2,-0.2,0.8999999999999999,0.5235987755982988,0.0,0,0.5525578,1.3767055,-0.25686318,-0.06286637,-0.16767065,1.2576339,-0.6557011,0.19966078,0.21897657,-0.9430004,0.4576421,-0.70316094,0.6810182,-0.1493878
-0.2,-0.2,0.8999999999999999,0.5235987755982988,0.0,0,-0.17342038,1.4438515,0.11396886,0.013163881,-0.08094373,1.2850188,-0.96014374,0.19902313,0.22041152,-0.94132096,0.45697144,-0.70682365,0.6824087,-0.15988137
-0.2,-0.2,0.8999999999999999,0.5235987755982988,0.0,0,0.49119118,1.334071,-0.30261394,-0.013556525,0.045009788,1.2075192,-2.0125992,0.19861521,0.22012846,-0.943074,0.45744485,-0.7048499,0.67967737,-0.13463503
-0.2,-0.2,0.8999999999999999,0.5235987755982988,0.0,0,0.085761026,1.4191303,-0.19060853,-0.08304093,0.20588757,1.3482169,-0.75287664,0.19859385,0.22037789,-0.9420201,0.45777506,-0.70608175,0.68070704,-0.16759816
-0.2,-0.2,0.8999999999999999,0.5235987755982988,0.0,0,0.3640266,1.3359717,0.09556445,-0.024596099,0.11732979,1.236983,-0.9797777,0.199284,0.22345345,-0.943167,0.45752734,-0.70647216,0.6808884,-0.14591795
-0.2,-0.2,0.8999999999999999,0.5235987755982988,0.0,0,0.109028265,1.3222226,-0.35240367,0.009716196,0.0061662807,1.218419,-1.2920462,0.19901414,0.2180609,-0.94260484,0.45795435,-0.70036685,0.6810927,-0.15772802
-0.2,-0.2,0.8999999999999999,0.5235987755982988,0.0,0,0.41179886,1.4748999,0.4908564,-0.014688507,-0.014630828,1.1834465,-1.2951126,0.1992088,0.21755381,-0.94285727,0.45851704,-0.6992366,0.6804734,-0.15314883
-0.2,-0.2,0.8999999999999999,0.5235987755982988,0.0,0,0.24198756,1.4524533,-0.2010682,0.03309189,-0.03255915,1.276801,-1.2067271,0.19939362,0.221514,-0.9429595,0.45777273,-0.7045497,0.68064785,-0.16396378
-0.2,-0.2,0.8999999999999999,0.5235987755982988,0.0,0,-1.068456,1.2405896,0.2173993,-0.0823383,-0.017520275,1.3214501,-0.63121074,0.19854392,0.21848471,-0.9406201,0.4584981,-0.69922477,0.6807263,-0.15034834
-0.2,-0.2,0.8999999999999999,0.5235987755982988,0.0,0,0.23938128,1.3886895,0.13362327,-0.0013289333,0.030080682,1.2172042,0.051309958,0.19808862,0.22280337,-0.9419419,0.45764956,-0.70135826,0.681329,-0.1639086
-0.2,-0.2,0.8999999999999999,0.5235987755982988,0.0,0,-1.3805727,1.2617309,0.038635813,-0.056570984,-0.0025181458,1.2485819,-2.3857725,0.19937438,0.21932596,-0.9411787,0.4584028,-0.7078177,0.6822247,-0.17247282
-0.2,-0.2,0.8999999999999999,0.5235987755982988,0.0,0,0.12741038,1.3427839,-0.13237578,-0.017367827,-0.044460047,1.1957774,-0.055613406,0.19875598,0.22224568,-0.9424608,0.45791715,-0.70761496,0.68140537,-0.15030642
-0.2,-0.2,0.8999999999999999,0.5235987755982988,0.0,0,-0.15355568,1.3669369,0.2268974,-0.07009137,-0.044462822,1.2261189,0.5620298,0.19879808,0.22046953,-0.9427107,0.4576657,-0.7025931,0.6814315,-0.15422577
-0.2,-0.2,0.8999999999999999,0.5235987755982988,0.0,0,-0.06440968,1.273658,0.17505005,-0.030795293,-0.06665572,1.2595109,-0.6095838,0.1984495,0.21951294,-0.9418693,0.45863813,-0.7055613,0.6806158,-0.15810595
-0.2,-0.2,0.8999999999999999,0.5235987755982988,0.0,0,0.3004757,1.2046922,0.2218845,0.018482536,0.06862199,1.2031574,-0.58695245,0.19774947,0.22033794,-0.9431425,0.45796785,-0.70857793,0.680131,-0.15062685
-0.2,-0.2,0.8999999999999999,0.5235987755982988,0.0,0,-0.004966305,1.4205166,-0.066590086,-0.048063908,-0.0905619,1.3838063,0.07712098,0.19823177,0.22117914,-0.94257677,0.45752925,-0.70555496,0.68163013,-0.16842447
-0.2,-0.2,0.8999999999999999,0.5235987755982988,0.0,0,0.40164867,1.3785639,-0.12478002,-0.06901526,-0.23474674,1.2893857,-0.37671497,0.19860837,0.21741937,-0.9426017,0.45850345,-0.70798326,0.6807848,-0.15083984
-0.2,-0.2,0.8999999999999999,0.5235987755982988,0.0,0,0.29047891,1.3527434,0.012999659,-0.02898968,-0.048903976,1.2085651,-0.76901424,0.19952933,0.2192753,-0.9424845,0.45863807,-0.70488834,0.6815425,-0.14443545
-0.2,-0.2,0.8999999999999999,0.5235987755982988,0.0,0,0.5467904,1.3943332,-0.2152055,-0.031087875,-0.010631931,1.2428095,0.810702,0.19834599,0.22109513,-0.9423306,0.45872453,-0.7090552,0.68039906,-0.1599748
-0.2,-0.2,0.8999999999999999,0.5235987755982988,0.0,0,0.1859742,1.4087279,-0.034256775,-0.09701576,-0.19497925,1.3381958,-1.1696694,0.19952406,0.22214748,-0.94182247,0.4583621,-0.69875914,0.6825338,-0.14226672
-0.2,-0.2,0.8999999999999999,0.5235987755982988,0.0,0,0.19953081,1.2936052,0.1367488,-0.0041125724,0.17382705,1.2683023,-0.4717587,0.19883451,0.22067478,-0.94352454,0.45796078,-0.7080191,0.68109477,-0.15734023
-0.2,-0.2,0.8999999999999999,0.5235987755982988,0.0,0,-0.05939379,1.1677622,-0.35597563,-0.022115113,-0.05467156,1.1910228,-1.0459108,0.19847968,0.21841516,-0.9425953,0.4579983,-0.7018296,0.68128496,-0.16273683
-0.2,-0.2,0.8999999999999999,0.5235987755982988,0.0,0,-0.2105206,1.2420374,-0.054657634,-0.021155199,0.09998597,1.1452085,1.0421281,0.198435,0.22223535,-0.9421182,0.45770124,-0.70434433,0.6830864,-0.13841482
-0.2,-0.2,0.8999999999999999,0.5235987755982988,0.0,0,0.4899154,1.2522211,-0.27083158,-0.048725057,-0.13829404,1.2637786,-0.5816015,0.19895981,0.21805157,-0.9426336,0.45755488,-0.70395803,0.6833004,-0.14521106
-0.2,-0.2,0.8999999999999999,0.5235987755982988,0.0,0,0.48328722,1.3482153,0.058116242,-0.017785208,0.069074705,1.257071,-1.2276489,0.19729237,0.22048962,-0.94291365,0.45713153,-0.70397633,0.68161714,-0.16337898
-0.2,-0.2,0.8999999999999999,0.5235987755982988,0.0,0,0.678464,1.264396,-0.08655173,-0.03442232,0.15760349,1.1631649,-0.7008472,0.19734901,0.2215722,-0.9425698,0.45771047,-0.7030179,0.6820189,-0.15470983
-0.2,-0.2,0.8999999999999999,0.5235987755982988,0.0,0,0.35588628,1.1581132,0.21239074,-0.045922633,0.27578047,1.2934998,-2.0284061,0.19849344,0.21785714,-0.9426757,0.45870686,-0.70155686,0.681937,-0.14304431
-0.2,-0.2,0.8999999999999999,0.5235987755982988,0.0,0,0.890646,1.2716011,-0.3209963,-0.0637068,-0.143923,1.1907575,-0.011463975,0.19804287,0.21861805,-0.943162,0.45809305,-0.70124054,0.6816632,-0.14896272
-0.2,-0.2,0.8999999999999999,0.5235987755982988,0.0,0,0.2514023,1.2876214,-0.18778308,-0.09030446,-0.029102432,1.2880383,-0.39901412,0.19809507,0.22190776,-0.94190145,0.45881313,-0.70248634,0.6821487,-0.14425267
-0.2,-0.2,0.8999999999999999,0.5235987755982988,0.0,0,-0.65957826,1.4033786,0.0011779119,-0.051850755,0.12256001,1.2236816,-0.58219457,0.19779661,0.21691617,-0.94178975,0.45873013,-0.703418,0.68340427,-0.1703672
-0.2,-0.2,0.8999999999999999,0.5235987755982988,0.0,0,-0.3915706,1.3050793,-0.2884267,0.068802476,0.08969596,1.317292,-1.0948616,0.1996421,0.22115779,-0.9424194,0.4584521,-0.7056641,0.6803927,-0.15449756
-0.2,-0.2,0.8999999999999999,0.5235987755982988,0.0,0,-0.22796537,1.3516619,-0.20756456,0.035559453,0.1491239,1.3640324,-1.0245245,0.1990277,0.22028239,-0.9427436,0.45786026,-0.70072204,0.6802294,-0.14872965
-0.2,-0.2,0.8999999999999999,0.5235987755982988,0.0,0,-0.6284544,1.2637222,-0.10165998,0.0052074776,-0.088976905,1.2473404,-0.90730125,0.19962315,0.2229137,-0.9436693,0.45760906,-0.7016071,0.68074125,-0.14189139
-0.2,-0.2,0.8999999999999999,0.5235987755982988,0.0,0,-0.97657263,1.2178874,-0.11165114,-0.051886123,0.094001226,1.238431,-1.1193979,0.1991752,0.21978769,-0.942794,0.4577323,-0.7084321,0.6797684,-0.15266527
-0.2,-0.2,0.8999999999999999,0.5235987755982988,0.0,0,0.76201695,1.3128185,0.023343405,-0.04747015,0.008613913,1.1119425,-1.3720193,0.19952771,0.22123547,-0.9423309,0.45790723,-0.70977855,0.6807538,-0.15998223
-0.2,-0.2,0.8999999999999999,0.5235987755982988,0.0,0,0.5110813,1.3460116,0.113120496,-0.003964527,-0.16515663,1.3773712,-0.97241765,0.19874582,0.2204034,-0.94279975,0.45762345,-0.70478815,0.67988867,-0.16148044
-0.2,-0.2,0.8999999999999999,0.5235987755982988,0.0,0,0.6100035,1.2838564,0.034591254,-0.030239476,-0.06474412,1.1626649,-0.9592749,0.19852637,0.2198497,-0.9428905,0.45751372,-0.69441444,0.67948174,-0.15385057
-0.2,-0.2,0.8999999999999999,0.5235987755982988,0.0,0,0.46223125,1.4149194,-0.33395982,0.03761178,0.042437956,1.2981595,-0.9387395,0.19821541,0.21846566,-0.9422225,0.45783794,-0.70078856,0.681048,-0.14810541
-0.2,-0.2,0.8999999999999999,0.5235987755982988,0.0,0,0.11050532,1.2680213,0.1814722,-0.033238877,-0.029995266,1.16906,-0.42800966,0.19912672,0.21751721,-0.94242376,0.4585308,-0.70625716,0.6792503,-0.15874474
-0.2,-0.2,0.8999999999999999,0.5235987755982988,0.0,0,0.014233458,1.3838682,0.24454187,-0.045655124,0.06893618,1.2766495,-0.26351607,0.1978725,0.2202514,-0.94250643,0.4586767,-0.70323044,0.67938524,-0.14287318
-0.2,-0.2,0.8999999999999999,0.5235987755982988,0.0,0,0.631889,1.1401705,0.13558148,0.05237517,0.115384266,1.2886671,-0.6998321,0.19710144,0.21792248,-0.9424169,0.4582539,-0.7072577,0.6794041,-0.15896432
