sanky1234/BimanualDexCatch/isaacgymenvs/cem_results/football_pose_-0.1_-0.2_1.4999999999999998_0.0_0.0_0_2025-05-25.csv
x,y,z,roll,pitch,yaw,robot1/joint1,robot1/joint2,robot1/joint3,robot1/joint4,robot1/joint5,robot1/joint6,robot1/joint7,robot2/joint1,robot2/joint2,robot2/joint3,robot2/joint4,robot2/joint5,robot2/joint6,robot2/joint7
-0.1,-0.2,1.4999999999999998,0.0,0.0,0,-0.5451896,-1.4468355,2.2303357,0.016124375,-0.22798716,1.2800622,0.5527475,-1.0811625,0.50885844,-0.5548752,0.45369178,0.17726678,-0.61291313,0.1834482
-0.1,-0.2,1.4999999999999998,0.0,0.0,0,-0.5380732,-1.4542915,2.231428,0.032587163,0.5718177,0.97846484,0.23162897,-1.0847042,0.514016,-0.54356766,0.46623635,0.2048761,-0.6377283,-0.4940616
-0.1,-0.2,1.4999999999999998,0.0,0.0,0,-0.5427183,-1.4513798,2.2069037,0.018068125,0.19969654,0.7180725,-0.15169607,-1.0845414,0.5115663,-0.54738116,0.46053255,0.050276406,-1.1676697,-0.038452096
-0.1,-0.2,1.4999999999999998,0.0,0.0,0,-0.538556,-1.4500226,2.2314873,0.016228408,0.35470754,0.8996365,-0.016435271,-1.0851223,0.51029354,-0.5446195,0.4593182,0.14362806,-0.9685376,-0.49586457
-0.1,-0.2,1.4999999999999998,0.0,0.0,0,-0.537504,-1.4482311,2.233029,0.007164122,-0.22028494,0.96696293,-0.36404186,-1.0839971,0.5089523,-0.5507476,0.4599572,0.17279886,-0.6461667,-0.5974561
-0.1,-0.2,1.4999999999999998,0.0,0.0,0,-0.54193807,-1.4496735,2.230712,0.03460958,0.18590239,1.2978017,0.14347537,-1.0800987,0.5118153,-0.5530556,0.46273562,-0.023437532,-0.6446887,-0.17909448
-0.1,-0.2,1.4999999999999998,0.0,0.0,0,-0.54237044,-1.4486003,2.222098,0.0051902332,-0.08225392,1.2355552,0.04964261,-1.0796705,0.509707,-0.55720127,0.45856476,-0.11189416,-1.080747,-0.68624747
-0.1,-0.2,1.4999999999999998,0.0,0.0,0,-0.53480643,-1.4552798,2.2393806,0.032387324,0.12783904,1.0515785,0.15425088,-1.0810331,0.5120471,-0.55514586,0.45786628,0.2918846,-0.043061275,0.49373308
-0.1,-0.2,1.4999999999999998,0.0,0.0,0,-0.54563063,-1.4495759,2.2361023,0.022354864,-0.022202369,0.839773,-0.43603015,-1.0843515,0.51131564,-0.54460704,0.46686953,0.44149932,-0.68999916,-1.2067153
-0.1,-0.2,1.4999999999999998,0.0,0.0,0,-0.5397881,-1.4498315,2.229224,0.01849613,-0.087661065,1.0215406,0.42702353,-1.0839005,0.50769496,-0.5499862,0.4654821,0.5665904,-1.0408794,0.19508278
-0.1,-0.2,1.4999999999999998,0.0,0.0,0,-0.5377923,-1.448107,2.2481146,0.0120178545,-0.24663165,0.747854,-0.463397,-1.081194,0.5153404,-0.5347997,0.45250157,0.54318863,-0.6783262,0.29185382
-0.1,-0.2,1.4999999999999998,0.0,0.0,0,-0.5405303,-1.4452171,2.2328734,-0.010122225,0.11203548,0.85520726,0.046119213,-1.0843108,0.5031811,-0.55141014,0.45846802,0.23825413,-0.9075033,0.023243353
-0.1,-0.2,1.4999999999999998,0.0,0.0,0,-0.5396041,-1.4473436,2.2361205,-9.012373e-05,0.32008898,0.55709666,0.461024,-1.0826807,0.50750387,-0.5521796,0.4532059,-0.046046324,-0.698608,0.33306697
-0.1,-0.2,1.4999999999999998,0.0,0.0,0,-0.54015356,-1.4488395,2.2360072,0.015483755,-0.5118581,0.8900239,-0.15041894,-1.0848997,0.5116404,-0.53987455,0.45266464,0.48833722,-1.0602511,-0.8451
-0.1,-0.2,1.4999999999999998,0.0,0.0,0,-0.54190946,-1.4484571,2.2412462,0.0035388418,0.16481353,0.9907791,0.45525876,-1.0832111,0.50821435,-0.5533104,0.46297973,0.04115694,-0.6683754,-0.18604773
-0.1,-0.2,1.4999999999999998,0.0,0.0,0,-0.54348,-1.4468796,2.2362804,0.03306952,-0.16209193,0.994648,0.07329942,-1.0858682,0.5117588,-0.55296034,0.45633468,0.28843057,-1.0582311,-0.7533423
-0.1,-0.2,1.4999999999999998,0.0,0.0,0,-0.5374921,-1.45304,2.2303557,0.018933926,-0.09578383,1.0628707,0.08857847,-1.0836737,0.5105874,-0.5398468,0.46243405,0.31539842,-1.2520596,-1.1779845
-0.1,-0.2,1.4999999999999998,0.0,0.0,0,-0.54059863,-1.451573,2.22147,0.024274046,-0.11051729,1.0408665,0.27156943,-1.0842625,0.51118606,-0.54239583,0.46802375,0.18280515,-0.60873187,-0.70280653
-0.1,-0.2,1.4999999999999998,0.0,0.0,0,-0.53595847,-1.4505907,2.2333615,0.0076243537,-0.023968337,1.4520696,0.16107634,-1.0830629,0.5082786,-0.5300483,0.45963237,0.1647804,-0.7724482,-0.7362115
-0.1,-0.2,1.4999999999999998,0.0,0.0,0,-0.54379636,-1.4526805,2.2405455,0.014974857,-0.18230471,0.930598,-0.42085233,-1.0833046,0.5077868,-0.553165,0.45699885,0.30725574,-0.96101665,-0.7178283
-0.1,-0.2,1.4999999999999998,0.0,0.0,0,-0.54349345,-1.4446782,2.2345822,0.01241621,0.42260465,1.1254209,0.66476846,-1.0827845,0.51267415,-0.55034333,0.46153653,0.52373874,-0.7009775,-0.9866252
-0.1,-0.2,1.4999999999999998,0.0,0.0,0,-0.54372424,-1.4520278,2.2356448,0.014119856,0.64423335,0.7841249,-0.4780591,-1.0830189,0.50597006,-0.5515451,0.46801418,0.007084422,-1.2308466,-1.0000765
-0.1,-0.2,1.4999999999999998,0.0,0.0,0,-0.539762,-1.4453415,2.2356412,-0.0028761174,0.046009358,0.95164514,0.04909103,-1.0870699,0.5065822,-0.5428853,0.46788168,-0.010748676,-0.86050284,0.041534755
-0.1,-0.2,1.4999999999999998,0.0,0.0,0,-0.5384287,-1.4519625,2.229448,0.015138435,0.076201186,1.0704305,-0.31532723,-1.0805041,0.5119164,-0.54133093,0.46645895,0.2326746,-1.2471747,-0.8635024
-0.1,-0.2,1.4999999999999998,0.0,0.0,0,-0.54607135,-1.4512057,2.2285736,-0.011639129,0.19352624,0.751918,0.3352584,-1.083546,0.50784326,-0.5544824,0.458296,0.37820774,-1.0486947,-0.712695
-0.1,-0.2,1.4999999999999998,0.0,0.0,0,-0.54152435,-1.4468377,2.2388644,0.020902421,-0.034204327,0.992112,0.3553353,-1.0852273,0.51134276,-0.54901886,0.46678692,0.04230707,-1.0056255,-0.371926
-0.1,-0.2,1.4999999999999998,0.0,0.0,0,-0.54099077,-1.4518651,2.2340171,0.019586768,0.05001168,0.64942646,0.5936541,-1.0802183,0.51523995,-0.53950346,0.4506787,0.2680245,-0.94074744,0.28347212
-0.1,-0.2,1.4999999999999998,0.0,0.0,0,-0.5398838,-1.4500175,2.2299707,0.025028165,-0.009889975,0.9644658,-0.14302789,-1.0820053,0.512087,-0.5429248,0.45745182,0.3022658,-0.8592522,0.16014467
-0.1,-0.2,1.4999999999999998,0.0,0.0,0,-0.54224014,-1.4518169,2.2339392,0.010715311,0.97808385,0.8443386,-0.06423233,-1.0879856,0.5098421,-0.53827655,0.46450013,0.3634821,-0.64894664,-1.067082
-0.1,-0.2,1.4999999999999998,0.0,0.0,0,-0.5403091,-1.4469932,2.2327983,0.027498791,-0.28287062,1.0722626,0.2650716,-1.0842808,0.512486,-0.5460476,0.46387124,0.21527447,-0.7310905,-0.31200522
-0.1,-0.2,1.4999999999999998,0.0,0.0,0,-0.54269093,-1.4514817,2.220248,0.025123259,0.17632335,0.91821855,0.6931803,-1.0850158,0.5123573,-0.5424774,0.46403688,0.14796604,-0.9816338,-0.89139503
-0.1,-0.2,1.4999999999999998,0.0,0.0,0,-0.54208803,-1.4557655,2.23129,0.009580402,0.1753703,1.2956151,-0.7110021,-1.086759,0.51048744,-0.54719794,0.45465222,0.0112424875,-0.5492187,0.7516617
-0.1,-0.2,1.4999999999999998,0.0,0.0,0,-0.541934,-1.447856,2.2444463,0.0014756973,0.09115783,0.77759653,0.4399127,-1.0833794,0.51192206,-0.54744476,0.46021715,0.43705016,-1.1710993,0.1559677
-0.1,-0.2,1.4999999999999998,0.0,0.0,0,-0.5381226,-1.448798,2.2330325,0.003619384,0.15498024,1.1196702,0.2797802,-1.0857649,0.5089901,-0.5451101,0.46190375,0.32843304,-1.0011039,1.305827
-0.1,-0.2,1.4999999999999998,0.0,0.0,0,-0.53922886,-1.4479148,2.23172,0.007516771,0.25179505,0.94854754,0.2780228,-1.0807599,0.5125064,-0.54989904,0.45852298,0.23754683,-1.3529347,1.2391874
-0.1,-0.2,1.4999999999999998,0.0,0.0,0,-0.5415156,-1.4477019,2.2287686,-0.0109095825,0.5062532,1.043155,-0.8302569,-1.0837048,0.51911736,-0.55145955,0.4617555,0.4497704,-1.1446401,-0.36646786
-0.1,-0.2,1.4999999999999998,0.0,0.0,0,-0.5387298,-1.4516101,2.2369807,0.02857603,0.072149925,0.59902996,-0.034088545,-1.0836942,0.51524633,-0.5275678,0.4608312,-0.19575731,-0.9576843,-0.033696163
-0.1,-0.2,1.4999999999999998,0.0,0.0,0,-0.5442257,-1.448652,2.2287197,0.025480125,0.026393807,0.8593712,0.32960743,-1.0850599,0.5116214,-0.5515288,0.4552895,-0.09310975,-0.82304937,-0.5237349
-0.1,-0.2,1.4999999999999998,0.0,0.0,0,-0.54179466,-1.4517515,2.23223,0.014033359,-0.26782832,1.0839771,0.16340183,-1.0835918,0.50332093,-0.53189963,0.46327415,0.85697675,-0.9117099,0.63849616
-0.1,-0.2,1.4999999999999998,0.0,0.0,0,-0.53871965,-1.4531604,2.238947,0.039872482,0.1561006,1.0648079,0.45996344,-1.0834765,0.5093294,-0.5543905,0.46700096,0.24272655,-0.71777,-0.31690946
-0.1,-0.2,1.4999999999999998,0.0,0.0,0,-0.5391047,-1.4534833,2.2251766,0.0012535396,0.0024824704,0.94942087,0.6199097,-1.0862811,0.51430494,-0.5476955,0.45704943,0.14475635,-1.0581404,-0.6963827
-0.1,-0.2,1.4999999999999998,0.0,0.0,0,-0.5342422,-1.4486101,2.2359564,0.015660359,-0.509256,1.1866146,0.5773245,-1.0917892,0.51196593,-0.52975875,0.46761328,0.08863393,-0.68729657,0.94389236
-0.1,-0.2,1.4999999999999998,0.0,0.0,0,-0.54275197,-1.4443206,2.2337775,-0.000114590075,0.060399663,0.7758745,-0.8905117,-1.0849378,0.509963,-0.547132,0.45664477,0.025379641,-0.90242827,-0.41686156
-0.1,-0.2,1.4999999999999998,0.0,0.0,0,-0.54765296,-1.4482677,2.2398617,0.0012328179,-0.07839649,0.77155304,0.42074463,-1.0867959,0.5140791,-0.54519314,0.45972008,-0.055593282,-0.93381286,-1.214759
-0.1,-0.2,1.4999999999999998,0.0,0.0,0,-0.54290974,-1.4583442,2.2423015,0.027773622,-0.15931924,1.0235556,-0.30305573,-1.0846862,0.51278985,-0.5392069,0.46865904,0.16687697,-0.65510404,-0.6267382
-0.1,-0.2,1.4999999999999998,0.0,0.0,0,-0.5427286,-1.4472121,2.2305532,0.028828494,-0.31143615,0.8833395,0.65154785,-1.0842859,0.51732385,-0.54442704,0.46025187,0.43488675,-1.1830477,0.14135309
-0.1,-0.2,1.4999999999999998,0.0,0.0,0,-0.54496515,-1.4491824,2.2430286,0.012848838,-0.07082388,0.6846272,-0.33428305,-1.0849242,0.51016796,-0.54613316,0.4712229,0.5624078,-1.230764,-0.15729214
-0.1,-0.2,1.4999999999999998,0.0,0.0,0,-0.5412448,-1.4539818,2.2435403,0.023612265,-0.34535354,0.93460345,0.30489525,-1.087845,0.5092763,-0.5304234,0.4641807,0.57218534,-0.34520295,0.37373453
-0.1,-0.2,1.4999999999999998,0.0,0.0,0,-0.53860736,-1.4524117,2.2247965,0.034750406,0.056058686,0.6638439,-0.117471285,-1.085801,0.51116,-0.5480978,0.4583367,-0.31250253,-0.74509835,-0.615689
-0.1,-0.2,1.4999999999999998,0.0,0.0,0,-0.54354,-1.4465262,2.2437127,0.020061573,0.48186657,0.8964801,-0.18340248,-1.0887574,0.5117868,-0.5443393,0.4612275,0.08905867,-1.3784044,-1.138732
-0.1,-0.2,1.4999999999999998,0.0,0.0,0,-0.5437787,-1.4478986,2.2462432,0.03534315,0.19804692,0.80446887,-0.30577838,-1.0843524,0.50303686,-0.5542587,0.4674696,0.3549501,-1.2197134,-0.7772106
-0.1,-0.2,1.4999999999999998,0.0,0.0,0,-0.5367166,-1.4482805,2.2279787,0.02640614,0.23349567,0.70674545,0.6217216,-1.0837448,0.5046609,-0.54725635,0.46175042,0.043718785,-0.55849254,0.031418372
-0.1,-0.2,1.4999999999999998,0.0,0.0,0,-0.5407009,-1.4519318,2.2237043,0.032625865,-0.34966007,1.1094154,0.1452511,-1.0826728,0.5086145,-0.56277966,0.45680204,0.14090866,-1.4029479,0.64403325
-0.1,-0.2,1.4999999999999998,0.0,0.0,0,-0.5404396,-1.449683,2.2232425,-0.0013960743,-0.24027953,0.82417643,-0.46365657,-1.0870391,0.51139504,-0.54928213,0.45868003,0.4941726,-1.5179977,-0.09064627
-0.1,-0.2,1.4999999999999998,0.0,0.0,0,-0.538078,-1.4470321,2.2336392,-0.002611549,-0.03418327,0.93376106,-0.3023305,-1.0873883,0.5119458,-0.5538374,0.45485565,0.3888072,-0.9044434,-0.97757804
-0.1,-0.2,1.4999999999999998,0.0,0.0,0,-0.54487073,-1.4496795,2.2426982,0.0019448953,-0.202657,0.9339131,1.2193897,-1.0836438,0.51254094,-0.5507147,0.465812,-0.24383734,-1.1526878,-0.23593523
-0.1,-0.2,1.4999999999999998,0.0,0.0,0,-0.5378283,-1.4497741,2.227271,0.024041789,0.20721394,1.0517018,0.40524483,-1.0810409,0.516827,-0.5413505,0.4553654,0.3047342,-0.5011182,-0.28741407
-0.1,-0.2,1.4999999999999998,0.0,0.0,0,-0.54299414,-1.453991,2.236494,-6.9946386e-06,-0.08567339,0.80429626,0.40564784,-1.0830579,0.5109272,-0.54973596,0.4560774,0.026235515,-0.8333732,-0.99792546
-0.1,-0.2,1.4999999999999998,0.0,0.0,0,-0.53876823,-1.4539071,2.2255988,0.027218137,0.20630813,1.5361259,-0.6566627,-1.085886,0.50598377,-0.5451216,0.45895025,0.39271367,-0.5410612,0.80848044
-0.1,-0.2,1.4999999999999998,0.0,0.0,0,-0.5425676,-1.4511846,2.2259266,0.008730751,-0.2084987,1.1184136,-0.092955455,-1.0815455,0.5087738,-0.55175835,0.45843962,0.1497065,-0.5945551,-1.1582661
-0.1,-0.2,1.4999999999999998,0.0,0.0,0,-0.5399061,-1.4531709,2.2413828,0.027866522,0.29053062,0.80252945,1.2544677,-1.0818498,0.51368237,-0.55396473,0.46307808,0.5569526,-1.1305084,-0.735739
-0.1,-0.2,1.4999999999999998,0.0,0.0,0,-0.5483711,-1.4522767,2.241777,0.0080684405,0.21715781,0.7675254,-0.7852033,-1.0850043,0.50496745,-0.5477007,0.46331748,0.113873474,-0.9873295,-0.63263804
-0.1,-0.2,1.4999999999999998,0.0,0.0,0,-0.537675,-1.4452546,2.2347815,0.0068929163,0.3206717,1.0105962,-0.3050976,-1.0832477,0.5083561,-0.5520885,0.4652888,-0.13625678,-1.1105831,0.41361666
-0.1,-0.2,1.4999999999999998,0.0,0.0,0,-0.53499234,-1.4500843,2.2310703,0.0076181274,-0.22319219,0.662511,0.06132052,-1.0825742,0.5066209,-0.55208987,0.4671614,0.41537583,-1.1394418,0.43303716
-0.1,-0.2,1.4999999999999998,0.0,0.0,0,-0.5425951,-1.4508773,2.2358208,0.019211482,0.11794982,0.8902169,0.36610523,-1.0844532,0.51213735,-0.54174405,0.44899896,0.45103347,-1.1073608,-0.64264405
-0.1,-0.2,1.4999999999999998,0.0,0.0,0,-0.5473148,-1.4496549,2.2445447,0.010828212,-0.14561744,1.0132436,-0.18690556,-1.08412,0.513082,-0.5393783,0.45105875,0.22912414,-1.0086921,-0.08124862
-0.1,-0.2,1.4999999999999998,0.0,0.0,0,-0.53953874,-1.4534273,2.2370071,-0.0052132234,0.2652786,0.9860485,-0.5235888,-1.0827767,0.50810224,-0.5491442,0.46690607,0.18889947,-0.674761,0.2378486
-0.1,-0.2,1.4999999999999998,0.0,0.0,0,-0.5440484,-1.4554435,2.240186,0.030592991,0.55981886,0.8125915,0.38069507,-1.0872798,0.5108038,-0.551088,0.45667213,0.03303432,-1.3343823,-0.99872106
-0.1,-0.2,1.4999999999999998,0.0,0.0,0,-0.5410389,-1.4438846,2.2387671,-0.0077397157,0.13758408,0.74920756,-0.75312525,-1.0855855,0.5102667,-0.55198216,0.4604595,0.31829035,-1.3429818,0.05872378
-0.1,-0.2,1.4999999999999998,0.0,0.0,0,-0.5429376,-1.4491812,2.232817,0.014408457,-0.2248525,1.0009726,1.0840887,-1.0816736,0.5109531,-0.5393823,0.45597255,0.45373142,-0.9253376,-0.026280504
-0.1,-0.2,1.4999999999999998,0.0,0.0,0,-0.54209733,-1.4494138,2.2313237,0.013758254,0.30516797,0.8292746,0.5000187,-1.0822145,0.5082902,-0.5471593,0.46919164,0.5287681,-0.70364594,-0.74208635
-0.1,-0.2,1.4999999999999998,0.0,0.0,0,-0.5451158,-1.4481765,2.2373452,0.022282356,-0.16970155,1.3644,-0.16440815,-1.0840204,0.51269746,-0.5500725,0.45704412,0.41416276,-0.9991125,0.008291873
-0.1,-0.2,1.4999999999999998,0.0,0.0,0,-0.537897,-1.447554,2.2252908,0.00883532,-0.22095223,1.4200156,-0.056473836,-1.087765,0.50712425,-0.54851544,0.44498104,0.1443352,-0.33653554,-0.3108296
-0.1,-0.2,1.4999999999999998,0.0,0.0,0,-0.5409221,-1.4488326,2.2387965,0.019851044,0.3018407,0.82183784,0.5188759,-1.0780811,0.5108923,-0.54562205,0.45890412,0.15565974,-0.9170808,0.2779304
-0.1,-0.2,1.4999999999999998,0.0,0.0,0,-0.54395676,-1.4517413,2.2465558,0.010555739,0.41827318,0.912044,0.3106215,-1.0835866,0.51358134,-0.5499722,0.46748173,0.49979118,-0.93892354,-0.5253558
-0.1,-0.2,1.4999999999999998,0.0,0.0,0,-0.5371781,-1.4513565,2.22468,0.029058453,-0.4416505,0.7552959,0.56223303,-1.0820876,0.5098491,-0.5318544,0.46937692,0.29527628,-1.2419558,0.11370704
-0.1,-0.2,1.4999999999999998,0.0,0.0,0,-0.5454308,-1.4513646,2.2416213,-0.016263217,-0.020171892,0.7362172,0.20091997,-1.0838304,0.51076233,-0.5508273,0.46137822,0.3591898,-0.9639448,-1.0776732
-0.1,-0.2,1.4999999999999998,0.0,0.0,0,-0.53940374,-1.4512042,2.237556,0.012020007,0.3235606,0.87641174,0.36017647,-1.0889479,0.5173215,-0.5398483,0.46664175,0.35499078,-0.9919889,-0.27576554
-0.1,-0.2,1.4999999999999998,0.0,0.0,0,-0.54307103,-1.4516767,2.2196848,-0.0047862893,-0.4947013,1.1690949,0.42170033,-1.0882063,0.5071852,-0.5440813,0.46098897,0.2882833,-1.066834,-0.52993655
-0.1,-0.2,1.4999999999999998,0.0,0.0,0,-0.54524976,-1.4529482,2.2388914,0.041249674,0.33005118,0.7708663,0.59090847,-1.0864218,0.50906146,-0.5469465,0.4642401,0.0778813,-1.2195493,-0.0010491274
-0.1,-0.2,1.4999999999999998,0.0,0.0,0,-0.54014146,-1.4481047,2.2284064,0.017002715,0.09943196,0.85511804,0.37595958,-1.0822744,0.5145911,-0.5437569,0.47196403,0.32799986,-1.120073,0.33808008
-0.1,-0.2,1.4999999999999998,0.0,0.0,0,-0.53407866,-1.4487692,2.2227242,0.037571482,0.12184237,0.9870918,0.21349187,-1.0848702,0.509105,-0.541204,0.4714142,0.28010753,-0.7198516,-0.41994795
-0.1,-0.2,1.4999999999999998,0.0,0.0,0,-0.5381689,-1.4470907,2.2396326,0.036813837,-0.08464388,1.0342599,0.25031283,-1.0860502,0.5139855,-0.54982054,0.46201077,0.072195545,-1.1395807,0.09838264
-0.1,-0.2,1.4999999999999998,0.0,0.0,0,-0.5386002,-1.4506698,2.2309902,0.022164958,-0.14326267,0.756381,0.72836953,-1.0855047,0.50910044,-0.54779404,0.46069047,0.48424926,-1.3560091,-0.071401194
-0.1,-0.2,1.4999999999999998,0.0,0.0,0,-0.54408556,-1.4531773,2.245581,0.033599462,0.3516805,0.95675373,0.37245134,-1.0827732,0.50777364,-0.5455415,0.46826315,0.5815719,-0.1451535,1.3330699
-0.1,-0.2,1.4999999999999998,0.0,0.0,0,-0.54047734,-1.4511346,2.2261395,0.0091480175,-0.4171151,0.28300375,0.6382411,-1.0851041,0.5064764,-0.546336,0.46156272,0.38275626,-0.75039095,-0.13446677
-0.1,-0.2,1.4999999999999998,0.0,0.0,0,-0.5396427,-1.452162,2.2405853,0.024350777,-0.018295288,1.0727887,-0.9083809,-1.0858582,0.50661224,-0.5447225,0.45542353,-0.32157597,-0.57755727,0.61094064
-0.1,-0.2,1.4999999999999998,0.0,0.0,0,-0.53870946,-1.449399,2.233277,0.010607485,0.34069806,1.1713015,0.21396355,-1.0879776,0.5083061,-0.53738827,0.46791673,0.5595593,-1.0360656,0.021806307
-0.1,-0.2,1.4999999999999998,0.0,0.0,0,-0.5332614,-1.4517491,2.2322116,0.0018963873,0.13257803,1.06354,0.12137514,-1.085447,0.51747596,-0.54452765,0.4615039,0.37521228,-0.04959317,-1.2948589
-0.1,-0.2,1.4999999999999998,0.0,0.0,0,-0.5352079,-1.4505335,2.2226071,0.010936615,0.21085568,0.77557594,0.49021733,-1.0870106,0.51433957,-0.5424476,0.451534,0.39190874,-0.0688731,-0.50063396
-0.1,-0.2,1.4999999999999998,0.0,0.0,0,-0.5405084,-1.451068,2.2480893,0.03868575,-0.10245024,0.72125816,0.53063077,-1.0905211,0.5037661,-0.54294884,0.45463806,0.045685124,-0.77659273,-0.6166548
-0.1,-0.2,1.4999999999999998,0.0,0.0,0,-0.5412776,-1.4524547,2.2312677,0.03754519,0.5698793,1.0796343,0.54030365,-1.0767043,0.50567436,-0.53781384,0.46878707,0.35776034,-0.8875777,1.0577607
-0.1,-0.2,1.4999999999999998,0.0,0.0,0,-0.5474296,-1.4523987,2.236946,0.006586164,-0.4367248,0.6542529,0.06822858,-1.0828725,0.50966316,-0.5551624,0.45633718,0.62201625,-1.2436837,-0.3670124
-0.1,-0.2,1.4999999999999998,0.0,0.0,0,-0.53835607,-1.4486381,2.2505531,0.015685093,-0.1545552,1.0893523,-0.038619455,-1.087125,0.5138425,-0.54464084,0.46329224,0.29760113,-0.76973724,-0.3745219
-0.1,-0.2,1.4999999999999998,0.0,0.0,0,-0.5434651,-1.4544355,2.2336867,0.033118356,-0.454421,1.0771183,-0.44334865,-1.085856,0.5140574,-0.54597545,0.4571688,0.04271248,-0.6945169,-0.6204322
-0.1,-0.2,1.4999999999999998,0.0,0.0,0,-0.5355933,-1.451321,2.251947,0.036272466,-0.873176,1.0056875,0.38038728,-1.0835214,0.5071247,-0.5451735,0.4587604,0.09995661,-0.7641608,2.0464382
-0.1,-0.2,1.4999999999999998,0.0,0.0,0,-0.53956217,-1.4542764,2.2280936,-0.0008722847,-0.51591444,0.94972783,0.25788504,-1.0824765,0.5116221,-0.5559796,0.46757966,0.5268212,-0.6477935,-0.23032416
-0.1,-0.2,1.4999999999999998,0.0,0.0,0,-0.5376551,-1.4516724,2.233077,0.012666559,0.07590264,0.9650172,0.063255884,-1.0851994,0.5092654,-0.54735243,0.4685141,-0.14565241,-0.79617363,-0.3898505
-0.1,-0.2,1.4999999999999998,0.0,0.0,0,-0.5390012,-1.4498694,2.2306466,0.0021272646,0.075792365,0.9719073,0.39287546,-1.0849993,0.5125659,-0.54399437,0.45980096,0.054334205,-0.14572768,-0.16079357
-0.1,-0.2,1.4999999999999998,0.0,0.0,0,-0.5418868,-1.450595,2.231093,0.0038537711,-0.52705204,1.1093941,-0.56538635,-1.0853246,0.5063693,-0.53804165,0.46493936,0.47940087,-1.0062376,-0.08997769
-0.1,-0.2,1.4999999999999998,0.0,0.0,0,-0.5384221,-1.4508659,2.2278707,0.036049783,0.26105177,1.21069,-0.72163725,-1.0832804,0.50977826,-0.5441459,0.46479228,0.4801646,-1.2309904,0.27257892
-0.1,-0.2,1.4999999999999998,0.0,0.0,0,-0.545495,-1.4499981,2.2347453,0.022232233,-0.40632838,0.93690604,-0.056114085,-1.087924,0.50616795,-0.5485552,0.4570348,0.10642998,-1.2991358,-0.07095713
-0.1,-0.2,1.4999999999999998,0.0,0.0,0,-0.5435145,-1.4560133,2.2345574,0.0037717668,-0.27891442,0.99534166,-0.237547,-1.0866029,0.511457,-0.5468639,0.45461032,0.5688836,-0.8875596,-0.4314942
-0.1,-0.2,1.4999999999999998,0.0,0.0,0,-0.5414621,-1.4480189,2.2451272,0.015588977,0.45994103,1.0994382,-0.6288122,-1.0855472,0.50466675,-0.5429067,0.45720425,0.16108659,-0.63038874,0.9852346
-0.1,-0.2,1.4999999999999998,0.0,0.0,0,-0.5414411,-1.4445349,2.231983,0.0028099439,0.053586937,0.9837426,-0.57805413,-1.0822624,0.50909114,-0.53646106,0.4617867,0.41281772,-1.2231178,-0.94458526
-0.1,-0.2,1.4999999999999998,0.0,0.0,0,-0.5423742,-1.4494255,2.2563837,0.049969967,0.34868416,0.69678915,-0.577071,-1.0865376,0.5109888,-0.5534769,0.4620228,0.24756916,-0.7335799,0.96547043
-0.1,-0.2,1.4999999999999998,0.0,0.0,0,-0.53652924,-1.4506742,2.2333884,0.018929468,-0.020013802,0.88694596,0.34179467,-1.08704,0.504534,-0.5416278,0.467299,0.3614331,-1.0237546,-1.5018182
-0.1,-0.2,1.4999999999999998,0.0,0.0,0,-0.53974456,-1.4449873,2.2452948,0.012307767,-0.60433376,0.94243103,0.80705786,-1.0872849,0.51567614,-0.54293203,0.4563023,0.56015307,-0.6336504,0.2519155
-0.1,-0.2,1.4999999999999998,0.0,0.0,0,-0.5408777,-1.4498928,2.2442422,-0.0042748293,0.21448891,1.0957497,0.13985325,-1.0793535,0.5111284,-0.5382663,0.45821968,0.74456084,-0.7814553,0.61669046
-0.1,-0.2,1.4999999999999998,0.0,0.0,0,-0.5447783,-1.4516563,2.233424,0.019657264,0.06018209,0.97165346,0.39027178,-1.0830997,0.5084999,-0.53555703,0.46124294,0.29731146,-0.7331717,0.049661797
-0.1,-0.2,1.4999999999999998,0.0,0.0,0,-0.5404801,-1.4505193,2.228375,0.0013678253,-0.22277541,1.1169053,0.34378073,-1.087187,0.5088153,-0.5428309,0.46289352,-0.29854298,-1.3694509,0.8446861
-0.1,-0.2,1.4999999999999998,0.0,0.0,0,-0.5426192,-1.4475843,2.228335,0.006212781,-0.07026542,0.8198476,0.585249,-1.0828395,0.5117845,-0.54486376,0.46921507,-0.17269675,-1.0073012,-0.70207727
-0.1,-0.2,1.4999999999999998,0.0,0.0,0,-0.5425335,-1.4447315,2.2369466,-0.0143357385,-0.1507843,0.8978241,0.22619395,-1.078757,0.51281214,-0.5467867,0.46212462,0.2545188,-0.79654276,0.26737636
-0.1,-0.2,1.4999999999999998,0.0,0.0,0,-0.5470866,-1.4514762,2.2438989,0.008331387,0.20842423,0.8171265,0.42594948,-1.0859431,0.5107632,-0.5442576,0.4650559,0.017030407,-1.293927,0.1458958
-0.1,-0.2,1.4999999999999998,0.0,0.0,0,-0.5417266,-1.4517143,2.231548,0.013674896,-0.38173392,1.2956456,0.20480062,-1.0812112,0.51550496,-0.55670303,0.45696,0.49909166,-0.8634451,-0.5772377
-0.1,-0.2,1.4999999999999998,0.0,0.0,0,-0.5389875,-1.4452702,2.2349768,0.017215488,0.23506653,0.81203014,1.3129356,-1.0802768,0.5134531,-0.5533122,0.45977145,-0.23395951,-1.0458553,0.5562493
-0.1,-0.2,1.4999999999999998,0.0,0.0,0,-0.543901,-1.4527655,2.2196965,0.0094049685,0.6561785,1.2799748,0.736153,-1.0856268,0.5076582,-0.54835135,0.4550554,0.3771901,-1.0380441,1.2511677
-0.1,-0.2,1.4999999999999998,0.0,0.0,0,-0.5402024,-1.4481725,2.239492,-0.0126531655,0.05379507,1.2786275,1.118097,-1.0828687,0.50944406,-0.551703,0.46052647,0.13792017,-0.8841391,-0.28653234
-0.1,-0.2,1.4999999999999998,0.0,0.0,0,-0.5389532,-1.4504411,2.2373662,-0.0050934893,-0.35949317,0.89118475,0.32612154,-1.0838506,0.51086754,-0.54652715,0.46488726,0.12927897,-0.90528846,0.20541711
-0.1,-0.2,1.4999999999999998,0.0,0.0,0,-0.54126775,-1.4483589,2.2239287,-0.0010337482,-0.0943543,1.1024001,-0.2438617,-1.0894157,0.5090933,-0.5494583,0.46522266,0.8303658,-1.4176092,-0.601875
-0.1,-0.2,1.4999999999999998,0.0,0.0,0,-0.5410173,-1.4540052,2.234819,-0.006899589,0.5645928,0.8766994,1.3697469,-1.0813826,0.509559,-0.552919,0.46047905,0.07460045,-0.6850099,-1.2247692
-0.1,-0.2,1.4999999999999998,0.0,0.0,0,-0.5454012,-1.4510573,2.2284687,0.020179698,0.15122002,0.93035156,-0.21219417,-1.0819302,0.51189345,-0.54631734,0.46878847,0.37019545,-1.282285,-0.7229504
-0.1,-0.2,1.4999999999999998,0.0,0.0,0,-0.54076254,-1.4486607,2.2374358,-0.010582583,-0.25944707,0.9873177,0.32259077,-1.082609,0.51740545,-0.54109913,0.45561504,0.16984968,-0.8397453,0.3891467
-0.1,-0.2,1.4999999999999998,0.0,0.0,0,-0.54078794,-1.4426965,2.2494047,-0.013715563,0.23800826,0.89865804,0.15349473,-1.0824963,0.508767,-0.5531163,0.4677158,0.4024291,-1.0992138,1.4124545
-0.1,-0.2,1.4999999999999998,0.0,0.0,0,-0.53662527,-1.4525837,2.2336235,0.005008553,0.12801084,1.2069919,0.9703875,-1.0845795,0.5160575,-0.5381028,0.4527568,0.103344165,-0.83975387,0.14039464
-0.1,-0.2,1.4999999999999998,0.0,0.0,0,-0.54109067,-1.4551388,2.229604,-0.016392624,-0.4106319,1.1082276,-0.9640924,-1.0826519,0.51071256,-0.5464556,0.46831742,0.27971956,-0.7435947,0.109105736
-0.1,-0.2,1.4999999999999998,0.0,0.0,0,-0.5409791,-1.4507649,2.2456253,0.009196635,-0.11025931,0.71440035,-0.38705304,-1.0846281,0.5120438,-0.54775256,0.45351726,0.73013175,-0.7471485,-1.0378835
-0.1,-0.2,1.4999999999999998,0.0,0.0,0,-0.54470545,-1.4459591,2.2312324,-0.0071379254,-0.20996876,0.9973592,-0.3087054,-1.0881342,0.5115024,-0.5419098,0.45477575,0.3725824,-0.62764645,0.21173707
-0.1,-0.2,1.4999999999999998,0.0,0.0,0,-0.53787905,-1.4491483,2.230952,0.0077143884,0.03523058,1.2448173,0.16859537,-1.0865848,0.50858086,-0.54309976,0.45907068,-0.0494881,-0.65887964,-0.08450823
-0.1,-0.2,1.4999999999999998,0.0,0.0,0,-0.54462117,-1.4538646,2.226246,-0.0055009644,-0.17339218,0.74198025,0.193506,-1.0856171,0.50642705,-0.53728044,0.45115378,-0.038484886,-1.0734763,0.36147887
-0.1,-0.2,1.4999999999999998,0.0,0.0,0,-0.5470052,-1.4567612,2.2246304,0.012366032,0.011732985,1.2250544,-0.20841673,-1.0811359,0.5153477,-0.55416137,0.46731108,0.5695483,-0.99817526,-0.96636117
-0.1,-0.2,1.4999999999999998,0.0,0.0,0,-0.5400668,-1.4525523,2.23756,0.01082363,0.08061929,0.800281,0.43508422,-1.0815836,0.5047238,-0.5376905,0.46011695,-0.03564877,-0.99666435,-0.014057679
-0.1,-0.2,1.4999999999999998,0.0,0.0,0,-0.5361355,-1.4500443,2.2519672,0.05338481,0.08754527,0.9395291,0.4510962,-1.0852214,0.5062372,-0.55319303,0.46359712,0.9319975,-0.8139561,0.2634164
-0.1,-0.2,1.4999999999999998,0.0,0.0,0,-0.53723955,-1.4476441,2.2348008,0.004664319,-0.095106564,0.7436583,-0.3025209,-1.0836833,0.51190096,-0.5365642,0.46967462,0.5152927,-0.99227124,-0.1573015
-0.1,-0.2,1.4999999999999998,0.0,0.0,0,-0.5458413,-1.4543302,2.2286582,0.0116936695,0.639585,1.2632556,0.13687202,-1.0828242,0.5063295,-0.54343647,0.47189885,0.3599882,-1.1171534,-0.35065696
-0.1,-0.2,1.4999999999999998,0.0,0.0,0,-0.53994924,-1.44859,2.2434871,0.03678752,-0.009744042,0.95051587,-0.6218925,-1.087616,0.51486415,-0.54419047,0.44969752,0.5929381,-0.8872929,0.9685439
-0.1,-0.2,1.4999999999999998,0.0,0.0,0,-0.5369747,-1.4484594,2.2294414,0.0011449197,-0.2074518,0.98681706,0.7022243,-1.0845853,0.5152382,-0.53623235,0.4561821,0.4085508,-0.8581128,-0.26527599
-0.1,-0.2,1.4999999999999998,0.0,0.0,0,-0.5433667,-1.4553258,2.2320058,0.03408987,0.33791146,1.2995961,0.24485768,-1.0840613,0.51480246,-0.5311785,0.46227163,0.21221815,-1.3233616,1.1231344
-0.1,-0.2,1.4999999999999998,0.0,0.0,0,-0.5354398,-1.4461863,2.2289906,0.008934727,-0.2566302,0.77778536,-0.178784,-1.0842892,0.5076806,-0.54678434,0.46267253,0.3131293,-1.350129,0.81991714
-0.1,-0.2,1.4999999999999998,0.0,0.0,0,-0.5462639,-1.4486879,2.2324078,0.018066784,-0.048960287,0.8139761,-0.19345006,-1.0829947,0.5131659,-0.5495679,0.45702314,-0.06865009,-0.7780759,0.57958734
-0.1,-0.2,1.4999999999999998,0.0,0.0,0,-0.5425363,-1.4498129,2.2453258,-0.0008024538,0.4769239,0.990816,-0.796412,-1.0815126,0.50617045,-0.5546037,0.46193185,0.5082569,-1.5442945,-0.98282045
-0.1,-0.2,1.4999999999999998,0.0,0.0,0,-0.54405814,-1.4540665,2.2376637,0.009291535,0.53438437,0.9827129,0.6897859,-1.0845444,0.5122653,-0.54540384,0.4697043,0.62950855,-1.1221601,-0.4723213
-0.1,-0.2,1.4999999999999998,0.0,0.0,0,-0.53853714,-1.4565771,2.2307875,0.012837157,-0.51080847,0.889048,0.10715631,-1.0851187,0.5065878,-0.5471407,0.44759378,0.16215487,-0.9256477,0.0021865324
-0.1,-0.2,1.4999999999999998,0.0,0.0,0,-0.53916395,-1.4488635,2.214501,0.008615596,0.1470525,0.7120828,-0.20239973,-1.0914156,0.5157399,-0.55847967,0.4638159,0.3433927,-0.85012484,-0.25615117
-0.1,-0.2,1.4999999999999998,0.0,0.0,0,-0.53914845,-1.4488984,2.231507,0.014967638,-0.45878357,0.6219858,-0.21644992,-1.0831076,0.5100373,-0.5503302,0.46471065,-0.19963264,-1.4519157,-1.1376312
-0.1,-0.2,1.4999999999999998,0.0,0.0,0,-0.5424619,-1.4521435,2.2368994,-0.0049098316,0.4167571,0.9731388,0.7082924,-1.0839673,0.510189,-0.54368013,0.46619463,0.1825204,-0.8749042,-0.9978856
-0.1,-0.2,1.4999999999999998,0.0,0.0,0,-0.54185545,-1.453363,2.2418666,0.019872244,0.28634784,0.84159213,0.025624795,-1.0753131,0.50651383,-0.5567073,0.46357217,0.73798376,-0.59483016,0.6128401
-0.1,-0.2,1.4999999999999998,0.0,0.0,0,-0.5411725,-1.4545484,2.2339287,0.037076596,-0.18911737,1.0816531,0.12889291,-1.0859699,0.50927395,-0.54300743,0.4641947,-0.06542842,-0.8576833,-0.91389465
-0.1,-0.2,1.4999999999999998,0.0,0.0,0,-0.53894985,-1.4520973,2.2363174,-0.005998752,0.0058974167,0.9418742,0.11689912,-1.0839045,0.5170262,-0.5410294,0.4628026,0.55447584,-0.53177494,-0.097511984
-0.1,-0.2,1.4999999999999998,0.0,0.0,0,-0.53724474,-1.4491181,2.235785,0.009545827,0.13848,0.9785475,-0.03637671,-1.0866914,0.5097496,-0.54314786,0.46071473,0.7756637,-1.0225519,-0.09836845
-0.1,-0.2,1.4999999999999998,0.0,0.0,0,-0.5408977,-1.4523398,2.2427633,0.005271669,0.12159454,0.8184099,0.63978857,-1.0797176,0.5135727,-0.5390041,0.47076797,0.33997297,-0.69542515,-0.37341997
-0.1,-0.2,1.4999999999999998,0.0,0.0,0,-0.54871696,-1.4511452,2.2503524,0.029961428,0.03662775,0.83636415,0.46333757,-1.0863435,0.52113235,-0.55048096,0.4559269,0.4646371,-1.070144,0.7039612
-0.1,-0.2,1.4999999999999998,0.0,0.0,0,-0.54259086,-1.449556,2.2253375,0.007914409,-0.007875138,0.92282903,0.50382125,-1.0908194,0.5125324,-0.54940057,0.45853123,-0.0865323,-0.7795917,0.16263378
-0.1,-0.2,1.4999999999999998,0.0,0.0,0,-0.53634787,-1.4496117,2.2417128,0.01828172,0.23648866,1.141736,0.89631355,-1.0875862,0.5078023,-0.5426838,0.45925042,0.28969502,-1.1021904,0.8188132
-0.1,-0.2,1.4999999999999998,0.0,0.0,0,-0.5409919,-1.4543797,2.221596,-0.0017300202,0.580031,1.018073,0.117433086,-1.085048,0.50923574,-0.5472995,0.4647594,0.062241662,-1.4246616,-0.89463013
-0.1,-0.2,1.4999999999999998,0.0,0.0,0,-0.54665023,-1.4470738,2.2429607,0.021984627,-0.026105253,0.9369543,-0.35660028,-1.08365,0.50814676,-0.5463301,0.45991978,0.075315244,-0.63191175,-0.8821414
-0.1,-0.2,1.4999999999999998,0.0,0.0,0,-0.5358828,-1.4483441,2.2405455,0.02180703,0.12195147,0.8747123,0.23841959,-1.0877928,0.5141728,-0.53706086,0.45403185,-0.050514277,-0.66007406,0.3951811
-0.1,-0.2,1.4999999999999998,0.0,0.0,0,-0.54120564,-1.4491578,2.2425697,0.007833123,0.14601722,0.908023,-0.10430212,-1.082418,0.5122674,-0.54955757,0.46502817,0.2558153,-1.341573,-0.15042825
-0.1,-0.2,1.4999999999999998,0.0,0.0,0,-0.5407408,-1.4515443,2.2436182,0.029768534,0.044105057,1.0276713,0.42502356,-1.0826917,0.511359,-0.5624491,0.4581855,0.34256732,-0.60357994,0.1482256
-0.1,-0.2,1.4999999999999998,0.0,0.0,0,-0.5394514,-1.4499738,2.229032,-0.0053225555,-0.5430672,1.035869,0.87208056,-1.0787401,0.5054743,-0.54939276,0.47023454,-0.042300202,-1.3197554,0.16154076
-0.1,-0.2,1.4999999999999998,0.0,0.0,0,-0.53711104,-1.4557025,2.230112,0.017868008,-0.011530413,0.5658669,0.9487321,-1.0812473,0.5129432,-0.5398711,0.4617598,0.38346922,-1.0429298,1.4792277
-0.1,-0.2,1.4999999999999998,0.0,0.0,0,-0.53910613,-1.4548206,2.234803,0.00868966,0.02597412,1.1407173,0.4390726,-1.0895439,0.5075535,-0.5363193,0.46255243,0.7315112,-1.1082864,1.002068
-0.1,-0.2,1.4999999999999998,0.0,0.0,0,-0.5371064,-1.4482676,2.242363,0.009557324,0.13150433,0.96984833,0.7589019,-1.0778095,0.51113474,-0.5458423,0.46859443,0.23305233,-0.67949504,-0.51686496
-0.1,-0.2,1.4999999999999998,0.0,0.0,0,-0.5413875,-1.4445657,2.2445872,0.003752739,0.47883305,1.2856282,0.82855153,-1.0799799,0.51253325,-0.5394557,0.46522012,-0.045023225,-1.0185457,0.14041568
-0.1,-0.2,1.4999999999999998,0.0,0.0,0,-0.5424345,-1.4522839,2.238888,0.033057734,0.21919172,0.93367994,-0.5656823,-1.0832738,0.5188364,-0.55018634,0.4602378,0.08739865,-0.7863323,-0.75470173
-0.1,-0.2,1.4999999999999998,0.0,0.0,0,-0.5387151,-1.4468706,2.241209,0.015526486,-0.23591474,0.6623605,-0.4979184,-1.0848272,0.50871885,-0.5402017,0.46028697,-0.049133845,-0.799947,0.256301
-0.1,-0.2,1.4999999999999998,0.0,0.0,0,-0.5411299,-1.4513029,2.2515476,0.025380833,0.51016945,0.86776465,-0.3371086,-1.0822433,0.51597315,-0.5438369,0.4596233,0.22214149,-0.62736964,-0.071087226
-0.1,-0.2,1.4999999999999998,0.0,0.0,0,-0.5419412,-1.4499696,2.2214515,0.004496897,0.25417206,1.1177256,-0.41644287,-1.0814236,0.5104971,-0.5517289,0.45672226,0.19330537,-1.0954458,-0.69893587
-0.1,-0.2,1.4999999999999998,0.0,0.0,0,-0.5375937,-1.4509543,2.2487476,0.023030173,-0.16745377,1.1973327,0.09265094,-1.0822734,0.5061431,-0.5500698,0.47075635,0.021109601,-0.7820257,-0.12301719
-0.1,-0.2,1.4999999999999998,0.0,0.0,0,-0.5409695,-1.4528407,2.23854,0.0039050146,-0.15407164,0.8812237,0.42894727,-1.0827954,0.5068083,-0.5516989,0.45688328,0.24951528,-1.0078057,-0.28805763
-0.1,-0.2,1.4999999999999998,0.0,0.0,0,-0.5411958,-1.4495746,2.2372072,0.02737448,-0.1122891,1.0941659,0.18944137,-1.0821837,0.51050115,-0.5448636,0.46429408,0.12446973,-0.58829874,0.16988182
-0.1,-0.2,1.4999999999999998,0.0,0.0,0,-0.5370137,-1.45503,2.2139177,-0.012361606,-0.18298726,0.6164478,0.45801964,-1.0796473,0.5112909,-0.545015,0.455412,-0.11525444,-1.2732903,-0.25775608
-0.1,-0.2,1.4999999999999998,0.0,0.0,0,-0.53615993,-1.4482996,2.2428641,0.025718447,-0.11110858,0.7464811,-0.47661602,-1.0873945,0.5101781,-0.5285033,0.4708108,0.10183537,-0.8968774,0.18789707
-0.1,-0.2,1.4999999999999998,0.0,0.0,0,-0.5444818,-1.459618,2.2468529,0.036566712,-0.4239159,0.9882671,0.3305928,-1.0802472,0.5135705,-0.554385,0.4596244,0.53892356,-0.83845943,-0.8711212
-0.1,-0.2,1.4999999999999998,0.0,0.0,0,-0.53859013,-1.4537578,2.2331564,0.0062313788,0.15704417,0.90068537,0.9281686,-1.0830966,0.50734806,-0.54834074,0.46389413,-0.18064085,-1.2756057,-0.8482532
-0.1,-0.2,1.4999999999999998,0.0,0.0,0,-0.5361585,-1.4517512,2.2415936,0.021779362,-0.05464064,1.0207254,0.10038771,-1.0811062,0.5045619,-0.5401131,0.46447447,0.2333975,-0.6169423,0.13599916
-0.1,-0.2,1.4999999999999998,0.0,0.0,0,-0.54212314,-1.4512208,2.2521143,0.017054409,-0.16036887,0.8004615,-0.2612221,-1.0852565,0.49996343,-0.54154646,0.4565914,0.2347962,-0.74408656,-1.3867053
-0.1,-0.2,1.4999999999999998,0.0,0.0,0,-0.5452322,-1.4519905,2.234302,0.012402191,0.12659653,1.0125487,0.040023368,-1.0841415,0.5208896,-0.5457367,0.46526763,0.07610796,-0.92163885,0.50283426
-0.1,-0.2,1.4999999999999998,0.0,0.0,0,-0.5370241,-1.4490283,2.24513,0.012802616,0.051383726,0.9446812,-0.1300954,-1.0863024,0.50489503,-0.53617173,0.46439356,0.35534152,-0.90824366,0.10012367
-0.1,-0.2,1.4999999999999998,0.0,0.0,0,-0.5426658,-1.4527682,2.2429745,-0.0054279347,-0.48659444,0.8098247,-0.09100516,-1.0853046,0.519057,-0.5360756,0.4671986,-0.019469645,-1.3720415,-0.46190602
-0.1,-0.2,1.4999999999999998,0.0,0.0,0,-0.5374011,-1.4494014,2.2413204,0.015909633,-0.116735496,0.88120145,0.42939305,-1.0837439,0.50974476,-0.54370856,0.46274436,-0.2174776,-1.1320562,0.7674596
-0.1,-0.2,1.4999999999999998,0.0,0.0,0,-0.53968734,-1.4524344,2.2465377,0.035040822,-0.20584501,1.2016424,0.7880496,-1.0813223,0.5139758,-0.5548341,0.4620811,0.31873932,-1.3864614,1.831746
-0.1,-0.2,1.4999999999999998,0.0,0.0,0,-0.54126966,-1.4509938,2.2245216,0.0065531586,-0.6211654,0.727144,0.861483,-1.0871388,0.5046131,-0.5434391,0.45952746,0.49900335,-0.09271118,-0.32407695
-0.1,-0.2,1.4999999999999998,0.0,0.0,0,-0.5429168,-1.4452524,2.2442887,0.038595013,0.2558586,0.64811033,0.26210186,-1.0872047,0.504912,-0.5412312,0.4658381,0.5344425,-0.47967425,-0.7670302
-0.1,-0.2,1.4999999999999998,0.0,0.0,0,-0.54006433,-1.4506954,2.2515273,0.021538652,-0.043175146,1.1176404,0.6086672,-1.0810342,0.5084223,-0.54082793,0.45225832,-0.038047433,-0.15075834,0.74686795
-0.1,-0.2,1.4999999999999998,0.0,0.0,0,-0.53943133,-1.454754,2.244007,0.0017309247,0.21767913,0.5825633,0.0953893,-1.0857054,0.50859165,-0.54687816,0.45440397,-0.29932335,-0.70665306,0.20228118
-0.1,-0.2,1.4999999999999998,0.0,0.0,0,-0.5409959,-1.4536198,2.219509,0.027968403,0.28802043,0.7992204,-0.59186244,-1.0835375,0.50546783,-0.5353498,0.46373326,0.2608799,-0.6918815,0.06808538
-0.1,-0.2,1.4999999999999998,0.0,0.0,0,-0.54011494,-1.448896,2.227641,0.010533737,0.058401097,0.98660177,-0.08141763,-1.0851288,0.5142136,-0.54299974,0.45766997,0.68714315,-0.4737459,-1.1215265
-0.1,-0.2,1.4999999999999998,0.0,0.0,0,-0.5447799,-1.4554089,2.2246146,0.0015840527,-0.44929916,0.48772728,0.2149082,-1.0821122,0.5137762,-0.54647434,0.45535654,0.4004533,-1.2157834,0.5990971
-0.1,-0.2,1.4999999999999998,0.0,0.0,0,-0.5445862,-1.4444814,2.2300107,0.05087217,0.51707196,1.3536736,-0.12465756,-1.0847086,0.50791824,-0.54798776,0.4608869,0.0663502,-0.3916338,0.038118273
-0.1,-0.2,1.4999999999999998,0.0,0.0,0,-0.54105175,-1.4513469,2.2349105,0.020514624,0.13752897,0.8020989,0.07674525,-1.0805664,0.5022741,-0.54582804,0.4636388,0.42821032,-0.6331581,-0.7419294
-0.1,-0.2,1.4999999999999998,0.0,0.0,0,-0.532117,-1.4473993,2.2441957,0.01712531,-0.5071907,0.9446263,-0.511935,-1.0882089,0.5062003,-0.5320423,0.45663184,0.3745499,-0.76673347,0.70217407
-0.1,-0.2,1.4999999999999998,0.0,0.0,0,-0.54153997,-1.4488751,2.2327917,0.0036535892,0.106644444,1.1766715,0.5447709,-1.0875536,0.5108114,-0.5542939,0.46237662,0.4040822,-0.4548757,-0.81441534
-0.1,-0.2,1.4999999999999998,0.0,0.0,0,-0.53842735,-1.4510725,2.2240684,0.0036821598,-0.07691922,0.85448277,-0.18922274,-1.0837657,0.5139447,-0.5495249,0.45919642,-0.008205868,-0.8680676,-1.4900489
-0.1,-0.2,1.4999999999999998,0.0,0.0,0,-0.54084605,-1.4505093,2.234655,0.019050678,-0.44772622,0.82022345,-0.14890543,-1.0901297,0.5082752,-0.5560836,0.46493945,0.061225068,-0.69701505,-0.13099942
-0.1,-0.2,1.4999999999999998,0.0,0.0,0,-0.54105264,-1.4525139,2.245799,0.021518586,-0.126682,1.2120343,-0.055280328,-1.0831764,0.5121398,-0.5519297,0.4610569,0.32053575,-0.61837626,-1.6358281
-0.1,-0.2,1.4999999999999998,0.0,0.0,0,-0.5403243,-1.4507998,2.2296605,0.043650325,0.24052064,0.7673676,-0.19229005,-1.0916619,0.5077151,-0.552026,0.45403168,0.19383046,-0.7367414,-0.06667449
-0.1,-0.2,1.4999999999999998,0.0,0.0,0,-0.5395432,-1.4506242,2.2351298,0.026925704,-0.3597652,0.76470923,0.46429557,-1.0826815,0.50964415,-0.5458121,0.4541231,0.6045182,-0.7941797,0.95604813
-0.1,-0.2,1.4999999999999998,0.0,0.0,0,-0.5419768,-1.454715,2.2359116,0.021046057,-0.08347284,0.77912855,-0.2095153,-1.0875999,0.5123329,-0.54418874,0.45782113,0.029459186,-0.73790896,0.2987248
-0.1,-0.2,1.4999999999999998,0.0,0.0,0,-0.5343886,-1.4459924,2.2271075,0.016907949,0.37344986,0.96075535,-0.23462267,-1.084465,0.5070486,-0.5499552,0.45245752,0.44841123,-0.73276126,-0.4101584
-0.1,-0.2,1.4999999999999998,0.0,0.0,0,-0.53737485,-1.4454246,2.238958,0.027238995,-0.10146701,0.8454172,-0.22824357,-1.0873418,0.5089311,-0.5445716,0.4576139,0.73463476,-0.82670283,0.4758361
-0.1,-0.2,1.4999999999999998,0.0,0.0,0,-0.5428681,-1.4483222,2.2392945,0.02665956,0.22237709,0.94985473,0.48146042,-1.0844791,0.51516366,-0.5343551,0.45599893,0.26360095,-0.6241763,-0.40645033
-0.1,-0.2,1.4999999999999998,0.0,0.0,0,-0.5435927,-1.4538255,2.2564883,0.033911914,0.34435913,0.8435043,0.15215784,-1.0847346,0.51332086,-0.5413634,0.45534393,0.3076889,-0.97704613,-0.47418755
-0.1,-0.2,1.4999999999999998,0.0,0.0,0,-0.5378176,-1.4460517,2.2193117,0.0077611315,-0.28875014,0.9093557,-0.28261077,-1.0871704,0.50809985,-0.5403421,0.46146002,0.005318745,-0.84161675,-0.10044601
-0.1,-0.2,1.4999999999999998,0.0,0.0,0,-0.53921795,-1.4539515,2.2171574,0.045949727,0.4118615,0.9364179,0.23748,-1.0844432,0.5175662,-0.54884064,0.4597637,0.019928338,-0.76798654,-0.6880002
-0.1,-0.2,1.4999999999999998,0.0,0.0,0,-0.54704183,-1.4517806,2.235757,0.025980717,-0.33591282,1.0462812,0.27302572,-1.0815116,0.50886697,-0.54515666,0.46085212,-0.29867002,-0.68040705,-0.65246904
-0.1,-0.2,1.4999999999999998,0.0,0.0,0,-0.54465663,-1.4493335,2.2333486,0.04205972,0.09344776,0.7820296,0.310481,-1.0851989,0.51047516,-0.54418284,0.4689234,0.39061257,-0.80987346,-0.48427507
-0.1,-0.2,1.4999999999999998,0.0,0.0,0,-0.54108274,-1.4591725,2.234408,0.0068231933,0.1383868,0.9727008,-0.34131438,-1.0823355,0.50913656,-0.5389823,0.45232803,0.16028845,-0.8941851,-0.52214074
-0.1,-0.2,1.4999999999999998,0.0,0.0,0,-0.5367862,-1.4449223,2.2413352,0.048181612,-0.2577579,0.5955991,0.46282512,-1.086466,0.50450814,-0.5477434,0.4576316,-0.2777191,-1.0519228,-0.88897383
-0.1,-0.2,1.4999999999999998,0.0,0.0,0,-0.54544246,-1.4518036,2.2344384,-0.012029217,0.0002567784,0.8159191,0.29115286,-1.0845264,0.5101484,-0.53855664,0.4605251,0.4251318,-0.76141596,-0.23410578
-0.1,-0.2,1.4999999999999998,0.0,0.0,0,-0.5391123,-1.4495356,2.2443132,0.015924547,-0.44307777,0.7778222,-0.5503069,-1.0795585,0.5145049,-0.54363143,0.46399748,0.6531651,-1.03593,0.56969446
-0.1,-0.2,1.4999999999999998,0.0,0.0,0,-0.5400622,-1.4482341,2.2280364,0.04109324,0.14006539,1.0209178,-0.066035636,-1.087272,0.5079515,-0.5434483,0.4684923,-0.109837584,-0.79491454,-0.3732426
-0.1,-0.2,1.4999999999999998,0.0,0.0,0,-0.54030263,-1.450715,2.223867,0.030263042,-0.16903962,0.83529025,0.110036306,-1.0820863,0.510152,-0.5380675,0.45720747,-0.013257416,-0.97168785,0.70454067
-0.1,-0.2,1.4999999999999998,0.0,0.0,0,-0.54149497,-1.4529485,2.2456799,0.00050650624,0.3421399,0.9445066,-0.37977853,-1.0892775,0.50886714,-0.5486328,0.46649006,0.480222,-1.0847845,0.004726162
-0.1,-0.2,1.4999999999999998,0.0,0.0,0,-0.53904146,-1.4529873,2.238032,0.008138798,-0.47308522,0.8421596,0.074216425,-1.0852828,0.509679,-0.55458,0.46156165,0.31445962,-1.1638122,-0.78491503
-0.1,-0.2,1.4999999999999998,0.0,0.0,0,-0.5399332,-1.4491737,2.2273586,-0.004093925,-0.17540523,0.8202992,-0.0123301465,-1.0822046,0.51473635,-0.5509222,0.46072832,-0.4072979,-0.9855929,-0.11279664
-0.1,-0.2,1.4999999999999998,0.0,0.0,0,-0.54462975,-1.4502927,2.2364504,0.014131328,-0.32545817,0.76117593,0.19456007,-1.0860106,0.50970304,-0.5433964,0.4700767,-0.08913263,-1.1445476,-0.53393024
-0.1,-0.2,1.4999999999999998,0.0,0.0,0,-0.53957945,-1.4484231,2.2332673,0.020228527,-0.09090297,1.240016,0.2870319,-1.0842429,0.50502086,-0.53472203,0.4662482,0.41453123,-0.99590385,0.47219753
-0.1,-0.2,1.4999999999999998,0.0,0.0,0,-0.5342612,-1.4491308,2.2235963,0.010322516,0.33764046,1.0441319,0.759094,-1.0779132,0.5063701,-0.5332047,0.46327844,-0.1345131,-1.1298081,0.70098776
-0.1,-0.2,1.4999999999999998,0.0,0.0,0,-0.5380133,-1.4505175,2.2232623,0.027313948,-0.05362613,1.0038165,-0.20537682,-1.0859009,0.5101468,-0.5494,0.45793617,0.053856622,-1.0610471,0.3383561
-0.1,-0.2,1.4999999999999998,0.0,0.0,0,-0.54129523,-1.4458245,2.2249687,0.002007168,-0.090804234,0.877357,0.8777878,-1.0792805,0.5090011,-0.5343912,0.45957002,0.3533375,-0.99398243,0.6045783
-0.1,-0.2,1.4999999999999998,0.0,0.0,0,-0.5393259,-1.4432907,2.2439995,0.01958654,0.17886393,0.7922481,-0.19568071,-1.0849336,0.5077998,-0.5502847,0.46448842,0.2232332,-1.4024818,1.0713506
-0.1,-0.2,1.4999999999999998,0.0,0.0,0,-0.54665506,-1.4475659,2.2323508,0.012634655,-0.15709366,1.0219108,0.15537067,-1.0841767,0.50640297,-0.5408718,0.4678899,0.14785907,-1.0310295,-0.36926767
-0.1,-0.2,1.4999999999999998,0.0,0.0,0,-0.5444288,-1.4499348,2.2308056,0.017746437,0.05858479,1.1277103,-0.10209218,-1.0870396,0.51428163,-0.5387676,0.4576519,0.04583329,-1.1404542,-0.20903084
-0.1,-0.2,1.4999999999999998,0.0,0.0,0,-0.543573,-1.4445453,2.238548,0.034589093,-0.55906034,0.96125233,-0.49427593,-1.0840861,0.50971645,-0.53347045,0.46311074,-0.0054622977,-1.212566,-0.3454798
-0.1,-0.2,1.4999999999999998,0.0,0.0,0,-0.5387443,-1.4448564,2.2205753,0.002528951,0.049897864,1.0064443,0.49543083,-1.0901747,0.5141513,-0.5239073,0.45897725,0.29793602,-1.1668297,0.0071294364
-0.1,-0.2,1.4999999999999998,0.0,0.0,0,-0.54191864,-1.4474928,2.2326305,0.019166363,-0.22041841,0.92239827,-0.34267575,-1.0813895,0.51222163,-0.53216326,0.46350121,0.5153099,-1.2806485,-0.21515737
-0.1,-0.2,1.4999999999999998,0.0,0.0,0,-0.5412557,-1.4506375,2.2221467,0.023609096,-0.5672138,0.79631644,0.27420703,-1.0841873,0.5152988,-0.5383536,0.46902966,-0.14336963,-0.7506963,-0.41194344
-0.1,-0.2,1.4999999999999998,0.0,0.0,0,-0.5402033,-1.4452466,2.2324402,0.042237204,0.2320097,1.1105723,0.6458502,-1.0828905,0.50517946,-0.5500448,0.4628565,0.2356718,-0.13478856,0.65570253
-0.1,-0.2,1.4999999999999998,0.0,0.0,0,-0.54295397,-1.4479384,2.2244766,0.03296035,-0.007084277,0.63817656,0.18337762,-1.0887115,0.51245207,-0.54474694,0.46561658,0.2528626,-0.5873562,-0.1323022
-0.1,-0.2,1.4999999999999998,0.0,0.0,0,-0.5363135,-1.4494505,2.2201283,0.02131803,-0.7431603,0.9428078,0.4701539,-1.0859207,0.51653194,-0.5500149,0.455444,0.18190531,-0.37102836,-0.078719914
-0.1,-0.2,1.4999999999999998,0.0,0.0,0,-0.5380164,-1.4448462,2.233343,0.023022734,0.207027,0.77613103,-0.23313291,-1.0831943,0.5125045,-0.5463289,0.46735084,0.42001253,-0.7748541,-0.22046445
-0.1,-0.2,1.4999999999999998,0.0,0.0,0,-0.5358053,-1.4454207,2.245102,0.036500797,0.69107103,1.2329797,-0.56793344,-1.0841061,0.50690955,-0.5502871,0.4531263,0.40089434,-0.37818688,-0.09282977
-0.1,-0.2,1.4999999999999998,0.0,0.0,0,-0.53786767,-1.4435678,2.2421,0.008895369,0.18636708,0.9464006,0.57239187,-1.0859553,0.50940454,-0.55002725,0.46213442,-0.119858004,-0.8103611,-0.35934693
-0.1,-0.2,1.4999999999999998,0.0,0.0,0,-0.536183,-1.4485756,2.2421615,0.026419928,0.10399718,0.8867605,-0.508385,-1.0801727,0.5070648,-0.5553017,0.4590922,0.42855576,-0.10859669,0.27712882
-0.1,-0.2,1.4999999999999998,0.0,0.0,0,-0.53905064,-1.4474266,2.2366948,0.014941731,-0.1964702,1.0413452,1.2159011,-1.0856408,0.5142299,-0.53481853,0.451201,0.052208778,-1.4499053,1.2871671
-0.1,-0.2,1.4999999999999998,0.0,0.0,0,-0.53548515,-1.4481682,2.2312799,0.011687068,-0.088190384,0.70296484,1.1635475,-1.0839086,0.5077503,-0.5379696,0.4430179,0.23360164,-0.43772984,-0.168927
-0.1,-0.2,1.4999999999999998,0.0,0.0,0,-0.54096985,-1.4529377,2.2405624,0.0067816135,0.16898483,0.7044176,-0.6013531,-1.0874809,0.50214434,-0.54361874,0.46761784,0.32735687,-0.45701045,0.79386926
-0.1,-0.2,1.4999999999999998,0.0,0.0,0,-0.5388208,-1.4497204,2.220795,0.001982789,-0.075278305,0.80421627,0.20870659,-1.0819452,0.5066684,-0.54318523,0.46544582,0.19990821,-0.91098094,-0.22673586
-0.1,-0.2,1.4999999999999998,0.0,0.0,0,-0.5438522,-1.4476547,2.240484,0.011415195,-0.13799915,0.9876368,0.7704185,-1.0868808,0.51253045,-0.54364866,0.45677537,0.33786997,-0.6108365,0.5492869
-0.1,-0.2,1.4999999999999998,0.0,0.0,0,-0.5404064,-1.449401,2.211828,-0.0063323355,-0.13341583,1.1160492,0.35645223,-1.0871426,0.5077595,-0.54934496,0.45031822,0.25428778,-0.54276985,0.23491512
-0.1,-0.2,1.4999999999999998,0.0,0.0,0,-0.5342672,-1.4494089,2.2489963,0.023308465,0.4418471,1.0107757,0.035212312,-1.0825057,0.50630856,-0.5464963,0.46276924,0.29792342,-0.88475204,-0.42104706
-0.1,-0.2,1.4999999999999998,0.0,0.0,0,-0.543416,-1.44708,2.2293274,0.017651802,-0.09400122,0.63868827,-0.058805924,-1.0830702,0.5130844,-0.5452686,0.45767704,0.20502223,-0.84650254,0.9978691
-0.1,-0.2,1.4999999999999998,0.0,0.0,0,-0.54252106,-1.453591,2.2401164,-0.0034290252,0.2665723,1.1554573,0.1878057,-1.0867385,0.51536936,-0.5438321,0.45647073,0.36735868,-0.7786588,-0.09085664
-0.1,-0.2,1.4999999999999998,0.0,0.0,0,-0.54670465,-1.4510468,2.2271864,-0.003945804,-0.28304467,0.6743449,-0.5214099,-1.0838162,0.51583725,-0.5585225,0.45897433,0.36475635,-0.9929635,0.23787792
-0.1,-0.2,1.4999999999999998,0.0,0.0,0,-0.5381738,-1.448296,2.2340186,0.016551992,0.40775123,1.3218318,-0.3041885,-1.0821264,0.50762343,-0.5423128,0.45386994,0.53609264,-0.92921287,-0.81504893
-0.1,-0.2,1.4999999999999998,0.0,0.0,0,-0.54160345,-1.4508675,2.2261786,0.00062965945,-0.15935975,0.8386158,0.5145095,-1.0848787,0.5159905,-0.5521362,0.4533378,0.40086305,-1.184906,1.2154261
-0.1,-0.2,1.4999999999999998,0.0,0.0,0,-0.5424734,-1.4494393,2.2303321,0.013094546,-0.14677858,1.067171,0.005680996,-1.0809261,0.5173267,-0.540442,0.46386263,0.2836943,-1.0628638,0.680872
-0.1,-0.2,1.4999999999999998,0.0,0.0,0,-0.5414795,-1.4481021,2.2286782,0.00692503,0.002980575,1.2324704,1.2569757,-1.0832059,0.50911206,-0.5405401,0.4541464,-0.03697306,-1.3311273,-1.1388729
-0.1,-0.2,1.4999999999999998,0.0,0.0,0,-0.5437161,-1.4478129,2.2386606,0.011113627,0.03887876,0.7972598,0.20634447,-1.083186,0.5101691,-0.5467957,0.45455405,0.057656318,-0.09052775,-0.6907438
-0.1,-0.2,1.4999999999999998,0.0,0.0,0,-0.5402415,-1.4508592,2.2332604,0.011155588,0.25898296,0.75209624,0.16168547,-1.0825827,0.51264536,-0.5463528,0.4566756,0.3483638,-0.8109933,0.4154232
-0.1,-0.2,1.4999999999999998,0.0,0.0,0,-0.5381232,-1.4545506,2.2411516,-0.00922484,0.0786835,0.7156691,0.2099128,-1.0861464,0.51404697,-0.5493975,0.46206164,0.520249,-0.7178869,-0.013025086
-0.1,-0.2,1.4999999999999998,0.0,0.0,0,-0.5432222,-1.4569526,2.2279441,0.03919294,0.0865692,1.0927488,-0.72948784,-1.0815514,0.51533115,-0.53922194,0.46396604,-0.16008715,-1.0748299,0.2810638
-0.1,-0.2,1.4999999999999998,0.0,0.0,0,-0.54564434,-1.4447713,2.2495165,0.0033003394,0.2494803,1.2051077,0.8886772,-1.0836959,0.51433814,-0.54374635,0.44871923,-0.0403134,-0.90934753,-0.41107666
-0.1,-0.2,1.4999999999999998,0.0,0.0,0,-0.5406007,-1.454323,2.2302263,0.04667013,0.07301524,0.9871088,0.66963315,-1.0881988,0.50820446,-0.5455757,0.4668556,-0.04633298,-1.2018303,0.23047072
-0.1,-0.2,1.4999999999999998,0.0,0.0,0,-0.54161596,-1.444271,2.2271764,0.01676569,-0.21501657,0.866785,-0.029015353,-1.0847145,0.5089496,-0.53324986,0.46584988,-0.013509124,-1.3242092,-0.30333307
